; GCODE Generated by Basic CAM on 2024-07-19
G20 ;inch-mode

; Operation 0: CNC: Vector (no offset)
; Bit Diameter: 0.125

G0 Z0.5 ; move to z-safe height
G0 X3.0000 Y1.8750
G1 Z-0.1000 F50
G1 X2.9784 Y2.0945 Z-0.1000 F100
G1 X2.9144 Y2.3055 Z-0.1000
G1 X2.8104 Y2.5000 Z-0.1000
G1 X2.6705 Y2.6705 Z-0.1000
G1 X2.5000 Y2.8104 Z-0.1000
G1 X2.3055 Y2.9144 Z-0.1000
G1 X2.0945 Y2.9784 Z-0.1000
G1 X1.8750 Y3.0000 Z-0.1000
G1 X1.6555 Y2.9784 Z-0.1000
G1 X1.4445 Y2.9144 Z-0.1000
G1 X1.2500 Y2.8104 Z-0.1000
G1 X1.0795 Y2.6705 Z-0.1000
G1 X0.9396 Y2.5000 Z-0.1000
G1 X0.8356 Y2.3055 Z-0.1000
G1 X0.7716 Y2.0945 Z-0.1000
G1 X0.7500 Y1.8750 Z-0.1000
G1 X0.7716 Y1.6555 Z-0.1000
G1 X0.8356 Y1.4445 Z-0.1000
G1 X0.9396 Y1.2500 Z-0.1000
G1 X1.0795 Y1.0795 Z-0.1000
G1 X1.2500 Y0.9396 Z-0.1000
G1 X1.4445 Y0.8356 Z-0.1000
G1 X1.6555 Y0.7716 Z-0.1000
G1 X1.8750 Y0.7500 Z-0.1000
G1 X2.0945 Y0.7716 Z-0.1000
G1 X2.3055 Y0.8356 Z-0.1000
G1 X2.5000 Y0.9396 Z-0.1000
G1 X2.6705 Y1.0795 Z-0.1000
G1 X2.8104 Y1.2500 Z-0.1000
G1 X2.9144 Y1.4445 Z-0.1000
G1 X2.9784 Y1.6555 Z-0.1000
G1 X3.0000 Y1.8750 Z-0.1000
G1 X3.0000 Y1.8750 Z-0.1000
G1 Z-0.2000 F50
G1 X2.9784 Y2.0945 Z-0.2000 F100
G1 X2.9144 Y2.3055 Z-0.2000
G1 X2.8104 Y2.5000 Z-0.2000
G1 X2.6705 Y2.6705 Z-0.2000
G1 X2.5000 Y2.8104 Z-0.2000
G1 X2.3055 Y2.9144 Z-0.2000
G1 X2.0945 Y2.9784 Z-0.2000
G1 X1.8750 Y3.0000 Z-0.2000
G1 X1.6555 Y2.9784 Z-0.2000
G1 X1.4445 Y2.9144 Z-0.2000
G1 X1.2500 Y2.8104 Z-0.2000
G1 X1.0795 Y2.6705 Z-0.2000
G1 X0.9396 Y2.5000 Z-0.2000
G1 X0.8356 Y2.3055 Z-0.2000
G1 X0.7716 Y2.0945 Z-0.2000
G1 X0.7500 Y1.8750 Z-0.2000
G1 X0.7716 Y1.6555 Z-0.2000
G1 X0.8356 Y1.4445 Z-0.2000
G1 X0.9396 Y1.2500 Z-0.2000
G1 X1.0795 Y1.0795 Z-0.2000
G1 X1.2500 Y0.9396 Z-0.2000
G1 X1.4445 Y0.8356 Z-0.2000
G1 X1.6555 Y0.7716 Z-0.2000
G1 X1.8750 Y0.7500 Z-0.2000
G1 X2.0945 Y0.7716 Z-0.2000
G1 X2.3055 Y0.8356 Z-0.2000
G1 X2.5000 Y0.9396 Z-0.2000
G1 X2.6705 Y1.0795 Z-0.2000
G1 X2.8104 Y1.2500 Z-0.2000
G1 X2.9144 Y1.4445 Z-0.2000
G1 X2.9784 Y1.6555 Z-0.2000
G1 X3.0000 Y1.8750 Z-0.2000
G1 X3.0000 Y1.8750 Z-0.2000
G1 Z-0.3000 F50
G1 X2.9784 Y2.0945 Z-0.3000 F100
G1 X2.9144 Y2.3055 Z-0.3000
G1 X2.8104 Y2.5000 Z-0.3000
G1 X2.6705 Y2.6705 Z-0.3000
G1 X2.5000 Y2.8104 Z-0.3000
G1 X2.3055 Y2.9144 Z-0.3000
G1 X2.0945 Y2.9784 Z-0.3000
G1 X1.8750 Y3.0000 Z-0.3000
G1 X1.6555 Y2.9784 Z-0.3000
G1 X1.4445 Y2.9144 Z-0.3000
G1 X1.2500 Y2.8104 Z-0.3000
G1 X1.0795 Y2.6705 Z-0.3000
G1 X0.9396 Y2.5000 Z-0.3000
G1 X0.8356 Y2.3055 Z-0.3000
G1 X0.7716 Y2.0945 Z-0.3000
G1 X0.7500 Y1.8750 Z-0.3000
G1 X0.7716 Y1.6555 Z-0.3000
G1 X0.8356 Y1.4445 Z-0.3000
G1 X0.9396 Y1.2500 Z-0.3000
G1 X1.0795 Y1.0795 Z-0.3000
G1 X1.2500 Y0.9396 Z-0.3000
G1 X1.4445 Y0.8356 Z-0.3000
G1 X1.6555 Y0.7716 Z-0.3000
G1 X1.8750 Y0.7500 Z-0.3000
G1 X2.0945 Y0.7716 Z-0.3000
G1 X2.3055 Y0.8356 Z-0.3000
G1 X2.5000 Y0.9396 Z-0.3000
G1 X2.6705 Y1.0795 Z-0.3000
G1 X2.8104 Y1.2500 Z-0.3000
G1 X2.9144 Y1.4445 Z-0.3000
G1 X2.9784 Y1.6555 Z-0.3000
G1 X3.0000 Y1.8750 Z-0.3000
G1 X3.0000 Y1.8750 Z-0.3000
G1 Z-0.4000 F50
G1 X2.9784 Y2.0945 Z-0.4000 F100
G1 X2.9144 Y2.3055 Z-0.4000
G1 X2.8104 Y2.5000 Z-0.4000
G1 X2.6705 Y2.6705 Z-0.4000
G1 X2.5000 Y2.8104 Z-0.4000
G1 X2.3055 Y2.9144 Z-0.4000
G1 X2.0945 Y2.9784 Z-0.4000
G1 X1.8750 Y3.0000 Z-0.4000
G1 X1.6555 Y2.9784 Z-0.4000
G1 X1.4445 Y2.9144 Z-0.4000
G1 X1.2500 Y2.8104 Z-0.4000
G1 X1.0795 Y2.6705 Z-0.4000
G1 X0.9396 Y2.5000 Z-0.4000
G1 X0.8356 Y2.3055 Z-0.4000
G1 X0.7716 Y2.0945 Z-0.4000
G1 X0.7500 Y1.8750 Z-0.4000
G1 X0.7716 Y1.6555 Z-0.4000
G1 X0.8356 Y1.4445 Z-0.4000
G1 X0.9396 Y1.2500 Z-0.4000
G1 X1.0795 Y1.0795 Z-0.4000
G1 X1.2500 Y0.9396 Z-0.4000
G1 X1.4445 Y0.8356 Z-0.4000
G1 X1.6555 Y0.7716 Z-0.4000
G1 X1.8750 Y0.7500 Z-0.4000
G1 X2.0945 Y0.7716 Z-0.4000
G1 X2.3055 Y0.8356 Z-0.4000
G1 X2.5000 Y0.9396 Z-0.4000
G1 X2.6705 Y1.0795 Z-0.4000
G1 X2.8104 Y1.2500 Z-0.4000
G1 X2.9144 Y1.4445 Z-0.4000
G1 X2.9784 Y1.6555 Z-0.4000
G1 X3.0000 Y1.8750 Z-0.4000
G1 X3.0000 Y1.8750 Z-0.4000
G1 Z-0.5000 F50
G1 X2.9784 Y2.0945 Z-0.5000 F100
G1 X2.9144 Y2.3055 Z-0.5000
G1 X2.8104 Y2.5000 Z-0.5000
G1 X2.6705 Y2.6705 Z-0.5000
G1 X2.5000 Y2.8104 Z-0.5000
G1 X2.3055 Y2.9144 Z-0.5000
G1 X2.0945 Y2.9784 Z-0.5000
G1 X1.8750 Y3.0000 Z-0.5000
G1 X1.6555 Y2.9784 Z-0.5000
G1 X1.4445 Y2.9144 Z-0.5000
G1 X1.2500 Y2.8104 Z-0.5000
G1 X1.0795 Y2.6705 Z-0.5000
G1 X0.9396 Y2.5000 Z-0.5000
G1 X0.8356 Y2.3055 Z-0.5000
G1 X0.7716 Y2.0945 Z-0.5000
G1 X0.7500 Y1.8750 Z-0.5000
G1 X0.7716 Y1.6555 Z-0.5000
G1 X0.8356 Y1.4445 Z-0.5000
G1 X0.9396 Y1.2500 Z-0.5000
G1 X1.0795 Y1.0795 Z-0.5000
G1 X1.2500 Y0.9396 Z-0.5000
G1 X1.4445 Y0.8356 Z-0.5000
G1 X1.6555 Y0.7716 Z-0.5000
G1 X1.8750 Y0.7500 Z-0.5000
G1 X2.0945 Y0.7716 Z-0.5000
G1 X2.3055 Y0.8356 Z-0.5000
G1 X2.5000 Y0.9396 Z-0.5000
G1 X2.6705 Y1.0795 Z-0.5000
G1 X2.8104 Y1.2500 Z-0.5000
G1 X2.9144 Y1.4445 Z-0.5000
G1 X2.9784 Y1.6555 Z-0.5000
G1 X3.0000 Y1.8750 Z-0.5000
G1 X3.0000 Y1.8750 Z-0.5000
G1 Z-0.6000 F50
G1 X2.9784 Y2.0945 Z-0.6000 F100
G1 X2.9144 Y2.3055 Z-0.6000
G1 X2.8104 Y2.5000 Z-0.6000
G1 X2.6705 Y2.6705 Z-0.6000
G1 X2.5000 Y2.8104 Z-0.6000
G1 X2.3055 Y2.9144 Z-0.6000
G1 X2.0945 Y2.9784 Z-0.6000
G1 X1.8750 Y3.0000 Z-0.6000
G1 X1.6555 Y2.9784 Z-0.6000
G1 X1.4445 Y2.9144 Z-0.6000
G1 X1.2500 Y2.8104 Z-0.6000
G1 X1.0795 Y2.6705 Z-0.6000
G1 X0.9396 Y2.5000 Z-0.6000
G1 X0.8356 Y2.3055 Z-0.6000
G1 X0.7716 Y2.0945 Z-0.6000
G1 X0.7500 Y1.8750 Z-0.6000
G1 X0.7716 Y1.6555 Z-0.6000
G1 X0.8356 Y1.4445 Z-0.6000
G1 X0.9396 Y1.2500 Z-0.6000
G1 X1.0795 Y1.0795 Z-0.6000
G1 X1.2500 Y0.9396 Z-0.6000
G1 X1.4445 Y0.8356 Z-0.6000
G1 X1.6555 Y0.7716 Z-0.6000
G1 X1.8750 Y0.7500 Z-0.6000
G1 X2.0945 Y0.7716 Z-0.6000
G1 X2.3055 Y0.8356 Z-0.6000
G1 X2.5000 Y0.9396 Z-0.6000
G1 X2.6705 Y1.0795 Z-0.6000
G1 X2.8104 Y1.2500 Z-0.6000
G1 X2.9144 Y1.4445 Z-0.6000
G1 X2.9784 Y1.6555 Z-0.6000
G1 X3.0000 Y1.8750 Z-0.6000
G1 X3.0000 Y1.8750 Z-0.6000
G1 Z-0.7000 F50
G1 X2.9784 Y2.0945 Z-0.7000 F100
G1 X2.9144 Y2.3055 Z-0.7000
G1 X2.8104 Y2.5000 Z-0.7000
G1 X2.6705 Y2.6705 Z-0.7000
G1 X2.5000 Y2.8104 Z-0.7000
G1 X2.3055 Y2.9144 Z-0.7000
G1 X2.0945 Y2.9784 Z-0.7000
G1 X1.8750 Y3.0000 Z-0.7000
G1 X1.6555 Y2.9784 Z-0.7000
G1 X1.4445 Y2.9144 Z-0.7000
G1 X1.2500 Y2.8104 Z-0.7000
G1 X1.0795 Y2.6705 Z-0.7000
G1 X0.9396 Y2.5000 Z-0.7000
G1 X0.8356 Y2.3055 Z-0.7000
G1 X0.7716 Y2.0945 Z-0.7000
G1 X0.7500 Y1.8750 Z-0.7000
G1 X0.7716 Y1.6555 Z-0.7000
G1 X0.8356 Y1.4445 Z-0.7000
G1 X0.9396 Y1.2500 Z-0.7000
G1 X1.0795 Y1.0795 Z-0.7000
G1 X1.2500 Y0.9396 Z-0.7000
G1 X1.4445 Y0.8356 Z-0.7000
G1 X1.6555 Y0.7716 Z-0.7000
G1 X1.8750 Y0.7500 Z-0.7000
G1 X2.0945 Y0.7716 Z-0.7000
G1 X2.3055 Y0.8356 Z-0.7000
G1 X2.5000 Y0.9396 Z-0.7000
G1 X2.6705 Y1.0795 Z-0.7000
G1 X2.8104 Y1.2500 Z-0.7000
G1 X2.9144 Y1.4445 Z-0.7000
G1 X2.9784 Y1.6555 Z-0.7000
G1 X3.0000 Y1.8750 Z-0.7000
G1 X3.0000 Y1.8750 Z-0.7000
G1 Z-0.8000 F50
G1 X2.9784 Y2.0945 Z-0.8000 F100
G1 X2.9144 Y2.3055 Z-0.8000
G1 X2.8104 Y2.5000 Z-0.8000
G1 X2.6705 Y2.6705 Z-0.8000
G1 X2.5000 Y2.8104 Z-0.8000
G1 X2.3055 Y2.9144 Z-0.8000
G1 X2.0945 Y2.9784 Z-0.8000
G1 X1.8750 Y3.0000 Z-0.8000
G1 X1.6555 Y2.9784 Z-0.8000
G1 X1.4445 Y2.9144 Z-0.8000
G1 X1.2500 Y2.8104 Z-0.8000
G1 X1.0795 Y2.6705 Z-0.8000
G1 X0.9396 Y2.5000 Z-0.8000
G1 X0.8356 Y2.3055 Z-0.8000
G1 X0.7716 Y2.0945 Z-0.8000
G1 X0.7500 Y1.8750 Z-0.8000
G1 X0.7716 Y1.6555 Z-0.8000
G1 X0.8356 Y1.4445 Z-0.8000
G1 X0.9396 Y1.2500 Z-0.8000
G1 X1.0795 Y1.0795 Z-0.8000
G1 X1.2500 Y0.9396 Z-0.8000
G1 X1.4445 Y0.8356 Z-0.8000
G1 X1.6555 Y0.7716 Z-0.8000
G1 X1.8750 Y0.7500 Z-0.8000
G1 X2.0945 Y0.7716 Z-0.8000
G1 X2.3055 Y0.8356 Z-0.8000
G1 X2.5000 Y0.9396 Z-0.8000
G1 X2.6705 Y1.0795 Z-0.8000
G1 X2.8104 Y1.2500 Z-0.8000
G1 X2.9144 Y1.4445 Z-0.8000
G1 X2.9784 Y1.6555 Z-0.8000
G1 X3.0000 Y1.8750 Z-0.8000
G1 X3.0000 Y1.8750 Z-0.8000
G1 Z-0.9000 F50
G1 X2.9784 Y2.0945 Z-0.9000 F100
G1 X2.9144 Y2.3055 Z-0.9000
G1 X2.8104 Y2.5000 Z-0.9000
G1 X2.6705 Y2.6705 Z-0.9000
G1 X2.5000 Y2.8104 Z-0.9000
G1 X2.3055 Y2.9144 Z-0.9000
G1 X2.0945 Y2.9784 Z-0.9000
G1 X1.8750 Y3.0000 Z-0.9000
G1 X1.6555 Y2.9784 Z-0.9000
G1 X1.4445 Y2.9144 Z-0.9000
G1 X1.2500 Y2.8104 Z-0.9000
G1 X1.0795 Y2.6705 Z-0.9000
G1 X0.9396 Y2.5000 Z-0.9000
G1 X0.8356 Y2.3055 Z-0.9000
G1 X0.7716 Y2.0945 Z-0.9000
G1 X0.7500 Y1.8750 Z-0.9000
G1 X0.7716 Y1.6555 Z-0.9000
G1 X0.8356 Y1.4445 Z-0.9000
G1 X0.9396 Y1.2500 Z-0.9000
G1 X1.0795 Y1.0795 Z-0.9000
G1 X1.2500 Y0.9396 Z-0.9000
G1 X1.4445 Y0.8356 Z-0.9000
G1 X1.6555 Y0.7716 Z-0.9000
G1 X1.8750 Y0.7500 Z-0.9000
G1 X2.0945 Y0.7716 Z-0.9000
G1 X2.3055 Y0.8356 Z-0.9000
G1 X2.5000 Y0.9396 Z-0.9000
G1 X2.6705 Y1.0795 Z-0.9000
G1 X2.8104 Y1.2500 Z-0.9000
G1 X2.9144 Y1.4445 Z-0.9000
G1 X2.9784 Y1.6555 Z-0.9000
G1 X3.0000 Y1.8750 Z-0.9000
G1 X3.0000 Y1.8750 Z-0.9000
G1 Z-1.0000 F50
G1 X2.9784 Y2.0945 Z-1.0000 F100
G1 X2.9144 Y2.3055 Z-1.0000
G1 X2.8104 Y2.5000 Z-1.0000
G1 X2.6705 Y2.6705 Z-1.0000
G1 X2.5000 Y2.8104 Z-1.0000
G1 X2.3055 Y2.9144 Z-1.0000
G1 X2.0945 Y2.9784 Z-1.0000
G1 X1.8750 Y3.0000 Z-1.0000
G1 X1.6555 Y2.9784 Z-1.0000
G1 X1.4445 Y2.9144 Z-1.0000
G1 X1.2500 Y2.8104 Z-1.0000
G1 X1.0795 Y2.6705 Z-1.0000
G1 X0.9396 Y2.5000 Z-1.0000
G1 X0.8356 Y2.3055 Z-1.0000
G1 X0.7716 Y2.0945 Z-1.0000
G1 X0.7500 Y1.8750 Z-1.0000
G1 X0.7716 Y1.6555 Z-1.0000
G1 X0.8356 Y1.4445 Z-1.0000
G1 X0.9396 Y1.2500 Z-1.0000
G1 X1.0795 Y1.0795 Z-1.0000
G1 X1.2500 Y0.9396 Z-1.0000
G1 X1.4445 Y0.8356 Z-1.0000
G1 X1.6555 Y0.7716 Z-1.0000
G1 X1.8750 Y0.7500 Z-1.0000
G1 X2.0945 Y0.7716 Z-1.0000
G1 X2.3055 Y0.8356 Z-1.0000
G1 X2.5000 Y0.9396 Z-1.0000
G1 X2.6705 Y1.0795 Z-1.0000
G1 X2.8104 Y1.2500 Z-1.0000
G1 X2.9144 Y1.4445 Z-1.0000
G1 X2.9784 Y1.6555 Z-1.0000
G1 X3.0000 Y1.8750 Z-1.0000
G1 X3.0000 Y1.8750 Z-1.0000
G1 Z-1.1000 F50
G1 X2.9784 Y2.0945 Z-1.1000 F100
G1 X2.9144 Y2.3055 Z-1.1000
G1 X2.8104 Y2.5000 Z-1.1000
G1 X2.6705 Y2.6705 Z-1.1000
G1 X2.5000 Y2.8104 Z-1.1000
G1 X2.3055 Y2.9144 Z-1.1000
G1 X2.0945 Y2.9784 Z-1.1000
G1 X1.8750 Y3.0000 Z-1.1000
G1 X1.6555 Y2.9784 Z-1.1000
G1 X1.4445 Y2.9144 Z-1.1000
G1 X1.2500 Y2.8104 Z-1.1000
G1 X1.0795 Y2.6705 Z-1.1000
G1 X0.9396 Y2.5000 Z-1.1000
G1 X0.8356 Y2.3055 Z-1.1000
G1 X0.7716 Y2.0945 Z-1.1000
G1 X0.7500 Y1.8750 Z-1.1000
G1 X0.7716 Y1.6555 Z-1.1000
G1 X0.8356 Y1.4445 Z-1.1000
G1 X0.9396 Y1.2500 Z-1.1000
G1 X1.0795 Y1.0795 Z-1.1000
G1 X1.2500 Y0.9396 Z-1.1000
G1 X1.4445 Y0.8356 Z-1.1000
G1 X1.6555 Y0.7716 Z-1.1000
G1 X1.8750 Y0.7500 Z-1.1000
G1 X2.0945 Y0.7716 Z-1.1000
G1 X2.3055 Y0.8356 Z-1.1000
G1 X2.5000 Y0.9396 Z-1.1000
G1 X2.6705 Y1.0795 Z-1.1000
G1 X2.8104 Y1.2500 Z-1.1000
G1 X2.9144 Y1.4445 Z-1.1000
G1 X2.9784 Y1.6555 Z-1.1000
G1 X3.0000 Y1.8750 Z-1.1000
G1 X3.0000 Y1.8750 Z-1.1000
G1 Z-1.2000 F50
G1 X2.9784 Y2.0945 Z-1.2000 F100
G1 X2.9144 Y2.3055 Z-1.2000
G1 X2.8104 Y2.5000 Z-1.2000
G1 X2.6705 Y2.6705 Z-1.2000
G1 X2.5000 Y2.8104 Z-1.2000
G1 X2.3055 Y2.9144 Z-1.2000
G1 X2.0945 Y2.9784 Z-1.2000
G1 X1.8750 Y3.0000 Z-1.2000
G1 X1.6555 Y2.9784 Z-1.2000
G1 X1.4445 Y2.9144 Z-1.2000
G1 X1.2500 Y2.8104 Z-1.2000
G1 X1.0795 Y2.6705 Z-1.2000
G1 X0.9396 Y2.5000 Z-1.2000
G1 X0.8356 Y2.3055 Z-1.2000
G1 X0.7716 Y2.0945 Z-1.2000
G1 X0.7500 Y1.8750 Z-1.2000
G1 X0.7716 Y1.6555 Z-1.2000
G1 X0.8356 Y1.4445 Z-1.2000
G1 X0.9396 Y1.2500 Z-1.2000
G1 X1.0795 Y1.0795 Z-1.2000
G1 X1.2500 Y0.9396 Z-1.2000
G1 X1.4445 Y0.8356 Z-1.2000
G1 X1.6555 Y0.7716 Z-1.2000
G1 X1.8750 Y0.7500 Z-1.2000
G1 X2.0945 Y0.7716 Z-1.2000
G1 X2.3055 Y0.8356 Z-1.2000
G1 X2.5000 Y0.9396 Z-1.2000
G1 X2.6705 Y1.0795 Z-1.2000
G1 X2.8104 Y1.2500 Z-1.2000
G1 X2.9144 Y1.4445 Z-1.2000
G1 X2.9784 Y1.6555 Z-1.2000
G1 X3.0000 Y1.8750 Z-1.2000
G1 X3.0000 Y1.8750 Z-1.2000
G1 Z-1.3000 F50
G1 X2.9784 Y2.0945 Z-1.3000 F100
G1 X2.9144 Y2.3055 Z-1.3000
G1 X2.8104 Y2.5000 Z-1.3000
G1 X2.6705 Y2.6705 Z-1.3000
G1 X2.5000 Y2.8104 Z-1.3000
G1 X2.3055 Y2.9144 Z-1.3000
G1 X2.0945 Y2.9784 Z-1.3000
G1 X1.8750 Y3.0000 Z-1.3000
G1 X1.6555 Y2.9784 Z-1.3000
G1 X1.4445 Y2.9144 Z-1.3000
G1 X1.2500 Y2.8104 Z-1.3000
G1 X1.0795 Y2.6705 Z-1.3000
G1 X0.9396 Y2.5000 Z-1.3000
G1 X0.8356 Y2.3055 Z-1.3000
G1 X0.7716 Y2.0945 Z-1.3000
G1 X0.7500 Y1.8750 Z-1.3000
G1 X0.7716 Y1.6555 Z-1.3000
G1 X0.8356 Y1.4445 Z-1.3000
G1 X0.9396 Y1.2500 Z-1.3000
G1 X1.0795 Y1.0795 Z-1.3000
G1 X1.2500 Y0.9396 Z-1.3000
G1 X1.4445 Y0.8356 Z-1.3000
G1 X1.6555 Y0.7716 Z-1.3000
G1 X1.8750 Y0.7500 Z-1.3000
G1 X2.0945 Y0.7716 Z-1.3000
G1 X2.3055 Y0.8356 Z-1.3000
G1 X2.5000 Y0.9396 Z-1.3000
G1 X2.6705 Y1.0795 Z-1.3000
G1 X2.8104 Y1.2500 Z-1.3000
G1 X2.9144 Y1.4445 Z-1.3000
G1 X2.9784 Y1.6555 Z-1.3000
G1 X3.0000 Y1.8750 Z-1.3000
G1 X3.0000 Y1.8750 Z-1.3000
G1 Z-1.4000 F50
G1 X2.9784 Y2.0945 Z-1.4000 F100
G1 X2.9144 Y2.3055 Z-1.4000
G1 X2.8104 Y2.5000 Z-1.4000
G1 X2.6705 Y2.6705 Z-1.4000
G1 X2.5000 Y2.8104 Z-1.4000
G1 X2.3055 Y2.9144 Z-1.4000
G1 X2.0945 Y2.9784 Z-1.4000
G1 X1.8750 Y3.0000 Z-1.4000
G1 X1.6555 Y2.9784 Z-1.4000
G1 X1.4445 Y2.9144 Z-1.4000
G1 X1.2500 Y2.8104 Z-1.4000
G1 X1.0795 Y2.6705 Z-1.4000
G1 X0.9396 Y2.5000 Z-1.4000
G1 X0.8356 Y2.3055 Z-1.4000
G1 X0.7716 Y2.0945 Z-1.4000
G1 X0.7500 Y1.8750 Z-1.4000
G1 X0.7716 Y1.6555 Z-1.4000
G1 X0.8356 Y1.4445 Z-1.4000
G1 X0.9396 Y1.2500 Z-1.4000
G1 X1.0795 Y1.0795 Z-1.4000
G1 X1.2500 Y0.9396 Z-1.4000
G1 X1.4445 Y0.8356 Z-1.4000
G1 X1.6555 Y0.7716 Z-1.4000
G1 X1.8750 Y0.7500 Z-1.4000
G1 X2.0945 Y0.7716 Z-1.4000
G1 X2.3055 Y0.8356 Z-1.4000
G1 X2.5000 Y0.9396 Z-1.4000
G1 X2.6705 Y1.0795 Z-1.4000
G1 X2.8104 Y1.2500 Z-1.4000
G1 X2.9144 Y1.4445 Z-1.4000
G1 X2.9784 Y1.6555 Z-1.4000
G1 X3.0000 Y1.8750 Z-1.4000
G1 X3.0000 Y1.8750 Z-1.4000
G1 Z-1.5000 F50
G1 X2.9784 Y2.0945 Z-1.5000 F100
G1 X2.9144 Y2.3055 Z-1.5000
G1 X2.8104 Y2.5000 Z-1.5000
G1 X2.6705 Y2.6705 Z-1.5000
G1 X2.5000 Y2.8104 Z-1.5000
G1 X2.3055 Y2.9144 Z-1.5000
G1 X2.0945 Y2.9784 Z-1.5000
G1 X1.8750 Y3.0000 Z-1.5000
G1 X1.6555 Y2.9784 Z-1.5000
G1 X1.4445 Y2.9144 Z-1.5000
G1 X1.2500 Y2.8104 Z-1.5000
G1 X1.0795 Y2.6705 Z-1.5000
G1 X0.9396 Y2.5000 Z-1.5000
G1 X0.8356 Y2.3055 Z-1.5000
G1 X0.7716 Y2.0945 Z-1.5000
G1 X0.7500 Y1.8750 Z-1.5000
G1 X0.7716 Y1.6555 Z-1.5000
G1 X0.8356 Y1.4445 Z-1.5000
G1 X0.9396 Y1.2500 Z-1.5000
G1 X1.0795 Y1.0795 Z-1.5000
G1 X1.2500 Y0.9396 Z-1.5000
G1 X1.4445 Y0.8356 Z-1.5000
G1 X1.6555 Y0.7716 Z-1.5000
G1 X1.8750 Y0.7500 Z-1.5000
G1 X2.0945 Y0.7716 Z-1.5000
G1 X2.3055 Y0.8356 Z-1.5000
G1 X2.5000 Y0.9396 Z-1.5000
G1 X2.6705 Y1.0795 Z-1.5000
G1 X2.8104 Y1.2500 Z-1.5000
G1 X2.9144 Y1.4445 Z-1.5000
G1 X2.9784 Y1.6555 Z-1.5000
G1 X3.0000 Y1.8750 Z-1.5000
G1 X3.0000 Y1.8750 Z-1.5000
G1 Z-1.6000 F50
G1 X2.9784 Y2.0945 Z-1.6000 F100
G1 X2.9144 Y2.3055 Z-1.6000
G1 X2.8104 Y2.5000 Z-1.6000
G1 X2.6705 Y2.6705 Z-1.6000
G1 X2.5000 Y2.8104 Z-1.6000
G1 X2.3055 Y2.9144 Z-1.6000
G1 X2.0945 Y2.9784 Z-1.6000
G1 X1.8750 Y3.0000 Z-1.6000
G1 X1.6555 Y2.9784 Z-1.6000
G1 X1.4445 Y2.9144 Z-1.6000
G1 X1.2500 Y2.8104 Z-1.6000
G1 X1.0795 Y2.6705 Z-1.6000
G1 X0.9396 Y2.5000 Z-1.6000
G1 X0.8356 Y2.3055 Z-1.6000
G1 X0.7716 Y2.0945 Z-1.6000
G1 X0.7500 Y1.8750 Z-1.6000
G1 X0.7716 Y1.6555 Z-1.6000
G1 X0.8356 Y1.4445 Z-1.6000
G1 X0.9396 Y1.2500 Z-1.6000
G1 X1.0795 Y1.0795 Z-1.6000
G1 X1.2500 Y0.9396 Z-1.6000
G1 X1.4445 Y0.8356 Z-1.6000
G1 X1.6555 Y0.7716 Z-1.6000
G1 X1.8750 Y0.7500 Z-1.6000
G1 X2.0945 Y0.7716 Z-1.6000
G1 X2.3055 Y0.8356 Z-1.6000
G1 X2.5000 Y0.9396 Z-1.6000
G1 X2.6705 Y1.0795 Z-1.6000
G1 X2.8104 Y1.2500 Z-1.6000
G1 X2.9144 Y1.4445 Z-1.6000
G1 X2.9784 Y1.6555 Z-1.6000
G1 X3.0000 Y1.8750 Z-1.6000
G1 X3.0000 Y1.8750 Z-1.6000

G0 Z0.5 ; move to z-safe height
G0 X5.7500 Y1.8750
G1 Z-0.1000 F50
G1 X5.7284 Y2.0945 Z-0.1000 F100
G1 X5.6644 Y2.3055 Z-0.1000
G1 X5.5604 Y2.5000 Z-0.1000
G1 X5.4205 Y2.6705 Z-0.1000
G1 X5.2500 Y2.8104 Z-0.1000
G1 X5.0555 Y2.9144 Z-0.1000
G1 X4.8445 Y2.9784 Z-0.1000
G1 X4.6250 Y3.0000 Z-0.1000
G1 X4.4055 Y2.9784 Z-0.1000
G1 X4.1945 Y2.9144 Z-0.1000
G1 X4.0000 Y2.8104 Z-0.1000
G1 X3.8295 Y2.6705 Z-0.1000
G1 X3.6896 Y2.5000 Z-0.1000
G1 X3.5856 Y2.3055 Z-0.1000
G1 X3.5216 Y2.0945 Z-0.1000
G1 X3.5000 Y1.8750 Z-0.1000
G1 X3.5216 Y1.6555 Z-0.1000
G1 X3.5856 Y1.4445 Z-0.1000
G1 X3.6896 Y1.2500 Z-0.1000
G1 X3.8295 Y1.0795 Z-0.1000
G1 X4.0000 Y0.9396 Z-0.1000
G1 X4.1945 Y0.8356 Z-0.1000
G1 X4.4055 Y0.7716 Z-0.1000
G1 X4.6250 Y0.7500 Z-0.1000
G1 X4.8445 Y0.7716 Z-0.1000
G1 X5.0555 Y0.8356 Z-0.1000
G1 X5.2500 Y0.9396 Z-0.1000
G1 X5.4205 Y1.0795 Z-0.1000
G1 X5.5604 Y1.2500 Z-0.1000
G1 X5.6644 Y1.4445 Z-0.1000
G1 X5.7284 Y1.6555 Z-0.1000
G1 X5.7500 Y1.8750 Z-0.1000
G1 X5.7500 Y1.8750 Z-0.1000
G1 Z-0.2000 F50
G1 X5.7284 Y2.0945 Z-0.2000 F100
G1 X5.6644 Y2.3055 Z-0.2000
G1 X5.5604 Y2.5000 Z-0.2000
G1 X5.4205 Y2.6705 Z-0.2000
G1 X5.2500 Y2.8104 Z-0.2000
G1 X5.0555 Y2.9144 Z-0.2000
G1 X4.8445 Y2.9784 Z-0.2000
G1 X4.6250 Y3.0000 Z-0.2000
G1 X4.4055 Y2.9784 Z-0.2000
G1 X4.1945 Y2.9144 Z-0.2000
G1 X4.0000 Y2.8104 Z-0.2000
G1 X3.8295 Y2.6705 Z-0.2000
G1 X3.6896 Y2.5000 Z-0.2000
G1 X3.5856 Y2.3055 Z-0.2000
G1 X3.5216 Y2.0945 Z-0.2000
G1 X3.5000 Y1.8750 Z-0.2000
G1 X3.5216 Y1.6555 Z-0.2000
G1 X3.5856 Y1.4445 Z-0.2000
G1 X3.6896 Y1.2500 Z-0.2000
G1 X3.8295 Y1.0795 Z-0.2000
G1 X4.0000 Y0.9396 Z-0.2000
G1 X4.1945 Y0.8356 Z-0.2000
G1 X4.4055 Y0.7716 Z-0.2000
G1 X4.6250 Y0.7500 Z-0.2000
G1 X4.8445 Y0.7716 Z-0.2000
G1 X5.0555 Y0.8356 Z-0.2000
G1 X5.2500 Y0.9396 Z-0.2000
G1 X5.4205 Y1.0795 Z-0.2000
G1 X5.5604 Y1.2500 Z-0.2000
G1 X5.6644 Y1.4445 Z-0.2000
G1 X5.7284 Y1.6555 Z-0.2000
G1 X5.7500 Y1.8750 Z-0.2000
G1 X5.7500 Y1.8750 Z-0.2000
G1 Z-0.3000 F50
G1 X5.7284 Y2.0945 Z-0.3000 F100
G1 X5.6644 Y2.3055 Z-0.3000
G1 X5.5604 Y2.5000 Z-0.3000
G1 X5.4205 Y2.6705 Z-0.3000
G1 X5.2500 Y2.8104 Z-0.3000
G1 X5.0555 Y2.9144 Z-0.3000
G1 X4.8445 Y2.9784 Z-0.3000
G1 X4.6250 Y3.0000 Z-0.3000
G1 X4.4055 Y2.9784 Z-0.3000
G1 X4.1945 Y2.9144 Z-0.3000
G1 X4.0000 Y2.8104 Z-0.3000
G1 X3.8295 Y2.6705 Z-0.3000
G1 X3.6896 Y2.5000 Z-0.3000
G1 X3.5856 Y2.3055 Z-0.3000
G1 X3.5216 Y2.0945 Z-0.3000
G1 X3.5000 Y1.8750 Z-0.3000
G1 X3.5216 Y1.6555 Z-0.3000
G1 X3.5856 Y1.4445 Z-0.3000
G1 X3.6896 Y1.2500 Z-0.3000
G1 X3.8295 Y1.0795 Z-0.3000
G1 X4.0000 Y0.9396 Z-0.3000
G1 X4.1945 Y0.8356 Z-0.3000
G1 X4.4055 Y0.7716 Z-0.3000
G1 X4.6250 Y0.7500 Z-0.3000
G1 X4.8445 Y0.7716 Z-0.3000
G1 X5.0555 Y0.8356 Z-0.3000
G1 X5.2500 Y0.9396 Z-0.3000
G1 X5.4205 Y1.0795 Z-0.3000
G1 X5.5604 Y1.2500 Z-0.3000
G1 X5.6644 Y1.4445 Z-0.3000
G1 X5.7284 Y1.6555 Z-0.3000
G1 X5.7500 Y1.8750 Z-0.3000
G1 X5.7500 Y1.8750 Z-0.3000
G1 Z-0.4000 F50
G1 X5.7284 Y2.0945 Z-0.4000 F100
G1 X5.6644 Y2.3055 Z-0.4000
G1 X5.5604 Y2.5000 Z-0.4000
G1 X5.4205 Y2.6705 Z-0.4000
G1 X5.2500 Y2.8104 Z-0.4000
G1 X5.0555 Y2.9144 Z-0.4000
G1 X4.8445 Y2.9784 Z-0.4000
G1 X4.6250 Y3.0000 Z-0.4000
G1 X4.4055 Y2.9784 Z-0.4000
G1 X4.1945 Y2.9144 Z-0.4000
G1 X4.0000 Y2.8104 Z-0.4000
G1 X3.8295 Y2.6705 Z-0.4000
G1 X3.6896 Y2.5000 Z-0.4000
G1 X3.5856 Y2.3055 Z-0.4000
G1 X3.5216 Y2.0945 Z-0.4000
G1 X3.5000 Y1.8750 Z-0.4000
G1 X3.5216 Y1.6555 Z-0.4000
G1 X3.5856 Y1.4445 Z-0.4000
G1 X3.6896 Y1.2500 Z-0.4000
G1 X3.8295 Y1.0795 Z-0.4000
G1 X4.0000 Y0.9396 Z-0.4000
G1 X4.1945 Y0.8356 Z-0.4000
G1 X4.4055 Y0.7716 Z-0.4000
G1 X4.6250 Y0.7500 Z-0.4000
G1 X4.8445 Y0.7716 Z-0.4000
G1 X5.0555 Y0.8356 Z-0.4000
G1 X5.2500 Y0.9396 Z-0.4000
G1 X5.4205 Y1.0795 Z-0.4000
G1 X5.5604 Y1.2500 Z-0.4000
G1 X5.6644 Y1.4445 Z-0.4000
G1 X5.7284 Y1.6555 Z-0.4000
G1 X5.7500 Y1.8750 Z-0.4000
G1 X5.7500 Y1.8750 Z-0.4000
G1 Z-0.5000 F50
G1 X5.7284 Y2.0945 Z-0.5000 F100
G1 X5.6644 Y2.3055 Z-0.5000
G1 X5.5604 Y2.5000 Z-0.5000
G1 X5.4205 Y2.6705 Z-0.5000
G1 X5.2500 Y2.8104 Z-0.5000
G1 X5.0555 Y2.9144 Z-0.5000
G1 X4.8445 Y2.9784 Z-0.5000
G1 X4.6250 Y3.0000 Z-0.5000
G1 X4.4055 Y2.9784 Z-0.5000
G1 X4.1945 Y2.9144 Z-0.5000
G1 X4.0000 Y2.8104 Z-0.5000
G1 X3.8295 Y2.6705 Z-0.5000
G1 X3.6896 Y2.5000 Z-0.5000
G1 X3.5856 Y2.3055 Z-0.5000
G1 X3.5216 Y2.0945 Z-0.5000
G1 X3.5000 Y1.8750 Z-0.5000
G1 X3.5216 Y1.6555 Z-0.5000
G1 X3.5856 Y1.4445 Z-0.5000
G1 X3.6896 Y1.2500 Z-0.5000
G1 X3.8295 Y1.0795 Z-0.5000
G1 X4.0000 Y0.9396 Z-0.5000
G1 X4.1945 Y0.8356 Z-0.5000
G1 X4.4055 Y0.7716 Z-0.5000
G1 X4.6250 Y0.7500 Z-0.5000
G1 X4.8445 Y0.7716 Z-0.5000
G1 X5.0555 Y0.8356 Z-0.5000
G1 X5.2500 Y0.9396 Z-0.5000
G1 X5.4205 Y1.0795 Z-0.5000
G1 X5.5604 Y1.2500 Z-0.5000
G1 X5.6644 Y1.4445 Z-0.5000
G1 X5.7284 Y1.6555 Z-0.5000
G1 X5.7500 Y1.8750 Z-0.5000
G1 X5.7500 Y1.8750 Z-0.5000
G1 Z-0.6000 F50
G1 X5.7284 Y2.0945 Z-0.6000 F100
G1 X5.6644 Y2.3055 Z-0.6000
G1 X5.5604 Y2.5000 Z-0.6000
G1 X5.4205 Y2.6705 Z-0.6000
G1 X5.2500 Y2.8104 Z-0.6000
G1 X5.0555 Y2.9144 Z-0.6000
G1 X4.8445 Y2.9784 Z-0.6000
G1 X4.6250 Y3.0000 Z-0.6000
G1 X4.4055 Y2.9784 Z-0.6000
G1 X4.1945 Y2.9144 Z-0.6000
G1 X4.0000 Y2.8104 Z-0.6000
G1 X3.8295 Y2.6705 Z-0.6000
G1 X3.6896 Y2.5000 Z-0.6000
G1 X3.5856 Y2.3055 Z-0.6000
G1 X3.5216 Y2.0945 Z-0.6000
G1 X3.5000 Y1.8750 Z-0.6000
G1 X3.5216 Y1.6555 Z-0.6000
G1 X3.5856 Y1.4445 Z-0.6000
G1 X3.6896 Y1.2500 Z-0.6000
G1 X3.8295 Y1.0795 Z-0.6000
G1 X4.0000 Y0.9396 Z-0.6000
G1 X4.1945 Y0.8356 Z-0.6000
G1 X4.4055 Y0.7716 Z-0.6000
G1 X4.6250 Y0.7500 Z-0.6000
G1 X4.8445 Y0.7716 Z-0.6000
G1 X5.0555 Y0.8356 Z-0.6000
G1 X5.2500 Y0.9396 Z-0.6000
G1 X5.4205 Y1.0795 Z-0.6000
G1 X5.5604 Y1.2500 Z-0.6000
G1 X5.6644 Y1.4445 Z-0.6000
G1 X5.7284 Y1.6555 Z-0.6000
G1 X5.7500 Y1.8750 Z-0.6000
G1 X5.7500 Y1.8750 Z-0.6000
G1 Z-0.7000 F50
G1 X5.7284 Y2.0945 Z-0.7000 F100
G1 X5.6644 Y2.3055 Z-0.7000
G1 X5.5604 Y2.5000 Z-0.7000
G1 X5.4205 Y2.6705 Z-0.7000
G1 X5.2500 Y2.8104 Z-0.7000
G1 X5.0555 Y2.9144 Z-0.7000
G1 X4.8445 Y2.9784 Z-0.7000
G1 X4.6250 Y3.0000 Z-0.7000
G1 X4.4055 Y2.9784 Z-0.7000
G1 X4.1945 Y2.9144 Z-0.7000
G1 X4.0000 Y2.8104 Z-0.7000
G1 X3.8295 Y2.6705 Z-0.7000
G1 X3.6896 Y2.5000 Z-0.7000
G1 X3.5856 Y2.3055 Z-0.7000
G1 X3.5216 Y2.0945 Z-0.7000
G1 X3.5000 Y1.8750 Z-0.7000
G1 X3.5216 Y1.6555 Z-0.7000
G1 X3.5856 Y1.4445 Z-0.7000
G1 X3.6896 Y1.2500 Z-0.7000
G1 X3.8295 Y1.0795 Z-0.7000
G1 X4.0000 Y0.9396 Z-0.7000
G1 X4.1945 Y0.8356 Z-0.7000
G1 X4.4055 Y0.7716 Z-0.7000
G1 X4.6250 Y0.7500 Z-0.7000
G1 X4.8445 Y0.7716 Z-0.7000
G1 X5.0555 Y0.8356 Z-0.7000
G1 X5.2500 Y0.9396 Z-0.7000
G1 X5.4205 Y1.0795 Z-0.7000
G1 X5.5604 Y1.2500 Z-0.7000
G1 X5.6644 Y1.4445 Z-0.7000
G1 X5.7284 Y1.6555 Z-0.7000
G1 X5.7500 Y1.8750 Z-0.7000
G1 X5.7500 Y1.8750 Z-0.7000
G1 Z-0.8000 F50
G1 X5.7284 Y2.0945 Z-0.8000 F100
G1 X5.6644 Y2.3055 Z-0.8000
G1 X5.5604 Y2.5000 Z-0.8000
G1 X5.4205 Y2.6705 Z-0.8000
G1 X5.2500 Y2.8104 Z-0.8000
G1 X5.0555 Y2.9144 Z-0.8000
G1 X4.8445 Y2.9784 Z-0.8000
G1 X4.6250 Y3.0000 Z-0.8000
G1 X4.4055 Y2.9784 Z-0.8000
G1 X4.1945 Y2.9144 Z-0.8000
G1 X4.0000 Y2.8104 Z-0.8000
G1 X3.8295 Y2.6705 Z-0.8000
G1 X3.6896 Y2.5000 Z-0.8000
G1 X3.5856 Y2.3055 Z-0.8000
G1 X3.5216 Y2.0945 Z-0.8000
G1 X3.5000 Y1.8750 Z-0.8000
G1 X3.5216 Y1.6555 Z-0.8000
G1 X3.5856 Y1.4445 Z-0.8000
G1 X3.6896 Y1.2500 Z-0.8000
G1 X3.8295 Y1.0795 Z-0.8000
G1 X4.0000 Y0.9396 Z-0.8000
G1 X4.1945 Y0.8356 Z-0.8000
G1 X4.4055 Y0.7716 Z-0.8000
G1 X4.6250 Y0.7500 Z-0.8000
G1 X4.8445 Y0.7716 Z-0.8000
G1 X5.0555 Y0.8356 Z-0.8000
G1 X5.2500 Y0.9396 Z-0.8000
G1 X5.4205 Y1.0795 Z-0.8000
G1 X5.5604 Y1.2500 Z-0.8000
G1 X5.6644 Y1.4445 Z-0.8000
G1 X5.7284 Y1.6555 Z-0.8000
G1 X5.7500 Y1.8750 Z-0.8000
G1 X5.7500 Y1.8750 Z-0.8000
G1 Z-0.9000 F50
G1 X5.7284 Y2.0945 Z-0.9000 F100
G1 X5.6644 Y2.3055 Z-0.9000
G1 X5.5604 Y2.5000 Z-0.9000
G1 X5.4205 Y2.6705 Z-0.9000
G1 X5.2500 Y2.8104 Z-0.9000
G1 X5.0555 Y2.9144 Z-0.9000
G1 X4.8445 Y2.9784 Z-0.9000
G1 X4.6250 Y3.0000 Z-0.9000
G1 X4.4055 Y2.9784 Z-0.9000
G1 X4.1945 Y2.9144 Z-0.9000
G1 X4.0000 Y2.8104 Z-0.9000
G1 X3.8295 Y2.6705 Z-0.9000
G1 X3.6896 Y2.5000 Z-0.9000
G1 X3.5856 Y2.3055 Z-0.9000
G1 X3.5216 Y2.0945 Z-0.9000
G1 X3.5000 Y1.8750 Z-0.9000
G1 X3.5216 Y1.6555 Z-0.9000
G1 X3.5856 Y1.4445 Z-0.9000
G1 X3.6896 Y1.2500 Z-0.9000
G1 X3.8295 Y1.0795 Z-0.9000
G1 X4.0000 Y0.9396 Z-0.9000
G1 X4.1945 Y0.8356 Z-0.9000
G1 X4.4055 Y0.7716 Z-0.9000
G1 X4.6250 Y0.7500 Z-0.9000
G1 X4.8445 Y0.7716 Z-0.9000
G1 X5.0555 Y0.8356 Z-0.9000
G1 X5.2500 Y0.9396 Z-0.9000
G1 X5.4205 Y1.0795 Z-0.9000
G1 X5.5604 Y1.2500 Z-0.9000
G1 X5.6644 Y1.4445 Z-0.9000
G1 X5.7284 Y1.6555 Z-0.9000
G1 X5.7500 Y1.8750 Z-0.9000
G1 X5.7500 Y1.8750 Z-0.9000
G1 Z-1.0000 F50
G1 X5.7284 Y2.0945 Z-1.0000 F100
G1 X5.6644 Y2.3055 Z-1.0000
G1 X5.5604 Y2.5000 Z-1.0000
G1 X5.4205 Y2.6705 Z-1.0000
G1 X5.2500 Y2.8104 Z-1.0000
G1 X5.0555 Y2.9144 Z-1.0000
G1 X4.8445 Y2.9784 Z-1.0000
G1 X4.6250 Y3.0000 Z-1.0000
G1 X4.4055 Y2.9784 Z-1.0000
G1 X4.1945 Y2.9144 Z-1.0000
G1 X4.0000 Y2.8104 Z-1.0000
G1 X3.8295 Y2.6705 Z-1.0000
G1 X3.6896 Y2.5000 Z-1.0000
G1 X3.5856 Y2.3055 Z-1.0000
G1 X3.5216 Y2.0945 Z-1.0000
G1 X3.5000 Y1.8750 Z-1.0000
G1 X3.5216 Y1.6555 Z-1.0000
G1 X3.5856 Y1.4445 Z-1.0000
G1 X3.6896 Y1.2500 Z-1.0000
G1 X3.8295 Y1.0795 Z-1.0000
G1 X4.0000 Y0.9396 Z-1.0000
G1 X4.1945 Y0.8356 Z-1.0000
G1 X4.4055 Y0.7716 Z-1.0000
G1 X4.6250 Y0.7500 Z-1.0000
G1 X4.8445 Y0.7716 Z-1.0000
G1 X5.0555 Y0.8356 Z-1.0000
G1 X5.2500 Y0.9396 Z-1.0000
G1 X5.4205 Y1.0795 Z-1.0000
G1 X5.5604 Y1.2500 Z-1.0000
G1 X5.6644 Y1.4445 Z-1.0000
G1 X5.7284 Y1.6555 Z-1.0000
G1 X5.7500 Y1.8750 Z-1.0000
G1 X5.7500 Y1.8750 Z-1.0000
G1 Z-1.1000 F50
G1 X5.7284 Y2.0945 Z-1.1000 F100
G1 X5.6644 Y2.3055 Z-1.1000
G1 X5.5604 Y2.5000 Z-1.1000
G1 X5.4205 Y2.6705 Z-1.1000
G1 X5.2500 Y2.8104 Z-1.1000
G1 X5.0555 Y2.9144 Z-1.1000
G1 X4.8445 Y2.9784 Z-1.1000
G1 X4.6250 Y3.0000 Z-1.1000
G1 X4.4055 Y2.9784 Z-1.1000
G1 X4.1945 Y2.9144 Z-1.1000
G1 X4.0000 Y2.8104 Z-1.1000
G1 X3.8295 Y2.6705 Z-1.1000
G1 X3.6896 Y2.5000 Z-1.1000
G1 X3.5856 Y2.3055 Z-1.1000
G1 X3.5216 Y2.0945 Z-1.1000
G1 X3.5000 Y1.8750 Z-1.1000
G1 X3.5216 Y1.6555 Z-1.1000
G1 X3.5856 Y1.4445 Z-1.1000
G1 X3.6896 Y1.2500 Z-1.1000
G1 X3.8295 Y1.0795 Z-1.1000
G1 X4.0000 Y0.9396 Z-1.1000
G1 X4.1945 Y0.8356 Z-1.1000
G1 X4.4055 Y0.7716 Z-1.1000
G1 X4.6250 Y0.7500 Z-1.1000
G1 X4.8445 Y0.7716 Z-1.1000
G1 X5.0555 Y0.8356 Z-1.1000
G1 X5.2500 Y0.9396 Z-1.1000
G1 X5.4205 Y1.0795 Z-1.1000
G1 X5.5604 Y1.2500 Z-1.1000
G1 X5.6644 Y1.4445 Z-1.1000
G1 X5.7284 Y1.6555 Z-1.1000
G1 X5.7500 Y1.8750 Z-1.1000
G1 X5.7500 Y1.8750 Z-1.1000
G1 Z-1.2000 F50
G1 X5.7284 Y2.0945 Z-1.2000 F100
G1 X5.6644 Y2.3055 Z-1.2000
G1 X5.5604 Y2.5000 Z-1.2000
G1 X5.4205 Y2.6705 Z-1.2000
G1 X5.2500 Y2.8104 Z-1.2000
G1 X5.0555 Y2.9144 Z-1.2000
G1 X4.8445 Y2.9784 Z-1.2000
G1 X4.6250 Y3.0000 Z-1.2000
G1 X4.4055 Y2.9784 Z-1.2000
G1 X4.1945 Y2.9144 Z-1.2000
G1 X4.0000 Y2.8104 Z-1.2000
G1 X3.8295 Y2.6705 Z-1.2000
G1 X3.6896 Y2.5000 Z-1.2000
G1 X3.5856 Y2.3055 Z-1.2000
G1 X3.5216 Y2.0945 Z-1.2000
G1 X3.5000 Y1.8750 Z-1.2000
G1 X3.5216 Y1.6555 Z-1.2000
G1 X3.5856 Y1.4445 Z-1.2000
G1 X3.6896 Y1.2500 Z-1.2000
G1 X3.8295 Y1.0795 Z-1.2000
G1 X4.0000 Y0.9396 Z-1.2000
G1 X4.1945 Y0.8356 Z-1.2000
G1 X4.4055 Y0.7716 Z-1.2000
G1 X4.6250 Y0.7500 Z-1.2000
G1 X4.8445 Y0.7716 Z-1.2000
G1 X5.0555 Y0.8356 Z-1.2000
G1 X5.2500 Y0.9396 Z-1.2000
G1 X5.4205 Y1.0795 Z-1.2000
G1 X5.5604 Y1.2500 Z-1.2000
G1 X5.6644 Y1.4445 Z-1.2000
G1 X5.7284 Y1.6555 Z-1.2000
G1 X5.7500 Y1.8750 Z-1.2000
G1 X5.7500 Y1.8750 Z-1.2000
G1 Z-1.3000 F50
G1 X5.7284 Y2.0945 Z-1.3000 F100
G1 X5.6644 Y2.3055 Z-1.3000
G1 X5.5604 Y2.5000 Z-1.3000
G1 X5.4205 Y2.6705 Z-1.3000
G1 X5.2500 Y2.8104 Z-1.3000
G1 X5.0555 Y2.9144 Z-1.3000
G1 X4.8445 Y2.9784 Z-1.3000
G1 X4.6250 Y3.0000 Z-1.3000
G1 X4.4055 Y2.9784 Z-1.3000
G1 X4.1945 Y2.9144 Z-1.3000
G1 X4.0000 Y2.8104 Z-1.3000
G1 X3.8295 Y2.6705 Z-1.3000
G1 X3.6896 Y2.5000 Z-1.3000
G1 X3.5856 Y2.3055 Z-1.3000
G1 X3.5216 Y2.0945 Z-1.3000
G1 X3.5000 Y1.8750 Z-1.3000
G1 X3.5216 Y1.6555 Z-1.3000
G1 X3.5856 Y1.4445 Z-1.3000
G1 X3.6896 Y1.2500 Z-1.3000
G1 X3.8295 Y1.0795 Z-1.3000
G1 X4.0000 Y0.9396 Z-1.3000
G1 X4.1945 Y0.8356 Z-1.3000
G1 X4.4055 Y0.7716 Z-1.3000
G1 X4.6250 Y0.7500 Z-1.3000
G1 X4.8445 Y0.7716 Z-1.3000
G1 X5.0555 Y0.8356 Z-1.3000
G1 X5.2500 Y0.9396 Z-1.3000
G1 X5.4205 Y1.0795 Z-1.3000
G1 X5.5604 Y1.2500 Z-1.3000
G1 X5.6644 Y1.4445 Z-1.3000
G1 X5.7284 Y1.6555 Z-1.3000
G1 X5.7500 Y1.8750 Z-1.3000
G1 X5.7500 Y1.8750 Z-1.3000
G1 Z-1.4000 F50
G1 X5.7284 Y2.0945 Z-1.4000 F100
G1 X5.6644 Y2.3055 Z-1.4000
G1 X5.5604 Y2.5000 Z-1.4000
G1 X5.4205 Y2.6705 Z-1.4000
G1 X5.2500 Y2.8104 Z-1.4000
G1 X5.0555 Y2.9144 Z-1.4000
G1 X4.8445 Y2.9784 Z-1.4000
G1 X4.6250 Y3.0000 Z-1.4000
G1 X4.4055 Y2.9784 Z-1.4000
G1 X4.1945 Y2.9144 Z-1.4000
G1 X4.0000 Y2.8104 Z-1.4000
G1 X3.8295 Y2.6705 Z-1.4000
G1 X3.6896 Y2.5000 Z-1.4000
G1 X3.5856 Y2.3055 Z-1.4000
G1 X3.5216 Y2.0945 Z-1.4000
G1 X3.5000 Y1.8750 Z-1.4000
G1 X3.5216 Y1.6555 Z-1.4000
G1 X3.5856 Y1.4445 Z-1.4000
G1 X3.6896 Y1.2500 Z-1.4000
G1 X3.8295 Y1.0795 Z-1.4000
G1 X4.0000 Y0.9396 Z-1.4000
G1 X4.1945 Y0.8356 Z-1.4000
G1 X4.4055 Y0.7716 Z-1.4000
G1 X4.6250 Y0.7500 Z-1.4000
G1 X4.8445 Y0.7716 Z-1.4000
G1 X5.0555 Y0.8356 Z-1.4000
G1 X5.2500 Y0.9396 Z-1.4000
G1 X5.4205 Y1.0795 Z-1.4000
G1 X5.5604 Y1.2500 Z-1.4000
G1 X5.6644 Y1.4445 Z-1.4000
G1 X5.7284 Y1.6555 Z-1.4000
G1 X5.7500 Y1.8750 Z-1.4000
G1 X5.7500 Y1.8750 Z-1.4000
G1 Z-1.5000 F50
G1 X5.7284 Y2.0945 Z-1.5000 F100
G1 X5.6644 Y2.3055 Z-1.5000
G1 X5.5604 Y2.5000 Z-1.5000
G1 X5.4205 Y2.6705 Z-1.5000
G1 X5.2500 Y2.8104 Z-1.5000
G1 X5.0555 Y2.9144 Z-1.5000
G1 X4.8445 Y2.9784 Z-1.5000
G1 X4.6250 Y3.0000 Z-1.5000
G1 X4.4055 Y2.9784 Z-1.5000
G1 X4.1945 Y2.9144 Z-1.5000
G1 X4.0000 Y2.8104 Z-1.5000
G1 X3.8295 Y2.6705 Z-1.5000
G1 X3.6896 Y2.5000 Z-1.5000
G1 X3.5856 Y2.3055 Z-1.5000
G1 X3.5216 Y2.0945 Z-1.5000
G1 X3.5000 Y1.8750 Z-1.5000
G1 X3.5216 Y1.6555 Z-1.5000
G1 X3.5856 Y1.4445 Z-1.5000
G1 X3.6896 Y1.2500 Z-1.5000
G1 X3.8295 Y1.0795 Z-1.5000
G1 X4.0000 Y0.9396 Z-1.5000
G1 X4.1945 Y0.8356 Z-1.5000
G1 X4.4055 Y0.7716 Z-1.5000
G1 X4.6250 Y0.7500 Z-1.5000
G1 X4.8445 Y0.7716 Z-1.5000
G1 X5.0555 Y0.8356 Z-1.5000
G1 X5.2500 Y0.9396 Z-1.5000
G1 X5.4205 Y1.0795 Z-1.5000
G1 X5.5604 Y1.2500 Z-1.5000
G1 X5.6644 Y1.4445 Z-1.5000
G1 X5.7284 Y1.6555 Z-1.5000
G1 X5.7500 Y1.8750 Z-1.5000
G1 X5.7500 Y1.8750 Z-1.5000
G1 Z-1.6000 F50
G1 X5.7284 Y2.0945 Z-1.6000 F100
G1 X5.6644 Y2.3055 Z-1.6000
G1 X5.5604 Y2.5000 Z-1.6000
G1 X5.4205 Y2.6705 Z-1.6000
G1 X5.2500 Y2.8104 Z-1.6000
G1 X5.0555 Y2.9144 Z-1.6000
G1 X4.8445 Y2.9784 Z-1.6000
G1 X4.6250 Y3.0000 Z-1.6000
G1 X4.4055 Y2.9784 Z-1.6000
G1 X4.1945 Y2.9144 Z-1.6000
G1 X4.0000 Y2.8104 Z-1.6000
G1 X3.8295 Y2.6705 Z-1.6000
G1 X3.6896 Y2.5000 Z-1.6000
G1 X3.5856 Y2.3055 Z-1.6000
G1 X3.5216 Y2.0945 Z-1.6000
G1 X3.5000 Y1.8750 Z-1.6000
G1 X3.5216 Y1.6555 Z-1.6000
G1 X3.5856 Y1.4445 Z-1.6000
G1 X3.6896 Y1.2500 Z-1.6000
G1 X3.8295 Y1.0795 Z-1.6000
G1 X4.0000 Y0.9396 Z-1.6000
G1 X4.1945 Y0.8356 Z-1.6000
G1 X4.4055 Y0.7716 Z-1.6000
G1 X4.6250 Y0.7500 Z-1.6000
G1 X4.8445 Y0.7716 Z-1.6000
G1 X5.0555 Y0.8356 Z-1.6000
G1 X5.2500 Y0.9396 Z-1.6000
G1 X5.4205 Y1.0795 Z-1.6000
G1 X5.5604 Y1.2500 Z-1.6000
G1 X5.6644 Y1.4445 Z-1.6000
G1 X5.7284 Y1.6555 Z-1.6000
G1 X5.7500 Y1.8750 Z-1.6000
G1 X5.7500 Y1.8750 Z-1.6000

G0 Z0.5 ; move to z-safe height
G0 X8.5000 Y1.8750
G1 Z-0.1000 F50
G1 X8.4784 Y2.0945 Z-0.1000 F100
G1 X8.4144 Y2.3055 Z-0.1000
G1 X8.3104 Y2.5000 Z-0.1000
G1 X8.1705 Y2.6705 Z-0.1000
G1 X8.0000 Y2.8104 Z-0.1000
G1 X7.8055 Y2.9144 Z-0.1000
G1 X7.5945 Y2.9784 Z-0.1000
G1 X7.3750 Y3.0000 Z-0.1000
G1 X7.1555 Y2.9784 Z-0.1000
G1 X6.9445 Y2.9144 Z-0.1000
G1 X6.7500 Y2.8104 Z-0.1000
G1 X6.5795 Y2.6705 Z-0.1000
G1 X6.4396 Y2.5000 Z-0.1000
G1 X6.3356 Y2.3055 Z-0.1000
G1 X6.2716 Y2.0945 Z-0.1000
G1 X6.2500 Y1.8750 Z-0.1000
G1 X6.2716 Y1.6555 Z-0.1000
G1 X6.3356 Y1.4445 Z-0.1000
G1 X6.4396 Y1.2500 Z-0.1000
G1 X6.5795 Y1.0795 Z-0.1000
G1 X6.7500 Y0.9396 Z-0.1000
G1 X6.9445 Y0.8356 Z-0.1000
G1 X7.1555 Y0.7716 Z-0.1000
G1 X7.3750 Y0.7500 Z-0.1000
G1 X7.5945 Y0.7716 Z-0.1000
G1 X7.8055 Y0.8356 Z-0.1000
G1 X8.0000 Y0.9396 Z-0.1000
G1 X8.1705 Y1.0795 Z-0.1000
G1 X8.3104 Y1.2500 Z-0.1000
G1 X8.4144 Y1.4445 Z-0.1000
G1 X8.4784 Y1.6555 Z-0.1000
G1 X8.5000 Y1.8750 Z-0.1000
G1 X8.5000 Y1.8750 Z-0.1000
G1 Z-0.2000 F50
G1 X8.4784 Y2.0945 Z-0.2000 F100
G1 X8.4144 Y2.3055 Z-0.2000
G1 X8.3104 Y2.5000 Z-0.2000
G1 X8.1705 Y2.6705 Z-0.2000
G1 X8.0000 Y2.8104 Z-0.2000
G1 X7.8055 Y2.9144 Z-0.2000
G1 X7.5945 Y2.9784 Z-0.2000
G1 X7.3750 Y3.0000 Z-0.2000
G1 X7.1555 Y2.9784 Z-0.2000
G1 X6.9445 Y2.9144 Z-0.2000
G1 X6.7500 Y2.8104 Z-0.2000
G1 X6.5795 Y2.6705 Z-0.2000
G1 X6.4396 Y2.5000 Z-0.2000
G1 X6.3356 Y2.3055 Z-0.2000
G1 X6.2716 Y2.0945 Z-0.2000
G1 X6.2500 Y1.8750 Z-0.2000
G1 X6.2716 Y1.6555 Z-0.2000
G1 X6.3356 Y1.4445 Z-0.2000
G1 X6.4396 Y1.2500 Z-0.2000
G1 X6.5795 Y1.0795 Z-0.2000
G1 X6.7500 Y0.9396 Z-0.2000
G1 X6.9445 Y0.8356 Z-0.2000
G1 X7.1555 Y0.7716 Z-0.2000
G1 X7.3750 Y0.7500 Z-0.2000
G1 X7.5945 Y0.7716 Z-0.2000
G1 X7.8055 Y0.8356 Z-0.2000
G1 X8.0000 Y0.9396 Z-0.2000
G1 X8.1705 Y1.0795 Z-0.2000
G1 X8.3104 Y1.2500 Z-0.2000
G1 X8.4144 Y1.4445 Z-0.2000
G1 X8.4784 Y1.6555 Z-0.2000
G1 X8.5000 Y1.8750 Z-0.2000
G1 X8.5000 Y1.8750 Z-0.2000
G1 Z-0.3000 F50
G1 X8.4784 Y2.0945 Z-0.3000 F100
G1 X8.4144 Y2.3055 Z-0.3000
G1 X8.3104 Y2.5000 Z-0.3000
G1 X8.1705 Y2.6705 Z-0.3000
G1 X8.0000 Y2.8104 Z-0.3000
G1 X7.8055 Y2.9144 Z-0.3000
G1 X7.5945 Y2.9784 Z-0.3000
G1 X7.3750 Y3.0000 Z-0.3000
G1 X7.1555 Y2.9784 Z-0.3000
G1 X6.9445 Y2.9144 Z-0.3000
G1 X6.7500 Y2.8104 Z-0.3000
G1 X6.5795 Y2.6705 Z-0.3000
G1 X6.4396 Y2.5000 Z-0.3000
G1 X6.3356 Y2.3055 Z-0.3000
G1 X6.2716 Y2.0945 Z-0.3000
G1 X6.2500 Y1.8750 Z-0.3000
G1 X6.2716 Y1.6555 Z-0.3000
G1 X6.3356 Y1.4445 Z-0.3000
G1 X6.4396 Y1.2500 Z-0.3000
G1 X6.5795 Y1.0795 Z-0.3000
G1 X6.7500 Y0.9396 Z-0.3000
G1 X6.9445 Y0.8356 Z-0.3000
G1 X7.1555 Y0.7716 Z-0.3000
G1 X7.3750 Y0.7500 Z-0.3000
G1 X7.5945 Y0.7716 Z-0.3000
G1 X7.8055 Y0.8356 Z-0.3000
G1 X8.0000 Y0.9396 Z-0.3000
G1 X8.1705 Y1.0795 Z-0.3000
G1 X8.3104 Y1.2500 Z-0.3000
G1 X8.4144 Y1.4445 Z-0.3000
G1 X8.4784 Y1.6555 Z-0.3000
G1 X8.5000 Y1.8750 Z-0.3000
G1 X8.5000 Y1.8750 Z-0.3000
G1 Z-0.4000 F50
G1 X8.4784 Y2.0945 Z-0.4000 F100
G1 X8.4144 Y2.3055 Z-0.4000
G1 X8.3104 Y2.5000 Z-0.4000
G1 X8.1705 Y2.6705 Z-0.4000
G1 X8.0000 Y2.8104 Z-0.4000
G1 X7.8055 Y2.9144 Z-0.4000
G1 X7.5945 Y2.9784 Z-0.4000
G1 X7.3750 Y3.0000 Z-0.4000
G1 X7.1555 Y2.9784 Z-0.4000
G1 X6.9445 Y2.9144 Z-0.4000
G1 X6.7500 Y2.8104 Z-0.4000
G1 X6.5795 Y2.6705 Z-0.4000
G1 X6.4396 Y2.5000 Z-0.4000
G1 X6.3356 Y2.3055 Z-0.4000
G1 X6.2716 Y2.0945 Z-0.4000
G1 X6.2500 Y1.8750 Z-0.4000
G1 X6.2716 Y1.6555 Z-0.4000
G1 X6.3356 Y1.4445 Z-0.4000
G1 X6.4396 Y1.2500 Z-0.4000
G1 X6.5795 Y1.0795 Z-0.4000
G1 X6.7500 Y0.9396 Z-0.4000
G1 X6.9445 Y0.8356 Z-0.4000
G1 X7.1555 Y0.7716 Z-0.4000
G1 X7.3750 Y0.7500 Z-0.4000
G1 X7.5945 Y0.7716 Z-0.4000
G1 X7.8055 Y0.8356 Z-0.4000
G1 X8.0000 Y0.9396 Z-0.4000
G1 X8.1705 Y1.0795 Z-0.4000
G1 X8.3104 Y1.2500 Z-0.4000
G1 X8.4144 Y1.4445 Z-0.4000
G1 X8.4784 Y1.6555 Z-0.4000
G1 X8.5000 Y1.8750 Z-0.4000
G1 X8.5000 Y1.8750 Z-0.4000
G1 Z-0.5000 F50
G1 X8.4784 Y2.0945 Z-0.5000 F100
G1 X8.4144 Y2.3055 Z-0.5000
G1 X8.3104 Y2.5000 Z-0.5000
G1 X8.1705 Y2.6705 Z-0.5000
G1 X8.0000 Y2.8104 Z-0.5000
G1 X7.8055 Y2.9144 Z-0.5000
G1 X7.5945 Y2.9784 Z-0.5000
G1 X7.3750 Y3.0000 Z-0.5000
G1 X7.1555 Y2.9784 Z-0.5000
G1 X6.9445 Y2.9144 Z-0.5000
G1 X6.7500 Y2.8104 Z-0.5000
G1 X6.5795 Y2.6705 Z-0.5000
G1 X6.4396 Y2.5000 Z-0.5000
G1 X6.3356 Y2.3055 Z-0.5000
G1 X6.2716 Y2.0945 Z-0.5000
G1 X6.2500 Y1.8750 Z-0.5000
G1 X6.2716 Y1.6555 Z-0.5000
G1 X6.3356 Y1.4445 Z-0.5000
G1 X6.4396 Y1.2500 Z-0.5000
G1 X6.5795 Y1.0795 Z-0.5000
G1 X6.7500 Y0.9396 Z-0.5000
G1 X6.9445 Y0.8356 Z-0.5000
G1 X7.1555 Y0.7716 Z-0.5000
G1 X7.3750 Y0.7500 Z-0.5000
G1 X7.5945 Y0.7716 Z-0.5000
G1 X7.8055 Y0.8356 Z-0.5000
G1 X8.0000 Y0.9396 Z-0.5000
G1 X8.1705 Y1.0795 Z-0.5000
G1 X8.3104 Y1.2500 Z-0.5000
G1 X8.4144 Y1.4445 Z-0.5000
G1 X8.4784 Y1.6555 Z-0.5000
G1 X8.5000 Y1.8750 Z-0.5000
G1 X8.5000 Y1.8750 Z-0.5000
G1 Z-0.6000 F50
G1 X8.4784 Y2.0945 Z-0.6000 F100
G1 X8.4144 Y2.3055 Z-0.6000
G1 X8.3104 Y2.5000 Z-0.6000
G1 X8.1705 Y2.6705 Z-0.6000
G1 X8.0000 Y2.8104 Z-0.6000
G1 X7.8055 Y2.9144 Z-0.6000
G1 X7.5945 Y2.9784 Z-0.6000
G1 X7.3750 Y3.0000 Z-0.6000
G1 X7.1555 Y2.9784 Z-0.6000
G1 X6.9445 Y2.9144 Z-0.6000
G1 X6.7500 Y2.8104 Z-0.6000
G1 X6.5795 Y2.6705 Z-0.6000
G1 X6.4396 Y2.5000 Z-0.6000
G1 X6.3356 Y2.3055 Z-0.6000
G1 X6.2716 Y2.0945 Z-0.6000
G1 X6.2500 Y1.8750 Z-0.6000
G1 X6.2716 Y1.6555 Z-0.6000
G1 X6.3356 Y1.4445 Z-0.6000
G1 X6.4396 Y1.2500 Z-0.6000
G1 X6.5795 Y1.0795 Z-0.6000
G1 X6.7500 Y0.9396 Z-0.6000
G1 X6.9445 Y0.8356 Z-0.6000
G1 X7.1555 Y0.7716 Z-0.6000
G1 X7.3750 Y0.7500 Z-0.6000
G1 X7.5945 Y0.7716 Z-0.6000
G1 X7.8055 Y0.8356 Z-0.6000
G1 X8.0000 Y0.9396 Z-0.6000
G1 X8.1705 Y1.0795 Z-0.6000
G1 X8.3104 Y1.2500 Z-0.6000
G1 X8.4144 Y1.4445 Z-0.6000
G1 X8.4784 Y1.6555 Z-0.6000
G1 X8.5000 Y1.8750 Z-0.6000
G1 X8.5000 Y1.8750 Z-0.6000
G1 Z-0.7000 F50
G1 X8.4784 Y2.0945 Z-0.7000 F100
G1 X8.4144 Y2.3055 Z-0.7000
G1 X8.3104 Y2.5000 Z-0.7000
G1 X8.1705 Y2.6705 Z-0.7000
G1 X8.0000 Y2.8104 Z-0.7000
G1 X7.8055 Y2.9144 Z-0.7000
G1 X7.5945 Y2.9784 Z-0.7000
G1 X7.3750 Y3.0000 Z-0.7000
G1 X7.1555 Y2.9784 Z-0.7000
G1 X6.9445 Y2.9144 Z-0.7000
G1 X6.7500 Y2.8104 Z-0.7000
G1 X6.5795 Y2.6705 Z-0.7000
G1 X6.4396 Y2.5000 Z-0.7000
G1 X6.3356 Y2.3055 Z-0.7000
G1 X6.2716 Y2.0945 Z-0.7000
G1 X6.2500 Y1.8750 Z-0.7000
G1 X6.2716 Y1.6555 Z-0.7000
G1 X6.3356 Y1.4445 Z-0.7000
G1 X6.4396 Y1.2500 Z-0.7000
G1 X6.5795 Y1.0795 Z-0.7000
G1 X6.7500 Y0.9396 Z-0.7000
G1 X6.9445 Y0.8356 Z-0.7000
G1 X7.1555 Y0.7716 Z-0.7000
G1 X7.3750 Y0.7500 Z-0.7000
G1 X7.5945 Y0.7716 Z-0.7000
G1 X7.8055 Y0.8356 Z-0.7000
G1 X8.0000 Y0.9396 Z-0.7000
G1 X8.1705 Y1.0795 Z-0.7000
G1 X8.3104 Y1.2500 Z-0.7000
G1 X8.4144 Y1.4445 Z-0.7000
G1 X8.4784 Y1.6555 Z-0.7000
G1 X8.5000 Y1.8750 Z-0.7000
G1 X8.5000 Y1.8750 Z-0.7000
G1 Z-0.8000 F50
G1 X8.4784 Y2.0945 Z-0.8000 F100
G1 X8.4144 Y2.3055 Z-0.8000
G1 X8.3104 Y2.5000 Z-0.8000
G1 X8.1705 Y2.6705 Z-0.8000
G1 X8.0000 Y2.8104 Z-0.8000
G1 X7.8055 Y2.9144 Z-0.8000
G1 X7.5945 Y2.9784 Z-0.8000
G1 X7.3750 Y3.0000 Z-0.8000
G1 X7.1555 Y2.9784 Z-0.8000
G1 X6.9445 Y2.9144 Z-0.8000
G1 X6.7500 Y2.8104 Z-0.8000
G1 X6.5795 Y2.6705 Z-0.8000
G1 X6.4396 Y2.5000 Z-0.8000
G1 X6.3356 Y2.3055 Z-0.8000
G1 X6.2716 Y2.0945 Z-0.8000
G1 X6.2500 Y1.8750 Z-0.8000
G1 X6.2716 Y1.6555 Z-0.8000
G1 X6.3356 Y1.4445 Z-0.8000
G1 X6.4396 Y1.2500 Z-0.8000
G1 X6.5795 Y1.0795 Z-0.8000
G1 X6.7500 Y0.9396 Z-0.8000
G1 X6.9445 Y0.8356 Z-0.8000
G1 X7.1555 Y0.7716 Z-0.8000
G1 X7.3750 Y0.7500 Z-0.8000
G1 X7.5945 Y0.7716 Z-0.8000
G1 X7.8055 Y0.8356 Z-0.8000
G1 X8.0000 Y0.9396 Z-0.8000
G1 X8.1705 Y1.0795 Z-0.8000
G1 X8.3104 Y1.2500 Z-0.8000
G1 X8.4144 Y1.4445 Z-0.8000
G1 X8.4784 Y1.6555 Z-0.8000
G1 X8.5000 Y1.8750 Z-0.8000
G1 X8.5000 Y1.8750 Z-0.8000
G1 Z-0.9000 F50
G1 X8.4784 Y2.0945 Z-0.9000 F100
G1 X8.4144 Y2.3055 Z-0.9000
G1 X8.3104 Y2.5000 Z-0.9000
G1 X8.1705 Y2.6705 Z-0.9000
G1 X8.0000 Y2.8104 Z-0.9000
G1 X7.8055 Y2.9144 Z-0.9000
G1 X7.5945 Y2.9784 Z-0.9000
G1 X7.3750 Y3.0000 Z-0.9000
G1 X7.1555 Y2.9784 Z-0.9000
G1 X6.9445 Y2.9144 Z-0.9000
G1 X6.7500 Y2.8104 Z-0.9000
G1 X6.5795 Y2.6705 Z-0.9000
G1 X6.4396 Y2.5000 Z-0.9000
G1 X6.3356 Y2.3055 Z-0.9000
G1 X6.2716 Y2.0945 Z-0.9000
G1 X6.2500 Y1.8750 Z-0.9000
G1 X6.2716 Y1.6555 Z-0.9000
G1 X6.3356 Y1.4445 Z-0.9000
G1 X6.4396 Y1.2500 Z-0.9000
G1 X6.5795 Y1.0795 Z-0.9000
G1 X6.7500 Y0.9396 Z-0.9000
G1 X6.9445 Y0.8356 Z-0.9000
G1 X7.1555 Y0.7716 Z-0.9000
G1 X7.3750 Y0.7500 Z-0.9000
G1 X7.5945 Y0.7716 Z-0.9000
G1 X7.8055 Y0.8356 Z-0.9000
G1 X8.0000 Y0.9396 Z-0.9000
G1 X8.1705 Y1.0795 Z-0.9000
G1 X8.3104 Y1.2500 Z-0.9000
G1 X8.4144 Y1.4445 Z-0.9000
G1 X8.4784 Y1.6555 Z-0.9000
G1 X8.5000 Y1.8750 Z-0.9000
G1 X8.5000 Y1.8750 Z-0.9000
G1 Z-1.0000 F50
G1 X8.4784 Y2.0945 Z-1.0000 F100
G1 X8.4144 Y2.3055 Z-1.0000
G1 X8.3104 Y2.5000 Z-1.0000
G1 X8.1705 Y2.6705 Z-1.0000
G1 X8.0000 Y2.8104 Z-1.0000
G1 X7.8055 Y2.9144 Z-1.0000
G1 X7.5945 Y2.9784 Z-1.0000
G1 X7.3750 Y3.0000 Z-1.0000
G1 X7.1555 Y2.9784 Z-1.0000
G1 X6.9445 Y2.9144 Z-1.0000
G1 X6.7500 Y2.8104 Z-1.0000
G1 X6.5795 Y2.6705 Z-1.0000
G1 X6.4396 Y2.5000 Z-1.0000
G1 X6.3356 Y2.3055 Z-1.0000
G1 X6.2716 Y2.0945 Z-1.0000
G1 X6.2500 Y1.8750 Z-1.0000
G1 X6.2716 Y1.6555 Z-1.0000
G1 X6.3356 Y1.4445 Z-1.0000
G1 X6.4396 Y1.2500 Z-1.0000
G1 X6.5795 Y1.0795 Z-1.0000
G1 X6.7500 Y0.9396 Z-1.0000
G1 X6.9445 Y0.8356 Z-1.0000
G1 X7.1555 Y0.7716 Z-1.0000
G1 X7.3750 Y0.7500 Z-1.0000
G1 X7.5945 Y0.7716 Z-1.0000
G1 X7.8055 Y0.8356 Z-1.0000
G1 X8.0000 Y0.9396 Z-1.0000
G1 X8.1705 Y1.0795 Z-1.0000
G1 X8.3104 Y1.2500 Z-1.0000
G1 X8.4144 Y1.4445 Z-1.0000
G1 X8.4784 Y1.6555 Z-1.0000
G1 X8.5000 Y1.8750 Z-1.0000
G1 X8.5000 Y1.8750 Z-1.0000
G1 Z-1.1000 F50
G1 X8.4784 Y2.0945 Z-1.1000 F100
G1 X8.4144 Y2.3055 Z-1.1000
G1 X8.3104 Y2.5000 Z-1.1000
G1 X8.1705 Y2.6705 Z-1.1000
G1 X8.0000 Y2.8104 Z-1.1000
G1 X7.8055 Y2.9144 Z-1.1000
G1 X7.5945 Y2.9784 Z-1.1000
G1 X7.3750 Y3.0000 Z-1.1000
G1 X7.1555 Y2.9784 Z-1.1000
G1 X6.9445 Y2.9144 Z-1.1000
G1 X6.7500 Y2.8104 Z-1.1000
G1 X6.5795 Y2.6705 Z-1.1000
G1 X6.4396 Y2.5000 Z-1.1000
G1 X6.3356 Y2.3055 Z-1.1000
G1 X6.2716 Y2.0945 Z-1.1000
G1 X6.2500 Y1.8750 Z-1.1000
G1 X6.2716 Y1.6555 Z-1.1000
G1 X6.3356 Y1.4445 Z-1.1000
G1 X6.4396 Y1.2500 Z-1.1000
G1 X6.5795 Y1.0795 Z-1.1000
G1 X6.7500 Y0.9396 Z-1.1000
G1 X6.9445 Y0.8356 Z-1.1000
G1 X7.1555 Y0.7716 Z-1.1000
G1 X7.3750 Y0.7500 Z-1.1000
G1 X7.5945 Y0.7716 Z-1.1000
G1 X7.8055 Y0.8356 Z-1.1000
G1 X8.0000 Y0.9396 Z-1.1000
G1 X8.1705 Y1.0795 Z-1.1000
G1 X8.3104 Y1.2500 Z-1.1000
G1 X8.4144 Y1.4445 Z-1.1000
G1 X8.4784 Y1.6555 Z-1.1000
G1 X8.5000 Y1.8750 Z-1.1000
G1 X8.5000 Y1.8750 Z-1.1000
G1 Z-1.2000 F50
G1 X8.4784 Y2.0945 Z-1.2000 F100
G1 X8.4144 Y2.3055 Z-1.2000
G1 X8.3104 Y2.5000 Z-1.2000
G1 X8.1705 Y2.6705 Z-1.2000
G1 X8.0000 Y2.8104 Z-1.2000
G1 X7.8055 Y2.9144 Z-1.2000
G1 X7.5945 Y2.9784 Z-1.2000
G1 X7.3750 Y3.0000 Z-1.2000
G1 X7.1555 Y2.9784 Z-1.2000
G1 X6.9445 Y2.9144 Z-1.2000
G1 X6.7500 Y2.8104 Z-1.2000
G1 X6.5795 Y2.6705 Z-1.2000
G1 X6.4396 Y2.5000 Z-1.2000
G1 X6.3356 Y2.3055 Z-1.2000
G1 X6.2716 Y2.0945 Z-1.2000
G1 X6.2500 Y1.8750 Z-1.2000
G1 X6.2716 Y1.6555 Z-1.2000
G1 X6.3356 Y1.4445 Z-1.2000
G1 X6.4396 Y1.2500 Z-1.2000
G1 X6.5795 Y1.0795 Z-1.2000
G1 X6.7500 Y0.9396 Z-1.2000
G1 X6.9445 Y0.8356 Z-1.2000
G1 X7.1555 Y0.7716 Z-1.2000
G1 X7.3750 Y0.7500 Z-1.2000
G1 X7.5945 Y0.7716 Z-1.2000
G1 X7.8055 Y0.8356 Z-1.2000
G1 X8.0000 Y0.9396 Z-1.2000
G1 X8.1705 Y1.0795 Z-1.2000
G1 X8.3104 Y1.2500 Z-1.2000
G1 X8.4144 Y1.4445 Z-1.2000
G1 X8.4784 Y1.6555 Z-1.2000
G1 X8.5000 Y1.8750 Z-1.2000
G1 X8.5000 Y1.8750 Z-1.2000
G1 Z-1.3000 F50
G1 X8.4784 Y2.0945 Z-1.3000 F100
G1 X8.4144 Y2.3055 Z-1.3000
G1 X8.3104 Y2.5000 Z-1.3000
G1 X8.1705 Y2.6705 Z-1.3000
G1 X8.0000 Y2.8104 Z-1.3000
G1 X7.8055 Y2.9144 Z-1.3000
G1 X7.5945 Y2.9784 Z-1.3000
G1 X7.3750 Y3.0000 Z-1.3000
G1 X7.1555 Y2.9784 Z-1.3000
G1 X6.9445 Y2.9144 Z-1.3000
G1 X6.7500 Y2.8104 Z-1.3000
G1 X6.5795 Y2.6705 Z-1.3000
G1 X6.4396 Y2.5000 Z-1.3000
G1 X6.3356 Y2.3055 Z-1.3000
G1 X6.2716 Y2.0945 Z-1.3000
G1 X6.2500 Y1.8750 Z-1.3000
G1 X6.2716 Y1.6555 Z-1.3000
G1 X6.3356 Y1.4445 Z-1.3000
G1 X6.4396 Y1.2500 Z-1.3000
G1 X6.5795 Y1.0795 Z-1.3000
G1 X6.7500 Y0.9396 Z-1.3000
G1 X6.9445 Y0.8356 Z-1.3000
G1 X7.1555 Y0.7716 Z-1.3000
G1 X7.3750 Y0.7500 Z-1.3000
G1 X7.5945 Y0.7716 Z-1.3000
G1 X7.8055 Y0.8356 Z-1.3000
G1 X8.0000 Y0.9396 Z-1.3000
G1 X8.1705 Y1.0795 Z-1.3000
G1 X8.3104 Y1.2500 Z-1.3000
G1 X8.4144 Y1.4445 Z-1.3000
G1 X8.4784 Y1.6555 Z-1.3000
G1 X8.5000 Y1.8750 Z-1.3000
G1 X8.5000 Y1.8750 Z-1.3000
G1 Z-1.4000 F50
G1 X8.4784 Y2.0945 Z-1.4000 F100
G1 X8.4144 Y2.3055 Z-1.4000
G1 X8.3104 Y2.5000 Z-1.4000
G1 X8.1705 Y2.6705 Z-1.4000
G1 X8.0000 Y2.8104 Z-1.4000
G1 X7.8055 Y2.9144 Z-1.4000
G1 X7.5945 Y2.9784 Z-1.4000
G1 X7.3750 Y3.0000 Z-1.4000
G1 X7.1555 Y2.9784 Z-1.4000
G1 X6.9445 Y2.9144 Z-1.4000
G1 X6.7500 Y2.8104 Z-1.4000
G1 X6.5795 Y2.6705 Z-1.4000
G1 X6.4396 Y2.5000 Z-1.4000
G1 X6.3356 Y2.3055 Z-1.4000
G1 X6.2716 Y2.0945 Z-1.4000
G1 X6.2500 Y1.8750 Z-1.4000
G1 X6.2716 Y1.6555 Z-1.4000
G1 X6.3356 Y1.4445 Z-1.4000
G1 X6.4396 Y1.2500 Z-1.4000
G1 X6.5795 Y1.0795 Z-1.4000
G1 X6.7500 Y0.9396 Z-1.4000
G1 X6.9445 Y0.8356 Z-1.4000
G1 X7.1555 Y0.7716 Z-1.4000
G1 X7.3750 Y0.7500 Z-1.4000
G1 X7.5945 Y0.7716 Z-1.4000
G1 X7.8055 Y0.8356 Z-1.4000
G1 X8.0000 Y0.9396 Z-1.4000
G1 X8.1705 Y1.0795 Z-1.4000
G1 X8.3104 Y1.2500 Z-1.4000
G1 X8.4144 Y1.4445 Z-1.4000
G1 X8.4784 Y1.6555 Z-1.4000
G1 X8.5000 Y1.8750 Z-1.4000
G1 X8.5000 Y1.8750 Z-1.4000
G1 Z-1.5000 F50
G1 X8.4784 Y2.0945 Z-1.5000 F100
G1 X8.4144 Y2.3055 Z-1.5000
G1 X8.3104 Y2.5000 Z-1.5000
G1 X8.1705 Y2.6705 Z-1.5000
G1 X8.0000 Y2.8104 Z-1.5000
G1 X7.8055 Y2.9144 Z-1.5000
G1 X7.5945 Y2.9784 Z-1.5000
G1 X7.3750 Y3.0000 Z-1.5000
G1 X7.1555 Y2.9784 Z-1.5000
G1 X6.9445 Y2.9144 Z-1.5000
G1 X6.7500 Y2.8104 Z-1.5000
G1 X6.5795 Y2.6705 Z-1.5000
G1 X6.4396 Y2.5000 Z-1.5000
G1 X6.3356 Y2.3055 Z-1.5000
G1 X6.2716 Y2.0945 Z-1.5000
G1 X6.2500 Y1.8750 Z-1.5000
G1 X6.2716 Y1.6555 Z-1.5000
G1 X6.3356 Y1.4445 Z-1.5000
G1 X6.4396 Y1.2500 Z-1.5000
G1 X6.5795 Y1.0795 Z-1.5000
G1 X6.7500 Y0.9396 Z-1.5000
G1 X6.9445 Y0.8356 Z-1.5000
G1 X7.1555 Y0.7716 Z-1.5000
G1 X7.3750 Y0.7500 Z-1.5000
G1 X7.5945 Y0.7716 Z-1.5000
G1 X7.8055 Y0.8356 Z-1.5000
G1 X8.0000 Y0.9396 Z-1.5000
G1 X8.1705 Y1.0795 Z-1.5000
G1 X8.3104 Y1.2500 Z-1.5000
G1 X8.4144 Y1.4445 Z-1.5000
G1 X8.4784 Y1.6555 Z-1.5000
G1 X8.5000 Y1.8750 Z-1.5000
G1 X8.5000 Y1.8750 Z-1.5000
G1 Z-1.6000 F50
G1 X8.4784 Y2.0945 Z-1.6000 F100
G1 X8.4144 Y2.3055 Z-1.6000
G1 X8.3104 Y2.5000 Z-1.6000
G1 X8.1705 Y2.6705 Z-1.6000
G1 X8.0000 Y2.8104 Z-1.6000
G1 X7.8055 Y2.9144 Z-1.6000
G1 X7.5945 Y2.9784 Z-1.6000
G1 X7.3750 Y3.0000 Z-1.6000
G1 X7.1555 Y2.9784 Z-1.6000
G1 X6.9445 Y2.9144 Z-1.6000
G1 X6.7500 Y2.8104 Z-1.6000
G1 X6.5795 Y2.6705 Z-1.6000
G1 X6.4396 Y2.5000 Z-1.6000
G1 X6.3356 Y2.3055 Z-1.6000
G1 X6.2716 Y2.0945 Z-1.6000
G1 X6.2500 Y1.8750 Z-1.6000
G1 X6.2716 Y1.6555 Z-1.6000
G1 X6.3356 Y1.4445 Z-1.6000
G1 X6.4396 Y1.2500 Z-1.6000
G1 X6.5795 Y1.0795 Z-1.6000
G1 X6.7500 Y0.9396 Z-1.6000
G1 X6.9445 Y0.8356 Z-1.6000
G1 X7.1555 Y0.7716 Z-1.6000
G1 X7.3750 Y0.7500 Z-1.6000
G1 X7.5945 Y0.7716 Z-1.6000
G1 X7.8055 Y0.8356 Z-1.6000
G1 X8.0000 Y0.9396 Z-1.6000
G1 X8.1705 Y1.0795 Z-1.6000
G1 X8.3104 Y1.2500 Z-1.6000
G1 X8.4144 Y1.4445 Z-1.6000
G1 X8.4784 Y1.6555 Z-1.6000
G1 X8.5000 Y1.8750 Z-1.6000
G1 X8.5000 Y1.8750 Z-1.6000

G0 Z0.5 ; move to z-safe height
G0 X11.2500 Y1.8750
G1 Z-0.1000 F50
G1 X11.2284 Y2.0945 Z-0.1000 F100
G1 X11.1644 Y2.3055 Z-0.1000
G1 X11.0604 Y2.5000 Z-0.1000
G1 X10.9205 Y2.6705 Z-0.1000
G1 X10.7500 Y2.8104 Z-0.1000
G1 X10.5555 Y2.9144 Z-0.1000
G1 X10.3445 Y2.9784 Z-0.1000
G1 X10.1250 Y3.0000 Z-0.1000
G1 X9.9055 Y2.9784 Z-0.1000
G1 X9.6945 Y2.9144 Z-0.1000
G1 X9.5000 Y2.8104 Z-0.1000
G1 X9.3295 Y2.6705 Z-0.1000
G1 X9.1896 Y2.5000 Z-0.1000
G1 X9.0856 Y2.3055 Z-0.1000
G1 X9.0216 Y2.0945 Z-0.1000
G1 X9.0000 Y1.8750 Z-0.1000
G1 X9.0216 Y1.6555 Z-0.1000
G1 X9.0856 Y1.4445 Z-0.1000
G1 X9.1896 Y1.2500 Z-0.1000
G1 X9.3295 Y1.0795 Z-0.1000
G1 X9.5000 Y0.9396 Z-0.1000
G1 X9.6945 Y0.8356 Z-0.1000
G1 X9.9055 Y0.7716 Z-0.1000
G1 X10.1250 Y0.7500 Z-0.1000
G1 X10.3445 Y0.7716 Z-0.1000
G1 X10.5555 Y0.8356 Z-0.1000
G1 X10.7500 Y0.9396 Z-0.1000
G1 X10.9205 Y1.0795 Z-0.1000
G1 X11.0604 Y1.2500 Z-0.1000
G1 X11.1644 Y1.4445 Z-0.1000
G1 X11.2284 Y1.6555 Z-0.1000
G1 X11.2500 Y1.8750 Z-0.1000
G1 X11.2500 Y1.8750 Z-0.1000
G1 Z-0.2000 F50
G1 X11.2284 Y2.0945 Z-0.2000 F100
G1 X11.1644 Y2.3055 Z-0.2000
G1 X11.0604 Y2.5000 Z-0.2000
G1 X10.9205 Y2.6705 Z-0.2000
G1 X10.7500 Y2.8104 Z-0.2000
G1 X10.5555 Y2.9144 Z-0.2000
G1 X10.3445 Y2.9784 Z-0.2000
G1 X10.1250 Y3.0000 Z-0.2000
G1 X9.9055 Y2.9784 Z-0.2000
G1 X9.6945 Y2.9144 Z-0.2000
G1 X9.5000 Y2.8104 Z-0.2000
G1 X9.3295 Y2.6705 Z-0.2000
G1 X9.1896 Y2.5000 Z-0.2000
G1 X9.0856 Y2.3055 Z-0.2000
G1 X9.0216 Y2.0945 Z-0.2000
G1 X9.0000 Y1.8750 Z-0.2000
G1 X9.0216 Y1.6555 Z-0.2000
G1 X9.0856 Y1.4445 Z-0.2000
G1 X9.1896 Y1.2500 Z-0.2000
G1 X9.3295 Y1.0795 Z-0.2000
G1 X9.5000 Y0.9396 Z-0.2000
G1 X9.6945 Y0.8356 Z-0.2000
G1 X9.9055 Y0.7716 Z-0.2000
G1 X10.1250 Y0.7500 Z-0.2000
G1 X10.3445 Y0.7716 Z-0.2000
G1 X10.5555 Y0.8356 Z-0.2000
G1 X10.7500 Y0.9396 Z-0.2000
G1 X10.9205 Y1.0795 Z-0.2000
G1 X11.0604 Y1.2500 Z-0.2000
G1 X11.1644 Y1.4445 Z-0.2000
G1 X11.2284 Y1.6555 Z-0.2000
G1 X11.2500 Y1.8750 Z-0.2000
G1 X11.2500 Y1.8750 Z-0.2000
G1 Z-0.3000 F50
G1 X11.2284 Y2.0945 Z-0.3000 F100
G1 X11.1644 Y2.3055 Z-0.3000
G1 X11.0604 Y2.5000 Z-0.3000
G1 X10.9205 Y2.6705 Z-0.3000
G1 X10.7500 Y2.8104 Z-0.3000
G1 X10.5555 Y2.9144 Z-0.3000
G1 X10.3445 Y2.9784 Z-0.3000
G1 X10.1250 Y3.0000 Z-0.3000
G1 X9.9055 Y2.9784 Z-0.3000
G1 X9.6945 Y2.9144 Z-0.3000
G1 X9.5000 Y2.8104 Z-0.3000
G1 X9.3295 Y2.6705 Z-0.3000
G1 X9.1896 Y2.5000 Z-0.3000
G1 X9.0856 Y2.3055 Z-0.3000
G1 X9.0216 Y2.0945 Z-0.3000
G1 X9.0000 Y1.8750 Z-0.3000
G1 X9.0216 Y1.6555 Z-0.3000
G1 X9.0856 Y1.4445 Z-0.3000
G1 X9.1896 Y1.2500 Z-0.3000
G1 X9.3295 Y1.0795 Z-0.3000
G1 X9.5000 Y0.9396 Z-0.3000
G1 X9.6945 Y0.8356 Z-0.3000
G1 X9.9055 Y0.7716 Z-0.3000
G1 X10.1250 Y0.7500 Z-0.3000
G1 X10.3445 Y0.7716 Z-0.3000
G1 X10.5555 Y0.8356 Z-0.3000
G1 X10.7500 Y0.9396 Z-0.3000
G1 X10.9205 Y1.0795 Z-0.3000
G1 X11.0604 Y1.2500 Z-0.3000
G1 X11.1644 Y1.4445 Z-0.3000
G1 X11.2284 Y1.6555 Z-0.3000
G1 X11.2500 Y1.8750 Z-0.3000
G1 X11.2500 Y1.8750 Z-0.3000
G1 Z-0.4000 F50
G1 X11.2284 Y2.0945 Z-0.4000 F100
G1 X11.1644 Y2.3055 Z-0.4000
G1 X11.0604 Y2.5000 Z-0.4000
G1 X10.9205 Y2.6705 Z-0.4000
G1 X10.7500 Y2.8104 Z-0.4000
G1 X10.5555 Y2.9144 Z-0.4000
G1 X10.3445 Y2.9784 Z-0.4000
G1 X10.1250 Y3.0000 Z-0.4000
G1 X9.9055 Y2.9784 Z-0.4000
G1 X9.6945 Y2.9144 Z-0.4000
G1 X9.5000 Y2.8104 Z-0.4000
G1 X9.3295 Y2.6705 Z-0.4000
G1 X9.1896 Y2.5000 Z-0.4000
G1 X9.0856 Y2.3055 Z-0.4000
G1 X9.0216 Y2.0945 Z-0.4000
G1 X9.0000 Y1.8750 Z-0.4000
G1 X9.0216 Y1.6555 Z-0.4000
G1 X9.0856 Y1.4445 Z-0.4000
G1 X9.1896 Y1.2500 Z-0.4000
G1 X9.3295 Y1.0795 Z-0.4000
G1 X9.5000 Y0.9396 Z-0.4000
G1 X9.6945 Y0.8356 Z-0.4000
G1 X9.9055 Y0.7716 Z-0.4000
G1 X10.1250 Y0.7500 Z-0.4000
G1 X10.3445 Y0.7716 Z-0.4000
G1 X10.5555 Y0.8356 Z-0.4000
G1 X10.7500 Y0.9396 Z-0.4000
G1 X10.9205 Y1.0795 Z-0.4000
G1 X11.0604 Y1.2500 Z-0.4000
G1 X11.1644 Y1.4445 Z-0.4000
G1 X11.2284 Y1.6555 Z-0.4000
G1 X11.2500 Y1.8750 Z-0.4000
G1 X11.2500 Y1.8750 Z-0.4000
G1 Z-0.5000 F50
G1 X11.2284 Y2.0945 Z-0.5000 F100
G1 X11.1644 Y2.3055 Z-0.5000
G1 X11.0604 Y2.5000 Z-0.5000
G1 X10.9205 Y2.6705 Z-0.5000
G1 X10.7500 Y2.8104 Z-0.5000
G1 X10.5555 Y2.9144 Z-0.5000
G1 X10.3445 Y2.9784 Z-0.5000
G1 X10.1250 Y3.0000 Z-0.5000
G1 X9.9055 Y2.9784 Z-0.5000
G1 X9.6945 Y2.9144 Z-0.5000
G1 X9.5000 Y2.8104 Z-0.5000
G1 X9.3295 Y2.6705 Z-0.5000
G1 X9.1896 Y2.5000 Z-0.5000
G1 X9.0856 Y2.3055 Z-0.5000
G1 X9.0216 Y2.0945 Z-0.5000
G1 X9.0000 Y1.8750 Z-0.5000
G1 X9.0216 Y1.6555 Z-0.5000
G1 X9.0856 Y1.4445 Z-0.5000
G1 X9.1896 Y1.2500 Z-0.5000
G1 X9.3295 Y1.0795 Z-0.5000
G1 X9.5000 Y0.9396 Z-0.5000
G1 X9.6945 Y0.8356 Z-0.5000
G1 X9.9055 Y0.7716 Z-0.5000
G1 X10.1250 Y0.7500 Z-0.5000
G1 X10.3445 Y0.7716 Z-0.5000
G1 X10.5555 Y0.8356 Z-0.5000
G1 X10.7500 Y0.9396 Z-0.5000
G1 X10.9205 Y1.0795 Z-0.5000
G1 X11.0604 Y1.2500 Z-0.5000
G1 X11.1644 Y1.4445 Z-0.5000
G1 X11.2284 Y1.6555 Z-0.5000
G1 X11.2500 Y1.8750 Z-0.5000
G1 X11.2500 Y1.8750 Z-0.5000
G1 Z-0.6000 F50
G1 X11.2284 Y2.0945 Z-0.6000 F100
G1 X11.1644 Y2.3055 Z-0.6000
G1 X11.0604 Y2.5000 Z-0.6000
G1 X10.9205 Y2.6705 Z-0.6000
G1 X10.7500 Y2.8104 Z-0.6000
G1 X10.5555 Y2.9144 Z-0.6000
G1 X10.3445 Y2.9784 Z-0.6000
G1 X10.1250 Y3.0000 Z-0.6000
G1 X9.9055 Y2.9784 Z-0.6000
G1 X9.6945 Y2.9144 Z-0.6000
G1 X9.5000 Y2.8104 Z-0.6000
G1 X9.3295 Y2.6705 Z-0.6000
G1 X9.1896 Y2.5000 Z-0.6000
G1 X9.0856 Y2.3055 Z-0.6000
G1 X9.0216 Y2.0945 Z-0.6000
G1 X9.0000 Y1.8750 Z-0.6000
G1 X9.0216 Y1.6555 Z-0.6000
G1 X9.0856 Y1.4445 Z-0.6000
G1 X9.1896 Y1.2500 Z-0.6000
G1 X9.3295 Y1.0795 Z-0.6000
G1 X9.5000 Y0.9396 Z-0.6000
G1 X9.6945 Y0.8356 Z-0.6000
G1 X9.9055 Y0.7716 Z-0.6000
G1 X10.1250 Y0.7500 Z-0.6000
G1 X10.3445 Y0.7716 Z-0.6000
G1 X10.5555 Y0.8356 Z-0.6000
G1 X10.7500 Y0.9396 Z-0.6000
G1 X10.9205 Y1.0795 Z-0.6000
G1 X11.0604 Y1.2500 Z-0.6000
G1 X11.1644 Y1.4445 Z-0.6000
G1 X11.2284 Y1.6555 Z-0.6000
G1 X11.2500 Y1.8750 Z-0.6000
G1 X11.2500 Y1.8750 Z-0.6000
G1 Z-0.7000 F50
G1 X11.2284 Y2.0945 Z-0.7000 F100
G1 X11.1644 Y2.3055 Z-0.7000
G1 X11.0604 Y2.5000 Z-0.7000
G1 X10.9205 Y2.6705 Z-0.7000
G1 X10.7500 Y2.8104 Z-0.7000
G1 X10.5555 Y2.9144 Z-0.7000
G1 X10.3445 Y2.9784 Z-0.7000
G1 X10.1250 Y3.0000 Z-0.7000
G1 X9.9055 Y2.9784 Z-0.7000
G1 X9.6945 Y2.9144 Z-0.7000
G1 X9.5000 Y2.8104 Z-0.7000
G1 X9.3295 Y2.6705 Z-0.7000
G1 X9.1896 Y2.5000 Z-0.7000
G1 X9.0856 Y2.3055 Z-0.7000
G1 X9.0216 Y2.0945 Z-0.7000
G1 X9.0000 Y1.8750 Z-0.7000
G1 X9.0216 Y1.6555 Z-0.7000
G1 X9.0856 Y1.4445 Z-0.7000
G1 X9.1896 Y1.2500 Z-0.7000
G1 X9.3295 Y1.0795 Z-0.7000
G1 X9.5000 Y0.9396 Z-0.7000
G1 X9.6945 Y0.8356 Z-0.7000
G1 X9.9055 Y0.7716 Z-0.7000
G1 X10.1250 Y0.7500 Z-0.7000
G1 X10.3445 Y0.7716 Z-0.7000
G1 X10.5555 Y0.8356 Z-0.7000
G1 X10.7500 Y0.9396 Z-0.7000
G1 X10.9205 Y1.0795 Z-0.7000
G1 X11.0604 Y1.2500 Z-0.7000
G1 X11.1644 Y1.4445 Z-0.7000
G1 X11.2284 Y1.6555 Z-0.7000
G1 X11.2500 Y1.8750 Z-0.7000
G1 X11.2500 Y1.8750 Z-0.7000
G1 Z-0.8000 F50
G1 X11.2284 Y2.0945 Z-0.8000 F100
G1 X11.1644 Y2.3055 Z-0.8000
G1 X11.0604 Y2.5000 Z-0.8000
G1 X10.9205 Y2.6705 Z-0.8000
G1 X10.7500 Y2.8104 Z-0.8000
G1 X10.5555 Y2.9144 Z-0.8000
G1 X10.3445 Y2.9784 Z-0.8000
G1 X10.1250 Y3.0000 Z-0.8000
G1 X9.9055 Y2.9784 Z-0.8000
G1 X9.6945 Y2.9144 Z-0.8000
G1 X9.5000 Y2.8104 Z-0.8000
G1 X9.3295 Y2.6705 Z-0.8000
G1 X9.1896 Y2.5000 Z-0.8000
G1 X9.0856 Y2.3055 Z-0.8000
G1 X9.0216 Y2.0945 Z-0.8000
G1 X9.0000 Y1.8750 Z-0.8000
G1 X9.0216 Y1.6555 Z-0.8000
G1 X9.0856 Y1.4445 Z-0.8000
G1 X9.1896 Y1.2500 Z-0.8000
G1 X9.3295 Y1.0795 Z-0.8000
G1 X9.5000 Y0.9396 Z-0.8000
G1 X9.6945 Y0.8356 Z-0.8000
G1 X9.9055 Y0.7716 Z-0.8000
G1 X10.1250 Y0.7500 Z-0.8000
G1 X10.3445 Y0.7716 Z-0.8000
G1 X10.5555 Y0.8356 Z-0.8000
G1 X10.7500 Y0.9396 Z-0.8000
G1 X10.9205 Y1.0795 Z-0.8000
G1 X11.0604 Y1.2500 Z-0.8000
G1 X11.1644 Y1.4445 Z-0.8000
G1 X11.2284 Y1.6555 Z-0.8000
G1 X11.2500 Y1.8750 Z-0.8000
G1 X11.2500 Y1.8750 Z-0.8000
G1 Z-0.9000 F50
G1 X11.2284 Y2.0945 Z-0.9000 F100
G1 X11.1644 Y2.3055 Z-0.9000
G1 X11.0604 Y2.5000 Z-0.9000
G1 X10.9205 Y2.6705 Z-0.9000
G1 X10.7500 Y2.8104 Z-0.9000
G1 X10.5555 Y2.9144 Z-0.9000
G1 X10.3445 Y2.9784 Z-0.9000
G1 X10.1250 Y3.0000 Z-0.9000
G1 X9.9055 Y2.9784 Z-0.9000
G1 X9.6945 Y2.9144 Z-0.9000
G1 X9.5000 Y2.8104 Z-0.9000
G1 X9.3295 Y2.6705 Z-0.9000
G1 X9.1896 Y2.5000 Z-0.9000
G1 X9.0856 Y2.3055 Z-0.9000
G1 X9.0216 Y2.0945 Z-0.9000
G1 X9.0000 Y1.8750 Z-0.9000
G1 X9.0216 Y1.6555 Z-0.9000
G1 X9.0856 Y1.4445 Z-0.9000
G1 X9.1896 Y1.2500 Z-0.9000
G1 X9.3295 Y1.0795 Z-0.9000
G1 X9.5000 Y0.9396 Z-0.9000
G1 X9.6945 Y0.8356 Z-0.9000
G1 X9.9055 Y0.7716 Z-0.9000
G1 X10.1250 Y0.7500 Z-0.9000
G1 X10.3445 Y0.7716 Z-0.9000
G1 X10.5555 Y0.8356 Z-0.9000
G1 X10.7500 Y0.9396 Z-0.9000
G1 X10.9205 Y1.0795 Z-0.9000
G1 X11.0604 Y1.2500 Z-0.9000
G1 X11.1644 Y1.4445 Z-0.9000
G1 X11.2284 Y1.6555 Z-0.9000
G1 X11.2500 Y1.8750 Z-0.9000
G1 X11.2500 Y1.8750 Z-0.9000
G1 Z-1.0000 F50
G1 X11.2284 Y2.0945 Z-1.0000 F100
G1 X11.1644 Y2.3055 Z-1.0000
G1 X11.0604 Y2.5000 Z-1.0000
G1 X10.9205 Y2.6705 Z-1.0000
G1 X10.7500 Y2.8104 Z-1.0000
G1 X10.5555 Y2.9144 Z-1.0000
G1 X10.3445 Y2.9784 Z-1.0000
G1 X10.1250 Y3.0000 Z-1.0000
G1 X9.9055 Y2.9784 Z-1.0000
G1 X9.6945 Y2.9144 Z-1.0000
G1 X9.5000 Y2.8104 Z-1.0000
G1 X9.3295 Y2.6705 Z-1.0000
G1 X9.1896 Y2.5000 Z-1.0000
G1 X9.0856 Y2.3055 Z-1.0000
G1 X9.0216 Y2.0945 Z-1.0000
G1 X9.0000 Y1.8750 Z-1.0000
G1 X9.0216 Y1.6555 Z-1.0000
G1 X9.0856 Y1.4445 Z-1.0000
G1 X9.1896 Y1.2500 Z-1.0000
G1 X9.3295 Y1.0795 Z-1.0000
G1 X9.5000 Y0.9396 Z-1.0000
G1 X9.6945 Y0.8356 Z-1.0000
G1 X9.9055 Y0.7716 Z-1.0000
G1 X10.1250 Y0.7500 Z-1.0000
G1 X10.3445 Y0.7716 Z-1.0000
G1 X10.5555 Y0.8356 Z-1.0000
G1 X10.7500 Y0.9396 Z-1.0000
G1 X10.9205 Y1.0795 Z-1.0000
G1 X11.0604 Y1.2500 Z-1.0000
G1 X11.1644 Y1.4445 Z-1.0000
G1 X11.2284 Y1.6555 Z-1.0000
G1 X11.2500 Y1.8750 Z-1.0000
G1 X11.2500 Y1.8750 Z-1.0000
G1 Z-1.1000 F50
G1 X11.2284 Y2.0945 Z-1.1000 F100
G1 X11.1644 Y2.3055 Z-1.1000
G1 X11.0604 Y2.5000 Z-1.1000
G1 X10.9205 Y2.6705 Z-1.1000
G1 X10.7500 Y2.8104 Z-1.1000
G1 X10.5555 Y2.9144 Z-1.1000
G1 X10.3445 Y2.9784 Z-1.1000
G1 X10.1250 Y3.0000 Z-1.1000
G1 X9.9055 Y2.9784 Z-1.1000
G1 X9.6945 Y2.9144 Z-1.1000
G1 X9.5000 Y2.8104 Z-1.1000
G1 X9.3295 Y2.6705 Z-1.1000
G1 X9.1896 Y2.5000 Z-1.1000
G1 X9.0856 Y2.3055 Z-1.1000
G1 X9.0216 Y2.0945 Z-1.1000
G1 X9.0000 Y1.8750 Z-1.1000
G1 X9.0216 Y1.6555 Z-1.1000
G1 X9.0856 Y1.4445 Z-1.1000
G1 X9.1896 Y1.2500 Z-1.1000
G1 X9.3295 Y1.0795 Z-1.1000
G1 X9.5000 Y0.9396 Z-1.1000
G1 X9.6945 Y0.8356 Z-1.1000
G1 X9.9055 Y0.7716 Z-1.1000
G1 X10.1250 Y0.7500 Z-1.1000
G1 X10.3445 Y0.7716 Z-1.1000
G1 X10.5555 Y0.8356 Z-1.1000
G1 X10.7500 Y0.9396 Z-1.1000
G1 X10.9205 Y1.0795 Z-1.1000
G1 X11.0604 Y1.2500 Z-1.1000
G1 X11.1644 Y1.4445 Z-1.1000
G1 X11.2284 Y1.6555 Z-1.1000
G1 X11.2500 Y1.8750 Z-1.1000
G1 X11.2500 Y1.8750 Z-1.1000
G1 Z-1.2000 F50
G1 X11.2284 Y2.0945 Z-1.2000 F100
G1 X11.1644 Y2.3055 Z-1.2000
G1 X11.0604 Y2.5000 Z-1.2000
G1 X10.9205 Y2.6705 Z-1.2000
G1 X10.7500 Y2.8104 Z-1.2000
G1 X10.5555 Y2.9144 Z-1.2000
G1 X10.3445 Y2.9784 Z-1.2000
G1 X10.1250 Y3.0000 Z-1.2000
G1 X9.9055 Y2.9784 Z-1.2000
G1 X9.6945 Y2.9144 Z-1.2000
G1 X9.5000 Y2.8104 Z-1.2000
G1 X9.3295 Y2.6705 Z-1.2000
G1 X9.1896 Y2.5000 Z-1.2000
G1 X9.0856 Y2.3055 Z-1.2000
G1 X9.0216 Y2.0945 Z-1.2000
G1 X9.0000 Y1.8750 Z-1.2000
G1 X9.0216 Y1.6555 Z-1.2000
G1 X9.0856 Y1.4445 Z-1.2000
G1 X9.1896 Y1.2500 Z-1.2000
G1 X9.3295 Y1.0795 Z-1.2000
G1 X9.5000 Y0.9396 Z-1.2000
G1 X9.6945 Y0.8356 Z-1.2000
G1 X9.9055 Y0.7716 Z-1.2000
G1 X10.1250 Y0.7500 Z-1.2000
G1 X10.3445 Y0.7716 Z-1.2000
G1 X10.5555 Y0.8356 Z-1.2000
G1 X10.7500 Y0.9396 Z-1.2000
G1 X10.9205 Y1.0795 Z-1.2000
G1 X11.0604 Y1.2500 Z-1.2000
G1 X11.1644 Y1.4445 Z-1.2000
G1 X11.2284 Y1.6555 Z-1.2000
G1 X11.2500 Y1.8750 Z-1.2000
G1 X11.2500 Y1.8750 Z-1.2000
G1 Z-1.3000 F50
G1 X11.2284 Y2.0945 Z-1.3000 F100
G1 X11.1644 Y2.3055 Z-1.3000
G1 X11.0604 Y2.5000 Z-1.3000
G1 X10.9205 Y2.6705 Z-1.3000
G1 X10.7500 Y2.8104 Z-1.3000
G1 X10.5555 Y2.9144 Z-1.3000
G1 X10.3445 Y2.9784 Z-1.3000
G1 X10.1250 Y3.0000 Z-1.3000
G1 X9.9055 Y2.9784 Z-1.3000
G1 X9.6945 Y2.9144 Z-1.3000
G1 X9.5000 Y2.8104 Z-1.3000
G1 X9.3295 Y2.6705 Z-1.3000
G1 X9.1896 Y2.5000 Z-1.3000
G1 X9.0856 Y2.3055 Z-1.3000
G1 X9.0216 Y2.0945 Z-1.3000
G1 X9.0000 Y1.8750 Z-1.3000
G1 X9.0216 Y1.6555 Z-1.3000
G1 X9.0856 Y1.4445 Z-1.3000
G1 X9.1896 Y1.2500 Z-1.3000
G1 X9.3295 Y1.0795 Z-1.3000
G1 X9.5000 Y0.9396 Z-1.3000
G1 X9.6945 Y0.8356 Z-1.3000
G1 X9.9055 Y0.7716 Z-1.3000
G1 X10.1250 Y0.7500 Z-1.3000
G1 X10.3445 Y0.7716 Z-1.3000
G1 X10.5555 Y0.8356 Z-1.3000
G1 X10.7500 Y0.9396 Z-1.3000
G1 X10.9205 Y1.0795 Z-1.3000
G1 X11.0604 Y1.2500 Z-1.3000
G1 X11.1644 Y1.4445 Z-1.3000
G1 X11.2284 Y1.6555 Z-1.3000
G1 X11.2500 Y1.8750 Z-1.3000
G1 X11.2500 Y1.8750 Z-1.3000
G1 Z-1.4000 F50
G1 X11.2284 Y2.0945 Z-1.4000 F100
G1 X11.1644 Y2.3055 Z-1.4000
G1 X11.0604 Y2.5000 Z-1.4000
G1 X10.9205 Y2.6705 Z-1.4000
G1 X10.7500 Y2.8104 Z-1.4000
G1 X10.5555 Y2.9144 Z-1.4000
G1 X10.3445 Y2.9784 Z-1.4000
G1 X10.1250 Y3.0000 Z-1.4000
G1 X9.9055 Y2.9784 Z-1.4000
G1 X9.6945 Y2.9144 Z-1.4000
G1 X9.5000 Y2.8104 Z-1.4000
G1 X9.3295 Y2.6705 Z-1.4000
G1 X9.1896 Y2.5000 Z-1.4000
G1 X9.0856 Y2.3055 Z-1.4000
G1 X9.0216 Y2.0945 Z-1.4000
G1 X9.0000 Y1.8750 Z-1.4000
G1 X9.0216 Y1.6555 Z-1.4000
G1 X9.0856 Y1.4445 Z-1.4000
G1 X9.1896 Y1.2500 Z-1.4000
G1 X9.3295 Y1.0795 Z-1.4000
G1 X9.5000 Y0.9396 Z-1.4000
G1 X9.6945 Y0.8356 Z-1.4000
G1 X9.9055 Y0.7716 Z-1.4000
G1 X10.1250 Y0.7500 Z-1.4000
G1 X10.3445 Y0.7716 Z-1.4000
G1 X10.5555 Y0.8356 Z-1.4000
G1 X10.7500 Y0.9396 Z-1.4000
G1 X10.9205 Y1.0795 Z-1.4000
G1 X11.0604 Y1.2500 Z-1.4000
G1 X11.1644 Y1.4445 Z-1.4000
G1 X11.2284 Y1.6555 Z-1.4000
G1 X11.2500 Y1.8750 Z-1.4000
G1 X11.2500 Y1.8750 Z-1.4000
G1 Z-1.5000 F50
G1 X11.2284 Y2.0945 Z-1.5000 F100
G1 X11.1644 Y2.3055 Z-1.5000
G1 X11.0604 Y2.5000 Z-1.5000
G1 X10.9205 Y2.6705 Z-1.5000
G1 X10.7500 Y2.8104 Z-1.5000
G1 X10.5555 Y2.9144 Z-1.5000
G1 X10.3445 Y2.9784 Z-1.5000
G1 X10.1250 Y3.0000 Z-1.5000
G1 X9.9055 Y2.9784 Z-1.5000
G1 X9.6945 Y2.9144 Z-1.5000
G1 X9.5000 Y2.8104 Z-1.5000
G1 X9.3295 Y2.6705 Z-1.5000
G1 X9.1896 Y2.5000 Z-1.5000
G1 X9.0856 Y2.3055 Z-1.5000
G1 X9.0216 Y2.0945 Z-1.5000
G1 X9.0000 Y1.8750 Z-1.5000
G1 X9.0216 Y1.6555 Z-1.5000
G1 X9.0856 Y1.4445 Z-1.5000
G1 X9.1896 Y1.2500 Z-1.5000
G1 X9.3295 Y1.0795 Z-1.5000
G1 X9.5000 Y0.9396 Z-1.5000
G1 X9.6945 Y0.8356 Z-1.5000
G1 X9.9055 Y0.7716 Z-1.5000
G1 X10.1250 Y0.7500 Z-1.5000
G1 X10.3445 Y0.7716 Z-1.5000
G1 X10.5555 Y0.8356 Z-1.5000
G1 X10.7500 Y0.9396 Z-1.5000
G1 X10.9205 Y1.0795 Z-1.5000
G1 X11.0604 Y1.2500 Z-1.5000
G1 X11.1644 Y1.4445 Z-1.5000
G1 X11.2284 Y1.6555 Z-1.5000
G1 X11.2500 Y1.8750 Z-1.5000
G1 X11.2500 Y1.8750 Z-1.5000
G1 Z-1.6000 F50
G1 X11.2284 Y2.0945 Z-1.6000 F100
G1 X11.1644 Y2.3055 Z-1.6000
G1 X11.0604 Y2.5000 Z-1.6000
G1 X10.9205 Y2.6705 Z-1.6000
G1 X10.7500 Y2.8104 Z-1.6000
G1 X10.5555 Y2.9144 Z-1.6000
G1 X10.3445 Y2.9784 Z-1.6000
G1 X10.1250 Y3.0000 Z-1.6000
G1 X9.9055 Y2.9784 Z-1.6000
G1 X9.6945 Y2.9144 Z-1.6000
G1 X9.5000 Y2.8104 Z-1.6000
G1 X9.3295 Y2.6705 Z-1.6000
G1 X9.1896 Y2.5000 Z-1.6000
G1 X9.0856 Y2.3055 Z-1.6000
G1 X9.0216 Y2.0945 Z-1.6000
G1 X9.0000 Y1.8750 Z-1.6000
G1 X9.0216 Y1.6555 Z-1.6000
G1 X9.0856 Y1.4445 Z-1.6000
G1 X9.1896 Y1.2500 Z-1.6000
G1 X9.3295 Y1.0795 Z-1.6000
G1 X9.5000 Y0.9396 Z-1.6000
G1 X9.6945 Y0.8356 Z-1.6000
G1 X9.9055 Y0.7716 Z-1.6000
G1 X10.1250 Y0.7500 Z-1.6000
G1 X10.3445 Y0.7716 Z-1.6000
G1 X10.5555 Y0.8356 Z-1.6000
G1 X10.7500 Y0.9396 Z-1.6000
G1 X10.9205 Y1.0795 Z-1.6000
G1 X11.0604 Y1.2500 Z-1.6000
G1 X11.1644 Y1.4445 Z-1.6000
G1 X11.2284 Y1.6555 Z-1.6000
G1 X11.2500 Y1.8750 Z-1.6000
G1 X11.2500 Y1.8750 Z-1.6000

G0 Z0.5 ; move to z-safe height
G0 X13.0523 Y-0.0030
G1 Z-0.1000 F50
G1 X13.0523 Y-0.0030 Z-0.1000 F100
G1 X13.0488 Y-0.0029 Z-0.1000
G1 X13.0453 Y-0.0027 Z-0.1000
G1 X13.0419 Y-0.0024 Z-0.1000
G1 X13.0384 Y-0.0019 Z-0.1000
G1 X13.0349 Y-0.0014 Z-0.1000
G1 X13.0315 Y-0.0008 Z-0.1000
G1 X13.0281 Y-0.0001 Z-0.1000
G1 X13.0247 Y0.0007 Z-0.1000
G1 X13.0213 Y0.0015 Z-0.1000
G1 X13.0179 Y0.0024 Z-0.1000
G1 X13.0145 Y0.0033 Z-0.1000
G1 X13.0112 Y0.0044 Z-0.1000
G1 X13.0078 Y0.0054 Z-0.1000
G1 X13.0045 Y0.0065 Z-0.1000
G1 X13.0012 Y0.0077 Z-0.1000
G1 X12.9979 Y0.0088 Z-0.1000
G1 X12.9947 Y0.0101 Z-0.1000
G1 X12.9914 Y0.0113 Z-0.1000
G1 X12.9882 Y0.0126 Z-0.1000
G1 X12.9849 Y0.0140 Z-0.1000
G1 X12.9817 Y0.0153 Z-0.1000
G1 X12.9785 Y0.0167 Z-0.1000
G1 X12.9753 Y0.0182 Z-0.1000
G1 X12.9721 Y0.0196 Z-0.1000
G1 X12.9690 Y0.0211 Z-0.1000
G1 X12.9658 Y0.0226 Z-0.1000
G1 X12.9627 Y0.0242 Z-0.1000
G1 X12.9595 Y0.0257 Z-0.1000
G1 X12.9564 Y0.0273 Z-0.1000
G1 X12.9533 Y0.0289 Z-0.1000
G1 X12.9502 Y0.0305 Z-0.1000
G1 X12.9471 Y0.0322 Z-0.1000
G1 X12.9441 Y0.0338 Z-0.1000
G1 X12.9410 Y0.0355 Z-0.1000
G1 X12.9380 Y0.0372 Z-0.1000
G1 X12.9349 Y0.0390 Z-0.1000
G1 X12.9319 Y0.0407 Z-0.1000
G1 X12.9289 Y0.0425 Z-0.1000
G1 X12.9259 Y0.0443 Z-0.1000
G1 X12.9229 Y0.0461 Z-0.1000
G1 X12.9199 Y0.0479 Z-0.1000
G1 X12.9169 Y0.0497 Z-0.1000
G1 X12.9139 Y0.0515 Z-0.1000
G1 X12.9110 Y0.0534 Z-0.1000
G1 X12.9080 Y0.0553 Z-0.1000
G1 X12.9051 Y0.0572 Z-0.1000
G1 X12.9022 Y0.0591 Z-0.1000
G1 X12.8992 Y0.0610 Z-0.1000
G1 X12.8963 Y0.0629 Z-0.1000
G1 X12.8934 Y0.0649 Z-0.1000
G1 X12.8905 Y0.0669 Z-0.1000
G1 X12.8876 Y0.0688 Z-0.1000
G1 X12.8848 Y0.0708 Z-0.1000
G1 X12.8819 Y0.0728 Z-0.1000
G1 X12.8791 Y0.0749 Z-0.1000
G1 X12.8762 Y0.0769 Z-0.1000
G1 X12.8734 Y0.0789 Z-0.1000
G1 X12.8706 Y0.0810 Z-0.1000
G1 X12.8677 Y0.0831 Z-0.1000
G1 X12.8649 Y0.0851 Z-0.1000
G1 X12.8621 Y0.0872 Z-0.1000
G1 X12.8593 Y0.0893 Z-0.1000
G1 X12.8566 Y0.0915 Z-0.1000
G1 X12.8538 Y0.0936 Z-0.1000
G1 X12.8510 Y0.0957 Z-0.1000
G1 X12.8483 Y0.0979 Z-0.1000
G1 X12.8455 Y0.1001 Z-0.1000
G1 X12.8428 Y0.1022 Z-0.1000
G1 X12.8401 Y0.1044 Z-0.1000
G1 X12.8373 Y0.1066 Z-0.1000
G1 X12.8346 Y0.1088 Z-0.1000
G1 X12.8319 Y0.1111 Z-0.1000
G1 X12.8293 Y0.1133 Z-0.1000
G1 X12.8266 Y0.1155 Z-0.1000
G1 X12.8239 Y0.1178 Z-0.1000
G1 X12.8212 Y0.1201 Z-0.1000
G1 X12.8186 Y0.1223 Z-0.1000
G1 X12.8160 Y0.1246 Z-0.1000
G1 X12.8133 Y0.1269 Z-0.1000
G1 X12.8107 Y0.1292 Z-0.1000
G1 X12.8081 Y0.1316 Z-0.1000
G1 X12.8055 Y0.1339 Z-0.1000
G1 X12.8029 Y0.1362 Z-0.1000
G1 X12.8003 Y0.1386 Z-0.1000
G1 X12.7977 Y0.1410 Z-0.1000
G1 X12.7952 Y0.1434 Z-0.1000
G1 X12.7926 Y0.1457 Z-0.1000
G1 X12.7901 Y0.1481 Z-0.1000
G1 X12.7876 Y0.1506 Z-0.1000
G1 X12.7850 Y0.1530 Z-0.1000
G1 X12.7825 Y0.1554 Z-0.1000
G1 X12.7800 Y0.1579 Z-0.1000
G1 X12.7775 Y0.1603 Z-0.1000
G1 X12.7751 Y0.1628 Z-0.1000
G1 X12.7726 Y0.1653 Z-0.1000
G1 X12.7702 Y0.1678 Z-0.1000
G1 X12.7677 Y0.1703 Z-0.1000
G1 X12.7653 Y0.1728 Z-0.1000
G1 X12.7629 Y0.1753 Z-0.1000
G1 X12.7605 Y0.1778 Z-0.1000
G1 X12.7581 Y0.1804 Z-0.1000
G1 X12.7557 Y0.1829 Z-0.1000
G1 X12.7557 Y0.1829 Z-0.1000
G1 X12.7533 Y0.1855 Z-0.1000
G1 X12.7510 Y0.1881 Z-0.1000
G1 X12.7486 Y0.1906 Z-0.1000
G1 X12.7463 Y0.1932 Z-0.1000
G1 X12.7439 Y0.1958 Z-0.1000
G1 X12.7416 Y0.1985 Z-0.1000
G1 X12.7393 Y0.2011 Z-0.1000
G1 X12.7370 Y0.2037 Z-0.1000
G1 X12.7347 Y0.2063 Z-0.1000
G1 X12.7324 Y0.2090 Z-0.1000
G1 X12.7301 Y0.2116 Z-0.1000
G1 X12.7279 Y0.2143 Z-0.1000
G1 X12.7256 Y0.2170 Z-0.1000
G1 X12.7234 Y0.2196 Z-0.1000
G1 X12.7211 Y0.2223 Z-0.1000
G1 X12.7189 Y0.2250 Z-0.1000
G1 X12.7167 Y0.2277 Z-0.1000
G1 X12.7145 Y0.2304 Z-0.1000
G1 X12.7123 Y0.2331 Z-0.1000
G1 X12.7101 Y0.2358 Z-0.1000
G1 X12.7079 Y0.2385 Z-0.1000
G1 X12.7057 Y0.2413 Z-0.1000
G1 X12.7035 Y0.2440 Z-0.1000
G1 X12.7014 Y0.2468 Z-0.1000
G1 X12.6992 Y0.2495 Z-0.1000
G1 X12.6971 Y0.2523 Z-0.1000
G1 X12.6950 Y0.2550 Z-0.1000
G1 X12.6928 Y0.2578 Z-0.1000
G1 X12.6907 Y0.2606 Z-0.1000
G1 X12.6886 Y0.2634 Z-0.1000
G1 X12.6865 Y0.2662 Z-0.1000
G1 X12.6844 Y0.2690 Z-0.1000
G1 X12.6823 Y0.2718 Z-0.1000
G1 X12.6802 Y0.2746 Z-0.1000
G1 X12.6782 Y0.2774 Z-0.1000
G1 X12.6761 Y0.2802 Z-0.1000
G1 X12.6741 Y0.2831 Z-0.1000
G1 X12.6720 Y0.2859 Z-0.1000
G1 X12.6700 Y0.2887 Z-0.1000
G1 X12.6680 Y0.2916 Z-0.1000
G1 X12.6659 Y0.2944 Z-0.1000
G1 X12.6639 Y0.2973 Z-0.1000
G1 X12.6619 Y0.3001 Z-0.1000
G1 X12.6599 Y0.3030 Z-0.1000
G1 X12.6580 Y0.3059 Z-0.1000
G1 X12.6560 Y0.3088 Z-0.1000
G1 X12.6540 Y0.3116 Z-0.1000
G1 X12.6520 Y0.3145 Z-0.1000
G1 X12.6501 Y0.3174 Z-0.1000
G1 X12.6481 Y0.3203 Z-0.1000
G1 X12.6462 Y0.3232 Z-0.1000
G1 X12.6443 Y0.3261 Z-0.1000
G1 X12.6423 Y0.3291 Z-0.1000
G1 X12.6404 Y0.3320 Z-0.1000
G1 X12.6385 Y0.3349 Z-0.1000
G1 X12.6366 Y0.3378 Z-0.1000
G1 X12.6347 Y0.3408 Z-0.1000
G1 X12.6328 Y0.3437 Z-0.1000
G1 X12.6310 Y0.3466 Z-0.1000
G1 X12.6291 Y0.3496 Z-0.1000
G1 X12.6272 Y0.3526 Z-0.1000
G1 X12.6253 Y0.3555 Z-0.1000
G1 X12.6235 Y0.3585 Z-0.1000
G1 X12.6217 Y0.3614 Z-0.1000
G1 X12.6198 Y0.3644 Z-0.1000
G1 X12.6180 Y0.3674 Z-0.1000
G1 X12.6162 Y0.3704 Z-0.1000
G1 X12.6143 Y0.3734 Z-0.1000
G1 X12.6125 Y0.3764 Z-0.1000
G1 X12.6107 Y0.3793 Z-0.1000
G1 X12.6090 Y0.3823 Z-0.1000
G1 X12.6072 Y0.3853 Z-0.1000
G1 X12.6054 Y0.3883 Z-0.1000
G1 X12.6036 Y0.3914 Z-0.1000
G1 X12.6018 Y0.3944 Z-0.1000
G1 X12.6001 Y0.3974 Z-0.1000
G1 X12.5983 Y0.4004 Z-0.1000
G1 X12.5966 Y0.4034 Z-0.1000
G1 X12.5949 Y0.4065 Z-0.1000
G1 X12.5931 Y0.4095 Z-0.1000
G1 X12.5914 Y0.4125 Z-0.1000
G1 X12.5897 Y0.4156 Z-0.1000
G1 X12.5880 Y0.4186 Z-0.1000
G1 X12.5863 Y0.4217 Z-0.1000
G1 X12.5846 Y0.4247 Z-0.1000
G1 X12.5829 Y0.4278 Z-0.1000
G1 X12.5812 Y0.4308 Z-0.1000
G1 X12.5795 Y0.4339 Z-0.1000
G1 X12.5778 Y0.4370 Z-0.1000
G1 X12.5762 Y0.4400 Z-0.1000
G1 X12.5745 Y0.4431 Z-0.1000
G1 X12.5728 Y0.4462 Z-0.1000
G1 X12.5712 Y0.4493 Z-0.1000
G1 X12.5696 Y0.4524 Z-0.1000
G1 X12.5679 Y0.4555 Z-0.1000
G1 X12.5663 Y0.4585 Z-0.1000
G1 X12.5647 Y0.4616 Z-0.1000
G1 X12.5631 Y0.4647 Z-0.1000
G1 X12.5614 Y0.4678 Z-0.1000
G1 X12.5598 Y0.4709 Z-0.1000
G1 X12.5582 Y0.4740 Z-0.1000
G1 X12.5566 Y0.4772 Z-0.1000
G1 X12.5551 Y0.4803 Z-0.1000
G1 X12.5535 Y0.4834 Z-0.1000
G1 X12.5519 Y0.4865 Z-0.1000
G1 X12.5504 Y0.4896 Z-0.1000
G1 X12.5488 Y0.4927 Z-0.1000
G1 X12.5472 Y0.4959 Z-0.1000
G1 X12.5457 Y0.4990 Z-0.1000
G1 X12.5441 Y0.5021 Z-0.1000
G1 X12.5426 Y0.5053 Z-0.1000
G1 X12.5411 Y0.5084 Z-0.1000
G1 X12.5395 Y0.5115 Z-0.1000
G1 X12.5380 Y0.5147 Z-0.1000
G1 X12.5365 Y0.5179 Z-0.1000
G1 X12.5350 Y0.5210 Z-0.1000
G1 X12.5335 Y0.5242 Z-0.1000
G1 X12.5320 Y0.5273 Z-0.1000
G1 X12.5305 Y0.5305 Z-0.1000
G1 X12.5290 Y0.5336 Z-0.1000
G1 X12.5275 Y0.5368 Z-0.1000
G1 X12.5261 Y0.5400 Z-0.1000
G1 X12.5246 Y0.5431 Z-0.1000
G1 X12.5231 Y0.5463 Z-0.1000
G1 X12.5217 Y0.5495 Z-0.1000
G1 X12.5202 Y0.5526 Z-0.1000
G1 X12.5188 Y0.5558 Z-0.1000
G1 X12.5173 Y0.5590 Z-0.1000
G1 X12.5159 Y0.5622 Z-0.1000
G1 X12.5145 Y0.5654 Z-0.1000
G1 X12.5130 Y0.5686 Z-0.1000
G1 X12.5116 Y0.5718 Z-0.1000
G1 X12.5102 Y0.5750 Z-0.1000
G1 X12.5088 Y0.5782 Z-0.1000
G1 X12.5074 Y0.5814 Z-0.1000
G1 X12.5060 Y0.5846 Z-0.1000
G1 X12.5046 Y0.5878 Z-0.1000
G1 X12.5032 Y0.5910 Z-0.1000
G1 X12.5018 Y0.5942 Z-0.1000
G1 X12.5005 Y0.5974 Z-0.1000
G1 X12.4991 Y0.6006 Z-0.1000
G1 X12.4977 Y0.6038 Z-0.1000
G1 X12.4964 Y0.6070 Z-0.1000
G1 X12.4950 Y0.6103 Z-0.1000
G1 X12.4937 Y0.6135 Z-0.1000
G1 X12.4923 Y0.6167 Z-0.1000
G1 X12.4910 Y0.6199 Z-0.1000
G1 X12.4896 Y0.6231 Z-0.1000
G1 X12.4883 Y0.6264 Z-0.1000
G1 X12.4870 Y0.6296 Z-0.1000
G1 X12.4857 Y0.6328 Z-0.1000
G1 X12.4843 Y0.6361 Z-0.1000
G1 X12.4830 Y0.6393 Z-0.1000
G1 X12.4817 Y0.6426 Z-0.1000
G1 X12.4804 Y0.6458 Z-0.1000
G1 X12.4791 Y0.6490 Z-0.1000
G1 X12.4778 Y0.6523 Z-0.1000
G1 X12.4766 Y0.6555 Z-0.1000
G1 X12.4753 Y0.6588 Z-0.1000
G1 X12.4740 Y0.6621 Z-0.1000
G1 X12.4727 Y0.6653 Z-0.1000
G1 X12.4715 Y0.6686 Z-0.1000
G1 X12.4702 Y0.6718 Z-0.1000
G1 X12.4689 Y0.6751 Z-0.1000
G1 X12.4677 Y0.6783 Z-0.1000
G1 X12.4664 Y0.6816 Z-0.1000
G1 X12.4652 Y0.6849 Z-0.1000
G1 X12.4640 Y0.6881 Z-0.1000
G1 X12.4627 Y0.6914 Z-0.1000
G1 X12.4615 Y0.6947 Z-0.1000
G1 X12.4603 Y0.6979 Z-0.1000
G1 X12.4591 Y0.7012 Z-0.1000
G1 X12.4578 Y0.7045 Z-0.1000
G1 X12.4566 Y0.7078 Z-0.1000
G1 X12.4554 Y0.7111 Z-0.1000
G1 X12.4542 Y0.7143 Z-0.1000
G1 X12.4530 Y0.7176 Z-0.1000
G1 X12.4518 Y0.7209 Z-0.1000
G1 X12.4507 Y0.7242 Z-0.1000
G1 X12.4495 Y0.7275 Z-0.1000
G1 X12.4483 Y0.7308 Z-0.1000
G1 X12.4471 Y0.7340 Z-0.1000
G1 X12.4459 Y0.7374 Z-0.1000
G1 X12.4448 Y0.7406 Z-0.1000
G1 X12.4436 Y0.7439 Z-0.1000
G1 X12.4425 Y0.7472 Z-0.1000
G1 X12.4413 Y0.7505 Z-0.1000
G1 X12.4402 Y0.7538 Z-0.1000
G1 X12.4390 Y0.7571 Z-0.1000
G1 X12.4379 Y0.7604 Z-0.1000
G1 X12.4368 Y0.7637 Z-0.1000
G1 X12.4356 Y0.7670 Z-0.1000
G1 X12.4345 Y0.7703 Z-0.1000
G1 X12.4334 Y0.7736 Z-0.1000
G1 X12.4323 Y0.7770 Z-0.1000
G1 X12.4312 Y0.7803 Z-0.1000
G1 X12.4300 Y0.7836 Z-0.1000
G1 X12.4289 Y0.7869 Z-0.1000
G1 X12.4278 Y0.7902 Z-0.1000
G1 X12.4268 Y0.7935 Z-0.1000
G1 X12.4257 Y0.7968 Z-0.1000
G1 X12.4246 Y0.8002 Z-0.1000
G1 X12.4235 Y0.8035 Z-0.1000
G1 X12.4224 Y0.8068 Z-0.1000
G1 X12.4213 Y0.8101 Z-0.1000
G1 X12.4203 Y0.8135 Z-0.1000
G1 X12.4192 Y0.8168 Z-0.1000
G1 X12.4181 Y0.8201 Z-0.1000
G1 X12.4171 Y0.8234 Z-0.1000
G1 X12.4160 Y0.8268 Z-0.1000
G1 X12.4150 Y0.8301 Z-0.1000
G1 X12.4139 Y0.8334 Z-0.1000
G1 X12.4129 Y0.8368 Z-0.1000
G1 X12.4119 Y0.8401 Z-0.1000
G1 X12.4108 Y0.8435 Z-0.1000
G1 X12.4098 Y0.8468 Z-0.1000
G1 X12.4088 Y0.8501 Z-0.1000
G1 X12.4078 Y0.8535 Z-0.1000
G1 X12.4068 Y0.8568 Z-0.1000
G1 X12.4057 Y0.8602 Z-0.1000
G1 X12.4047 Y0.8635 Z-0.1000
G1 X12.4037 Y0.8669 Z-0.1000
G1 X12.4027 Y0.8702 Z-0.1000
G1 X12.4017 Y0.8735 Z-0.1000
G1 X12.4007 Y0.8769 Z-0.1000
G1 X12.3998 Y0.8802 Z-0.1000
G1 X12.3988 Y0.8836 Z-0.1000
G1 X12.3978 Y0.8869 Z-0.1000
G1 X12.3968 Y0.8903 Z-0.1000
G1 X12.3958 Y0.8937 Z-0.1000
G1 X12.3949 Y0.8970 Z-0.1000
G1 X12.3939 Y0.9004 Z-0.1000
G1 X12.3930 Y0.9037 Z-0.1000
G1 X12.3920 Y0.9071 Z-0.1000
G1 X12.3910 Y0.9104 Z-0.1000
G1 X12.3901 Y0.9138 Z-0.1000
G1 X12.3891 Y0.9172 Z-0.1000
G1 X12.3882 Y0.9206 Z-0.1000
G1 X12.3873 Y0.9239 Z-0.1000
G1 X12.3863 Y0.9273 Z-0.1000
G1 X12.3854 Y0.9306 Z-0.1000
G1 X12.3845 Y0.9340 Z-0.1000
G1 X12.3836 Y0.9374 Z-0.1000
G1 X12.3826 Y0.9407 Z-0.1000
G1 X12.3817 Y0.9441 Z-0.1000
G1 X12.3808 Y0.9475 Z-0.1000
G1 X12.3799 Y0.9509 Z-0.1000
G1 X12.3790 Y0.9542 Z-0.1000
G1 X12.3781 Y0.9576 Z-0.1000
G1 X12.3772 Y0.9610 Z-0.1000
G1 X12.3763 Y0.9644 Z-0.1000
G1 X12.3754 Y0.9677 Z-0.1000
G1 X12.3745 Y0.9711 Z-0.1000
G1 X12.3737 Y0.9745 Z-0.1000
G1 X12.3728 Y0.9779 Z-0.1000
G1 X12.3719 Y0.9813 Z-0.1000
G1 X12.3710 Y0.9847 Z-0.1000
G1 X12.3702 Y0.9880 Z-0.1000
G1 X12.3693 Y0.9914 Z-0.1000
G1 X12.3684 Y0.9948 Z-0.1000
G1 X12.3676 Y0.9982 Z-0.1000
G1 X12.3667 Y1.0016 Z-0.1000
G1 X12.3659 Y1.0050 Z-0.1000
G1 X12.3650 Y1.0084 Z-0.1000
G1 X12.3642 Y1.0118 Z-0.1000
G1 X12.3634 Y1.0151 Z-0.1000
G1 X12.3625 Y1.0185 Z-0.1000
G1 X12.3617 Y1.0219 Z-0.1000
G1 X12.3609 Y1.0253 Z-0.1000
G1 X12.3601 Y1.0287 Z-0.1000
G1 X12.3592 Y1.0321 Z-0.1000
G1 X12.3584 Y1.0355 Z-0.1000
G1 X12.3576 Y1.0389 Z-0.1000
G1 X12.3568 Y1.0423 Z-0.1000
G1 X12.3560 Y1.0457 Z-0.1000
G1 X12.3552 Y1.0491 Z-0.1000
G1 X12.3544 Y1.0525 Z-0.1000
G1 X12.3536 Y1.0559 Z-0.1000
G1 X12.3528 Y1.0593 Z-0.1000
G1 X12.3520 Y1.0627 Z-0.1000
G1 X12.3512 Y1.0661 Z-0.1000
G1 X12.3504 Y1.0695 Z-0.1000
G1 X12.3497 Y1.0729 Z-0.1000
G1 X12.3489 Y1.0763 Z-0.1000
G1 X12.3481 Y1.0797 Z-0.1000
G1 X12.3474 Y1.0831 Z-0.1000
G1 X12.3466 Y1.0866 Z-0.1000
G1 X12.3458 Y1.0900 Z-0.1000
G1 X12.3451 Y1.0934 Z-0.1000
G1 X12.3443 Y1.0968 Z-0.1000
G1 X12.3436 Y1.1002 Z-0.1000
G1 X12.3428 Y1.1036 Z-0.1000
G1 X12.3421 Y1.1070 Z-0.1000
G1 X12.3413 Y1.1104 Z-0.1000
G1 X12.3406 Y1.1139 Z-0.1000
G1 X12.3399 Y1.1173 Z-0.1000
G1 X12.3391 Y1.1207 Z-0.1000
G1 X12.3384 Y1.1241 Z-0.1000
G1 X12.3377 Y1.1275 Z-0.1000
G1 X12.3370 Y1.1309 Z-0.1000
G1 X12.3362 Y1.1343 Z-0.1000
G1 X12.3355 Y1.1378 Z-0.1000
G1 X12.3348 Y1.1412 Z-0.1000
G1 X12.3341 Y1.1446 Z-0.1000
G1 X12.3334 Y1.1480 Z-0.1000
G1 X12.3327 Y1.1515 Z-0.1000
G1 X12.3320 Y1.1549 Z-0.1000
G1 X12.3313 Y1.1583 Z-0.1000
G1 X12.3306 Y1.1617 Z-0.1000
G1 X12.3299 Y1.1651 Z-0.1000
G1 X12.3293 Y1.1686 Z-0.1000
G1 X12.3286 Y1.1720 Z-0.1000
G1 X12.3279 Y1.1754 Z-0.1000
G1 X12.3272 Y1.1789 Z-0.1000
G1 X12.3265 Y1.1823 Z-0.1000
G1 X12.3259 Y1.1857 Z-0.1000
G1 X12.3252 Y1.1891 Z-0.1000
G1 X12.3246 Y1.1926 Z-0.1000
G1 X12.3239 Y1.1960 Z-0.1000
G1 X12.3232 Y1.1994 Z-0.1000
G1 X12.3226 Y1.2029 Z-0.1000
G1 X12.3219 Y1.2063 Z-0.1000
G1 X12.3213 Y1.2097 Z-0.1000
G1 X12.3206 Y1.2132 Z-0.1000
G1 X12.3200 Y1.2166 Z-0.1000
G1 X12.3194 Y1.2200 Z-0.1000
G1 X12.3187 Y1.2235 Z-0.1000
G1 X12.3181 Y1.2269 Z-0.1000
G1 X12.3175 Y1.2303 Z-0.1000
G1 X12.3169 Y1.2338 Z-0.1000
G1 X12.3162 Y1.2372 Z-0.1000
G1 X12.3156 Y1.2407 Z-0.1000
G1 X12.3150 Y1.2441 Z-0.1000
G1 X12.3144 Y1.2475 Z-0.1000
G1 X12.3138 Y1.2510 Z-0.1000
G1 X12.3132 Y1.2544 Z-0.1000
G1 X12.3126 Y1.2579 Z-0.1000
G1 X12.3120 Y1.2613 Z-0.1000
G1 X12.3114 Y1.2648 Z-0.1000
G1 X12.3108 Y1.2682 Z-0.1000
G1 X12.3102 Y1.2716 Z-0.1000
G1 X12.3096 Y1.2751 Z-0.1000
G1 X12.3090 Y1.2785 Z-0.1000
G1 X12.3085 Y1.2820 Z-0.1000
G1 X12.3079 Y1.2854 Z-0.1000
G1 X12.3073 Y1.2889 Z-0.1000
G1 X12.3067 Y1.2923 Z-0.1000
G1 X12.3062 Y1.2958 Z-0.1000
G1 X12.3056 Y1.2992 Z-0.1000
G1 X12.3050 Y1.3026 Z-0.1000
G1 X12.3045 Y1.3061 Z-0.1000
G1 X12.3039 Y1.3095 Z-0.1000
G1 X12.3034 Y1.3130 Z-0.1000
G1 X12.3028 Y1.3164 Z-0.1000
G1 X12.3023 Y1.3199 Z-0.1000
G1 X12.3017 Y1.3233 Z-0.1000
G1 X12.3012 Y1.3268 Z-0.1000
G1 X12.3007 Y1.3302 Z-0.1000
G1 X12.3001 Y1.3337 Z-0.1000
G1 X12.2996 Y1.3371 Z-0.1000
G1 X12.2991 Y1.3406 Z-0.1000
G1 X12.2985 Y1.3440 Z-0.1000
G1 X12.2980 Y1.3475 Z-0.1000
G1 X12.2975 Y1.3510 Z-0.1000
G1 X12.2970 Y1.3544 Z-0.1000
G1 X12.2965 Y1.3579 Z-0.1000
G1 X12.2960 Y1.3613 Z-0.1000
G1 X12.2955 Y1.3648 Z-0.1000
G1 X12.2950 Y1.3682 Z-0.1000
G1 X12.2945 Y1.3717 Z-0.1000
G1 X12.2940 Y1.3751 Z-0.1000
G1 X12.2935 Y1.3786 Z-0.1000
G1 X12.2930 Y1.3821 Z-0.1000
G1 X12.2925 Y1.3855 Z-0.1000
G1 X12.2920 Y1.3890 Z-0.1000
G1 X12.2915 Y1.3924 Z-0.1000
G1 X12.2910 Y1.3959 Z-0.1000
G1 X12.2906 Y1.3994 Z-0.1000
G1 X12.2901 Y1.4028 Z-0.1000
G1 X12.2896 Y1.4063 Z-0.1000
G1 X12.2891 Y1.4098 Z-0.1000
G1 X12.2887 Y1.4132 Z-0.1000
G1 X12.2882 Y1.4167 Z-0.1000
G1 X12.2878 Y1.4201 Z-0.1000
G1 X12.2873 Y1.4236 Z-0.1000
G1 X12.2868 Y1.4271 Z-0.1000
G1 X12.2864 Y1.4305 Z-0.1000
G1 X12.2859 Y1.4340 Z-0.1000
G1 X12.2855 Y1.4375 Z-0.1000
G1 X12.2851 Y1.4409 Z-0.1000
G1 X12.2846 Y1.4444 Z-0.1000
G1 X12.2842 Y1.4479 Z-0.1000
G1 X12.2837 Y1.4513 Z-0.1000
G1 X12.2833 Y1.4548 Z-0.1000
G1 X12.2829 Y1.4583 Z-0.1000
G1 X12.2825 Y1.4617 Z-0.1000
G1 X12.2820 Y1.4652 Z-0.1000
G1 X12.2816 Y1.4687 Z-0.1000
G1 X12.2812 Y1.4721 Z-0.1000
G1 X12.2808 Y1.4756 Z-0.1000
G1 X12.2804 Y1.4791 Z-0.1000
G1 X12.2800 Y1.4825 Z-0.1000
G1 X12.2796 Y1.4860 Z-0.1000
G1 X12.2792 Y1.4895 Z-0.1000
G1 X12.2788 Y1.4929 Z-0.1000
G1 X12.2784 Y1.4964 Z-0.1000
G1 X12.2780 Y1.4999 Z-0.1000
G1 X12.2776 Y1.5034 Z-0.1000
G1 X12.2772 Y1.5068 Z-0.1000
G1 X12.2768 Y1.5103 Z-0.1000
G1 X12.2764 Y1.5138 Z-0.1000
G1 X12.2761 Y1.5172 Z-0.1000
G1 X12.2757 Y1.5207 Z-0.1000
G1 X12.2753 Y1.5242 Z-0.1000
G1 X12.2749 Y1.5277 Z-0.1000
G1 X12.2746 Y1.5311 Z-0.1000
G1 X12.2742 Y1.5346 Z-0.1000
G1 X12.2738 Y1.5381 Z-0.1000
G1 X12.2735 Y1.5416 Z-0.1000
G1 X12.2731 Y1.5450 Z-0.1000
G1 X12.2728 Y1.5485 Z-0.1000
G1 X12.2724 Y1.5520 Z-0.1000
G1 X12.2721 Y1.5555 Z-0.1000
G1 X12.2717 Y1.5589 Z-0.1000
G1 X12.2714 Y1.5624 Z-0.1000
G1 X12.2710 Y1.5659 Z-0.1000
G1 X12.2707 Y1.5694 Z-0.1000
G1 X12.2704 Y1.5729 Z-0.1000
G1 X12.2700 Y1.5763 Z-0.1000
G1 X12.2697 Y1.5798 Z-0.1000
G1 X12.2694 Y1.5833 Z-0.1000
G1 X12.2691 Y1.5868 Z-0.1000
G1 X12.2688 Y1.5902 Z-0.1000
G1 X12.2684 Y1.5937 Z-0.1000
G1 X12.2681 Y1.5972 Z-0.1000
G1 X12.2678 Y1.6007 Z-0.1000
G1 X12.2675 Y1.6042 Z-0.1000
G1 X12.2672 Y1.6076 Z-0.1000
G1 X12.2669 Y1.6111 Z-0.1000
G1 X12.2666 Y1.6146 Z-0.1000
G1 X12.2663 Y1.6181 Z-0.1000
G1 X12.2660 Y1.6215 Z-0.1000
G1 X12.2657 Y1.6250 Z-0.1000
G1 X12.2654 Y1.6285 Z-0.1000
G1 X12.2651 Y1.6320 Z-0.1000
G1 X12.2648 Y1.6355 Z-0.1000
G1 X12.2646 Y1.6390 Z-0.1000
G1 X12.2643 Y1.6424 Z-0.1000
G1 X12.2640 Y1.6459 Z-0.1000
G1 X12.2637 Y1.6494 Z-0.1000
G1 X12.2635 Y1.6529 Z-0.1000
G1 X12.2632 Y1.6564 Z-0.1000
G1 X12.2629 Y1.6599 Z-0.1000
G1 X12.2627 Y1.6633 Z-0.1000
G1 X12.2624 Y1.6668 Z-0.1000
G1 X12.2622 Y1.6703 Z-0.1000
G1 X12.2619 Y1.6738 Z-0.1000
G1 X12.2617 Y1.6773 Z-0.1000
G1 X12.2614 Y1.6808 Z-0.1000
G1 X12.2612 Y1.6842 Z-0.1000
G1 X12.2609 Y1.6877 Z-0.1000
G1 X12.2607 Y1.6912 Z-0.1000
G1 X12.2605 Y1.6947 Z-0.1000
G1 X12.2602 Y1.6982 Z-0.1000
G1 X12.2600 Y1.7017 Z-0.1000
G1 X12.2598 Y1.7052 Z-0.1000
G1 X12.2595 Y1.7086 Z-0.1000
G1 X12.2593 Y1.7121 Z-0.1000
G1 X12.2591 Y1.7156 Z-0.1000
G1 X12.2589 Y1.7191 Z-0.1000
G1 X12.2587 Y1.7226 Z-0.1000
G1 X12.2584 Y1.7261 Z-0.1000
G1 X12.2582 Y1.7296 Z-0.1000
G1 X12.2580 Y1.7330 Z-0.1000
G1 X12.2578 Y1.7365 Z-0.1000
G1 X12.2576 Y1.7400 Z-0.1000
G1 X12.2574 Y1.7435 Z-0.1000
G1 X12.2572 Y1.7470 Z-0.1000
G1 X12.2570 Y1.7505 Z-0.1000
G1 X12.2568 Y1.7540 Z-0.1000
G1 X12.2567 Y1.7575 Z-0.1000
G1 X12.2565 Y1.7610 Z-0.1000
G1 X12.2563 Y1.7644 Z-0.1000
G1 X12.2561 Y1.7679 Z-0.1000
G1 X12.2559 Y1.7714 Z-0.1000
G1 X12.2558 Y1.7749 Z-0.1000
G1 X12.2556 Y1.7784 Z-0.1000
G1 X12.2554 Y1.7819 Z-0.1000
G1 X12.2553 Y1.7854 Z-0.1000
G1 X12.2551 Y1.7889 Z-0.1000
G1 X12.2549 Y1.7924 Z-0.1000
G1 X12.2548 Y1.7958 Z-0.1000
G1 X12.2546 Y1.7993 Z-0.1000
G1 X12.2545 Y1.8028 Z-0.1000
G1 X12.2543 Y1.8063 Z-0.1000
G1 X12.2542 Y1.8098 Z-0.1000
G1 X12.2540 Y1.8133 Z-0.1000
G1 X12.2539 Y1.8168 Z-0.1000
G1 X12.2538 Y1.8203 Z-0.1000
G1 X12.2536 Y1.8238 Z-0.1000
G1 X12.2535 Y1.8273 Z-0.1000
G1 X12.2534 Y1.8307 Z-0.1000
G1 X12.2532 Y1.8342 Z-0.1000
G1 X12.2531 Y1.8377 Z-0.1000
G1 X12.2530 Y1.8412 Z-0.1000
G1 X12.2529 Y1.8447 Z-0.1000
G1 X12.2527 Y1.8482 Z-0.1000
G1 X12.2526 Y1.8517 Z-0.1000
G1 X12.2525 Y1.8552 Z-0.1000
G1 X12.2524 Y1.8587 Z-0.1000
G1 X12.2523 Y1.8622 Z-0.1000
G1 X12.2522 Y1.8657 Z-0.1000
G1 X12.2521 Y1.8691 Z-0.1000
G1 X12.2520 Y1.8726 Z-0.1000
G1 X12.2519 Y1.8761 Z-0.1000
G1 X12.2518 Y1.8796 Z-0.1000
G1 X12.2517 Y1.8831 Z-0.1000
G1 X12.2516 Y1.8866 Z-0.1000
G1 X12.2516 Y1.8901 Z-0.1000
G1 X12.2515 Y1.8936 Z-0.1000
G1 X12.2514 Y1.8971 Z-0.1000
G1 X12.2513 Y1.9006 Z-0.1000
G1 X12.2512 Y1.9041 Z-0.1000
G1 X12.2512 Y1.9076 Z-0.1000
G1 X12.2511 Y1.9111 Z-0.1000
G1 X12.2510 Y1.9145 Z-0.1000
G1 X12.2510 Y1.9180 Z-0.1000
G1 X12.2509 Y1.9215 Z-0.1000
G1 X12.2509 Y1.9250 Z-0.1000
G1 X12.2508 Y1.9285 Z-0.1000
G1 X12.2507 Y1.9320 Z-0.1000
G1 X12.2507 Y1.9355 Z-0.1000
G1 X12.2507 Y1.9390 Z-0.1000
G1 X12.2506 Y1.9425 Z-0.1000
G1 X12.2506 Y1.9460 Z-0.1000
G1 X12.2505 Y1.9495 Z-0.1000
G1 X12.2505 Y1.9530 Z-0.1000
G1 X12.2505 Y1.9565 Z-0.1000
G1 X12.2504 Y1.9600 Z-0.1000
G1 X12.2504 Y1.9634 Z-0.1000
G1 X12.2504 Y1.9669 Z-0.1000
G1 X12.2504 Y1.9704 Z-0.1000
G1 X12.2503 Y1.9739 Z-0.1000
G1 X12.2503 Y1.9774 Z-0.1000
G1 X12.2503 Y1.9809 Z-0.1000
G1 X12.2503 Y1.9844 Z-0.1000
G1 X12.2503 Y1.9879 Z-0.1000
G1 X12.2503 Y1.9914 Z-0.1000
G1 X12.2503 Y1.9949 Z-0.1000
G1 X12.2503 Y1.9984 Z-0.1000
G1 X12.2503 Y2.0019 Z-0.1000
G1 X12.2503 Y2.0054 Z-0.1000
G1 X12.2503 Y2.0089 Z-0.1000
G1 X12.2503 Y2.0123 Z-0.1000
G1 X12.2503 Y2.0158 Z-0.1000
G1 X12.2503 Y2.0193 Z-0.1000
G1 X12.2503 Y2.0228 Z-0.1000
G1 X12.2504 Y2.0263 Z-0.1000
G1 X12.2504 Y2.0298 Z-0.1000
G1 X12.2504 Y2.0333 Z-0.1000
G1 X12.2504 Y2.0368 Z-0.1000
G1 X12.2505 Y2.0403 Z-0.1000
G1 X12.2505 Y2.0438 Z-0.1000
G1 X12.2505 Y2.0473 Z-0.1000
G1 X12.2506 Y2.0508 Z-0.1000
G1 X12.2506 Y2.0543 Z-0.1000
G1 X12.2507 Y2.0578 Z-0.1000
G1 X12.2507 Y2.0613 Z-0.1000
G1 X12.2508 Y2.0647 Z-0.1000
G1 X12.2508 Y2.0682 Z-0.1000
G1 X12.2509 Y2.0717 Z-0.1000
G1 X12.2509 Y2.0752 Z-0.1000
G1 X12.2510 Y2.0787 Z-0.1000
G1 X12.2511 Y2.0822 Z-0.1000
G1 X12.2511 Y2.0857 Z-0.1000
G1 X12.2512 Y2.0892 Z-0.1000
G1 X12.2513 Y2.0927 Z-0.1000
G1 X12.2513 Y2.0962 Z-0.1000
G1 X12.2514 Y2.0997 Z-0.1000
G1 X12.2515 Y2.1032 Z-0.1000
G1 X12.2516 Y2.1067 Z-0.1000
G1 X12.2517 Y2.1101 Z-0.1000
G1 X12.2518 Y2.1136 Z-0.1000
G1 X12.2519 Y2.1171 Z-0.1000
G1 X12.2519 Y2.1206 Z-0.1000
G1 X12.2520 Y2.1241 Z-0.1000
G1 X12.2521 Y2.1276 Z-0.1000
G1 X12.2522 Y2.1311 Z-0.1000
G1 X12.2523 Y2.1346 Z-0.1000
G1 X12.2525 Y2.1381 Z-0.1000
G1 X12.2526 Y2.1416 Z-0.1000
G1 X12.2527 Y2.1451 Z-0.1000
G1 X12.2528 Y2.1486 Z-0.1000
G1 X12.2529 Y2.1520 Z-0.1000
G1 X12.2530 Y2.1555 Z-0.1000
G1 X12.2532 Y2.1590 Z-0.1000
G1 X12.2533 Y2.1625 Z-0.1000
G1 X12.2534 Y2.1660 Z-0.1000
G1 X12.2535 Y2.1695 Z-0.1000
G1 X12.2537 Y2.1730 Z-0.1000
G1 X12.2538 Y2.1765 Z-0.1000
G1 X12.2540 Y2.1800 Z-0.1000
G1 X12.2541 Y2.1835 Z-0.1000
G1 X12.2542 Y2.1870 Z-0.1000
G1 X12.2544 Y2.1904 Z-0.1000
G1 X12.2545 Y2.1939 Z-0.1000
G1 X12.2547 Y2.1974 Z-0.1000
G1 X12.2549 Y2.2009 Z-0.1000
G1 X12.2550 Y2.2044 Z-0.1000
G1 X12.2552 Y2.2079 Z-0.1000
G1 X12.2553 Y2.2114 Z-0.1000
G1 X12.2555 Y2.2149 Z-0.1000
G1 X12.2557 Y2.2184 Z-0.1000
G1 X12.2559 Y2.2218 Z-0.1000
G1 X12.2560 Y2.2253 Z-0.1000
G1 X12.2562 Y2.2288 Z-0.1000
G1 X12.2564 Y2.2323 Z-0.1000
G1 X12.2566 Y2.2358 Z-0.1000
G1 X12.2568 Y2.2393 Z-0.1000
G1 X12.2570 Y2.2428 Z-0.1000
G1 X12.2571 Y2.2463 Z-0.1000
G1 X12.2573 Y2.2498 Z-0.1000
G1 X12.2575 Y2.2532 Z-0.1000
G1 X12.2577 Y2.2567 Z-0.1000
G1 X12.2579 Y2.2602 Z-0.1000
G1 X12.2582 Y2.2637 Z-0.1000
G1 X12.2584 Y2.2672 Z-0.1000
G1 X12.2586 Y2.2707 Z-0.1000
G1 X12.2588 Y2.2742 Z-0.1000
G1 X12.2590 Y2.2776 Z-0.1000
G1 X12.2592 Y2.2811 Z-0.1000
G1 X12.2595 Y2.2846 Z-0.1000
G1 X12.2597 Y2.2881 Z-0.1000
G1 X12.2599 Y2.2916 Z-0.1000
G1 X12.2601 Y2.2951 Z-0.1000
G1 X12.2604 Y2.2986 Z-0.1000
G1 X12.2606 Y2.3020 Z-0.1000
G1 X12.2608 Y2.3055 Z-0.1000
G1 X12.2611 Y2.3090 Z-0.1000
G1 X12.2613 Y2.3125 Z-0.1000
G1 X12.2616 Y2.3160 Z-0.1000
G1 X12.2618 Y2.3195 Z-0.1000
G1 X12.2621 Y2.3230 Z-0.1000
G1 X12.2623 Y2.3264 Z-0.1000
G1 X12.2626 Y2.3299 Z-0.1000
G1 X12.2629 Y2.3334 Z-0.1000
G1 X12.2631 Y2.3369 Z-0.1000
G1 X12.2634 Y2.3404 Z-0.1000
G1 X12.2637 Y2.3439 Z-0.1000
G1 X12.2639 Y2.3473 Z-0.1000
G1 X12.2642 Y2.3508 Z-0.1000
G1 X12.2645 Y2.3543 Z-0.1000
G1 X12.2648 Y2.3578 Z-0.1000
G1 X12.2651 Y2.3613 Z-0.1000
G1 X12.2654 Y2.3647 Z-0.1000
G1 X12.2656 Y2.3682 Z-0.1000
G1 X12.2659 Y2.3717 Z-0.1000
G1 X12.2662 Y2.3752 Z-0.1000
G1 X12.2665 Y2.3787 Z-0.1000
G1 X12.2668 Y2.3821 Z-0.1000
G1 X12.2671 Y2.3856 Z-0.1000
G1 X12.2675 Y2.3891 Z-0.1000
G1 X12.2678 Y2.3926 Z-0.1000
G1 X12.2681 Y2.3961 Z-0.1000
G1 X12.2684 Y2.3995 Z-0.1000
G1 X12.2687 Y2.4030 Z-0.1000
G1 X12.2690 Y2.4065 Z-0.1000
G1 X12.2694 Y2.4100 Z-0.1000
G1 X12.2697 Y2.4135 Z-0.1000
G1 X12.2700 Y2.4169 Z-0.1000
G1 X12.2703 Y2.4204 Z-0.1000
G1 X12.2707 Y2.4239 Z-0.1000
G1 X12.2710 Y2.4274 Z-0.1000
G1 X12.2714 Y2.4308 Z-0.1000
G1 X12.2717 Y2.4343 Z-0.1000
G1 X12.2721 Y2.4378 Z-0.1000
G1 X12.2724 Y2.4413 Z-0.1000
G1 X12.2728 Y2.4447 Z-0.1000
G1 X12.2731 Y2.4482 Z-0.1000
G1 X12.2735 Y2.4517 Z-0.1000
G1 X12.2738 Y2.4552 Z-0.1000
G1 X12.2742 Y2.4586 Z-0.1000
G1 X12.2746 Y2.4621 Z-0.1000
G1 X12.2749 Y2.4656 Z-0.1000
G1 X12.2753 Y2.4691 Z-0.1000
G1 X12.2757 Y2.4725 Z-0.1000
G1 X12.2761 Y2.4760 Z-0.1000
G1 X12.2765 Y2.4795 Z-0.1000
G1 X12.2768 Y2.4830 Z-0.1000
G1 X12.2772 Y2.4864 Z-0.1000
G1 X12.2776 Y2.4899 Z-0.1000
G1 X12.2780 Y2.4934 Z-0.1000
G1 X12.2784 Y2.4968 Z-0.1000
G1 X12.2788 Y2.5003 Z-0.1000
G1 X12.2792 Y2.5038 Z-0.1000
G1 X12.2796 Y2.5072 Z-0.1000
G1 X12.2800 Y2.5107 Z-0.1000
G1 X12.2804 Y2.5142 Z-0.1000
G1 X12.2809 Y2.5177 Z-0.1000
G1 X12.2813 Y2.5211 Z-0.1000
G1 X12.2817 Y2.5246 Z-0.1000
G1 X12.2821 Y2.5281 Z-0.1000
G1 X12.2825 Y2.5315 Z-0.1000
G1 X12.2830 Y2.5350 Z-0.1000
G1 X12.2834 Y2.5385 Z-0.1000
G1 X12.2838 Y2.5419 Z-0.1000
G1 X12.2843 Y2.5454 Z-0.1000
G1 X12.2847 Y2.5489 Z-0.1000
G1 X12.2852 Y2.5523 Z-0.1000
G1 X12.2856 Y2.5558 Z-0.1000
G1 X12.2861 Y2.5592 Z-0.1000
G1 X12.2865 Y2.5627 Z-0.1000
G1 X12.2870 Y2.5662 Z-0.1000
G1 X12.2874 Y2.5696 Z-0.1000
G1 X12.2879 Y2.5731 Z-0.1000
G1 X12.2884 Y2.5766 Z-0.1000
G1 X12.2888 Y2.5800 Z-0.1000
G1 X12.2893 Y2.5835 Z-0.1000
G1 X12.2898 Y2.5869 Z-0.1000
G1 X12.2902 Y2.5904 Z-0.1000
G1 X12.2907 Y2.5939 Z-0.1000
G1 X12.2912 Y2.5973 Z-0.1000
G1 X12.2917 Y2.6008 Z-0.1000
G1 X12.2922 Y2.6042 Z-0.1000
G1 X12.2927 Y2.6077 Z-0.1000
G1 X12.2932 Y2.6112 Z-0.1000
G1 X12.2937 Y2.6146 Z-0.1000
G1 X12.2942 Y2.6181 Z-0.1000
G1 X12.2947 Y2.6215 Z-0.1000
G1 X12.2952 Y2.6250 Z-0.1000
G1 X12.2957 Y2.6284 Z-0.1000
G1 X12.2962 Y2.6319 Z-0.1000
G1 X12.2967 Y2.6354 Z-0.1000
G1 X12.2972 Y2.6388 Z-0.1000
G1 X12.2978 Y2.6423 Z-0.1000
G1 X12.2983 Y2.6457 Z-0.1000
G1 X12.2988 Y2.6492 Z-0.1000
G1 X12.2994 Y2.6526 Z-0.1000
G1 X12.2999 Y2.6561 Z-0.1000
G1 X12.3004 Y2.6595 Z-0.1000
G1 X12.3010 Y2.6630 Z-0.1000
G1 X12.3015 Y2.6664 Z-0.1000
G1 X12.3021 Y2.6699 Z-0.1000
G1 X12.3026 Y2.6733 Z-0.1000
G1 X12.3032 Y2.6768 Z-0.1000
G1 X12.3037 Y2.6802 Z-0.1000
G1 X12.3043 Y2.6837 Z-0.1000
G1 X12.3048 Y2.6871 Z-0.1000
G1 X12.3054 Y2.6906 Z-0.1000
G1 X12.3060 Y2.6940 Z-0.1000
G1 X12.3065 Y2.6975 Z-0.1000
G1 X12.3071 Y2.7009 Z-0.1000
G1 X12.3077 Y2.7043 Z-0.1000
G1 X12.3083 Y2.7078 Z-0.1000
G1 X12.3089 Y2.7112 Z-0.1000
G1 X12.3095 Y2.7147 Z-0.1000
G1 X12.3100 Y2.7181 Z-0.1000
G1 X12.3106 Y2.7216 Z-0.1000
G1 X12.3112 Y2.7250 Z-0.1000
G1 X12.3118 Y2.7284 Z-0.1000
G1 X12.3124 Y2.7319 Z-0.1000
G1 X12.3131 Y2.7353 Z-0.1000
G1 X12.3137 Y2.7388 Z-0.1000
G1 X12.3143 Y2.7422 Z-0.1000
G1 X12.3149 Y2.7456 Z-0.1000
G1 X12.3155 Y2.7491 Z-0.1000
G1 X12.3161 Y2.7525 Z-0.1000
G1 X12.3168 Y2.7559 Z-0.1000
G1 X12.3174 Y2.7594 Z-0.1000
G1 X12.3180 Y2.7628 Z-0.1000
G1 X12.3187 Y2.7663 Z-0.1000
G1 X12.3193 Y2.7697 Z-0.1000
G1 X12.3199 Y2.7731 Z-0.1000
G1 X12.3206 Y2.7766 Z-0.1000
G1 X12.3212 Y2.7800 Z-0.1000
G1 X12.3219 Y2.7834 Z-0.1000
G1 X12.3225 Y2.7869 Z-0.1000
G1 X12.3232 Y2.7903 Z-0.1000
G1 X12.3239 Y2.7937 Z-0.1000
G1 X12.3245 Y2.7971 Z-0.1000
G1 X12.3252 Y2.8006 Z-0.1000
G1 X12.3259 Y2.8040 Z-0.1000
G1 X12.3265 Y2.8074 Z-0.1000
G1 X12.3272 Y2.8109 Z-0.1000
G1 X12.3279 Y2.8143 Z-0.1000
G1 X12.3286 Y2.8177 Z-0.1000
G1 X12.3293 Y2.8211 Z-0.1000
G1 X12.3300 Y2.8246 Z-0.1000
G1 X12.3307 Y2.8280 Z-0.1000
G1 X12.3314 Y2.8314 Z-0.1000
G1 X12.3321 Y2.8348 Z-0.1000
G1 X12.3328 Y2.8383 Z-0.1000
G1 X12.3335 Y2.8417 Z-0.1000
G1 X12.3342 Y2.8451 Z-0.1000
G1 X12.3349 Y2.8485 Z-0.1000
G1 X12.3356 Y2.8519 Z-0.1000
G1 X12.3363 Y2.8553 Z-0.1000
G1 X12.3371 Y2.8588 Z-0.1000
G1 X12.3378 Y2.8622 Z-0.1000
G1 X12.3385 Y2.8656 Z-0.1000
G1 X12.3392 Y2.8690 Z-0.1000
G1 X12.3400 Y2.8724 Z-0.1000
G1 X12.3407 Y2.8758 Z-0.1000
G1 X12.3415 Y2.8792 Z-0.1000
G1 X12.3422 Y2.8827 Z-0.1000
G1 X12.3430 Y2.8861 Z-0.1000
G1 X12.3437 Y2.8895 Z-0.1000
G1 X12.3445 Y2.8929 Z-0.1000
G1 X12.3452 Y2.8963 Z-0.1000
G1 X12.3460 Y2.8997 Z-0.1000
G1 X12.3468 Y2.9031 Z-0.1000
G1 X12.3475 Y2.9065 Z-0.1000
G1 X12.3483 Y2.9099 Z-0.1000
G1 X12.3491 Y2.9133 Z-0.1000
G1 X12.3499 Y2.9167 Z-0.1000
G1 X12.3507 Y2.9202 Z-0.1000
G1 X12.3515 Y2.9236 Z-0.1000
G1 X12.3522 Y2.9270 Z-0.1000
G1 X12.3530 Y2.9304 Z-0.1000
G1 X12.3538 Y2.9338 Z-0.1000
G1 X12.3546 Y2.9372 Z-0.1000
G1 X12.3554 Y2.9405 Z-0.1000
G1 X12.3563 Y2.9440 Z-0.1000
G1 X12.3571 Y2.9474 Z-0.1000
G1 X12.3579 Y2.9507 Z-0.1000
G1 X12.3587 Y2.9541 Z-0.1000
G1 X12.3595 Y2.9575 Z-0.1000
G1 X12.3604 Y2.9609 Z-0.1000
G1 X12.3612 Y2.9643 Z-0.1000
G1 X12.3620 Y2.9677 Z-0.1000
G1 X12.3629 Y2.9711 Z-0.1000
G1 X12.3637 Y2.9745 Z-0.1000
G1 X12.3645 Y2.9779 Z-0.1000
G1 X12.3654 Y2.9813 Z-0.1000
G1 X12.3663 Y2.9847 Z-0.1000
G1 X12.3671 Y2.9881 Z-0.1000
G1 X12.3680 Y2.9915 Z-0.1000
G1 X12.3688 Y2.9948 Z-0.1000
G1 X12.3697 Y2.9982 Z-0.1000
G1 X12.3706 Y3.0016 Z-0.1000
G1 X12.3715 Y3.0050 Z-0.1000
G1 X12.3723 Y3.0084 Z-0.1000
G1 X12.3732 Y3.0118 Z-0.1000
G1 X12.3741 Y3.0152 Z-0.1000
G1 X12.3750 Y3.0185 Z-0.1000
G1 X12.3759 Y3.0219 Z-0.1000
G1 X12.3768 Y3.0253 Z-0.1000
G1 X12.3777 Y3.0287 Z-0.1000
G1 X12.3786 Y3.0321 Z-0.1000
G1 X12.3795 Y3.0354 Z-0.1000
G1 X12.3804 Y3.0388 Z-0.1000
G1 X12.3814 Y3.0422 Z-0.1000
G1 X12.3823 Y3.0456 Z-0.1000
G1 X12.3832 Y3.0489 Z-0.1000
G1 X12.3841 Y3.0523 Z-0.1000
G1 X12.3851 Y3.0557 Z-0.1000
G1 X12.3860 Y3.0590 Z-0.1000
G1 X12.3870 Y3.0624 Z-0.1000
G1 X12.3879 Y3.0658 Z-0.1000
G1 X12.3888 Y3.0692 Z-0.1000
G1 X12.3898 Y3.0725 Z-0.1000
G1 X12.3908 Y3.0759 Z-0.1000
G1 X12.3917 Y3.0792 Z-0.1000
G1 X12.3927 Y3.0826 Z-0.1000
G1 X12.3937 Y3.0860 Z-0.1000
G1 X12.3946 Y3.0893 Z-0.1000
G1 X12.3956 Y3.0927 Z-0.1000
G1 X12.3966 Y3.0960 Z-0.1000
G1 X12.3976 Y3.0994 Z-0.1000
G1 X12.3986 Y3.1028 Z-0.1000
G1 X12.3996 Y3.1061 Z-0.1000
G1 X12.4006 Y3.1095 Z-0.1000
G1 X12.4016 Y3.1128 Z-0.1000
G1 X12.4026 Y3.1162 Z-0.1000
G1 X12.4036 Y3.1195 Z-0.1000
G1 X12.4046 Y3.1229 Z-0.1000
G1 X12.4056 Y3.1262 Z-0.1000
G1 X12.4066 Y3.1296 Z-0.1000
G1 X12.4077 Y3.1329 Z-0.1000
G1 X12.4087 Y3.1362 Z-0.1000
G1 X12.4097 Y3.1396 Z-0.1000
G1 X12.4108 Y3.1429 Z-0.1000
G1 X12.4118 Y3.1463 Z-0.1000
G1 X12.4129 Y3.1496 Z-0.1000
G1 X12.4139 Y3.1529 Z-0.1000
G1 X12.4150 Y3.1563 Z-0.1000
G1 X12.4160 Y3.1596 Z-0.1000
G1 X12.4171 Y3.1629 Z-0.1000
G1 X12.4182 Y3.1663 Z-0.1000
G1 X12.4192 Y3.1696 Z-0.1000
G1 X12.4203 Y3.1729 Z-0.1000
G1 X12.4214 Y3.1762 Z-0.1000
G1 X12.4225 Y3.1796 Z-0.1000
G1 X12.4236 Y3.1829 Z-0.1000
G1 X12.4247 Y3.1862 Z-0.1000
G1 X12.4258 Y3.1895 Z-0.1000
G1 X12.4269 Y3.1929 Z-0.1000
G1 X12.4280 Y3.1962 Z-0.1000
G1 X12.4291 Y3.1995 Z-0.1000
G1 X12.4302 Y3.2028 Z-0.1000
G1 X12.4313 Y3.2061 Z-0.1000
G1 X12.4324 Y3.2094 Z-0.1000
G1 X12.4336 Y3.2128 Z-0.1000
G1 X12.4347 Y3.2161 Z-0.1000
G1 X12.4358 Y3.2194 Z-0.1000
G1 X12.4370 Y3.2227 Z-0.1000
G1 X12.4381 Y3.2260 Z-0.1000
G1 X12.4393 Y3.2293 Z-0.1000
G1 X12.4404 Y3.2326 Z-0.1000
G1 X12.4416 Y3.2359 Z-0.1000
G1 X12.4427 Y3.2392 Z-0.1000
G1 X12.4439 Y3.2425 Z-0.1000
G1 X12.4451 Y3.2458 Z-0.1000
G1 X12.4462 Y3.2491 Z-0.1000
G1 X12.4474 Y3.2524 Z-0.1000
G1 X12.4486 Y3.2557 Z-0.1000
G1 X12.4498 Y3.2590 Z-0.1000
G1 X12.4510 Y3.2622 Z-0.1000
G1 X12.4522 Y3.2655 Z-0.1000
G1 X12.4534 Y3.2688 Z-0.1000
G1 X12.4546 Y3.2721 Z-0.1000
G1 X12.4558 Y3.2754 Z-0.1000
G1 X12.4570 Y3.2787 Z-0.1000
G1 X12.4582 Y3.2819 Z-0.1000
G1 X12.4594 Y3.2852 Z-0.1000
G1 X12.4607 Y3.2885 Z-0.1000
G1 X12.4619 Y3.2918 Z-0.1000
G1 X12.4631 Y3.2950 Z-0.1000
G1 X12.4644 Y3.2983 Z-0.1000
G1 X12.4656 Y3.3016 Z-0.1000
G1 X12.4669 Y3.3048 Z-0.1000
G1 X12.4681 Y3.3081 Z-0.1000
G1 X12.4694 Y3.3114 Z-0.1000
G1 X12.4707 Y3.3146 Z-0.1000
G1 X12.4719 Y3.3179 Z-0.1000
G1 X12.4732 Y3.3211 Z-0.1000
G1 X12.4745 Y3.3244 Z-0.1000
G1 X12.4758 Y3.3277 Z-0.1000
G1 X12.4771 Y3.3309 Z-0.1000
G1 X12.4784 Y3.3342 Z-0.1000
G1 X12.4797 Y3.3374 Z-0.1000
G1 X12.4810 Y3.3407 Z-0.1000
G1 X12.4823 Y3.3439 Z-0.1000
G1 X12.4836 Y3.3471 Z-0.1000
G1 X12.4849 Y3.3504 Z-0.1000
G1 X12.4862 Y3.3536 Z-0.1000
G1 X12.4875 Y3.3569 Z-0.1000
G1 X12.4889 Y3.3601 Z-0.1000
G1 X12.4902 Y3.3633 Z-0.1000
G1 X12.4915 Y3.3666 Z-0.1000
G1 X12.4929 Y3.3698 Z-0.1000
G1 X12.4942 Y3.3730 Z-0.1000
G1 X12.4956 Y3.3762 Z-0.1000
G1 X12.4970 Y3.3795 Z-0.1000
G1 X12.4983 Y3.3827 Z-0.1000
G1 X12.4997 Y3.3859 Z-0.1000
G1 X12.5011 Y3.3891 Z-0.1000
G1 X12.5024 Y3.3923 Z-0.1000
G1 X12.5038 Y3.3955 Z-0.1000
G1 X12.5052 Y3.3988 Z-0.1000
G1 X12.5066 Y3.4020 Z-0.1000
G1 X12.5080 Y3.4052 Z-0.1000
G1 X12.5094 Y3.4084 Z-0.1000
G1 X12.5108 Y3.4116 Z-0.1000
G1 X12.5122 Y3.4148 Z-0.1000
G1 X12.5137 Y3.4180 Z-0.1000
G1 X12.5151 Y3.4212 Z-0.1000
G1 X12.5165 Y3.4244 Z-0.1000
G1 X12.5180 Y3.4275 Z-0.1000
G1 X12.5194 Y3.4307 Z-0.1000
G1 X12.5208 Y3.4339 Z-0.1000
G1 X12.5223 Y3.4371 Z-0.1000
G1 X12.5238 Y3.4403 Z-0.1000
G1 X12.5252 Y3.4435 Z-0.1000
G1 X12.5267 Y3.4466 Z-0.1000
G1 X12.5282 Y3.4498 Z-0.1000
G1 X12.5296 Y3.4530 Z-0.1000
G1 X12.5311 Y3.4561 Z-0.1000
G1 X12.5326 Y3.4593 Z-0.1000
G1 X12.5341 Y3.4625 Z-0.1000
G1 X12.5356 Y3.4656 Z-0.1000
G1 X12.5371 Y3.4688 Z-0.1000
G1 X12.5386 Y3.4719 Z-0.1000
G1 X12.5401 Y3.4751 Z-0.1000
G1 X12.5417 Y3.4782 Z-0.1000
G1 X12.5432 Y3.4814 Z-0.1000
G1 X12.5447 Y3.4845 Z-0.1000
G1 X12.5463 Y3.4877 Z-0.1000
G1 X12.5478 Y3.4908 Z-0.1000
G1 X12.5493 Y3.4940 Z-0.1000
G1 X12.5509 Y3.4971 Z-0.1000
G1 X12.5525 Y3.5002 Z-0.1000
G1 X12.5540 Y3.5034 Z-0.1000
G1 X12.5556 Y3.5065 Z-0.1000
G1 X12.5572 Y3.5096 Z-0.1000
G1 X12.5588 Y3.5127 Z-0.1000
G1 X12.5603 Y3.5158 Z-0.1000
G1 X12.5619 Y3.5189 Z-0.1000
G1 X12.5635 Y3.5221 Z-0.1000
G1 X12.5651 Y3.5252 Z-0.1000
G1 X12.5668 Y3.5283 Z-0.1000
G1 X12.5684 Y3.5314 Z-0.1000
G1 X12.5700 Y3.5345 Z-0.1000
G1 X12.5716 Y3.5376 Z-0.1000
G1 X12.5733 Y3.5407 Z-0.1000
G1 X12.5749 Y3.5437 Z-0.1000
G1 X12.5766 Y3.5468 Z-0.1000
G1 X12.5782 Y3.5499 Z-0.1000
G1 X12.5799 Y3.5530 Z-0.1000
G1 X12.5815 Y3.5561 Z-0.1000
G1 X12.5832 Y3.5591 Z-0.1000
G1 X12.5849 Y3.5622 Z-0.1000
G1 X12.5866 Y3.5653 Z-0.1000
G1 X12.5883 Y3.5683 Z-0.1000
G1 X12.5900 Y3.5714 Z-0.1000
G1 X12.5917 Y3.5744 Z-0.1000
G1 X12.5934 Y3.5775 Z-0.1000
G1 X12.5951 Y3.5806 Z-0.1000
G1 X12.5968 Y3.5836 Z-0.1000
G1 X12.5985 Y3.5866 Z-0.1000
G1 X12.6003 Y3.5897 Z-0.1000
G1 X12.6020 Y3.5927 Z-0.1000
G1 X12.6038 Y3.5957 Z-0.1000
G1 X12.6055 Y3.5988 Z-0.1000
G1 X12.6073 Y3.6018 Z-0.1000
G1 X12.6091 Y3.6048 Z-0.1000
G1 X12.6108 Y3.6078 Z-0.1000
G1 X12.6126 Y3.6108 Z-0.1000
G1 X12.6144 Y3.6138 Z-0.1000
G1 X12.6162 Y3.6168 Z-0.1000
G1 X12.6180 Y3.6198 Z-0.1000
G1 X12.6198 Y3.6228 Z-0.1000
G1 X12.6216 Y3.6258 Z-0.1000
G1 X12.6235 Y3.6288 Z-0.1000
G1 X12.6253 Y3.6318 Z-0.1000
G1 X12.6271 Y3.6348 Z-0.1000
G1 X12.6290 Y3.6377 Z-0.1000
G1 X12.6308 Y3.6407 Z-0.1000
G1 X12.6327 Y3.6437 Z-0.1000
G1 X12.6345 Y3.6466 Z-0.1000
G1 X12.6364 Y3.6496 Z-0.1000
G1 X12.6383 Y3.6525 Z-0.1000
G1 X12.6402 Y3.6555 Z-0.1000
G1 X12.6421 Y3.6584 Z-0.1000
G1 X12.6440 Y3.6614 Z-0.1000
G1 X12.6459 Y3.6643 Z-0.1000
G1 X12.6478 Y3.6672 Z-0.1000
G1 X12.6497 Y3.6701 Z-0.1000
G1 X12.6516 Y3.6731 Z-0.1000
G1 X12.6536 Y3.6760 Z-0.1000
G1 X12.6555 Y3.6789 Z-0.1000
G1 X12.6575 Y3.6818 Z-0.1000
G1 X12.6594 Y3.6847 Z-0.1000
G1 X12.6614 Y3.6876 Z-0.1000
G1 X12.6634 Y3.6905 Z-0.1000
G1 X12.6654 Y3.6933 Z-0.1000
G1 X12.6674 Y3.6962 Z-0.1000
G1 X12.6694 Y3.6991 Z-0.1000
G1 X12.6714 Y3.7019 Z-0.1000
G1 X12.6734 Y3.7048 Z-0.1000
G1 X12.6754 Y3.7077 Z-0.1000
G1 X12.6775 Y3.7105 Z-0.1000
G1 X12.6795 Y3.7133 Z-0.1000
G1 X12.6815 Y3.7162 Z-0.1000
G1 X12.6836 Y3.7190 Z-0.1000
G1 X12.6857 Y3.7218 Z-0.1000
G1 X12.6877 Y3.7246 Z-0.1000
G1 X12.6898 Y3.7275 Z-0.1000
G1 X12.6919 Y3.7303 Z-0.1000
G1 X12.6940 Y3.7331 Z-0.1000
G1 X12.6961 Y3.7359 Z-0.1000
G1 X12.6982 Y3.7386 Z-0.1000
G1 X12.7004 Y3.7414 Z-0.1000
G1 X12.7025 Y3.7442 Z-0.1000
G1 X12.7046 Y3.7470 Z-0.1000
G1 X12.7068 Y3.7497 Z-0.1000
G1 X12.7089 Y3.7525 Z-0.1000
G1 X12.7111 Y3.7552 Z-0.1000
G1 X12.7133 Y3.7579 Z-0.1000
G1 X12.7155 Y3.7607 Z-0.1000
G1 X12.7177 Y3.7634 Z-0.1000
G1 X12.7199 Y3.7661 Z-0.1000
G1 X12.7221 Y3.7688 Z-0.1000
G1 X12.7243 Y3.7715 Z-0.1000
G1 X12.7266 Y3.7742 Z-0.1000
G1 X12.7288 Y3.7769 Z-0.1000
G1 X12.7311 Y3.7796 Z-0.1000
G1 X12.7333 Y3.7822 Z-0.1000
G1 X12.7356 Y3.7849 Z-0.1000
G1 X12.7379 Y3.7875 Z-0.1000
G1 X12.7402 Y3.7902 Z-0.1000
G1 X12.7425 Y3.7928 Z-0.1000
G1 X12.7448 Y3.7954 Z-0.1000
G1 X12.7471 Y3.7981 Z-0.1000
G1 X12.7494 Y3.8007 Z-0.1000
G1 X12.7518 Y3.8033 Z-0.1000
G1 X12.7541 Y3.8059 Z-0.1000
G1 X12.7565 Y3.8084 Z-0.1000
G1 X12.7589 Y3.8110 Z-0.1000
G1 X12.7613 Y3.8136 Z-0.1000
G1 X12.7637 Y3.8161 Z-0.1000
G1 X12.7661 Y3.8187 Z-0.1000
G1 X12.7685 Y3.8212 Z-0.1000
G1 X12.7709 Y3.8237 Z-0.1000
G1 X12.7733 Y3.8262 Z-0.1000
G1 X12.7758 Y3.8287 Z-0.1000
G1 X12.7782 Y3.8312 Z-0.1000
G1 X12.7807 Y3.8337 Z-0.1000
G1 X12.7832 Y3.8362 Z-0.1000
G1 X12.7857 Y3.8386 Z-0.1000
G1 X12.7882 Y3.8411 Z-0.1000
G1 X12.7907 Y3.8435 Z-0.1000
G1 X12.7932 Y3.8459 Z-0.1000
G1 X12.7958 Y3.8483 Z-0.1000
G1 X12.7983 Y3.8507 Z-0.1000
G1 X12.8009 Y3.8531 Z-0.1000
G1 X12.8035 Y3.8555 Z-0.1000
G1 X12.8060 Y3.8578 Z-0.1000
G1 X12.8086 Y3.8602 Z-0.1000
G1 X12.8112 Y3.8625 Z-0.1000
G1 X12.8139 Y3.8648 Z-0.1000
G1 X12.8165 Y3.8671 Z-0.1000
G1 X12.8191 Y3.8694 Z-0.1000
G1 X12.8218 Y3.8717 Z-0.1000
G1 X12.8245 Y3.8739 Z-0.1000
G1 X12.8272 Y3.8762 Z-0.1000
G1 X12.8298 Y3.8784 Z-0.1000
G1 X12.8326 Y3.8806 Z-0.1000
G1 X12.8353 Y3.8828 Z-0.1000
G1 X12.8380 Y3.8850 Z-0.1000
G1 X12.8408 Y3.8872 Z-0.1000
G1 X12.8435 Y3.8893 Z-0.1000
G1 X12.8463 Y3.8915 Z-0.1000
G1 X12.8491 Y3.8936 Z-0.1000
G1 X12.8491 Y3.8936 Z-0.1000
G1 X12.8519 Y3.8957 Z-0.1000
G1 X12.8547 Y3.8978 Z-0.1000
G1 X12.8575 Y3.8999 Z-0.1000
G1 X12.8603 Y3.9019 Z-0.1000
G1 X12.8632 Y3.9039 Z-0.1000
G1 X12.8660 Y3.9060 Z-0.1000
G1 X12.8689 Y3.9080 Z-0.1000
G1 X12.8718 Y3.9100 Z-0.1000
G1 X12.8747 Y3.9119 Z-0.1000
G1 X12.8776 Y3.9139 Z-0.1000
G1 X12.8805 Y3.9158 Z-0.1000
G1 X12.8834 Y3.9177 Z-0.1000
G1 X12.8864 Y3.9197 Z-0.1000
G1 X12.8893 Y3.9216 Z-0.1000
G1 X12.8923 Y3.9234 Z-0.1000
G1 X12.8952 Y3.9253 Z-0.1000
G1 X12.8982 Y3.9271 Z-0.1000
G1 X12.9012 Y3.9290 Z-0.1000
G1 X12.9042 Y3.9308 Z-0.1000
G1 X12.9072 Y3.9326 Z-0.1000
G1 X12.9102 Y3.9344 Z-0.1000
G1 X12.9132 Y3.9362 Z-0.1000
G1 X12.9162 Y3.9380 Z-0.1000
G1 X12.9193 Y3.9397 Z-0.1000
G1 X12.9223 Y3.9414 Z-0.1000
G1 X12.9254 Y3.9432 Z-0.1000
G1 X12.9284 Y3.9449 Z-0.1000
G1 X12.9315 Y3.9466 Z-0.1000
G1 X12.9346 Y3.9482 Z-0.1000
G1 X12.9376 Y3.9499 Z-0.1000
G1 X12.9407 Y3.9515 Z-0.1000
G1 X12.9438 Y3.9532 Z-0.1000
G1 X12.9469 Y3.9548 Z-0.1000
G1 X12.9501 Y3.9564 Z-0.1000
G1 X12.9532 Y3.9579 Z-0.1000
G1 X12.9563 Y3.9595 Z-0.1000
G1 X12.9595 Y3.9611 Z-0.1000
G1 X12.9626 Y3.9626 Z-0.1000
G1 X12.9658 Y3.9641 Z-0.1000
G1 X12.9689 Y3.9656 Z-0.1000
G1 X12.9721 Y3.9671 Z-0.1000
G1 X12.9753 Y3.9685 Z-0.1000
G1 X12.9785 Y3.9699 Z-0.1000
G1 X12.9817 Y3.9714 Z-0.1000
G1 X12.9849 Y3.9727 Z-0.1000
G1 X12.9882 Y3.9741 Z-0.1000
G1 X12.9914 Y3.9754 Z-0.1000
G1 X12.9946 Y3.9768 Z-0.1000
G1 X12.9979 Y3.9781 Z-0.1000
G1 X13.0012 Y3.9793 Z-0.1000
G1 X13.0044 Y3.9805 Z-0.1000
G1 X13.0077 Y3.9818 Z-0.1000
G1 X13.0110 Y3.9829 Z-0.1000
G1 X13.0143 Y3.9840 Z-0.1000
G1 X13.0177 Y3.9851 Z-0.1000
G1 X13.0210 Y3.9862 Z-0.1000
G1 X13.0244 Y3.9872 Z-0.1000
G1 X13.0277 Y3.9882 Z-0.1000
G1 X13.0311 Y3.9891 Z-0.1000
G1 X13.0345 Y3.9899 Z-0.1000
G1 X13.0379 Y3.9907 Z-0.1000
G1 X13.0414 Y3.9914 Z-0.1000
G1 X13.0448 Y3.9920 Z-0.1000
G1 X13.0448 Y3.9920 Z-0.1000
G1 X13.0484 Y3.9926 Z-0.1000
G1 X13.0520 Y3.9931 Z-0.1000
G1 X13.0555 Y3.9936 Z-0.1000
G1 X13.0591 Y3.9939 Z-0.1000
G1 X13.0627 Y3.9942 Z-0.1000
G1 X13.0664 Y3.9941 Z-0.1000
G1 X13.0699 Y3.9936 Z-0.1000
G1 X13.0731 Y3.9920 Z-0.1000
G1 X13.0752 Y3.9891 Z-0.1000
G1 X13.0761 Y3.9856 Z-0.1000
G1 X13.0765 Y3.9820 Z-0.1000
G1 X13.0766 Y3.9784 Z-0.1000
G1 X13.0766 Y3.9784 Z-0.1000
G1 X13.0764 Y3.9748 Z-0.1000
G1 X13.0759 Y3.9713 Z-0.1000
G1 X13.0749 Y3.9679 Z-0.1000
G1 X13.0730 Y3.9649 Z-0.1000
G1 X13.0703 Y3.9627 Z-0.1000
G1 X13.0670 Y3.9612 Z-0.1000
G1 X13.0636 Y3.9604 Z-0.1000
G1 X13.0601 Y3.9599 Z-0.1000
G1 X13.0565 Y3.9597 Z-0.1000
G1 X13.0530 Y3.9596 Z-0.1000
G1 X13.0530 Y3.9596 Z-0.1000
G1 X13.0496 Y3.9594 Z-0.1000
G1 X13.0462 Y3.9588 Z-0.1000
G1 X13.0428 Y3.9581 Z-0.1000
G1 X13.0394 Y3.9573 Z-0.1000
G1 X13.0361 Y3.9563 Z-0.1000
G1 X13.0328 Y3.9554 Z-0.1000
G1 X13.0295 Y3.9544 Z-0.1000
G1 X13.0262 Y3.9533 Z-0.1000
G1 X13.0230 Y3.9522 Z-0.1000
G1 X13.0197 Y3.9511 Z-0.1000
G1 X13.0165 Y3.9499 Z-0.1000
