; GCODE Generated by Basic CAM on 2024-07-19
G20 ;inch-mode

; Operation 0: CNC: Vector (path inside)
; Bit Diameter: 0.125

G0 Z0.5 ; move to z-safe height
G0 X2.0823 Y0.8332
G1 Z-0.1000 F50
G1 X2.2814 Y0.8936 Z-0.1000 F100
G1 X2.4653 Y0.9919 Z-0.1000
G1 X2.6261 Y1.1239 Z-0.1000
G1 X2.7581 Y1.2847 Z-0.1000
G1 X2.8564 Y1.4686 Z-0.1000
G1 X2.9168 Y1.6677 Z-0.1000
G1 X2.9372 Y1.8750 Z-0.1000
G1 X2.9168 Y2.0823 Z-0.1000
G1 X2.8564 Y2.2814 Z-0.1000
G1 X2.7581 Y2.4653 Z-0.1000
G1 X2.6261 Y2.6261 Z-0.1000
G1 X2.4653 Y2.7581 Z-0.1000
G1 X2.2814 Y2.8564 Z-0.1000
G1 X2.0823 Y2.9168 Z-0.1000
G1 X1.8750 Y2.9372 Z-0.1000
G1 X1.6677 Y2.9168 Z-0.1000
G1 X1.4686 Y2.8564 Z-0.1000
G1 X1.2847 Y2.7581 Z-0.1000
G1 X1.1239 Y2.6261 Z-0.1000
G1 X0.9919 Y2.4653 Z-0.1000
G1 X0.8936 Y2.2814 Z-0.1000
G1 X0.8332 Y2.0823 Z-0.1000
G1 X0.8128 Y1.8750 Z-0.1000
G1 X0.8332 Y1.6677 Z-0.1000
G1 X0.8936 Y1.4686 Z-0.1000
G1 X0.9919 Y1.2847 Z-0.1000
G1 X1.1239 Y1.1239 Z-0.1000
G1 X1.2847 Y0.9919 Z-0.1000
G1 X1.4686 Y0.8936 Z-0.1000
G1 X1.6677 Y0.8332 Z-0.1000
G1 X1.8750 Y0.8128 Z-0.1000
G1 X2.0823 Y0.8332 Z-0.1000
G1 Z-0.2000 F50
G1 X2.2814 Y0.8936 Z-0.2000 F100
G1 X2.4653 Y0.9919 Z-0.2000
G1 X2.6261 Y1.1239 Z-0.2000
G1 X2.7581 Y1.2847 Z-0.2000
G1 X2.8564 Y1.4686 Z-0.2000
G1 X2.9168 Y1.6677 Z-0.2000
G1 X2.9372 Y1.8750 Z-0.2000
G1 X2.9168 Y2.0823 Z-0.2000
G1 X2.8564 Y2.2814 Z-0.2000
G1 X2.7581 Y2.4653 Z-0.2000
G1 X2.6261 Y2.6261 Z-0.2000
G1 X2.4653 Y2.7581 Z-0.2000
G1 X2.2814 Y2.8564 Z-0.2000
G1 X2.0823 Y2.9168 Z-0.2000
G1 X1.8750 Y2.9372 Z-0.2000
G1 X1.6677 Y2.9168 Z-0.2000
G1 X1.4686 Y2.8564 Z-0.2000
G1 X1.2847 Y2.7581 Z-0.2000
G1 X1.1239 Y2.6261 Z-0.2000
G1 X0.9919 Y2.4653 Z-0.2000
G1 X0.8936 Y2.2814 Z-0.2000
G1 X0.8332 Y2.0823 Z-0.2000
G1 X0.8128 Y1.8750 Z-0.2000
G1 X0.8332 Y1.6677 Z-0.2000
G1 X0.8936 Y1.4686 Z-0.2000
G1 X0.9919 Y1.2847 Z-0.2000
G1 X1.1239 Y1.1239 Z-0.2000
G1 X1.2847 Y0.9919 Z-0.2000
G1 X1.4686 Y0.8936 Z-0.2000
G1 X1.6677 Y0.8332 Z-0.2000
G1 X1.8750 Y0.8128 Z-0.2000
G1 X2.0823 Y0.8332 Z-0.2000
G1 Z-0.3000 F50
G1 X2.2814 Y0.8936 Z-0.3000 F100
G1 X2.4653 Y0.9919 Z-0.3000
G1 X2.6261 Y1.1239 Z-0.3000
G1 X2.7581 Y1.2847 Z-0.3000
G1 X2.8564 Y1.4686 Z-0.3000
G1 X2.9168 Y1.6677 Z-0.3000
G1 X2.9372 Y1.8750 Z-0.3000
G1 X2.9168 Y2.0823 Z-0.3000
G1 X2.8564 Y2.2814 Z-0.3000
G1 X2.7581 Y2.4653 Z-0.3000
G1 X2.6261 Y2.6261 Z-0.3000
G1 X2.4653 Y2.7581 Z-0.3000
G1 X2.2814 Y2.8564 Z-0.3000
G1 X2.0823 Y2.9168 Z-0.3000
G1 X1.8750 Y2.9372 Z-0.3000
G1 X1.6677 Y2.9168 Z-0.3000
G1 X1.4686 Y2.8564 Z-0.3000
G1 X1.2847 Y2.7581 Z-0.3000
G1 X1.1239 Y2.6261 Z-0.3000
G1 X0.9919 Y2.4653 Z-0.3000
G1 X0.8936 Y2.2814 Z-0.3000
G1 X0.8332 Y2.0823 Z-0.3000
G1 X0.8128 Y1.8750 Z-0.3000
G1 X0.8332 Y1.6677 Z-0.3000
G1 X0.8936 Y1.4686 Z-0.3000
G1 X0.9919 Y1.2847 Z-0.3000
G1 X1.1239 Y1.1239 Z-0.3000
G1 X1.2847 Y0.9919 Z-0.3000
G1 X1.4686 Y0.8936 Z-0.3000
G1 X1.6677 Y0.8332 Z-0.3000
G1 X1.8750 Y0.8128 Z-0.3000
G1 X2.0823 Y0.8332 Z-0.3000
G1 Z-0.4000 F50
G1 X2.2814 Y0.8936 Z-0.4000 F100
G1 X2.4653 Y0.9919 Z-0.4000
G1 X2.6261 Y1.1239 Z-0.4000
G1 X2.7581 Y1.2847 Z-0.4000
G1 X2.8564 Y1.4686 Z-0.4000
G1 X2.9168 Y1.6677 Z-0.4000
G1 X2.9372 Y1.8750 Z-0.4000
G1 X2.9168 Y2.0823 Z-0.4000
G1 X2.8564 Y2.2814 Z-0.4000
G1 X2.7581 Y2.4653 Z-0.4000
G1 X2.6261 Y2.6261 Z-0.4000
G1 X2.4653 Y2.7581 Z-0.4000
G1 X2.2814 Y2.8564 Z-0.4000
G1 X2.0823 Y2.9168 Z-0.4000
G1 X1.8750 Y2.9372 Z-0.4000
G1 X1.6677 Y2.9168 Z-0.4000
G1 X1.4686 Y2.8564 Z-0.4000
G1 X1.2847 Y2.7581 Z-0.4000
G1 X1.1239 Y2.6261 Z-0.4000
G1 X0.9919 Y2.4653 Z-0.4000
G1 X0.8936 Y2.2814 Z-0.4000
G1 X0.8332 Y2.0823 Z-0.4000
G1 X0.8128 Y1.8750 Z-0.4000
G1 X0.8332 Y1.6677 Z-0.4000
G1 X0.8936 Y1.4686 Z-0.4000
G1 X0.9919 Y1.2847 Z-0.4000
G1 X1.1239 Y1.1239 Z-0.4000
G1 X1.2847 Y0.9919 Z-0.4000
G1 X1.4686 Y0.8936 Z-0.4000
G1 X1.6677 Y0.8332 Z-0.4000
G1 X1.8750 Y0.8128 Z-0.4000
G1 X2.0823 Y0.8332 Z-0.4000
G1 Z-0.5000 F50
G1 X2.2814 Y0.8936 Z-0.5000 F100
G1 X2.4653 Y0.9919 Z-0.5000
G1 X2.6261 Y1.1239 Z-0.5000
G1 X2.7581 Y1.2847 Z-0.5000
G1 X2.8564 Y1.4686 Z-0.5000
G1 X2.9168 Y1.6677 Z-0.5000
G1 X2.9372 Y1.8750 Z-0.5000
G1 X2.9168 Y2.0823 Z-0.5000
G1 X2.8564 Y2.2814 Z-0.5000
G1 X2.7581 Y2.4653 Z-0.5000
G1 X2.6261 Y2.6261 Z-0.5000
G1 X2.4653 Y2.7581 Z-0.5000
G1 X2.2814 Y2.8564 Z-0.5000
G1 X2.0823 Y2.9168 Z-0.5000
G1 X1.8750 Y2.9372 Z-0.5000
G1 X1.6677 Y2.9168 Z-0.5000
G1 X1.4686 Y2.8564 Z-0.5000
G1 X1.2847 Y2.7581 Z-0.5000
G1 X1.1239 Y2.6261 Z-0.5000
G1 X0.9919 Y2.4653 Z-0.5000
G1 X0.8936 Y2.2814 Z-0.5000
G1 X0.8332 Y2.0823 Z-0.5000
G1 X0.8128 Y1.8750 Z-0.5000
G1 X0.8332 Y1.6677 Z-0.5000
G1 X0.8936 Y1.4686 Z-0.5000
G1 X0.9919 Y1.2847 Z-0.5000
G1 X1.1239 Y1.1239 Z-0.5000
G1 X1.2847 Y0.9919 Z-0.5000
G1 X1.4686 Y0.8936 Z-0.5000
G1 X1.6677 Y0.8332 Z-0.5000
G1 X1.8750 Y0.8128 Z-0.5000
G1 X2.0823 Y0.8332 Z-0.5000
G1 Z-0.6000 F50
G1 X2.2814 Y0.8936 Z-0.6000 F100
G1 X2.4653 Y0.9919 Z-0.6000
G1 X2.6261 Y1.1239 Z-0.6000
G1 X2.7581 Y1.2847 Z-0.6000
G1 X2.8564 Y1.4686 Z-0.6000
G1 X2.9168 Y1.6677 Z-0.6000
G1 X2.9372 Y1.8750 Z-0.6000
G1 X2.9168 Y2.0823 Z-0.6000
G1 X2.8564 Y2.2814 Z-0.6000
G1 X2.7581 Y2.4653 Z-0.6000
G1 X2.6261 Y2.6261 Z-0.6000
G1 X2.4653 Y2.7581 Z-0.6000
G1 X2.2814 Y2.8564 Z-0.6000
G1 X2.0823 Y2.9168 Z-0.6000
G1 X1.8750 Y2.9372 Z-0.6000
G1 X1.6677 Y2.9168 Z-0.6000
G1 X1.4686 Y2.8564 Z-0.6000
G1 X1.2847 Y2.7581 Z-0.6000
G1 X1.1239 Y2.6261 Z-0.6000
G1 X0.9919 Y2.4653 Z-0.6000
G1 X0.8936 Y2.2814 Z-0.6000
G1 X0.8332 Y2.0823 Z-0.6000
G1 X0.8128 Y1.8750 Z-0.6000
G1 X0.8332 Y1.6677 Z-0.6000
G1 X0.8936 Y1.4686 Z-0.6000
G1 X0.9919 Y1.2847 Z-0.6000
G1 X1.1239 Y1.1239 Z-0.6000
G1 X1.2847 Y0.9919 Z-0.6000
G1 X1.4686 Y0.8936 Z-0.6000
G1 X1.6677 Y0.8332 Z-0.6000
G1 X1.8750 Y0.8128 Z-0.6000
G1 X2.0823 Y0.8332 Z-0.6000
G1 Z-0.7000 F50
G1 X2.2814 Y0.8936 Z-0.7000 F100
G1 X2.4653 Y0.9919 Z-0.7000
G1 X2.6261 Y1.1239 Z-0.7000
G1 X2.7581 Y1.2847 Z-0.7000
G1 X2.8564 Y1.4686 Z-0.7000
G1 X2.9168 Y1.6677 Z-0.7000
G1 X2.9372 Y1.8750 Z-0.7000
G1 X2.9168 Y2.0823 Z-0.7000
G1 X2.8564 Y2.2814 Z-0.7000
G1 X2.7581 Y2.4653 Z-0.7000
G1 X2.6261 Y2.6261 Z-0.7000
G1 X2.4653 Y2.7581 Z-0.7000
G1 X2.2814 Y2.8564 Z-0.7000
G1 X2.0823 Y2.9168 Z-0.7000
G1 X1.8750 Y2.9372 Z-0.7000
G1 X1.6677 Y2.9168 Z-0.7000
G1 X1.4686 Y2.8564 Z-0.7000
G1 X1.2847 Y2.7581 Z-0.7000
G1 X1.1239 Y2.6261 Z-0.7000
G1 X0.9919 Y2.4653 Z-0.7000
G1 X0.8936 Y2.2814 Z-0.7000
G1 X0.8332 Y2.0823 Z-0.7000
G1 X0.8128 Y1.8750 Z-0.7000
G1 X0.8332 Y1.6677 Z-0.7000
G1 X0.8936 Y1.4686 Z-0.7000
G1 X0.9919 Y1.2847 Z-0.7000
G1 X1.1239 Y1.1239 Z-0.7000
G1 X1.2847 Y0.9919 Z-0.7000
G1 X1.4686 Y0.8936 Z-0.7000
G1 X1.6677 Y0.8332 Z-0.7000
G1 X1.8750 Y0.8128 Z-0.7000
G1 X2.0823 Y0.8332 Z-0.7000
G1 Z-0.8000 F50
G1 X2.2814 Y0.8936 Z-0.8000 F100
G1 X2.4653 Y0.9919 Z-0.8000
G1 X2.6261 Y1.1239 Z-0.8000
G1 X2.7581 Y1.2847 Z-0.8000
G1 X2.8564 Y1.4686 Z-0.8000
G1 X2.9168 Y1.6677 Z-0.8000
G1 X2.9372 Y1.8750 Z-0.8000
G1 X2.9168 Y2.0823 Z-0.8000
G1 X2.8564 Y2.2814 Z-0.8000
G1 X2.7581 Y2.4653 Z-0.8000
G1 X2.6261 Y2.6261 Z-0.8000
G1 X2.4653 Y2.7581 Z-0.8000
G1 X2.2814 Y2.8564 Z-0.8000
G1 X2.0823 Y2.9168 Z-0.8000
G1 X1.8750 Y2.9372 Z-0.8000
G1 X1.6677 Y2.9168 Z-0.8000
G1 X1.4686 Y2.8564 Z-0.8000
G1 X1.2847 Y2.7581 Z-0.8000
G1 X1.1239 Y2.6261 Z-0.8000
G1 X0.9919 Y2.4653 Z-0.8000
G1 X0.8936 Y2.2814 Z-0.8000
G1 X0.8332 Y2.0823 Z-0.8000
G1 X0.8128 Y1.8750 Z-0.8000
G1 X0.8332 Y1.6677 Z-0.8000
G1 X0.8936 Y1.4686 Z-0.8000
G1 X0.9919 Y1.2847 Z-0.8000
G1 X1.1239 Y1.1239 Z-0.8000
G1 X1.2847 Y0.9919 Z-0.8000
G1 X1.4686 Y0.8936 Z-0.8000
G1 X1.6677 Y0.8332 Z-0.8000
G1 X1.8750 Y0.8128 Z-0.8000
G1 X2.0823 Y0.8332 Z-0.8000
G1 Z-0.9000 F50
G1 X2.2814 Y0.8936 Z-0.9000 F100
G1 X2.4653 Y0.9919 Z-0.9000
G1 X2.6261 Y1.1239 Z-0.9000
G1 X2.7581 Y1.2847 Z-0.9000
G1 X2.8564 Y1.4686 Z-0.9000
G1 X2.9168 Y1.6677 Z-0.9000
G1 X2.9372 Y1.8750 Z-0.9000
G1 X2.9168 Y2.0823 Z-0.9000
G1 X2.8564 Y2.2814 Z-0.9000
G1 X2.7581 Y2.4653 Z-0.9000
G1 X2.6261 Y2.6261 Z-0.9000
G1 X2.4653 Y2.7581 Z-0.9000
G1 X2.2814 Y2.8564 Z-0.9000
G1 X2.0823 Y2.9168 Z-0.9000
G1 X1.8750 Y2.9372 Z-0.9000
G1 X1.6677 Y2.9168 Z-0.9000
G1 X1.4686 Y2.8564 Z-0.9000
G1 X1.2847 Y2.7581 Z-0.9000
G1 X1.1239 Y2.6261 Z-0.9000
G1 X0.9919 Y2.4653 Z-0.9000
G1 X0.8936 Y2.2814 Z-0.9000
G1 X0.8332 Y2.0823 Z-0.9000
G1 X0.8128 Y1.8750 Z-0.9000
G1 X0.8332 Y1.6677 Z-0.9000
G1 X0.8936 Y1.4686 Z-0.9000
G1 X0.9919 Y1.2847 Z-0.9000
G1 X1.1239 Y1.1239 Z-0.9000
G1 X1.2847 Y0.9919 Z-0.9000
G1 X1.4686 Y0.8936 Z-0.9000
G1 X1.6677 Y0.8332 Z-0.9000
G1 X1.8750 Y0.8128 Z-0.9000
G1 X2.0823 Y0.8332 Z-0.9000
G1 Z-1.0000 F50
G1 X2.2814 Y0.8936 Z-1.0000 F100
G1 X2.4653 Y0.9919 Z-1.0000
G1 X2.6261 Y1.1239 Z-1.0000
G1 X2.7581 Y1.2847 Z-1.0000
G1 X2.8564 Y1.4686 Z-1.0000
G1 X2.9168 Y1.6677 Z-1.0000
G1 X2.9372 Y1.8750 Z-1.0000
G1 X2.9168 Y2.0823 Z-1.0000
G1 X2.8564 Y2.2814 Z-1.0000
G1 X2.7581 Y2.4653 Z-1.0000
G1 X2.6261 Y2.6261 Z-1.0000
G1 X2.4653 Y2.7581 Z-1.0000
G1 X2.2814 Y2.8564 Z-1.0000
G1 X2.0823 Y2.9168 Z-1.0000
G1 X1.8750 Y2.9372 Z-1.0000
G1 X1.6677 Y2.9168 Z-1.0000
G1 X1.4686 Y2.8564 Z-1.0000
G1 X1.2847 Y2.7581 Z-1.0000
G1 X1.1239 Y2.6261 Z-1.0000
G1 X0.9919 Y2.4653 Z-1.0000
G1 X0.8936 Y2.2814 Z-1.0000
G1 X0.8332 Y2.0823 Z-1.0000
G1 X0.8128 Y1.8750 Z-1.0000
G1 X0.8332 Y1.6677 Z-1.0000
G1 X0.8936 Y1.4686 Z-1.0000
G1 X0.9919 Y1.2847 Z-1.0000
G1 X1.1239 Y1.1239 Z-1.0000
G1 X1.2847 Y0.9919 Z-1.0000
G1 X1.4686 Y0.8936 Z-1.0000
G1 X1.6677 Y0.8332 Z-1.0000
G1 X1.8750 Y0.8128 Z-1.0000
G1 X2.0823 Y0.8332 Z-1.0000
G1 Z-1.1000 F50
G1 X2.2814 Y0.8936 Z-1.1000 F100
G1 X2.4653 Y0.9919 Z-1.1000
G1 X2.6261 Y1.1239 Z-1.1000
G1 X2.7581 Y1.2847 Z-1.1000
G1 X2.8564 Y1.4686 Z-1.1000
G1 X2.9168 Y1.6677 Z-1.1000
G1 X2.9372 Y1.8750 Z-1.1000
G1 X2.9168 Y2.0823 Z-1.1000
G1 X2.8564 Y2.2814 Z-1.1000
G1 X2.7581 Y2.4653 Z-1.1000
G1 X2.6261 Y2.6261 Z-1.1000
G1 X2.4653 Y2.7581 Z-1.1000
G1 X2.2814 Y2.8564 Z-1.1000
G1 X2.0823 Y2.9168 Z-1.1000
G1 X1.8750 Y2.9372 Z-1.1000
G1 X1.6677 Y2.9168 Z-1.1000
G1 X1.4686 Y2.8564 Z-1.1000
G1 X1.2847 Y2.7581 Z-1.1000
G1 X1.1239 Y2.6261 Z-1.1000
G1 X0.9919 Y2.4653 Z-1.1000
G1 X0.8936 Y2.2814 Z-1.1000
G1 X0.8332 Y2.0823 Z-1.1000
G1 X0.8128 Y1.8750 Z-1.1000
G1 X0.8332 Y1.6677 Z-1.1000
G1 X0.8936 Y1.4686 Z-1.1000
G1 X0.9919 Y1.2847 Z-1.1000
G1 X1.1239 Y1.1239 Z-1.1000
G1 X1.2847 Y0.9919 Z-1.1000
G1 X1.4686 Y0.8936 Z-1.1000
G1 X1.6677 Y0.8332 Z-1.1000
G1 X1.8750 Y0.8128 Z-1.1000
G1 X2.0823 Y0.8332 Z-1.1000
G1 Z-1.2000 F50
G1 X2.2814 Y0.8936 Z-1.2000 F100
G1 X2.4653 Y0.9919 Z-1.2000
G1 X2.6261 Y1.1239 Z-1.2000
G1 X2.7581 Y1.2847 Z-1.2000
G1 X2.8564 Y1.4686 Z-1.2000
G1 X2.9168 Y1.6677 Z-1.2000
G1 X2.9372 Y1.8750 Z-1.2000
G1 X2.9168 Y2.0823 Z-1.2000
G1 X2.8564 Y2.2814 Z-1.2000
G1 X2.7581 Y2.4653 Z-1.2000
G1 X2.6261 Y2.6261 Z-1.2000
G1 X2.4653 Y2.7581 Z-1.2000
G1 X2.2814 Y2.8564 Z-1.2000
G1 X2.0823 Y2.9168 Z-1.2000
G1 X1.8750 Y2.9372 Z-1.2000
G1 X1.6677 Y2.9168 Z-1.2000
G1 X1.4686 Y2.8564 Z-1.2000
G1 X1.2847 Y2.7581 Z-1.2000
G1 X1.1239 Y2.6261 Z-1.2000
G1 X0.9919 Y2.4653 Z-1.2000
G1 X0.8936 Y2.2814 Z-1.2000
G1 X0.8332 Y2.0823 Z-1.2000
G1 X0.8128 Y1.8750 Z-1.2000
G1 X0.8332 Y1.6677 Z-1.2000
G1 X0.8936 Y1.4686 Z-1.2000
G1 X0.9919 Y1.2847 Z-1.2000
G1 X1.1239 Y1.1239 Z-1.2000
G1 X1.2847 Y0.9919 Z-1.2000
G1 X1.4686 Y0.8936 Z-1.2000
G1 X1.6677 Y0.8332 Z-1.2000
G1 X1.8750 Y0.8128 Z-1.2000
G1 X2.0823 Y0.8332 Z-1.2000
G1 Z-1.3000 F50
G1 X2.2814 Y0.8936 Z-1.3000 F100
G1 X2.4653 Y0.9919 Z-1.3000
G1 X2.6261 Y1.1239 Z-1.3000
G1 X2.7581 Y1.2847 Z-1.3000
G1 X2.8564 Y1.4686 Z-1.3000
G1 X2.9168 Y1.6677 Z-1.3000
G1 X2.9372 Y1.8750 Z-1.3000
G1 X2.9168 Y2.0823 Z-1.3000
G1 X2.8564 Y2.2814 Z-1.3000
G1 X2.7581 Y2.4653 Z-1.3000
G1 X2.6261 Y2.6261 Z-1.3000
G1 X2.4653 Y2.7581 Z-1.3000
G1 X2.2814 Y2.8564 Z-1.3000
G1 X2.0823 Y2.9168 Z-1.3000
G1 X1.8750 Y2.9372 Z-1.3000
G1 X1.6677 Y2.9168 Z-1.3000
G1 X1.4686 Y2.8564 Z-1.3000
G1 X1.2847 Y2.7581 Z-1.3000
G1 X1.1239 Y2.6261 Z-1.3000
G1 X0.9919 Y2.4653 Z-1.3000
G1 X0.8936 Y2.2814 Z-1.3000
G1 X0.8332 Y2.0823 Z-1.3000
G1 X0.8128 Y1.8750 Z-1.3000
G1 X0.8332 Y1.6677 Z-1.3000
G1 X0.8936 Y1.4686 Z-1.3000
G1 X0.9919 Y1.2847 Z-1.3000
G1 X1.1239 Y1.1239 Z-1.3000
G1 X1.2847 Y0.9919 Z-1.3000
G1 X1.4686 Y0.8936 Z-1.3000
G1 X1.6677 Y0.8332 Z-1.3000
G1 X1.8750 Y0.8128 Z-1.3000
G1 X2.0823 Y0.8332 Z-1.3000
G1 Z-1.4000 F50
G1 X2.2814 Y0.8936 Z-1.4000 F100
G1 X2.4653 Y0.9919 Z-1.4000
G1 X2.6261 Y1.1239 Z-1.4000
G1 X2.7581 Y1.2847 Z-1.4000
G1 X2.8564 Y1.4686 Z-1.4000
G1 X2.9168 Y1.6677 Z-1.4000
G1 X2.9372 Y1.8750 Z-1.4000
G1 X2.9168 Y2.0823 Z-1.4000
G1 X2.8564 Y2.2814 Z-1.4000
G1 X2.7581 Y2.4653 Z-1.4000
G1 X2.6261 Y2.6261 Z-1.4000
G1 X2.4653 Y2.7581 Z-1.4000
G1 X2.2814 Y2.8564 Z-1.4000
G1 X2.0823 Y2.9168 Z-1.4000
G1 X1.8750 Y2.9372 Z-1.4000
G1 X1.6677 Y2.9168 Z-1.4000
G1 X1.4686 Y2.8564 Z-1.4000
G1 X1.2847 Y2.7581 Z-1.4000
G1 X1.1239 Y2.6261 Z-1.4000
G1 X0.9919 Y2.4653 Z-1.4000
G1 X0.8936 Y2.2814 Z-1.4000
G1 X0.8332 Y2.0823 Z-1.4000
G1 X0.8128 Y1.8750 Z-1.4000
G1 X0.8332 Y1.6677 Z-1.4000
G1 X0.8936 Y1.4686 Z-1.4000
G1 X0.9919 Y1.2847 Z-1.4000
G1 X1.1239 Y1.1239 Z-1.4000
G1 X1.2847 Y0.9919 Z-1.4000
G1 X1.4686 Y0.8936 Z-1.4000
G1 X1.6677 Y0.8332 Z-1.4000
G1 X1.8750 Y0.8128 Z-1.4000
G1 X2.0823 Y0.8332 Z-1.4000
G1 Z-1.5000 F50
G1 X2.2814 Y0.8936 Z-1.5000 F100
G1 X2.4653 Y0.9919 Z-1.5000
G1 X2.6261 Y1.1239 Z-1.5000
G1 X2.7581 Y1.2847 Z-1.5000
G1 X2.8564 Y1.4686 Z-1.5000
G1 X2.9168 Y1.6677 Z-1.5000
G1 X2.9372 Y1.8750 Z-1.5000
G1 X2.9168 Y2.0823 Z-1.5000
G1 X2.8564 Y2.2814 Z-1.5000
G1 X2.7581 Y2.4653 Z-1.5000
G1 X2.6261 Y2.6261 Z-1.5000
G1 X2.4653 Y2.7581 Z-1.5000
G1 X2.2814 Y2.8564 Z-1.5000
G1 X2.0823 Y2.9168 Z-1.5000
G1 X1.8750 Y2.9372 Z-1.5000
G1 X1.6677 Y2.9168 Z-1.5000
G1 X1.4686 Y2.8564 Z-1.5000
G1 X1.2847 Y2.7581 Z-1.5000
G1 X1.1239 Y2.6261 Z-1.5000
G1 X0.9919 Y2.4653 Z-1.5000
G1 X0.8936 Y2.2814 Z-1.5000
G1 X0.8332 Y2.0823 Z-1.5000
G1 X0.8128 Y1.8750 Z-1.5000
G1 X0.8332 Y1.6677 Z-1.5000
G1 X0.8936 Y1.4686 Z-1.5000
G1 X0.9919 Y1.2847 Z-1.5000
G1 X1.1239 Y1.1239 Z-1.5000
G1 X1.2847 Y0.9919 Z-1.5000
G1 X1.4686 Y0.8936 Z-1.5000
G1 X1.6677 Y0.8332 Z-1.5000
G1 X1.8750 Y0.8128 Z-1.5000
G1 X2.0823 Y0.8332 Z-1.5000
G1 Z-1.6000 F50
G1 X2.2814 Y0.8936 Z-1.6000 F100
G1 X2.4653 Y0.9919 Z-1.6000
G1 X2.6261 Y1.1239 Z-1.6000
G1 X2.7581 Y1.2847 Z-1.6000
G1 X2.8564 Y1.4686 Z-1.6000
G1 X2.9168 Y1.6677 Z-1.6000
G1 X2.9372 Y1.8750 Z-1.6000
G1 X2.9168 Y2.0823 Z-1.6000
G1 X2.8564 Y2.2814 Z-1.6000
G1 X2.7581 Y2.4653 Z-1.6000
G1 X2.6261 Y2.6261 Z-1.6000
G1 X2.4653 Y2.7581 Z-1.6000
G1 X2.2814 Y2.8564 Z-1.6000
G1 X2.0823 Y2.9168 Z-1.6000
G1 X1.8750 Y2.9372 Z-1.6000
G1 X1.6677 Y2.9168 Z-1.6000
G1 X1.4686 Y2.8564 Z-1.6000
G1 X1.2847 Y2.7581 Z-1.6000
G1 X1.1239 Y2.6261 Z-1.6000
G1 X0.9919 Y2.4653 Z-1.6000
G1 X0.8936 Y2.2814 Z-1.6000
G1 X0.8332 Y2.0823 Z-1.6000
G1 X0.8128 Y1.8750 Z-1.6000
G1 X0.8332 Y1.6677 Z-1.6000
G1 X0.8936 Y1.4686 Z-1.6000
G1 X0.9919 Y1.2847 Z-1.6000
G1 X1.1239 Y1.1239 Z-1.6000
G1 X1.2847 Y0.9919 Z-1.6000
G1 X1.4686 Y0.8936 Z-1.6000
G1 X1.6677 Y0.8332 Z-1.6000
G1 X1.8750 Y0.8128 Z-1.6000
G1 X2.0823 Y0.8332 Z-1.6000

G0 Z0.5 ; move to z-safe height
G0 X4.8323 Y0.8332
G1 Z-0.1000 F50
G1 X5.0314 Y0.8936 Z-0.1000 F100
G1 X5.2153 Y0.9919 Z-0.1000
G1 X5.3761 Y1.1239 Z-0.1000
G1 X5.5081 Y1.2847 Z-0.1000
G1 X5.6064 Y1.4686 Z-0.1000
G1 X5.6668 Y1.6677 Z-0.1000
G1 X5.6872 Y1.8750 Z-0.1000
G1 X5.6668 Y2.0823 Z-0.1000
G1 X5.6064 Y2.2814 Z-0.1000
G1 X5.5081 Y2.4653 Z-0.1000
G1 X5.3761 Y2.6261 Z-0.1000
G1 X5.2153 Y2.7581 Z-0.1000
G1 X5.0314 Y2.8564 Z-0.1000
G1 X4.8323 Y2.9168 Z-0.1000
G1 X4.6250 Y2.9372 Z-0.1000
G1 X4.4177 Y2.9168 Z-0.1000
G1 X4.2186 Y2.8564 Z-0.1000
G1 X4.0347 Y2.7581 Z-0.1000
G1 X3.8739 Y2.6261 Z-0.1000
G1 X3.7419 Y2.4653 Z-0.1000
G1 X3.6436 Y2.2814 Z-0.1000
G1 X3.5832 Y2.0823 Z-0.1000
G1 X3.5628 Y1.8750 Z-0.1000
G1 X3.5832 Y1.6677 Z-0.1000
G1 X3.6436 Y1.4686 Z-0.1000
G1 X3.7419 Y1.2847 Z-0.1000
G1 X3.8739 Y1.1239 Z-0.1000
G1 X4.0347 Y0.9919 Z-0.1000
G1 X4.2186 Y0.8936 Z-0.1000
G1 X4.4177 Y0.8332 Z-0.1000
G1 X4.6250 Y0.8128 Z-0.1000
G1 X4.8323 Y0.8332 Z-0.1000
G1 Z-0.2000 F50
G1 X5.0314 Y0.8936 Z-0.2000 F100
G1 X5.2153 Y0.9919 Z-0.2000
G1 X5.3761 Y1.1239 Z-0.2000
G1 X5.5081 Y1.2847 Z-0.2000
G1 X5.6064 Y1.4686 Z-0.2000
G1 X5.6668 Y1.6677 Z-0.2000
G1 X5.6872 Y1.8750 Z-0.2000
G1 X5.6668 Y2.0823 Z-0.2000
G1 X5.6064 Y2.2814 Z-0.2000
G1 X5.5081 Y2.4653 Z-0.2000
G1 X5.3761 Y2.6261 Z-0.2000
G1 X5.2153 Y2.7581 Z-0.2000
G1 X5.0314 Y2.8564 Z-0.2000
G1 X4.8323 Y2.9168 Z-0.2000
G1 X4.6250 Y2.9372 Z-0.2000
G1 X4.4177 Y2.9168 Z-0.2000
G1 X4.2186 Y2.8564 Z-0.2000
G1 X4.0347 Y2.7581 Z-0.2000
G1 X3.8739 Y2.6261 Z-0.2000
G1 X3.7419 Y2.4653 Z-0.2000
G1 X3.6436 Y2.2814 Z-0.2000
G1 X3.5832 Y2.0823 Z-0.2000
G1 X3.5628 Y1.8750 Z-0.2000
G1 X3.5832 Y1.6677 Z-0.2000
G1 X3.6436 Y1.4686 Z-0.2000
G1 X3.7419 Y1.2847 Z-0.2000
G1 X3.8739 Y1.1239 Z-0.2000
G1 X4.0347 Y0.9919 Z-0.2000
G1 X4.2186 Y0.8936 Z-0.2000
G1 X4.4177 Y0.8332 Z-0.2000
G1 X4.6250 Y0.8128 Z-0.2000
G1 X4.8323 Y0.8332 Z-0.2000
G1 Z-0.3000 F50
G1 X5.0314 Y0.8936 Z-0.3000 F100
G1 X5.2153 Y0.9919 Z-0.3000
G1 X5.3761 Y1.1239 Z-0.3000
G1 X5.5081 Y1.2847 Z-0.3000
G1 X5.6064 Y1.4686 Z-0.3000
G1 X5.6668 Y1.6677 Z-0.3000
G1 X5.6872 Y1.8750 Z-0.3000
G1 X5.6668 Y2.0823 Z-0.3000
G1 X5.6064 Y2.2814 Z-0.3000
G1 X5.5081 Y2.4653 Z-0.3000
G1 X5.3761 Y2.6261 Z-0.3000
G1 X5.2153 Y2.7581 Z-0.3000
G1 X5.0314 Y2.8564 Z-0.3000
G1 X4.8323 Y2.9168 Z-0.3000
G1 X4.6250 Y2.9372 Z-0.3000
G1 X4.4177 Y2.9168 Z-0.3000
G1 X4.2186 Y2.8564 Z-0.3000
G1 X4.0347 Y2.7581 Z-0.3000
G1 X3.8739 Y2.6261 Z-0.3000
G1 X3.7419 Y2.4653 Z-0.3000
G1 X3.6436 Y2.2814 Z-0.3000
G1 X3.5832 Y2.0823 Z-0.3000
G1 X3.5628 Y1.8750 Z-0.3000
G1 X3.5832 Y1.6677 Z-0.3000
G1 X3.6436 Y1.4686 Z-0.3000
G1 X3.7419 Y1.2847 Z-0.3000
G1 X3.8739 Y1.1239 Z-0.3000
G1 X4.0347 Y0.9919 Z-0.3000
G1 X4.2186 Y0.8936 Z-0.3000
G1 X4.4177 Y0.8332 Z-0.3000
G1 X4.6250 Y0.8128 Z-0.3000
G1 X4.8323 Y0.8332 Z-0.3000
G1 Z-0.4000 F50
G1 X5.0314 Y0.8936 Z-0.4000 F100
G1 X5.2153 Y0.9919 Z-0.4000
G1 X5.3761 Y1.1239 Z-0.4000
G1 X5.5081 Y1.2847 Z-0.4000
G1 X5.6064 Y1.4686 Z-0.4000
G1 X5.6668 Y1.6677 Z-0.4000
G1 X5.6872 Y1.8750 Z-0.4000
G1 X5.6668 Y2.0823 Z-0.4000
G1 X5.6064 Y2.2814 Z-0.4000
G1 X5.5081 Y2.4653 Z-0.4000
G1 X5.3761 Y2.6261 Z-0.4000
G1 X5.2153 Y2.7581 Z-0.4000
G1 X5.0314 Y2.8564 Z-0.4000
G1 X4.8323 Y2.9168 Z-0.4000
G1 X4.6250 Y2.9372 Z-0.4000
G1 X4.4177 Y2.9168 Z-0.4000
G1 X4.2186 Y2.8564 Z-0.4000
G1 X4.0347 Y2.7581 Z-0.4000
G1 X3.8739 Y2.6261 Z-0.4000
G1 X3.7419 Y2.4653 Z-0.4000
G1 X3.6436 Y2.2814 Z-0.4000
G1 X3.5832 Y2.0823 Z-0.4000
G1 X3.5628 Y1.8750 Z-0.4000
G1 X3.5832 Y1.6677 Z-0.4000
G1 X3.6436 Y1.4686 Z-0.4000
G1 X3.7419 Y1.2847 Z-0.4000
G1 X3.8739 Y1.1239 Z-0.4000
G1 X4.0347 Y0.9919 Z-0.4000
G1 X4.2186 Y0.8936 Z-0.4000
G1 X4.4177 Y0.8332 Z-0.4000
G1 X4.6250 Y0.8128 Z-0.4000
G1 X4.8323 Y0.8332 Z-0.4000
G1 Z-0.5000 F50
G1 X5.0314 Y0.8936 Z-0.5000 F100
G1 X5.2153 Y0.9919 Z-0.5000
G1 X5.3761 Y1.1239 Z-0.5000
G1 X5.5081 Y1.2847 Z-0.5000
G1 X5.6064 Y1.4686 Z-0.5000
G1 X5.6668 Y1.6677 Z-0.5000
G1 X5.6872 Y1.8750 Z-0.5000
G1 X5.6668 Y2.0823 Z-0.5000
G1 X5.6064 Y2.2814 Z-0.5000
G1 X5.5081 Y2.4653 Z-0.5000
G1 X5.3761 Y2.6261 Z-0.5000
G1 X5.2153 Y2.7581 Z-0.5000
G1 X5.0314 Y2.8564 Z-0.5000
G1 X4.8323 Y2.9168 Z-0.5000
G1 X4.6250 Y2.9372 Z-0.5000
G1 X4.4177 Y2.9168 Z-0.5000
G1 X4.2186 Y2.8564 Z-0.5000
G1 X4.0347 Y2.7581 Z-0.5000
G1 X3.8739 Y2.6261 Z-0.5000
G1 X3.7419 Y2.4653 Z-0.5000
G1 X3.6436 Y2.2814 Z-0.5000
G1 X3.5832 Y2.0823 Z-0.5000
G1 X3.5628 Y1.8750 Z-0.5000
G1 X3.5832 Y1.6677 Z-0.5000
G1 X3.6436 Y1.4686 Z-0.5000
G1 X3.7419 Y1.2847 Z-0.5000
G1 X3.8739 Y1.1239 Z-0.5000
G1 X4.0347 Y0.9919 Z-0.5000
G1 X4.2186 Y0.8936 Z-0.5000
G1 X4.4177 Y0.8332 Z-0.5000
G1 X4.6250 Y0.8128 Z-0.5000
G1 X4.8323 Y0.8332 Z-0.5000
G1 Z-0.6000 F50
G1 X5.0314 Y0.8936 Z-0.6000 F100
G1 X5.2153 Y0.9919 Z-0.6000
G1 X5.3761 Y1.1239 Z-0.6000
G1 X5.5081 Y1.2847 Z-0.6000
G1 X5.6064 Y1.4686 Z-0.6000
G1 X5.6668 Y1.6677 Z-0.6000
G1 X5.6872 Y1.8750 Z-0.6000
G1 X5.6668 Y2.0823 Z-0.6000
G1 X5.6064 Y2.2814 Z-0.6000
G1 X5.5081 Y2.4653 Z-0.6000
G1 X5.3761 Y2.6261 Z-0.6000
G1 X5.2153 Y2.7581 Z-0.6000
G1 X5.0314 Y2.8564 Z-0.6000
G1 X4.8323 Y2.9168 Z-0.6000
G1 X4.6250 Y2.9372 Z-0.6000
G1 X4.4177 Y2.9168 Z-0.6000
G1 X4.2186 Y2.8564 Z-0.6000
G1 X4.0347 Y2.7581 Z-0.6000
G1 X3.8739 Y2.6261 Z-0.6000
G1 X3.7419 Y2.4653 Z-0.6000
G1 X3.6436 Y2.2814 Z-0.6000
G1 X3.5832 Y2.0823 Z-0.6000
G1 X3.5628 Y1.8750 Z-0.6000
G1 X3.5832 Y1.6677 Z-0.6000
G1 X3.6436 Y1.4686 Z-0.6000
G1 X3.7419 Y1.2847 Z-0.6000
G1 X3.8739 Y1.1239 Z-0.6000
G1 X4.0347 Y0.9919 Z-0.6000
G1 X4.2186 Y0.8936 Z-0.6000
G1 X4.4177 Y0.8332 Z-0.6000
G1 X4.6250 Y0.8128 Z-0.6000
G1 X4.8323 Y0.8332 Z-0.6000
G1 Z-0.7000 F50
G1 X5.0314 Y0.8936 Z-0.7000 F100
G1 X5.2153 Y0.9919 Z-0.7000
G1 X5.3761 Y1.1239 Z-0.7000
G1 X5.5081 Y1.2847 Z-0.7000
G1 X5.6064 Y1.4686 Z-0.7000
G1 X5.6668 Y1.6677 Z-0.7000
G1 X5.6872 Y1.8750 Z-0.7000
G1 X5.6668 Y2.0823 Z-0.7000
G1 X5.6064 Y2.2814 Z-0.7000
G1 X5.5081 Y2.4653 Z-0.7000
G1 X5.3761 Y2.6261 Z-0.7000
G1 X5.2153 Y2.7581 Z-0.7000
G1 X5.0314 Y2.8564 Z-0.7000
G1 X4.8323 Y2.9168 Z-0.7000
G1 X4.6250 Y2.9372 Z-0.7000
G1 X4.4177 Y2.9168 Z-0.7000
G1 X4.2186 Y2.8564 Z-0.7000
G1 X4.0347 Y2.7581 Z-0.7000
G1 X3.8739 Y2.6261 Z-0.7000
G1 X3.7419 Y2.4653 Z-0.7000
G1 X3.6436 Y2.2814 Z-0.7000
G1 X3.5832 Y2.0823 Z-0.7000
G1 X3.5628 Y1.8750 Z-0.7000
G1 X3.5832 Y1.6677 Z-0.7000
G1 X3.6436 Y1.4686 Z-0.7000
G1 X3.7419 Y1.2847 Z-0.7000
G1 X3.8739 Y1.1239 Z-0.7000
G1 X4.0347 Y0.9919 Z-0.7000
G1 X4.2186 Y0.8936 Z-0.7000
G1 X4.4177 Y0.8332 Z-0.7000
G1 X4.6250 Y0.8128 Z-0.7000
G1 X4.8323 Y0.8332 Z-0.7000
G1 Z-0.8000 F50
G1 X5.0314 Y0.8936 Z-0.8000 F100
G1 X5.2153 Y0.9919 Z-0.8000
G1 X5.3761 Y1.1239 Z-0.8000
G1 X5.5081 Y1.2847 Z-0.8000
G1 X5.6064 Y1.4686 Z-0.8000
G1 X5.6668 Y1.6677 Z-0.8000
G1 X5.6872 Y1.8750 Z-0.8000
G1 X5.6668 Y2.0823 Z-0.8000
G1 X5.6064 Y2.2814 Z-0.8000
G1 X5.5081 Y2.4653 Z-0.8000
G1 X5.3761 Y2.6261 Z-0.8000
G1 X5.2153 Y2.7581 Z-0.8000
G1 X5.0314 Y2.8564 Z-0.8000
G1 X4.8323 Y2.9168 Z-0.8000
G1 X4.6250 Y2.9372 Z-0.8000
G1 X4.4177 Y2.9168 Z-0.8000
G1 X4.2186 Y2.8564 Z-0.8000
G1 X4.0347 Y2.7581 Z-0.8000
G1 X3.8739 Y2.6261 Z-0.8000
G1 X3.7419 Y2.4653 Z-0.8000
G1 X3.6436 Y2.2814 Z-0.8000
G1 X3.5832 Y2.0823 Z-0.8000
G1 X3.5628 Y1.8750 Z-0.8000
G1 X3.5832 Y1.6677 Z-0.8000
G1 X3.6436 Y1.4686 Z-0.8000
G1 X3.7419 Y1.2847 Z-0.8000
G1 X3.8739 Y1.1239 Z-0.8000
G1 X4.0347 Y0.9919 Z-0.8000
G1 X4.2186 Y0.8936 Z-0.8000
G1 X4.4177 Y0.8332 Z-0.8000
G1 X4.6250 Y0.8128 Z-0.8000
G1 X4.8323 Y0.8332 Z-0.8000
G1 Z-0.9000 F50
G1 X5.0314 Y0.8936 Z-0.9000 F100
G1 X5.2153 Y0.9919 Z-0.9000
G1 X5.3761 Y1.1239 Z-0.9000
G1 X5.5081 Y1.2847 Z-0.9000
G1 X5.6064 Y1.4686 Z-0.9000
G1 X5.6668 Y1.6677 Z-0.9000
G1 X5.6872 Y1.8750 Z-0.9000
G1 X5.6668 Y2.0823 Z-0.9000
G1 X5.6064 Y2.2814 Z-0.9000
G1 X5.5081 Y2.4653 Z-0.9000
G1 X5.3761 Y2.6261 Z-0.9000
G1 X5.2153 Y2.7581 Z-0.9000
G1 X5.0314 Y2.8564 Z-0.9000
G1 X4.8323 Y2.9168 Z-0.9000
G1 X4.6250 Y2.9372 Z-0.9000
G1 X4.4177 Y2.9168 Z-0.9000
G1 X4.2186 Y2.8564 Z-0.9000
G1 X4.0347 Y2.7581 Z-0.9000
G1 X3.8739 Y2.6261 Z-0.9000
G1 X3.7419 Y2.4653 Z-0.9000
G1 X3.6436 Y2.2814 Z-0.9000
G1 X3.5832 Y2.0823 Z-0.9000
G1 X3.5628 Y1.8750 Z-0.9000
G1 X3.5832 Y1.6677 Z-0.9000
G1 X3.6436 Y1.4686 Z-0.9000
G1 X3.7419 Y1.2847 Z-0.9000
G1 X3.8739 Y1.1239 Z-0.9000
G1 X4.0347 Y0.9919 Z-0.9000
G1 X4.2186 Y0.8936 Z-0.9000
G1 X4.4177 Y0.8332 Z-0.9000
G1 X4.6250 Y0.8128 Z-0.9000
G1 X4.8323 Y0.8332 Z-0.9000
G1 Z-1.0000 F50
G1 X5.0314 Y0.8936 Z-1.0000 F100
G1 X5.2153 Y0.9919 Z-1.0000
G1 X5.3761 Y1.1239 Z-1.0000
G1 X5.5081 Y1.2847 Z-1.0000
G1 X5.6064 Y1.4686 Z-1.0000
G1 X5.6668 Y1.6677 Z-1.0000
G1 X5.6872 Y1.8750 Z-1.0000
G1 X5.6668 Y2.0823 Z-1.0000
G1 X5.6064 Y2.2814 Z-1.0000
G1 X5.5081 Y2.4653 Z-1.0000
G1 X5.3761 Y2.6261 Z-1.0000
G1 X5.2153 Y2.7581 Z-1.0000
G1 X5.0314 Y2.8564 Z-1.0000
G1 X4.8323 Y2.9168 Z-1.0000
G1 X4.6250 Y2.9372 Z-1.0000
G1 X4.4177 Y2.9168 Z-1.0000
G1 X4.2186 Y2.8564 Z-1.0000
G1 X4.0347 Y2.7581 Z-1.0000
G1 X3.8739 Y2.6261 Z-1.0000
G1 X3.7419 Y2.4653 Z-1.0000
G1 X3.6436 Y2.2814 Z-1.0000
G1 X3.5832 Y2.0823 Z-1.0000
G1 X3.5628 Y1.8750 Z-1.0000
G1 X3.5832 Y1.6677 Z-1.0000
G1 X3.6436 Y1.4686 Z-1.0000
G1 X3.7419 Y1.2847 Z-1.0000
G1 X3.8739 Y1.1239 Z-1.0000
G1 X4.0347 Y0.9919 Z-1.0000
G1 X4.2186 Y0.8936 Z-1.0000
G1 X4.4177 Y0.8332 Z-1.0000
G1 X4.6250 Y0.8128 Z-1.0000
G1 X4.8323 Y0.8332 Z-1.0000
G1 Z-1.1000 F50
G1 X5.0314 Y0.8936 Z-1.1000 F100
G1 X5.2153 Y0.9919 Z-1.1000
G1 X5.3761 Y1.1239 Z-1.1000
G1 X5.5081 Y1.2847 Z-1.1000
G1 X5.6064 Y1.4686 Z-1.1000
G1 X5.6668 Y1.6677 Z-1.1000
G1 X5.6872 Y1.8750 Z-1.1000
G1 X5.6668 Y2.0823 Z-1.1000
G1 X5.6064 Y2.2814 Z-1.1000
G1 X5.5081 Y2.4653 Z-1.1000
G1 X5.3761 Y2.6261 Z-1.1000
G1 X5.2153 Y2.7581 Z-1.1000
G1 X5.0314 Y2.8564 Z-1.1000
G1 X4.8323 Y2.9168 Z-1.1000
G1 X4.6250 Y2.9372 Z-1.1000
G1 X4.4177 Y2.9168 Z-1.1000
G1 X4.2186 Y2.8564 Z-1.1000
G1 X4.0347 Y2.7581 Z-1.1000
G1 X3.8739 Y2.6261 Z-1.1000
G1 X3.7419 Y2.4653 Z-1.1000
G1 X3.6436 Y2.2814 Z-1.1000
G1 X3.5832 Y2.0823 Z-1.1000
G1 X3.5628 Y1.8750 Z-1.1000
G1 X3.5832 Y1.6677 Z-1.1000
G1 X3.6436 Y1.4686 Z-1.1000
G1 X3.7419 Y1.2847 Z-1.1000
G1 X3.8739 Y1.1239 Z-1.1000
G1 X4.0347 Y0.9919 Z-1.1000
G1 X4.2186 Y0.8936 Z-1.1000
G1 X4.4177 Y0.8332 Z-1.1000
G1 X4.6250 Y0.8128 Z-1.1000
G1 X4.8323 Y0.8332 Z-1.1000
G1 Z-1.2000 F50
G1 X5.0314 Y0.8936 Z-1.2000 F100
G1 X5.2153 Y0.9919 Z-1.2000
G1 X5.3761 Y1.1239 Z-1.2000
G1 X5.5081 Y1.2847 Z-1.2000
G1 X5.6064 Y1.4686 Z-1.2000
G1 X5.6668 Y1.6677 Z-1.2000
G1 X5.6872 Y1.8750 Z-1.2000
G1 X5.6668 Y2.0823 Z-1.2000
G1 X5.6064 Y2.2814 Z-1.2000
G1 X5.5081 Y2.4653 Z-1.2000
G1 X5.3761 Y2.6261 Z-1.2000
G1 X5.2153 Y2.7581 Z-1.2000
G1 X5.0314 Y2.8564 Z-1.2000
G1 X4.8323 Y2.9168 Z-1.2000
G1 X4.6250 Y2.9372 Z-1.2000
G1 X4.4177 Y2.9168 Z-1.2000
G1 X4.2186 Y2.8564 Z-1.2000
G1 X4.0347 Y2.7581 Z-1.2000
G1 X3.8739 Y2.6261 Z-1.2000
G1 X3.7419 Y2.4653 Z-1.2000
G1 X3.6436 Y2.2814 Z-1.2000
G1 X3.5832 Y2.0823 Z-1.2000
G1 X3.5628 Y1.8750 Z-1.2000
G1 X3.5832 Y1.6677 Z-1.2000
G1 X3.6436 Y1.4686 Z-1.2000
G1 X3.7419 Y1.2847 Z-1.2000
G1 X3.8739 Y1.1239 Z-1.2000
G1 X4.0347 Y0.9919 Z-1.2000
G1 X4.2186 Y0.8936 Z-1.2000
G1 X4.4177 Y0.8332 Z-1.2000
G1 X4.6250 Y0.8128 Z-1.2000
G1 X4.8323 Y0.8332 Z-1.2000
G1 Z-1.3000 F50
G1 X5.0314 Y0.8936 Z-1.3000 F100
G1 X5.2153 Y0.9919 Z-1.3000
G1 X5.3761 Y1.1239 Z-1.3000
G1 X5.5081 Y1.2847 Z-1.3000
G1 X5.6064 Y1.4686 Z-1.3000
G1 X5.6668 Y1.6677 Z-1.3000
G1 X5.6872 Y1.8750 Z-1.3000
G1 X5.6668 Y2.0823 Z-1.3000
G1 X5.6064 Y2.2814 Z-1.3000
G1 X5.5081 Y2.4653 Z-1.3000
G1 X5.3761 Y2.6261 Z-1.3000
G1 X5.2153 Y2.7581 Z-1.3000
G1 X5.0314 Y2.8564 Z-1.3000
G1 X4.8323 Y2.9168 Z-1.3000
G1 X4.6250 Y2.9372 Z-1.3000
G1 X4.4177 Y2.9168 Z-1.3000
G1 X4.2186 Y2.8564 Z-1.3000
G1 X4.0347 Y2.7581 Z-1.3000
G1 X3.8739 Y2.6261 Z-1.3000
G1 X3.7419 Y2.4653 Z-1.3000
G1 X3.6436 Y2.2814 Z-1.3000
G1 X3.5832 Y2.0823 Z-1.3000
G1 X3.5628 Y1.8750 Z-1.3000
G1 X3.5832 Y1.6677 Z-1.3000
G1 X3.6436 Y1.4686 Z-1.3000
G1 X3.7419 Y1.2847 Z-1.3000
G1 X3.8739 Y1.1239 Z-1.3000
G1 X4.0347 Y0.9919 Z-1.3000
G1 X4.2186 Y0.8936 Z-1.3000
G1 X4.4177 Y0.8332 Z-1.3000
G1 X4.6250 Y0.8128 Z-1.3000
G1 X4.8323 Y0.8332 Z-1.3000
G1 Z-1.4000 F50
G1 X5.0314 Y0.8936 Z-1.4000 F100
G1 X5.2153 Y0.9919 Z-1.4000
G1 X5.3761 Y1.1239 Z-1.4000
G1 X5.5081 Y1.2847 Z-1.4000
G1 X5.6064 Y1.4686 Z-1.4000
G1 X5.6668 Y1.6677 Z-1.4000
G1 X5.6872 Y1.8750 Z-1.4000
G1 X5.6668 Y2.0823 Z-1.4000
G1 X5.6064 Y2.2814 Z-1.4000
G1 X5.5081 Y2.4653 Z-1.4000
G1 X5.3761 Y2.6261 Z-1.4000
G1 X5.2153 Y2.7581 Z-1.4000
G1 X5.0314 Y2.8564 Z-1.4000
G1 X4.8323 Y2.9168 Z-1.4000
G1 X4.6250 Y2.9372 Z-1.4000
G1 X4.4177 Y2.9168 Z-1.4000
G1 X4.2186 Y2.8564 Z-1.4000
G1 X4.0347 Y2.7581 Z-1.4000
G1 X3.8739 Y2.6261 Z-1.4000
G1 X3.7419 Y2.4653 Z-1.4000
G1 X3.6436 Y2.2814 Z-1.4000
G1 X3.5832 Y2.0823 Z-1.4000
G1 X3.5628 Y1.8750 Z-1.4000
G1 X3.5832 Y1.6677 Z-1.4000
G1 X3.6436 Y1.4686 Z-1.4000
G1 X3.7419 Y1.2847 Z-1.4000
G1 X3.8739 Y1.1239 Z-1.4000
G1 X4.0347 Y0.9919 Z-1.4000
G1 X4.2186 Y0.8936 Z-1.4000
G1 X4.4177 Y0.8332 Z-1.4000
G1 X4.6250 Y0.8128 Z-1.4000
G1 X4.8323 Y0.8332 Z-1.4000
G1 Z-1.5000 F50
G1 X5.0314 Y0.8936 Z-1.5000 F100
G1 X5.2153 Y0.9919 Z-1.5000
G1 X5.3761 Y1.1239 Z-1.5000
G1 X5.5081 Y1.2847 Z-1.5000
G1 X5.6064 Y1.4686 Z-1.5000
G1 X5.6668 Y1.6677 Z-1.5000
G1 X5.6872 Y1.8750 Z-1.5000
G1 X5.6668 Y2.0823 Z-1.5000
G1 X5.6064 Y2.2814 Z-1.5000
G1 X5.5081 Y2.4653 Z-1.5000
G1 X5.3761 Y2.6261 Z-1.5000
G1 X5.2153 Y2.7581 Z-1.5000
G1 X5.0314 Y2.8564 Z-1.5000
G1 X4.8323 Y2.9168 Z-1.5000
G1 X4.6250 Y2.9372 Z-1.5000
G1 X4.4177 Y2.9168 Z-1.5000
G1 X4.2186 Y2.8564 Z-1.5000
G1 X4.0347 Y2.7581 Z-1.5000
G1 X3.8739 Y2.6261 Z-1.5000
G1 X3.7419 Y2.4653 Z-1.5000
G1 X3.6436 Y2.2814 Z-1.5000
G1 X3.5832 Y2.0823 Z-1.5000
G1 X3.5628 Y1.8750 Z-1.5000
G1 X3.5832 Y1.6677 Z-1.5000
G1 X3.6436 Y1.4686 Z-1.5000
G1 X3.7419 Y1.2847 Z-1.5000
G1 X3.8739 Y1.1239 Z-1.5000
G1 X4.0347 Y0.9919 Z-1.5000
G1 X4.2186 Y0.8936 Z-1.5000
G1 X4.4177 Y0.8332 Z-1.5000
G1 X4.6250 Y0.8128 Z-1.5000
G1 X4.8323 Y0.8332 Z-1.5000
G1 Z-1.6000 F50
G1 X5.0314 Y0.8936 Z-1.6000 F100
G1 X5.2153 Y0.9919 Z-1.6000
G1 X5.3761 Y1.1239 Z-1.6000
G1 X5.5081 Y1.2847 Z-1.6000
G1 X5.6064 Y1.4686 Z-1.6000
G1 X5.6668 Y1.6677 Z-1.6000
G1 X5.6872 Y1.8750 Z-1.6000
G1 X5.6668 Y2.0823 Z-1.6000
G1 X5.6064 Y2.2814 Z-1.6000
G1 X5.5081 Y2.4653 Z-1.6000
G1 X5.3761 Y2.6261 Z-1.6000
G1 X5.2153 Y2.7581 Z-1.6000
G1 X5.0314 Y2.8564 Z-1.6000
G1 X4.8323 Y2.9168 Z-1.6000
G1 X4.6250 Y2.9372 Z-1.6000
G1 X4.4177 Y2.9168 Z-1.6000
G1 X4.2186 Y2.8564 Z-1.6000
G1 X4.0347 Y2.7581 Z-1.6000
G1 X3.8739 Y2.6261 Z-1.6000
G1 X3.7419 Y2.4653 Z-1.6000
G1 X3.6436 Y2.2814 Z-1.6000
G1 X3.5832 Y2.0823 Z-1.6000
G1 X3.5628 Y1.8750 Z-1.6000
G1 X3.5832 Y1.6677 Z-1.6000
G1 X3.6436 Y1.4686 Z-1.6000
G1 X3.7419 Y1.2847 Z-1.6000
G1 X3.8739 Y1.1239 Z-1.6000
G1 X4.0347 Y0.9919 Z-1.6000
G1 X4.2186 Y0.8936 Z-1.6000
G1 X4.4177 Y0.8332 Z-1.6000
G1 X4.6250 Y0.8128 Z-1.6000
G1 X4.8323 Y0.8332 Z-1.6000

G0 Z0.5 ; move to z-safe height
G0 X7.5823 Y0.8332
G1 Z-0.1000 F50
G1 X7.7814 Y0.8936 Z-0.1000 F100
G1 X7.9653 Y0.9919 Z-0.1000
G1 X8.1261 Y1.1239 Z-0.1000
G1 X8.2581 Y1.2847 Z-0.1000
G1 X8.3564 Y1.4686 Z-0.1000
G1 X8.4168 Y1.6677 Z-0.1000
G1 X8.4372 Y1.8750 Z-0.1000
G1 X8.4168 Y2.0823 Z-0.1000
G1 X8.3564 Y2.2814 Z-0.1000
G1 X8.2581 Y2.4653 Z-0.1000
G1 X8.1261 Y2.6261 Z-0.1000
G1 X7.9653 Y2.7581 Z-0.1000
G1 X7.7814 Y2.8564 Z-0.1000
G1 X7.5823 Y2.9168 Z-0.1000
G1 X7.3750 Y2.9372 Z-0.1000
G1 X7.1677 Y2.9168 Z-0.1000
G1 X6.9686 Y2.8564 Z-0.1000
G1 X6.7847 Y2.7581 Z-0.1000
G1 X6.6239 Y2.6261 Z-0.1000
G1 X6.4919 Y2.4653 Z-0.1000
G1 X6.3936 Y2.2814 Z-0.1000
G1 X6.3332 Y2.0823 Z-0.1000
G1 X6.3128 Y1.8750 Z-0.1000
G1 X6.3332 Y1.6677 Z-0.1000
G1 X6.3936 Y1.4686 Z-0.1000
G1 X6.4919 Y1.2847 Z-0.1000
G1 X6.6239 Y1.1239 Z-0.1000
G1 X6.7847 Y0.9919 Z-0.1000
G1 X6.9686 Y0.8936 Z-0.1000
G1 X7.1677 Y0.8332 Z-0.1000
G1 X7.3750 Y0.8128 Z-0.1000
G1 X7.5823 Y0.8332 Z-0.1000
G1 Z-0.2000 F50
G1 X7.7814 Y0.8936 Z-0.2000 F100
G1 X7.9653 Y0.9919 Z-0.2000
G1 X8.1261 Y1.1239 Z-0.2000
G1 X8.2581 Y1.2847 Z-0.2000
G1 X8.3564 Y1.4686 Z-0.2000
G1 X8.4168 Y1.6677 Z-0.2000
G1 X8.4372 Y1.8750 Z-0.2000
G1 X8.4168 Y2.0823 Z-0.2000
G1 X8.3564 Y2.2814 Z-0.2000
G1 X8.2581 Y2.4653 Z-0.2000
G1 X8.1261 Y2.6261 Z-0.2000
G1 X7.9653 Y2.7581 Z-0.2000
G1 X7.7814 Y2.8564 Z-0.2000
G1 X7.5823 Y2.9168 Z-0.2000
G1 X7.3750 Y2.9372 Z-0.2000
G1 X7.1677 Y2.9168 Z-0.2000
G1 X6.9686 Y2.8564 Z-0.2000
G1 X6.7847 Y2.7581 Z-0.2000
G1 X6.6239 Y2.6261 Z-0.2000
G1 X6.4919 Y2.4653 Z-0.2000
G1 X6.3936 Y2.2814 Z-0.2000
G1 X6.3332 Y2.0823 Z-0.2000
G1 X6.3128 Y1.8750 Z-0.2000
G1 X6.3332 Y1.6677 Z-0.2000
G1 X6.3936 Y1.4686 Z-0.2000
G1 X6.4919 Y1.2847 Z-0.2000
G1 X6.6239 Y1.1239 Z-0.2000
G1 X6.7847 Y0.9919 Z-0.2000
G1 X6.9686 Y0.8936 Z-0.2000
G1 X7.1677 Y0.8332 Z-0.2000
G1 X7.3750 Y0.8128 Z-0.2000
G1 X7.5823 Y0.8332 Z-0.2000
G1 Z-0.3000 F50
G1 X7.7814 Y0.8936 Z-0.3000 F100
G1 X7.9653 Y0.9919 Z-0.3000
G1 X8.1261 Y1.1239 Z-0.3000
G1 X8.2581 Y1.2847 Z-0.3000
G1 X8.3564 Y1.4686 Z-0.3000
G1 X8.4168 Y1.6677 Z-0.3000
G1 X8.4372 Y1.8750 Z-0.3000
G1 X8.4168 Y2.0823 Z-0.3000
G1 X8.3564 Y2.2814 Z-0.3000
G1 X8.2581 Y2.4653 Z-0.3000
G1 X8.1261 Y2.6261 Z-0.3000
G1 X7.9653 Y2.7581 Z-0.3000
G1 X7.7814 Y2.8564 Z-0.3000
G1 X7.5823 Y2.9168 Z-0.3000
G1 X7.3750 Y2.9372 Z-0.3000
G1 X7.1677 Y2.9168 Z-0.3000
G1 X6.9686 Y2.8564 Z-0.3000
G1 X6.7847 Y2.7581 Z-0.3000
G1 X6.6239 Y2.6261 Z-0.3000
G1 X6.4919 Y2.4653 Z-0.3000
G1 X6.3936 Y2.2814 Z-0.3000
G1 X6.3332 Y2.0823 Z-0.3000
G1 X6.3128 Y1.8750 Z-0.3000
G1 X6.3332 Y1.6677 Z-0.3000
G1 X6.3936 Y1.4686 Z-0.3000
G1 X6.4919 Y1.2847 Z-0.3000
G1 X6.6239 Y1.1239 Z-0.3000
G1 X6.7847 Y0.9919 Z-0.3000
G1 X6.9686 Y0.8936 Z-0.3000
G1 X7.1677 Y0.8332 Z-0.3000
G1 X7.3750 Y0.8128 Z-0.3000
G1 X7.5823 Y0.8332 Z-0.3000
G1 Z-0.4000 F50
G1 X7.7814 Y0.8936 Z-0.4000 F100
G1 X7.9653 Y0.9919 Z-0.4000
G1 X8.1261 Y1.1239 Z-0.4000
G1 X8.2581 Y1.2847 Z-0.4000
G1 X8.3564 Y1.4686 Z-0.4000
G1 X8.4168 Y1.6677 Z-0.4000
G1 X8.4372 Y1.8750 Z-0.4000
G1 X8.4168 Y2.0823 Z-0.4000
G1 X8.3564 Y2.2814 Z-0.4000
G1 X8.2581 Y2.4653 Z-0.4000
G1 X8.1261 Y2.6261 Z-0.4000
G1 X7.9653 Y2.7581 Z-0.4000
G1 X7.7814 Y2.8564 Z-0.4000
G1 X7.5823 Y2.9168 Z-0.4000
G1 X7.3750 Y2.9372 Z-0.4000
G1 X7.1677 Y2.9168 Z-0.4000
G1 X6.9686 Y2.8564 Z-0.4000
G1 X6.7847 Y2.7581 Z-0.4000
G1 X6.6239 Y2.6261 Z-0.4000
G1 X6.4919 Y2.4653 Z-0.4000
G1 X6.3936 Y2.2814 Z-0.4000
G1 X6.3332 Y2.0823 Z-0.4000
G1 X6.3128 Y1.8750 Z-0.4000
G1 X6.3332 Y1.6677 Z-0.4000
G1 X6.3936 Y1.4686 Z-0.4000
G1 X6.4919 Y1.2847 Z-0.4000
G1 X6.6239 Y1.1239 Z-0.4000
G1 X6.7847 Y0.9919 Z-0.4000
G1 X6.9686 Y0.8936 Z-0.4000
G1 X7.1677 Y0.8332 Z-0.4000
G1 X7.3750 Y0.8128 Z-0.4000
G1 X7.5823 Y0.8332 Z-0.4000
G1 Z-0.5000 F50
G1 X7.7814 Y0.8936 Z-0.5000 F100
G1 X7.9653 Y0.9919 Z-0.5000
G1 X8.1261 Y1.1239 Z-0.5000
G1 X8.2581 Y1.2847 Z-0.5000
G1 X8.3564 Y1.4686 Z-0.5000
G1 X8.4168 Y1.6677 Z-0.5000
G1 X8.4372 Y1.8750 Z-0.5000
G1 X8.4168 Y2.0823 Z-0.5000
G1 X8.3564 Y2.2814 Z-0.5000
G1 X8.2581 Y2.4653 Z-0.5000
G1 X8.1261 Y2.6261 Z-0.5000
G1 X7.9653 Y2.7581 Z-0.5000
G1 X7.7814 Y2.8564 Z-0.5000
G1 X7.5823 Y2.9168 Z-0.5000
G1 X7.3750 Y2.9372 Z-0.5000
G1 X7.1677 Y2.9168 Z-0.5000
G1 X6.9686 Y2.8564 Z-0.5000
G1 X6.7847 Y2.7581 Z-0.5000
G1 X6.6239 Y2.6261 Z-0.5000
G1 X6.4919 Y2.4653 Z-0.5000
G1 X6.3936 Y2.2814 Z-0.5000
G1 X6.3332 Y2.0823 Z-0.5000
G1 X6.3128 Y1.8750 Z-0.5000
G1 X6.3332 Y1.6677 Z-0.5000
G1 X6.3936 Y1.4686 Z-0.5000
G1 X6.4919 Y1.2847 Z-0.5000
G1 X6.6239 Y1.1239 Z-0.5000
G1 X6.7847 Y0.9919 Z-0.5000
G1 X6.9686 Y0.8936 Z-0.5000
G1 X7.1677 Y0.8332 Z-0.5000
G1 X7.3750 Y0.8128 Z-0.5000
G1 X7.5823 Y0.8332 Z-0.5000
G1 Z-0.6000 F50
G1 X7.7814 Y0.8936 Z-0.6000 F100
G1 X7.9653 Y0.9919 Z-0.6000
G1 X8.1261 Y1.1239 Z-0.6000
G1 X8.2581 Y1.2847 Z-0.6000
G1 X8.3564 Y1.4686 Z-0.6000
G1 X8.4168 Y1.6677 Z-0.6000
G1 X8.4372 Y1.8750 Z-0.6000
G1 X8.4168 Y2.0823 Z-0.6000
G1 X8.3564 Y2.2814 Z-0.6000
G1 X8.2581 Y2.4653 Z-0.6000
G1 X8.1261 Y2.6261 Z-0.6000
G1 X7.9653 Y2.7581 Z-0.6000
G1 X7.7814 Y2.8564 Z-0.6000
G1 X7.5823 Y2.9168 Z-0.6000
G1 X7.3750 Y2.9372 Z-0.6000
G1 X7.1677 Y2.9168 Z-0.6000
G1 X6.9686 Y2.8564 Z-0.6000
G1 X6.7847 Y2.7581 Z-0.6000
G1 X6.6239 Y2.6261 Z-0.6000
G1 X6.4919 Y2.4653 Z-0.6000
G1 X6.3936 Y2.2814 Z-0.6000
G1 X6.3332 Y2.0823 Z-0.6000
G1 X6.3128 Y1.8750 Z-0.6000
G1 X6.3332 Y1.6677 Z-0.6000
G1 X6.3936 Y1.4686 Z-0.6000
G1 X6.4919 Y1.2847 Z-0.6000
G1 X6.6239 Y1.1239 Z-0.6000
G1 X6.7847 Y0.9919 Z-0.6000
G1 X6.9686 Y0.8936 Z-0.6000
G1 X7.1677 Y0.8332 Z-0.6000
G1 X7.3750 Y0.8128 Z-0.6000
G1 X7.5823 Y0.8332 Z-0.6000
G1 Z-0.7000 F50
G1 X7.7814 Y0.8936 Z-0.7000 F100
G1 X7.9653 Y0.9919 Z-0.7000
G1 X8.1261 Y1.1239 Z-0.7000
G1 X8.2581 Y1.2847 Z-0.7000
G1 X8.3564 Y1.4686 Z-0.7000
G1 X8.4168 Y1.6677 Z-0.7000
G1 X8.4372 Y1.8750 Z-0.7000
G1 X8.4168 Y2.0823 Z-0.7000
G1 X8.3564 Y2.2814 Z-0.7000
G1 X8.2581 Y2.4653 Z-0.7000
G1 X8.1261 Y2.6261 Z-0.7000
G1 X7.9653 Y2.7581 Z-0.7000
G1 X7.7814 Y2.8564 Z-0.7000
G1 X7.5823 Y2.9168 Z-0.7000
G1 X7.3750 Y2.9372 Z-0.7000
G1 X7.1677 Y2.9168 Z-0.7000
G1 X6.9686 Y2.8564 Z-0.7000
G1 X6.7847 Y2.7581 Z-0.7000
G1 X6.6239 Y2.6261 Z-0.7000
G1 X6.4919 Y2.4653 Z-0.7000
G1 X6.3936 Y2.2814 Z-0.7000
G1 X6.3332 Y2.0823 Z-0.7000
G1 X6.3128 Y1.8750 Z-0.7000
G1 X6.3332 Y1.6677 Z-0.7000
G1 X6.3936 Y1.4686 Z-0.7000
G1 X6.4919 Y1.2847 Z-0.7000
G1 X6.6239 Y1.1239 Z-0.7000
G1 X6.7847 Y0.9919 Z-0.7000
G1 X6.9686 Y0.8936 Z-0.7000
G1 X7.1677 Y0.8332 Z-0.7000
G1 X7.3750 Y0.8128 Z-0.7000
G1 X7.5823 Y0.8332 Z-0.7000
G1 Z-0.8000 F50
G1 X7.7814 Y0.8936 Z-0.8000 F100
G1 X7.9653 Y0.9919 Z-0.8000
G1 X8.1261 Y1.1239 Z-0.8000
G1 X8.2581 Y1.2847 Z-0.8000
G1 X8.3564 Y1.4686 Z-0.8000
G1 X8.4168 Y1.6677 Z-0.8000
G1 X8.4372 Y1.8750 Z-0.8000
G1 X8.4168 Y2.0823 Z-0.8000
G1 X8.3564 Y2.2814 Z-0.8000
G1 X8.2581 Y2.4653 Z-0.8000
G1 X8.1261 Y2.6261 Z-0.8000
G1 X7.9653 Y2.7581 Z-0.8000
G1 X7.7814 Y2.8564 Z-0.8000
G1 X7.5823 Y2.9168 Z-0.8000
G1 X7.3750 Y2.9372 Z-0.8000
G1 X7.1677 Y2.9168 Z-0.8000
G1 X6.9686 Y2.8564 Z-0.8000
G1 X6.7847 Y2.7581 Z-0.8000
G1 X6.6239 Y2.6261 Z-0.8000
G1 X6.4919 Y2.4653 Z-0.8000
G1 X6.3936 Y2.2814 Z-0.8000
G1 X6.3332 Y2.0823 Z-0.8000
G1 X6.3128 Y1.8750 Z-0.8000
G1 X6.3332 Y1.6677 Z-0.8000
G1 X6.3936 Y1.4686 Z-0.8000
G1 X6.4919 Y1.2847 Z-0.8000
G1 X6.6239 Y1.1239 Z-0.8000
G1 X6.7847 Y0.9919 Z-0.8000
G1 X6.9686 Y0.8936 Z-0.8000
G1 X7.1677 Y0.8332 Z-0.8000
G1 X7.3750 Y0.8128 Z-0.8000
G1 X7.5823 Y0.8332 Z-0.8000
G1 Z-0.9000 F50
G1 X7.7814 Y0.8936 Z-0.9000 F100
G1 X7.9653 Y0.9919 Z-0.9000
G1 X8.1261 Y1.1239 Z-0.9000
G1 X8.2581 Y1.2847 Z-0.9000
G1 X8.3564 Y1.4686 Z-0.9000
G1 X8.4168 Y1.6677 Z-0.9000
G1 X8.4372 Y1.8750 Z-0.9000
G1 X8.4168 Y2.0823 Z-0.9000
G1 X8.3564 Y2.2814 Z-0.9000
G1 X8.2581 Y2.4653 Z-0.9000
G1 X8.1261 Y2.6261 Z-0.9000
G1 X7.9653 Y2.7581 Z-0.9000
G1 X7.7814 Y2.8564 Z-0.9000
G1 X7.5823 Y2.9168 Z-0.9000
G1 X7.3750 Y2.9372 Z-0.9000
G1 X7.1677 Y2.9168 Z-0.9000
G1 X6.9686 Y2.8564 Z-0.9000
G1 X6.7847 Y2.7581 Z-0.9000
G1 X6.6239 Y2.6261 Z-0.9000
G1 X6.4919 Y2.4653 Z-0.9000
G1 X6.3936 Y2.2814 Z-0.9000
G1 X6.3332 Y2.0823 Z-0.9000
G1 X6.3128 Y1.8750 Z-0.9000
G1 X6.3332 Y1.6677 Z-0.9000
G1 X6.3936 Y1.4686 Z-0.9000
G1 X6.4919 Y1.2847 Z-0.9000
G1 X6.6239 Y1.1239 Z-0.9000
G1 X6.7847 Y0.9919 Z-0.9000
G1 X6.9686 Y0.8936 Z-0.9000
G1 X7.1677 Y0.8332 Z-0.9000
G1 X7.3750 Y0.8128 Z-0.9000
G1 X7.5823 Y0.8332 Z-0.9000
G1 Z-1.0000 F50
G1 X7.7814 Y0.8936 Z-1.0000 F100
G1 X7.9653 Y0.9919 Z-1.0000
G1 X8.1261 Y1.1239 Z-1.0000
G1 X8.2581 Y1.2847 Z-1.0000
G1 X8.3564 Y1.4686 Z-1.0000
G1 X8.4168 Y1.6677 Z-1.0000
G1 X8.4372 Y1.8750 Z-1.0000
G1 X8.4168 Y2.0823 Z-1.0000
G1 X8.3564 Y2.2814 Z-1.0000
G1 X8.2581 Y2.4653 Z-1.0000
G1 X8.1261 Y2.6261 Z-1.0000
G1 X7.9653 Y2.7581 Z-1.0000
G1 X7.7814 Y2.8564 Z-1.0000
G1 X7.5823 Y2.9168 Z-1.0000
G1 X7.3750 Y2.9372 Z-1.0000
G1 X7.1677 Y2.9168 Z-1.0000
G1 X6.9686 Y2.8564 Z-1.0000
G1 X6.7847 Y2.7581 Z-1.0000
G1 X6.6239 Y2.6261 Z-1.0000
G1 X6.4919 Y2.4653 Z-1.0000
G1 X6.3936 Y2.2814 Z-1.0000
G1 X6.3332 Y2.0823 Z-1.0000
G1 X6.3128 Y1.8750 Z-1.0000
G1 X6.3332 Y1.6677 Z-1.0000
G1 X6.3936 Y1.4686 Z-1.0000
G1 X6.4919 Y1.2847 Z-1.0000
G1 X6.6239 Y1.1239 Z-1.0000
G1 X6.7847 Y0.9919 Z-1.0000
G1 X6.9686 Y0.8936 Z-1.0000
G1 X7.1677 Y0.8332 Z-1.0000
G1 X7.3750 Y0.8128 Z-1.0000
G1 X7.5823 Y0.8332 Z-1.0000
G1 Z-1.1000 F50
G1 X7.7814 Y0.8936 Z-1.1000 F100
G1 X7.9653 Y0.9919 Z-1.1000
G1 X8.1261 Y1.1239 Z-1.1000
G1 X8.2581 Y1.2847 Z-1.1000
G1 X8.3564 Y1.4686 Z-1.1000
G1 X8.4168 Y1.6677 Z-1.1000
G1 X8.4372 Y1.8750 Z-1.1000
G1 X8.4168 Y2.0823 Z-1.1000
G1 X8.3564 Y2.2814 Z-1.1000
G1 X8.2581 Y2.4653 Z-1.1000
G1 X8.1261 Y2.6261 Z-1.1000
G1 X7.9653 Y2.7581 Z-1.1000
G1 X7.7814 Y2.8564 Z-1.1000
G1 X7.5823 Y2.9168 Z-1.1000
G1 X7.3750 Y2.9372 Z-1.1000
G1 X7.1677 Y2.9168 Z-1.1000
G1 X6.9686 Y2.8564 Z-1.1000
G1 X6.7847 Y2.7581 Z-1.1000
G1 X6.6239 Y2.6261 Z-1.1000
G1 X6.4919 Y2.4653 Z-1.1000
G1 X6.3936 Y2.2814 Z-1.1000
G1 X6.3332 Y2.0823 Z-1.1000
G1 X6.3128 Y1.8750 Z-1.1000
G1 X6.3332 Y1.6677 Z-1.1000
G1 X6.3936 Y1.4686 Z-1.1000
G1 X6.4919 Y1.2847 Z-1.1000
G1 X6.6239 Y1.1239 Z-1.1000
G1 X6.7847 Y0.9919 Z-1.1000
G1 X6.9686 Y0.8936 Z-1.1000
G1 X7.1677 Y0.8332 Z-1.1000
G1 X7.3750 Y0.8128 Z-1.1000
G1 X7.5823 Y0.8332 Z-1.1000
G1 Z-1.2000 F50
G1 X7.7814 Y0.8936 Z-1.2000 F100
G1 X7.9653 Y0.9919 Z-1.2000
G1 X8.1261 Y1.1239 Z-1.2000
G1 X8.2581 Y1.2847 Z-1.2000
G1 X8.3564 Y1.4686 Z-1.2000
G1 X8.4168 Y1.6677 Z-1.2000
G1 X8.4372 Y1.8750 Z-1.2000
G1 X8.4168 Y2.0823 Z-1.2000
G1 X8.3564 Y2.2814 Z-1.2000
G1 X8.2581 Y2.4653 Z-1.2000
G1 X8.1261 Y2.6261 Z-1.2000
G1 X7.9653 Y2.7581 Z-1.2000
G1 X7.7814 Y2.8564 Z-1.2000
G1 X7.5823 Y2.9168 Z-1.2000
G1 X7.3750 Y2.9372 Z-1.2000
G1 X7.1677 Y2.9168 Z-1.2000
G1 X6.9686 Y2.8564 Z-1.2000
G1 X6.7847 Y2.7581 Z-1.2000
G1 X6.6239 Y2.6261 Z-1.2000
G1 X6.4919 Y2.4653 Z-1.2000
G1 X6.3936 Y2.2814 Z-1.2000
G1 X6.3332 Y2.0823 Z-1.2000
G1 X6.3128 Y1.8750 Z-1.2000
G1 X6.3332 Y1.6677 Z-1.2000
G1 X6.3936 Y1.4686 Z-1.2000
G1 X6.4919 Y1.2847 Z-1.2000
G1 X6.6239 Y1.1239 Z-1.2000
G1 X6.7847 Y0.9919 Z-1.2000
G1 X6.9686 Y0.8936 Z-1.2000
G1 X7.1677 Y0.8332 Z-1.2000
G1 X7.3750 Y0.8128 Z-1.2000
G1 X7.5823 Y0.8332 Z-1.2000
G1 Z-1.3000 F50
G1 X7.7814 Y0.8936 Z-1.3000 F100
G1 X7.9653 Y0.9919 Z-1.3000
G1 X8.1261 Y1.1239 Z-1.3000
G1 X8.2581 Y1.2847 Z-1.3000
G1 X8.3564 Y1.4686 Z-1.3000
G1 X8.4168 Y1.6677 Z-1.3000
G1 X8.4372 Y1.8750 Z-1.3000
G1 X8.4168 Y2.0823 Z-1.3000
G1 X8.3564 Y2.2814 Z-1.3000
G1 X8.2581 Y2.4653 Z-1.3000
G1 X8.1261 Y2.6261 Z-1.3000
G1 X7.9653 Y2.7581 Z-1.3000
G1 X7.7814 Y2.8564 Z-1.3000
G1 X7.5823 Y2.9168 Z-1.3000
G1 X7.3750 Y2.9372 Z-1.3000
G1 X7.1677 Y2.9168 Z-1.3000
G1 X6.9686 Y2.8564 Z-1.3000
G1 X6.7847 Y2.7581 Z-1.3000
G1 X6.6239 Y2.6261 Z-1.3000
G1 X6.4919 Y2.4653 Z-1.3000
G1 X6.3936 Y2.2814 Z-1.3000
G1 X6.3332 Y2.0823 Z-1.3000
G1 X6.3128 Y1.8750 Z-1.3000
G1 X6.3332 Y1.6677 Z-1.3000
G1 X6.3936 Y1.4686 Z-1.3000
G1 X6.4919 Y1.2847 Z-1.3000
G1 X6.6239 Y1.1239 Z-1.3000
G1 X6.7847 Y0.9919 Z-1.3000
G1 X6.9686 Y0.8936 Z-1.3000
G1 X7.1677 Y0.8332 Z-1.3000
G1 X7.3750 Y0.8128 Z-1.3000
G1 X7.5823 Y0.8332 Z-1.3000
G1 Z-1.4000 F50
G1 X7.7814 Y0.8936 Z-1.4000 F100
G1 X7.9653 Y0.9919 Z-1.4000
G1 X8.1261 Y1.1239 Z-1.4000
G1 X8.2581 Y1.2847 Z-1.4000
G1 X8.3564 Y1.4686 Z-1.4000
G1 X8.4168 Y1.6677 Z-1.4000
G1 X8.4372 Y1.8750 Z-1.4000
G1 X8.4168 Y2.0823 Z-1.4000
G1 X8.3564 Y2.2814 Z-1.4000
G1 X8.2581 Y2.4653 Z-1.4000
G1 X8.1261 Y2.6261 Z-1.4000
G1 X7.9653 Y2.7581 Z-1.4000
G1 X7.7814 Y2.8564 Z-1.4000
G1 X7.5823 Y2.9168 Z-1.4000
G1 X7.3750 Y2.9372 Z-1.4000
G1 X7.1677 Y2.9168 Z-1.4000
G1 X6.9686 Y2.8564 Z-1.4000
G1 X6.7847 Y2.7581 Z-1.4000
G1 X6.6239 Y2.6261 Z-1.4000
G1 X6.4919 Y2.4653 Z-1.4000
G1 X6.3936 Y2.2814 Z-1.4000
G1 X6.3332 Y2.0823 Z-1.4000
G1 X6.3128 Y1.8750 Z-1.4000
G1 X6.3332 Y1.6677 Z-1.4000
G1 X6.3936 Y1.4686 Z-1.4000
G1 X6.4919 Y1.2847 Z-1.4000
G1 X6.6239 Y1.1239 Z-1.4000
G1 X6.7847 Y0.9919 Z-1.4000
G1 X6.9686 Y0.8936 Z-1.4000
G1 X7.1677 Y0.8332 Z-1.4000
G1 X7.3750 Y0.8128 Z-1.4000
G1 X7.5823 Y0.8332 Z-1.4000
G1 Z-1.5000 F50
G1 X7.7814 Y0.8936 Z-1.5000 F100
G1 X7.9653 Y0.9919 Z-1.5000
G1 X8.1261 Y1.1239 Z-1.5000
G1 X8.2581 Y1.2847 Z-1.5000
G1 X8.3564 Y1.4686 Z-1.5000
G1 X8.4168 Y1.6677 Z-1.5000
G1 X8.4372 Y1.8750 Z-1.5000
G1 X8.4168 Y2.0823 Z-1.5000
G1 X8.3564 Y2.2814 Z-1.5000
G1 X8.2581 Y2.4653 Z-1.5000
G1 X8.1261 Y2.6261 Z-1.5000
G1 X7.9653 Y2.7581 Z-1.5000
G1 X7.7814 Y2.8564 Z-1.5000
G1 X7.5823 Y2.9168 Z-1.5000
G1 X7.3750 Y2.9372 Z-1.5000
G1 X7.1677 Y2.9168 Z-1.5000
G1 X6.9686 Y2.8564 Z-1.5000
G1 X6.7847 Y2.7581 Z-1.5000
G1 X6.6239 Y2.6261 Z-1.5000
G1 X6.4919 Y2.4653 Z-1.5000
G1 X6.3936 Y2.2814 Z-1.5000
G1 X6.3332 Y2.0823 Z-1.5000
G1 X6.3128 Y1.8750 Z-1.5000
G1 X6.3332 Y1.6677 Z-1.5000
G1 X6.3936 Y1.4686 Z-1.5000
G1 X6.4919 Y1.2847 Z-1.5000
G1 X6.6239 Y1.1239 Z-1.5000
G1 X6.7847 Y0.9919 Z-1.5000
G1 X6.9686 Y0.8936 Z-1.5000
G1 X7.1677 Y0.8332 Z-1.5000
G1 X7.3750 Y0.8128 Z-1.5000
G1 X7.5823 Y0.8332 Z-1.5000
G1 Z-1.6000 F50
G1 X7.7814 Y0.8936 Z-1.6000 F100
G1 X7.9653 Y0.9919 Z-1.6000
G1 X8.1261 Y1.1239 Z-1.6000
G1 X8.2581 Y1.2847 Z-1.6000
G1 X8.3564 Y1.4686 Z-1.6000
G1 X8.4168 Y1.6677 Z-1.6000
G1 X8.4372 Y1.8750 Z-1.6000
G1 X8.4168 Y2.0823 Z-1.6000
G1 X8.3564 Y2.2814 Z-1.6000
G1 X8.2581 Y2.4653 Z-1.6000
G1 X8.1261 Y2.6261 Z-1.6000
G1 X7.9653 Y2.7581 Z-1.6000
G1 X7.7814 Y2.8564 Z-1.6000
G1 X7.5823 Y2.9168 Z-1.6000
G1 X7.3750 Y2.9372 Z-1.6000
G1 X7.1677 Y2.9168 Z-1.6000
G1 X6.9686 Y2.8564 Z-1.6000
G1 X6.7847 Y2.7581 Z-1.6000
G1 X6.6239 Y2.6261 Z-1.6000
G1 X6.4919 Y2.4653 Z-1.6000
G1 X6.3936 Y2.2814 Z-1.6000
G1 X6.3332 Y2.0823 Z-1.6000
G1 X6.3128 Y1.8750 Z-1.6000
G1 X6.3332 Y1.6677 Z-1.6000
G1 X6.3936 Y1.4686 Z-1.6000
G1 X6.4919 Y1.2847 Z-1.6000
G1 X6.6239 Y1.1239 Z-1.6000
G1 X6.7847 Y0.9919 Z-1.6000
G1 X6.9686 Y0.8936 Z-1.6000
G1 X7.1677 Y0.8332 Z-1.6000
G1 X7.3750 Y0.8128 Z-1.6000
G1 X7.5823 Y0.8332 Z-1.6000

G0 Z0.5 ; move to z-safe height
G0 X10.3323 Y0.8332
G1 Z-0.1000 F50
G1 X10.5314 Y0.8936 Z-0.1000 F100
G1 X10.7153 Y0.9919 Z-0.1000
G1 X10.8761 Y1.1239 Z-0.1000
G1 X11.0081 Y1.2847 Z-0.1000
G1 X11.1064 Y1.4686 Z-0.1000
G1 X11.1668 Y1.6677 Z-0.1000
G1 X11.1872 Y1.8750 Z-0.1000
G1 X11.1668 Y2.0823 Z-0.1000
G1 X11.1064 Y2.2814 Z-0.1000
G1 X11.0081 Y2.4653 Z-0.1000
G1 X10.8761 Y2.6261 Z-0.1000
G1 X10.7153 Y2.7581 Z-0.1000
G1 X10.5314 Y2.8564 Z-0.1000
G1 X10.3323 Y2.9168 Z-0.1000
G1 X10.1250 Y2.9372 Z-0.1000
G1 X9.9177 Y2.9168 Z-0.1000
G1 X9.7186 Y2.8564 Z-0.1000
G1 X9.5347 Y2.7581 Z-0.1000
G1 X9.3739 Y2.6261 Z-0.1000
G1 X9.2419 Y2.4653 Z-0.1000
G1 X9.1436 Y2.2814 Z-0.1000
G1 X9.0832 Y2.0823 Z-0.1000
G1 X9.0628 Y1.8750 Z-0.1000
G1 X9.0832 Y1.6677 Z-0.1000
G1 X9.1436 Y1.4686 Z-0.1000
G1 X9.2419 Y1.2847 Z-0.1000
G1 X9.3739 Y1.1239 Z-0.1000
G1 X9.5347 Y0.9919 Z-0.1000
G1 X9.7186 Y0.8936 Z-0.1000
G1 X9.9177 Y0.8332 Z-0.1000
G1 X10.1250 Y0.8128 Z-0.1000
G1 X10.3323 Y0.8332 Z-0.1000
G1 Z-0.2000 F50
G1 X10.5314 Y0.8936 Z-0.2000 F100
G1 X10.7153 Y0.9919 Z-0.2000
G1 X10.8761 Y1.1239 Z-0.2000
G1 X11.0081 Y1.2847 Z-0.2000
G1 X11.1064 Y1.4686 Z-0.2000
G1 X11.1668 Y1.6677 Z-0.2000
G1 X11.1872 Y1.8750 Z-0.2000
G1 X11.1668 Y2.0823 Z-0.2000
G1 X11.1064 Y2.2814 Z-0.2000
G1 X11.0081 Y2.4653 Z-0.2000
G1 X10.8761 Y2.6261 Z-0.2000
G1 X10.7153 Y2.7581 Z-0.2000
G1 X10.5314 Y2.8564 Z-0.2000
G1 X10.3323 Y2.9168 Z-0.2000
G1 X10.1250 Y2.9372 Z-0.2000
G1 X9.9177 Y2.9168 Z-0.2000
G1 X9.7186 Y2.8564 Z-0.2000
G1 X9.5347 Y2.7581 Z-0.2000
G1 X9.3739 Y2.6261 Z-0.2000
G1 X9.2419 Y2.4653 Z-0.2000
G1 X9.1436 Y2.2814 Z-0.2000
G1 X9.0832 Y2.0823 Z-0.2000
G1 X9.0628 Y1.8750 Z-0.2000
G1 X9.0832 Y1.6677 Z-0.2000
G1 X9.1436 Y1.4686 Z-0.2000
G1 X9.2419 Y1.2847 Z-0.2000
G1 X9.3739 Y1.1239 Z-0.2000
G1 X9.5347 Y0.9919 Z-0.2000
G1 X9.7186 Y0.8936 Z-0.2000
G1 X9.9177 Y0.8332 Z-0.2000
G1 X10.1250 Y0.8128 Z-0.2000
G1 X10.3323 Y0.8332 Z-0.2000
G1 Z-0.3000 F50
G1 X10.5314 Y0.8936 Z-0.3000 F100
G1 X10.7153 Y0.9919 Z-0.3000
G1 X10.8761 Y1.1239 Z-0.3000
G1 X11.0081 Y1.2847 Z-0.3000
G1 X11.1064 Y1.4686 Z-0.3000
G1 X11.1668 Y1.6677 Z-0.3000
G1 X11.1872 Y1.8750 Z-0.3000
G1 X11.1668 Y2.0823 Z-0.3000
G1 X11.1064 Y2.2814 Z-0.3000
G1 X11.0081 Y2.4653 Z-0.3000
G1 X10.8761 Y2.6261 Z-0.3000
G1 X10.7153 Y2.7581 Z-0.3000
G1 X10.5314 Y2.8564 Z-0.3000
G1 X10.3323 Y2.9168 Z-0.3000
G1 X10.1250 Y2.9372 Z-0.3000
G1 X9.9177 Y2.9168 Z-0.3000
G1 X9.7186 Y2.8564 Z-0.3000
G1 X9.5347 Y2.7581 Z-0.3000
G1 X9.3739 Y2.6261 Z-0.3000
G1 X9.2419 Y2.4653 Z-0.3000
G1 X9.1436 Y2.2814 Z-0.3000
G1 X9.0832 Y2.0823 Z-0.3000
G1 X9.0628 Y1.8750 Z-0.3000
G1 X9.0832 Y1.6677 Z-0.3000
G1 X9.1436 Y1.4686 Z-0.3000
G1 X9.2419 Y1.2847 Z-0.3000
G1 X9.3739 Y1.1239 Z-0.3000
G1 X9.5347 Y0.9919 Z-0.3000
G1 X9.7186 Y0.8936 Z-0.3000
G1 X9.9177 Y0.8332 Z-0.3000
G1 X10.1250 Y0.8128 Z-0.3000
G1 X10.3323 Y0.8332 Z-0.3000
G1 Z-0.4000 F50
G1 X10.5314 Y0.8936 Z-0.4000 F100
G1 X10.7153 Y0.9919 Z-0.4000
G1 X10.8761 Y1.1239 Z-0.4000
G1 X11.0081 Y1.2847 Z-0.4000
G1 X11.1064 Y1.4686 Z-0.4000
G1 X11.1668 Y1.6677 Z-0.4000
G1 X11.1872 Y1.8750 Z-0.4000
G1 X11.1668 Y2.0823 Z-0.4000
G1 X11.1064 Y2.2814 Z-0.4000
G1 X11.0081 Y2.4653 Z-0.4000
G1 X10.8761 Y2.6261 Z-0.4000
G1 X10.7153 Y2.7581 Z-0.4000
G1 X10.5314 Y2.8564 Z-0.4000
G1 X10.3323 Y2.9168 Z-0.4000
G1 X10.1250 Y2.9372 Z-0.4000
G1 X9.9177 Y2.9168 Z-0.4000
G1 X9.7186 Y2.8564 Z-0.4000
G1 X9.5347 Y2.7581 Z-0.4000
G1 X9.3739 Y2.6261 Z-0.4000
G1 X9.2419 Y2.4653 Z-0.4000
G1 X9.1436 Y2.2814 Z-0.4000
G1 X9.0832 Y2.0823 Z-0.4000
G1 X9.0628 Y1.8750 Z-0.4000
G1 X9.0832 Y1.6677 Z-0.4000
G1 X9.1436 Y1.4686 Z-0.4000
G1 X9.2419 Y1.2847 Z-0.4000
G1 X9.3739 Y1.1239 Z-0.4000
G1 X9.5347 Y0.9919 Z-0.4000
G1 X9.7186 Y0.8936 Z-0.4000
G1 X9.9177 Y0.8332 Z-0.4000
G1 X10.1250 Y0.8128 Z-0.4000
G1 X10.3323 Y0.8332 Z-0.4000
G1 Z-0.5000 F50
G1 X10.5314 Y0.8936 Z-0.5000 F100
G1 X10.7153 Y0.9919 Z-0.5000
G1 X10.8761 Y1.1239 Z-0.5000
G1 X11.0081 Y1.2847 Z-0.5000
G1 X11.1064 Y1.4686 Z-0.5000
G1 X11.1668 Y1.6677 Z-0.5000
G1 X11.1872 Y1.8750 Z-0.5000
G1 X11.1668 Y2.0823 Z-0.5000
G1 X11.1064 Y2.2814 Z-0.5000
G1 X11.0081 Y2.4653 Z-0.5000
G1 X10.8761 Y2.6261 Z-0.5000
G1 X10.7153 Y2.7581 Z-0.5000
G1 X10.5314 Y2.8564 Z-0.5000
G1 X10.3323 Y2.9168 Z-0.5000
G1 X10.1250 Y2.9372 Z-0.5000
G1 X9.9177 Y2.9168 Z-0.5000
G1 X9.7186 Y2.8564 Z-0.5000
G1 X9.5347 Y2.7581 Z-0.5000
G1 X9.3739 Y2.6261 Z-0.5000
G1 X9.2419 Y2.4653 Z-0.5000
G1 X9.1436 Y2.2814 Z-0.5000
G1 X9.0832 Y2.0823 Z-0.5000
G1 X9.0628 Y1.8750 Z-0.5000
G1 X9.0832 Y1.6677 Z-0.5000
G1 X9.1436 Y1.4686 Z-0.5000
G1 X9.2419 Y1.2847 Z-0.5000
G1 X9.3739 Y1.1239 Z-0.5000
G1 X9.5347 Y0.9919 Z-0.5000
G1 X9.7186 Y0.8936 Z-0.5000
G1 X9.9177 Y0.8332 Z-0.5000
G1 X10.1250 Y0.8128 Z-0.5000
G1 X10.3323 Y0.8332 Z-0.5000
G1 Z-0.6000 F50
G1 X10.5314 Y0.8936 Z-0.6000 F100
G1 X10.7153 Y0.9919 Z-0.6000
G1 X10.8761 Y1.1239 Z-0.6000
G1 X11.0081 Y1.2847 Z-0.6000
G1 X11.1064 Y1.4686 Z-0.6000
G1 X11.1668 Y1.6677 Z-0.6000
G1 X11.1872 Y1.8750 Z-0.6000
G1 X11.1668 Y2.0823 Z-0.6000
G1 X11.1064 Y2.2814 Z-0.6000
G1 X11.0081 Y2.4653 Z-0.6000
G1 X10.8761 Y2.6261 Z-0.6000
G1 X10.7153 Y2.7581 Z-0.6000
G1 X10.5314 Y2.8564 Z-0.6000
G1 X10.3323 Y2.9168 Z-0.6000
G1 X10.1250 Y2.9372 Z-0.6000
G1 X9.9177 Y2.9168 Z-0.6000
G1 X9.7186 Y2.8564 Z-0.6000
G1 X9.5347 Y2.7581 Z-0.6000
G1 X9.3739 Y2.6261 Z-0.6000
G1 X9.2419 Y2.4653 Z-0.6000
G1 X9.1436 Y2.2814 Z-0.6000
G1 X9.0832 Y2.0823 Z-0.6000
G1 X9.0628 Y1.8750 Z-0.6000
G1 X9.0832 Y1.6677 Z-0.6000
G1 X9.1436 Y1.4686 Z-0.6000
G1 X9.2419 Y1.2847 Z-0.6000
G1 X9.3739 Y1.1239 Z-0.6000
G1 X9.5347 Y0.9919 Z-0.6000
G1 X9.7186 Y0.8936 Z-0.6000
G1 X9.9177 Y0.8332 Z-0.6000
G1 X10.1250 Y0.8128 Z-0.6000
G1 X10.3323 Y0.8332 Z-0.6000
G1 Z-0.7000 F50
G1 X10.5314 Y0.8936 Z-0.7000 F100
G1 X10.7153 Y0.9919 Z-0.7000
G1 X10.8761 Y1.1239 Z-0.7000
G1 X11.0081 Y1.2847 Z-0.7000
G1 X11.1064 Y1.4686 Z-0.7000
G1 X11.1668 Y1.6677 Z-0.7000
G1 X11.1872 Y1.8750 Z-0.7000
G1 X11.1668 Y2.0823 Z-0.7000
G1 X11.1064 Y2.2814 Z-0.7000
G1 X11.0081 Y2.4653 Z-0.7000
G1 X10.8761 Y2.6261 Z-0.7000
G1 X10.7153 Y2.7581 Z-0.7000
G1 X10.5314 Y2.8564 Z-0.7000
G1 X10.3323 Y2.9168 Z-0.7000
G1 X10.1250 Y2.9372 Z-0.7000
G1 X9.9177 Y2.9168 Z-0.7000
G1 X9.7186 Y2.8564 Z-0.7000
G1 X9.5347 Y2.7581 Z-0.7000
G1 X9.3739 Y2.6261 Z-0.7000
G1 X9.2419 Y2.4653 Z-0.7000
G1 X9.1436 Y2.2814 Z-0.7000
G1 X9.0832 Y2.0823 Z-0.7000
G1 X9.0628 Y1.8750 Z-0.7000
G1 X9.0832 Y1.6677 Z-0.7000
G1 X9.1436 Y1.4686 Z-0.7000
G1 X9.2419 Y1.2847 Z-0.7000
G1 X9.3739 Y1.1239 Z-0.7000
G1 X9.5347 Y0.9919 Z-0.7000
G1 X9.7186 Y0.8936 Z-0.7000
G1 X9.9177 Y0.8332 Z-0.7000
G1 X10.1250 Y0.8128 Z-0.7000
G1 X10.3323 Y0.8332 Z-0.7000
G1 Z-0.8000 F50
G1 X10.5314 Y0.8936 Z-0.8000 F100
G1 X10.7153 Y0.9919 Z-0.8000
G1 X10.8761 Y1.1239 Z-0.8000
G1 X11.0081 Y1.2847 Z-0.8000
G1 X11.1064 Y1.4686 Z-0.8000
G1 X11.1668 Y1.6677 Z-0.8000
G1 X11.1872 Y1.8750 Z-0.8000
G1 X11.1668 Y2.0823 Z-0.8000
G1 X11.1064 Y2.2814 Z-0.8000
G1 X11.0081 Y2.4653 Z-0.8000
G1 X10.8761 Y2.6261 Z-0.8000
G1 X10.7153 Y2.7581 Z-0.8000
G1 X10.5314 Y2.8564 Z-0.8000
G1 X10.3323 Y2.9168 Z-0.8000
G1 X10.1250 Y2.9372 Z-0.8000
G1 X9.9177 Y2.9168 Z-0.8000
G1 X9.7186 Y2.8564 Z-0.8000
G1 X9.5347 Y2.7581 Z-0.8000
G1 X9.3739 Y2.6261 Z-0.8000
G1 X9.2419 Y2.4653 Z-0.8000
G1 X9.1436 Y2.2814 Z-0.8000
G1 X9.0832 Y2.0823 Z-0.8000
G1 X9.0628 Y1.8750 Z-0.8000
G1 X9.0832 Y1.6677 Z-0.8000
G1 X9.1436 Y1.4686 Z-0.8000
G1 X9.2419 Y1.2847 Z-0.8000
G1 X9.3739 Y1.1239 Z-0.8000
G1 X9.5347 Y0.9919 Z-0.8000
G1 X9.7186 Y0.8936 Z-0.8000
G1 X9.9177 Y0.8332 Z-0.8000
G1 X10.1250 Y0.8128 Z-0.8000
G1 X10.3323 Y0.8332 Z-0.8000
G1 Z-0.9000 F50
G1 X10.5314 Y0.8936 Z-0.9000 F100
G1 X10.7153 Y0.9919 Z-0.9000
G1 X10.8761 Y1.1239 Z-0.9000
G1 X11.0081 Y1.2847 Z-0.9000
G1 X11.1064 Y1.4686 Z-0.9000
G1 X11.1668 Y1.6677 Z-0.9000
G1 X11.1872 Y1.8750 Z-0.9000
G1 X11.1668 Y2.0823 Z-0.9000
G1 X11.1064 Y2.2814 Z-0.9000
G1 X11.0081 Y2.4653 Z-0.9000
G1 X10.8761 Y2.6261 Z-0.9000
G1 X10.7153 Y2.7581 Z-0.9000
G1 X10.5314 Y2.8564 Z-0.9000
G1 X10.3323 Y2.9168 Z-0.9000
G1 X10.1250 Y2.9372 Z-0.9000
G1 X9.9177 Y2.9168 Z-0.9000
G1 X9.7186 Y2.8564 Z-0.9000
G1 X9.5347 Y2.7581 Z-0.9000
G1 X9.3739 Y2.6261 Z-0.9000
G1 X9.2419 Y2.4653 Z-0.9000
G1 X9.1436 Y2.2814 Z-0.9000
G1 X9.0832 Y2.0823 Z-0.9000
G1 X9.0628 Y1.8750 Z-0.9000
G1 X9.0832 Y1.6677 Z-0.9000
G1 X9.1436 Y1.4686 Z-0.9000
G1 X9.2419 Y1.2847 Z-0.9000
G1 X9.3739 Y1.1239 Z-0.9000
G1 X9.5347 Y0.9919 Z-0.9000
G1 X9.7186 Y0.8936 Z-0.9000
G1 X9.9177 Y0.8332 Z-0.9000
G1 X10.1250 Y0.8128 Z-0.9000
G1 X10.3323 Y0.8332 Z-0.9000
G1 Z-1.0000 F50
G1 X10.5314 Y0.8936 Z-1.0000 F100
G1 X10.7153 Y0.9919 Z-1.0000
G1 X10.8761 Y1.1239 Z-1.0000
G1 X11.0081 Y1.2847 Z-1.0000
G1 X11.1064 Y1.4686 Z-1.0000
G1 X11.1668 Y1.6677 Z-1.0000
G1 X11.1872 Y1.8750 Z-1.0000
G1 X11.1668 Y2.0823 Z-1.0000
G1 X11.1064 Y2.2814 Z-1.0000
G1 X11.0081 Y2.4653 Z-1.0000
G1 X10.8761 Y2.6261 Z-1.0000
G1 X10.7153 Y2.7581 Z-1.0000
G1 X10.5314 Y2.8564 Z-1.0000
G1 X10.3323 Y2.9168 Z-1.0000
G1 X10.1250 Y2.9372 Z-1.0000
G1 X9.9177 Y2.9168 Z-1.0000
G1 X9.7186 Y2.8564 Z-1.0000
G1 X9.5347 Y2.7581 Z-1.0000
G1 X9.3739 Y2.6261 Z-1.0000
G1 X9.2419 Y2.4653 Z-1.0000
G1 X9.1436 Y2.2814 Z-1.0000
G1 X9.0832 Y2.0823 Z-1.0000
G1 X9.0628 Y1.8750 Z-1.0000
G1 X9.0832 Y1.6677 Z-1.0000
G1 X9.1436 Y1.4686 Z-1.0000
G1 X9.2419 Y1.2847 Z-1.0000
G1 X9.3739 Y1.1239 Z-1.0000
G1 X9.5347 Y0.9919 Z-1.0000
G1 X9.7186 Y0.8936 Z-1.0000
G1 X9.9177 Y0.8332 Z-1.0000
G1 X10.1250 Y0.8128 Z-1.0000
G1 X10.3323 Y0.8332 Z-1.0000
G1 Z-1.1000 F50
G1 X10.5314 Y0.8936 Z-1.1000 F100
G1 X10.7153 Y0.9919 Z-1.1000
G1 X10.8761 Y1.1239 Z-1.1000
G1 X11.0081 Y1.2847 Z-1.1000
G1 X11.1064 Y1.4686 Z-1.1000
G1 X11.1668 Y1.6677 Z-1.1000
G1 X11.1872 Y1.8750 Z-1.1000
G1 X11.1668 Y2.0823 Z-1.1000
G1 X11.1064 Y2.2814 Z-1.1000
G1 X11.0081 Y2.4653 Z-1.1000
G1 X10.8761 Y2.6261 Z-1.1000
G1 X10.7153 Y2.7581 Z-1.1000
G1 X10.5314 Y2.8564 Z-1.1000
G1 X10.3323 Y2.9168 Z-1.1000
G1 X10.1250 Y2.9372 Z-1.1000
G1 X9.9177 Y2.9168 Z-1.1000
G1 X9.7186 Y2.8564 Z-1.1000
G1 X9.5347 Y2.7581 Z-1.1000
G1 X9.3739 Y2.6261 Z-1.1000
G1 X9.2419 Y2.4653 Z-1.1000
G1 X9.1436 Y2.2814 Z-1.1000
G1 X9.0832 Y2.0823 Z-1.1000
G1 X9.0628 Y1.8750 Z-1.1000
G1 X9.0832 Y1.6677 Z-1.1000
G1 X9.1436 Y1.4686 Z-1.1000
G1 X9.2419 Y1.2847 Z-1.1000
G1 X9.3739 Y1.1239 Z-1.1000
G1 X9.5347 Y0.9919 Z-1.1000
G1 X9.7186 Y0.8936 Z-1.1000
G1 X9.9177 Y0.8332 Z-1.1000
G1 X10.1250 Y0.8128 Z-1.1000
G1 X10.3323 Y0.8332 Z-1.1000
G1 Z-1.2000 F50
G1 X10.5314 Y0.8936 Z-1.2000 F100
G1 X10.7153 Y0.9919 Z-1.2000
G1 X10.8761 Y1.1239 Z-1.2000
G1 X11.0081 Y1.2847 Z-1.2000
G1 X11.1064 Y1.4686 Z-1.2000
G1 X11.1668 Y1.6677 Z-1.2000
G1 X11.1872 Y1.8750 Z-1.2000
G1 X11.1668 Y2.0823 Z-1.2000
G1 X11.1064 Y2.2814 Z-1.2000
G1 X11.0081 Y2.4653 Z-1.2000
G1 X10.8761 Y2.6261 Z-1.2000
G1 X10.7153 Y2.7581 Z-1.2000
G1 X10.5314 Y2.8564 Z-1.2000
G1 X10.3323 Y2.9168 Z-1.2000
G1 X10.1250 Y2.9372 Z-1.2000
G1 X9.9177 Y2.9168 Z-1.2000
G1 X9.7186 Y2.8564 Z-1.2000
G1 X9.5347 Y2.7581 Z-1.2000
G1 X9.3739 Y2.6261 Z-1.2000
G1 X9.2419 Y2.4653 Z-1.2000
G1 X9.1436 Y2.2814 Z-1.2000
G1 X9.0832 Y2.0823 Z-1.2000
G1 X9.0628 Y1.8750 Z-1.2000
G1 X9.0832 Y1.6677 Z-1.2000
G1 X9.1436 Y1.4686 Z-1.2000
G1 X9.2419 Y1.2847 Z-1.2000
G1 X9.3739 Y1.1239 Z-1.2000
G1 X9.5347 Y0.9919 Z-1.2000
G1 X9.7186 Y0.8936 Z-1.2000
G1 X9.9177 Y0.8332 Z-1.2000
G1 X10.1250 Y0.8128 Z-1.2000
G1 X10.3323 Y0.8332 Z-1.2000
G1 Z-1.3000 F50
G1 X10.5314 Y0.8936 Z-1.3000 F100
G1 X10.7153 Y0.9919 Z-1.3000
G1 X10.8761 Y1.1239 Z-1.3000
G1 X11.0081 Y1.2847 Z-1.3000
G1 X11.1064 Y1.4686 Z-1.3000
G1 X11.1668 Y1.6677 Z-1.3000
G1 X11.1872 Y1.8750 Z-1.3000
G1 X11.1668 Y2.0823 Z-1.3000
G1 X11.1064 Y2.2814 Z-1.3000
G1 X11.0081 Y2.4653 Z-1.3000
G1 X10.8761 Y2.6261 Z-1.3000
G1 X10.7153 Y2.7581 Z-1.3000
G1 X10.5314 Y2.8564 Z-1.3000
G1 X10.3323 Y2.9168 Z-1.3000
G1 X10.1250 Y2.9372 Z-1.3000
G1 X9.9177 Y2.9168 Z-1.3000
G1 X9.7186 Y2.8564 Z-1.3000
G1 X9.5347 Y2.7581 Z-1.3000
G1 X9.3739 Y2.6261 Z-1.3000
G1 X9.2419 Y2.4653 Z-1.3000
G1 X9.1436 Y2.2814 Z-1.3000
G1 X9.0832 Y2.0823 Z-1.3000
G1 X9.0628 Y1.8750 Z-1.3000
G1 X9.0832 Y1.6677 Z-1.3000
G1 X9.1436 Y1.4686 Z-1.3000
G1 X9.2419 Y1.2847 Z-1.3000
G1 X9.3739 Y1.1239 Z-1.3000
G1 X9.5347 Y0.9919 Z-1.3000
G1 X9.7186 Y0.8936 Z-1.3000
G1 X9.9177 Y0.8332 Z-1.3000
G1 X10.1250 Y0.8128 Z-1.3000
G1 X10.3323 Y0.8332 Z-1.3000
G1 Z-1.4000 F50
G1 X10.5314 Y0.8936 Z-1.4000 F100
G1 X10.7153 Y0.9919 Z-1.4000
G1 X10.8761 Y1.1239 Z-1.4000
G1 X11.0081 Y1.2847 Z-1.4000
G1 X11.1064 Y1.4686 Z-1.4000
G1 X11.1668 Y1.6677 Z-1.4000
G1 X11.1872 Y1.8750 Z-1.4000
G1 X11.1668 Y2.0823 Z-1.4000
G1 X11.1064 Y2.2814 Z-1.4000
G1 X11.0081 Y2.4653 Z-1.4000
G1 X10.8761 Y2.6261 Z-1.4000
G1 X10.7153 Y2.7581 Z-1.4000
G1 X10.5314 Y2.8564 Z-1.4000
G1 X10.3323 Y2.9168 Z-1.4000
G1 X10.1250 Y2.9372 Z-1.4000
G1 X9.9177 Y2.9168 Z-1.4000
G1 X9.7186 Y2.8564 Z-1.4000
G1 X9.5347 Y2.7581 Z-1.4000
G1 X9.3739 Y2.6261 Z-1.4000
G1 X9.2419 Y2.4653 Z-1.4000
G1 X9.1436 Y2.2814 Z-1.4000
G1 X9.0832 Y2.0823 Z-1.4000
G1 X9.0628 Y1.8750 Z-1.4000
G1 X9.0832 Y1.6677 Z-1.4000
G1 X9.1436 Y1.4686 Z-1.4000
G1 X9.2419 Y1.2847 Z-1.4000
G1 X9.3739 Y1.1239 Z-1.4000
G1 X9.5347 Y0.9919 Z-1.4000
G1 X9.7186 Y0.8936 Z-1.4000
G1 X9.9177 Y0.8332 Z-1.4000
G1 X10.1250 Y0.8128 Z-1.4000
G1 X10.3323 Y0.8332 Z-1.4000
G1 Z-1.5000 F50
G1 X10.5314 Y0.8936 Z-1.5000 F100
G1 X10.7153 Y0.9919 Z-1.5000
G1 X10.8761 Y1.1239 Z-1.5000
G1 X11.0081 Y1.2847 Z-1.5000
G1 X11.1064 Y1.4686 Z-1.5000
G1 X11.1668 Y1.6677 Z-1.5000
G1 X11.1872 Y1.8750 Z-1.5000
G1 X11.1668 Y2.0823 Z-1.5000
G1 X11.1064 Y2.2814 Z-1.5000
G1 X11.0081 Y2.4653 Z-1.5000
G1 X10.8761 Y2.6261 Z-1.5000
G1 X10.7153 Y2.7581 Z-1.5000
G1 X10.5314 Y2.8564 Z-1.5000
G1 X10.3323 Y2.9168 Z-1.5000
G1 X10.1250 Y2.9372 Z-1.5000
G1 X9.9177 Y2.9168 Z-1.5000
G1 X9.7186 Y2.8564 Z-1.5000
G1 X9.5347 Y2.7581 Z-1.5000
G1 X9.3739 Y2.6261 Z-1.5000
G1 X9.2419 Y2.4653 Z-1.5000
G1 X9.1436 Y2.2814 Z-1.5000
G1 X9.0832 Y2.0823 Z-1.5000
G1 X9.0628 Y1.8750 Z-1.5000
G1 X9.0832 Y1.6677 Z-1.5000
G1 X9.1436 Y1.4686 Z-1.5000
G1 X9.2419 Y1.2847 Z-1.5000
G1 X9.3739 Y1.1239 Z-1.5000
G1 X9.5347 Y0.9919 Z-1.5000
G1 X9.7186 Y0.8936 Z-1.5000
G1 X9.9177 Y0.8332 Z-1.5000
G1 X10.1250 Y0.8128 Z-1.5000
G1 X10.3323 Y0.8332 Z-1.5000
G1 Z-1.6000 F50
G1 X10.5314 Y0.8936 Z-1.6000 F100
G1 X10.7153 Y0.9919 Z-1.6000
G1 X10.8761 Y1.1239 Z-1.6000
G1 X11.0081 Y1.2847 Z-1.6000
G1 X11.1064 Y1.4686 Z-1.6000
G1 X11.1668 Y1.6677 Z-1.6000
G1 X11.1872 Y1.8750 Z-1.6000
G1 X11.1668 Y2.0823 Z-1.6000
G1 X11.1064 Y2.2814 Z-1.6000
G1 X11.0081 Y2.4653 Z-1.6000
G1 X10.8761 Y2.6261 Z-1.6000
G1 X10.7153 Y2.7581 Z-1.6000
G1 X10.5314 Y2.8564 Z-1.6000
G1 X10.3323 Y2.9168 Z-1.6000
G1 X10.1250 Y2.9372 Z-1.6000
G1 X9.9177 Y2.9168 Z-1.6000
G1 X9.7186 Y2.8564 Z-1.6000
G1 X9.5347 Y2.7581 Z-1.6000
G1 X9.3739 Y2.6261 Z-1.6000
G1 X9.2419 Y2.4653 Z-1.6000
G1 X9.1436 Y2.2814 Z-1.6000
G1 X9.0832 Y2.0823 Z-1.6000
G1 X9.0628 Y1.8750 Z-1.6000
G1 X9.0832 Y1.6677 Z-1.6000
G1 X9.1436 Y1.4686 Z-1.6000
G1 X9.2419 Y1.2847 Z-1.6000
G1 X9.3739 Y1.1239 Z-1.6000
G1 X9.5347 Y0.9919 Z-1.6000
G1 X9.7186 Y0.8936 Z-1.6000
G1 X9.9177 Y0.8332 Z-1.6000
G1 X10.1250 Y0.8128 Z-1.6000
G1 X10.3323 Y0.8332 Z-1.6000
; retracting back to z-safe
G0 Z0.5


M2