; GCODE Generated by Basic CAM on 2024-07-17
G20 ;inch-mode

; Operation 0: CNC: Vector (path inside)
; Bit Diameter: 0.125

G0 Z0.5 ; move to z-safe height
G0 X0.3350 Y2.1503
G1 Z-0.1000 F50
G1 X0.3313 Y2.1441 Z-0.1000 F100
G1 X0.3280 Y2.1385 Z-0.1000
G1 X0.3220 Y2.1278 Z-0.1000
G1 X0.3186 Y2.1215 Z-0.1000
G1 X0.3154 Y2.1155 Z-0.1000
G1 X0.3123 Y2.1095 Z-0.1000
G1 X0.3093 Y2.1035 Z-0.1000
G1 X0.3060 Y2.0971 Z-0.1000
G1 X0.3059 Y2.0971 Z-0.1000
G1 X0.3037 Y2.0924 Z-0.1000
G1 X0.3004 Y2.0856 Z-0.1000
G1 X0.2975 Y2.0795 Z-0.1000
G1 X0.2951 Y2.0744 Z-0.1000
G1 X0.2920 Y2.0675 Z-0.1000
G1 X0.2890 Y2.0609 Z-0.1000
G1 X0.2863 Y2.0548 Z-0.1000
G1 X0.2862 Y2.0548 Z-0.1000
G1 X0.2835 Y2.0486 Z-0.1000
G1 X0.2809 Y2.0424 Z-0.1000
G1 X0.2781 Y2.0359 Z-0.1000
G1 X0.2756 Y2.0298 Z-0.1000
G1 X0.2755 Y2.0298 Z-0.1000
G1 X0.2708 Y2.0181 Z-0.1000
G1 X0.2679 Y2.0106 Z-0.1000
G1 X0.2652 Y2.0039 Z-0.1000
G1 X0.2651 Y2.0039 Z-0.1000
G1 X0.2630 Y1.9981 Z-0.1000
G1 X0.2604 Y1.9914 Z-0.1000
G1 X0.2583 Y1.9854 Z-0.1000
G1 X0.2558 Y1.9787 Z-0.1000
G1 X0.2536 Y1.9727 Z-0.1000
G1 X0.2513 Y1.9662 Z-0.1000
G1 X0.2473 Y1.9542 Z-0.1000
G1 X0.2449 Y1.9468 Z-0.1000
G1 X0.2426 Y1.9399 Z-0.1000
G1 X0.2409 Y1.9346 Z-0.1000
G1 X0.2386 Y1.9272 Z-0.1000
G1 X0.2364 Y1.9202 Z-0.1000
G1 X0.2345 Y1.9138 Z-0.1000
G1 X0.2268 Y1.8868 Z-0.1000
G1 X0.2232 Y1.8736 Z-0.1000
G1 X0.2215 Y1.8668 Z-0.1000
G1 X0.2196 Y1.8597 Z-0.1000
G1 X0.2195 Y1.8597 Z-0.1000
G1 X0.2182 Y1.8543 Z-0.1000
G1 X0.2162 Y1.8462 Z-0.1000
G1 X0.2147 Y1.8402 Z-0.1000
G1 X0.2113 Y1.8260 Z-0.1000
G1 X0.2112 Y1.8260 Z-0.1000
G1 X0.2098 Y1.8199 Z-0.1000
G1 X0.2099 Y1.8199 Z-0.1000
G1 X0.2035 Y1.7915 Z-0.1000
G1 X0.2007 Y1.7781 Z-0.1000
G1 X0.1993 Y1.7709 Z-0.1000
G1 X0.1978 Y1.7638 Z-0.1000
G1 X0.1977 Y1.7638 Z-0.1000
G1 X0.1951 Y1.7504 Z-0.1000
G1 X0.1938 Y1.7432 Z-0.1000
G1 X0.1924 Y1.7361 Z-0.1000
G1 X0.1913 Y1.7297 Z-0.1000
G1 X0.1900 Y1.7226 Z-0.1000
G1 X0.1899 Y1.7226 Z-0.1000
G1 X0.1888 Y1.7154 Z-0.1000
G1 X0.1875 Y1.7083 Z-0.1000
G1 X0.1874 Y1.7083 Z-0.1000
G1 X0.1852 Y1.6948 Z-0.1000
G1 X0.1840 Y1.6877 Z-0.1000
G1 X0.1829 Y1.6806 Z-0.1000
G1 X0.1819 Y1.6743 Z-0.1000
G1 X0.1797 Y1.6599 Z-0.1000
G1 X0.1787 Y1.6525 Z-0.1000
G1 X0.1776 Y1.6454 Z-0.1000
G1 X0.1747 Y1.6248 Z-0.1000
G1 X0.1738 Y1.6177 Z-0.1000
G1 X0.1728 Y1.6104 Z-0.1000
G1 X0.1702 Y1.5895 Z-0.1000
G1 X0.1694 Y1.5823 Z-0.1000
G1 X0.1685 Y1.5751 Z-0.1000
G1 X0.1678 Y1.5688 Z-0.1000
G1 X0.1670 Y1.5615 Z-0.1000
G1 X0.1662 Y1.5543 Z-0.1000
G1 X0.1655 Y1.5472 Z-0.1000
G1 X0.1647 Y1.5399 Z-0.1000
G1 X0.1634 Y1.5263 Z-0.1000
G1 X0.1627 Y1.5190 Z-0.1000
G1 X0.1621 Y1.5118 Z-0.1000
G1 X0.1614 Y1.5046 Z-0.1000
G1 X0.1609 Y1.4981 Z-0.1000
G1 X0.1603 Y1.4909 Z-0.1000
G1 X0.1597 Y1.4836 Z-0.1000
G1 X0.1585 Y1.4692 Z-0.1000
G1 X0.1584 Y1.4692 Z-0.1000
G1 X0.1580 Y1.4628 Z-0.1000
G1 X0.1581 Y1.4628 Z-0.1000
G1 X0.1575 Y1.4555 Z-0.1000
G1 X0.1570 Y1.4483 Z-0.1000
G1 X0.1571 Y1.4483 Z-0.1000
G1 X0.1565 Y1.4410 Z-0.1000
G1 X0.1561 Y1.4347 Z-0.1000
G1 X0.1557 Y1.4273 Z-0.1000
G1 X0.1553 Y1.4193 Z-0.1000
G1 X0.1548 Y1.4120 Z-0.1000
G1 X0.1547 Y1.4120 Z-0.1000
G1 X0.1545 Y1.4057 Z-0.1000
G1 X0.1541 Y1.3983 Z-0.1000
G1 X0.1537 Y1.3911 Z-0.1000
G1 X0.1534 Y1.3839 Z-0.1000
G1 X0.1530 Y1.3766 Z-0.1000
G1 X0.1527 Y1.3711 Z-0.1000
G1 X0.1528 Y1.3711 Z-0.1000
G1 X0.1525 Y1.3629 Z-0.1000
G1 X0.1522 Y1.3556 Z-0.1000
G1 X0.1519 Y1.3493 Z-0.1000
G1 X0.1520 Y1.3493 Z-0.1000
G1 X0.1518 Y1.3420 Z-0.1000
G1 X0.1516 Y1.3348 Z-0.1000
G1 X0.1512 Y1.3202 Z-0.1000
G1 X0.1510 Y1.3130 Z-0.1000
G1 X0.1508 Y1.3057 Z-0.1000
G1 X0.1507 Y1.2992 Z-0.1000
G1 X0.1506 Y1.2920 Z-0.1000
G1 X0.1504 Y1.2774 Z-0.1000
G1 X0.1503 Y1.2711 Z-0.1000
G1 X0.1503 Y1.2629 Z-0.1000
G1 X0.1502 Y1.2565 Z-0.1000
G1 X0.1502 Y1.2356 Z-0.1000
G1 X0.1503 Y1.2275 Z-0.1000
G1 X0.1503 Y1.2211 Z-0.1000
G1 X0.1505 Y1.2065 Z-0.1000
G1 X0.1506 Y1.1993 Z-0.1000
G1 X0.1508 Y1.1855 Z-0.1000
G1 X0.1510 Y1.1775 Z-0.1000
G1 X0.1511 Y1.1710 Z-0.1000
G1 X0.1513 Y1.1637 Z-0.1000
G1 X0.1515 Y1.1565 Z-0.1000
G1 X0.1517 Y1.1492 Z-0.1000
G1 X0.1516 Y1.1492 Z-0.1000
G1 X0.1520 Y1.1420 Z-0.1000
G1 X0.1522 Y1.1347 Z-0.1000
G1 X0.1521 Y1.1347 Z-0.1000
G1 X0.1524 Y1.1283 Z-0.1000
G1 X0.1527 Y1.1211 Z-0.1000
G1 X0.1533 Y1.1065 Z-0.1000
G1 X0.1536 Y1.1001 Z-0.1000
G1 X0.1540 Y1.0929 Z-0.1000
G1 X0.1548 Y1.0784 Z-0.1000
G1 X0.1560 Y1.0565 Z-0.1000
G1 X0.1565 Y1.0502 Z-0.1000
G1 X0.1570 Y1.0429 Z-0.1000
G1 X0.1569 Y1.0429 Z-0.1000
G1 X0.1575 Y1.0357 Z-0.1000
G1 X0.1580 Y1.0284 Z-0.1000
G1 X0.1579 Y1.0284 Z-0.1000
G1 X0.1583 Y1.0220 Z-0.1000
G1 X0.1584 Y1.0220 Z-0.1000
G1 X0.1590 Y1.0139 Z-0.1000
G1 X0.1594 Y1.0075 Z-0.1000
G1 X0.1595 Y1.0075 Z-0.1000
G1 X0.1601 Y1.0003 Z-0.1000
G1 X0.1612 Y0.9867 Z-0.1000
G1 X0.1620 Y0.9786 Z-0.1000
G1 X0.1625 Y0.9722 Z-0.1000
G1 X0.1632 Y0.9650 Z-0.1000
G1 X0.1639 Y0.9577 Z-0.1000
G1 X0.1652 Y0.9441 Z-0.1000
G1 X0.1660 Y0.9369 Z-0.1000
G1 X0.1676 Y0.9224 Z-0.1000
G1 X0.1699 Y0.9017 Z-0.1000
G1 X0.1734 Y0.8737 Z-0.1000
G1 X0.1745 Y0.8657 Z-0.1000
G1 X0.1753 Y0.8592 Z-0.1000
G1 X0.1763 Y0.8521 Z-0.1000
G1 X0.1782 Y0.8385 Z-0.1000
G1 X0.1805 Y0.8233 Z-0.1000
G1 X0.1815 Y0.8161 Z-0.1000
G1 X0.1826 Y0.8097 Z-0.1000
G1 X0.1837 Y0.8027 Z-0.1000
G1 X0.1848 Y0.7956 Z-0.1000
G1 X0.1847 Y0.7956 Z-0.1000
G1 X0.1880 Y0.7757 Z-0.1000
G1 X0.1881 Y0.7757 Z-0.1000
G1 X0.1895 Y0.7676 Z-0.1000
G1 X0.1905 Y0.7614 Z-0.1000
G1 X0.1906 Y0.7614 Z-0.1000
G1 X0.1919 Y0.7541 Z-0.1000
G1 X0.1930 Y0.7479 Z-0.1000
G1 X0.1946 Y0.7398 Z-0.1000
G1 X0.1957 Y0.7336 Z-0.1000
G1 X0.1986 Y0.7192 Z-0.1000
G1 X0.1998 Y0.7130 Z-0.1000
G1 X0.2071 Y0.6783 Z-0.1000
G1 X0.2101 Y0.6650 Z-0.1000
G1 X0.2118 Y0.6579 Z-0.1000
G1 X0.2136 Y0.6509 Z-0.1000
G1 X0.2151 Y0.6446 Z-0.1000
G1 X0.2166 Y0.6385 Z-0.1000
G1 X0.2187 Y0.6307 Z-0.1000
G1 X0.2203 Y0.6243 Z-0.1000
G1 X0.2204 Y0.6243 Z-0.1000
G1 X0.2222 Y0.6174 Z-0.1000
G1 X0.2258 Y0.6042 Z-0.1000
G1 X0.2301 Y0.5892 Z-0.1000
G1 X0.2315 Y0.5839 Z-0.1000
G1 X0.2337 Y0.5763 Z-0.1000
G1 X0.2358 Y0.5692 Z-0.1000
G1 X0.2376 Y0.5630 Z-0.1000
G1 X0.2399 Y0.5552 Z-0.1000
G1 X0.2417 Y0.5490 Z-0.1000
G1 X0.2437 Y0.5422 Z-0.1000
G1 X0.2459 Y0.5351 Z-0.1000
G1 X0.2501 Y0.5211 Z-0.1000
G1 X0.2500 Y0.5211 Z-0.1000
G1 X0.2523 Y0.5142 Z-0.1000
G1 X0.2544 Y0.5072 Z-0.1000
G1 X0.2543 Y0.5072 Z-0.1000
G1 X0.2563 Y0.5010 Z-0.1000
G1 X0.2584 Y0.4943 Z-0.1000
G1 X0.2607 Y0.4871 Z-0.1000
G1 X0.2626 Y0.4812 Z-0.1000
G1 X0.2651 Y0.4735 Z-0.1000
G1 X0.2671 Y0.4674 Z-0.1000
G1 X0.2717 Y0.4536 Z-0.1000
G1 X0.2741 Y0.4467 Z-0.1000
G1 X0.2764 Y0.4398 Z-0.1000
G1 X0.2763 Y0.4398 Z-0.1000
G1 X0.2781 Y0.4347 Z-0.1000
G1 X0.2782 Y0.4347 Z-0.1000
G1 X0.2810 Y0.4268 Z-0.1000
G1 X0.2828 Y0.4217 Z-0.1000
G1 X0.2873 Y0.4099 Z-0.1000
G1 X0.2901 Y0.4032 Z-0.1000
G1 X0.2900 Y0.4032 Z-0.1000
G1 X0.2908 Y0.4015 Z-0.1000
G1 X0.2915 Y0.4002 Z-0.1000
G1 X0.2945 Y0.3962 Z-0.1000
G1 X0.2992 Y0.3895 Z-0.1000
G1 X0.3031 Y0.3837 Z-0.1000
G1 X0.3076 Y0.3770 Z-0.1000
G1 X0.3112 Y0.3714 Z-0.1000
G1 X0.3158 Y0.3644 Z-0.1000
G1 X0.3193 Y0.3588 Z-0.1000
G1 X0.3234 Y0.3525 Z-0.1000
G1 X0.3268 Y0.3472 Z-0.1000
G1 X0.3307 Y0.3412 Z-0.1000
G1 X0.3329 Y0.3379 Z-0.1000
G1 X0.3360 Y0.3336 Z-0.1000
G1 X0.3399 Y0.3285 Z-0.1000
G1 X0.3424 Y0.3256 Z-0.1000
G1 X0.3443 Y0.3235 Z-0.1000
G1 X0.3469 Y0.3211 Z-0.1000
G1 X0.3496 Y0.3189 Z-0.1000
G1 X0.3505 Y0.3183 Z-0.1000
G1 X0.3520 Y0.3175 Z-0.1000
G1 X0.3529 Y0.3171 Z-0.1000
G1 X0.3540 Y0.3167 Z-0.1000
G1 X0.3571 Y0.3159 Z-0.1000
G1 X0.3587 Y0.3157 Z-0.1000
G1 X0.3641 Y0.3150 Z-0.1000
G1 X0.3663 Y0.3149 Z-0.1000
G1 X0.3719 Y0.3148 Z-0.1000
G1 X0.3731 Y0.3149 Z-0.1000
G1 X0.3751 Y0.3151 Z-0.1000
G1 X0.3793 Y0.3159 Z-0.1000
G1 X0.3822 Y0.3168 Z-0.1000
G1 X0.3851 Y0.3178 Z-0.1000
G1 X0.3896 Y0.3196 Z-0.1000
G1 X0.3923 Y0.3208 Z-0.1000
G1 X0.3965 Y0.3231 Z-0.1000
G1 X0.3988 Y0.3245 Z-0.1000
G1 X0.4036 Y0.3277 Z-0.1000
G1 X0.4063 Y0.3297 Z-0.1000
G1 X0.4091 Y0.3321 Z-0.1000
G1 X0.4140 Y0.3366 Z-0.1000
G1 X0.4149 Y0.3375 Z-0.1000
G1 X0.4171 Y0.3401 Z-0.1000
G1 X0.4187 Y0.3422 Z-0.1000
G1 X0.4217 Y0.3469 Z-0.1000
G1 X0.4302 Y0.3614 Z-0.1000
G1 X0.4283 Y1.2583 Z-0.1000
G1 X0.4283 Y1.3010 Z-0.1000
G1 X0.4282 Y1.3091 Z-0.1000
G1 X0.4282 Y1.3518 Z-0.1000
G1 X0.4281 Y1.3599 Z-0.1000
G1 X0.4281 Y1.3953 Z-0.1000
G1 X0.4280 Y1.4035 Z-0.1000
G1 X0.4280 Y1.4388 Z-0.1000
G1 X0.4279 Y1.4470 Z-0.1000
G1 X0.4279 Y1.4896 Z-0.1000
G1 X0.4278 Y1.4978 Z-0.1000
G1 X0.4278 Y1.5331 Z-0.1000
G1 X0.4277 Y1.5413 Z-0.1000
G1 X0.4277 Y1.5694 Z-0.1000
G1 X0.4276 Y1.5776 Z-0.1000
G1 X0.4276 Y1.6129 Z-0.1000
G1 X0.4275 Y1.6211 Z-0.1000
G1 X0.4275 Y1.6492 Z-0.1000
G1 X0.4274 Y1.6574 Z-0.1000
G1 X0.4274 Y1.6854 Z-0.1000
G1 X0.4273 Y1.6936 Z-0.1000
G1 X0.4273 Y1.7145 Z-0.1000
G1 X0.4272 Y1.7226 Z-0.1000
G1 X0.4272 Y1.7435 Z-0.1000
G1 X0.4271 Y1.7516 Z-0.1000
G1 X0.4271 Y1.7725 Z-0.1000
G1 X0.4270 Y1.7807 Z-0.1000
G1 X0.4270 Y1.7943 Z-0.1000
G1 X0.4269 Y1.8024 Z-0.1000
G1 X0.4269 Y1.8233 Z-0.1000
G1 X0.4268 Y1.8314 Z-0.1000
G1 X0.4268 Y1.8450 Z-0.1000
G1 X0.4267 Y1.8532 Z-0.1000
G1 X0.4267 Y1.8596 Z-0.1000
G1 X0.4266 Y1.8677 Z-0.1000
G1 X0.4266 Y1.8813 Z-0.1000
G1 X0.4265 Y1.8895 Z-0.1000
G1 X0.4265 Y1.8958 Z-0.1000
G1 X0.4264 Y1.9040 Z-0.1000
G1 X0.4264 Y1.9103 Z-0.1000
G1 X0.4263 Y1.9185 Z-0.1000
G1 X0.4263 Y1.9249 Z-0.1000
G1 X0.4262 Y1.9330 Z-0.1000
G1 X0.4262 Y1.9394 Z-0.1000
G1 X0.4261 Y1.9475 Z-0.1000
G1 X0.4261 Y1.9538 Z-0.1000
G1 X0.4259 Y1.9693 Z-0.1000
G1 X0.4259 Y1.9756 Z-0.1000
G1 X0.4258 Y1.9829 Z-0.1000
G1 X0.4257 Y1.9910 Z-0.1000
G1 X0.4257 Y1.9974 Z-0.1000
G1 X0.4256 Y2.0046 Z-0.1000
G1 X0.4255 Y2.0119 Z-0.1000
G1 X0.4254 Y2.0191 Z-0.1000
G1 X0.4252 Y2.0337 Z-0.1000
G1 X0.4251 Y2.0409 Z-0.1000
G1 X0.4250 Y2.0482 Z-0.1000
G1 X0.4249 Y2.0546 Z-0.1000
G1 X0.4247 Y2.0627 Z-0.1000
G1 X0.4246 Y2.0691 Z-0.1000
G1 X0.4244 Y2.0772 Z-0.1000
G1 X0.4243 Y2.0836 Z-0.1000
G1 X0.4241 Y2.0909 Z-0.1000
G1 X0.4239 Y2.0981 Z-0.1000
G1 X0.4237 Y2.1054 Z-0.1000
G1 X0.4238 Y2.1054 Z-0.1000
G1 X0.4234 Y2.1126 Z-0.1000
G1 X0.4232 Y2.1193 Z-0.1000
G1 X0.4229 Y2.1262 Z-0.1000
G1 X0.4226 Y2.1326 Z-0.1000
G1 X0.4222 Y2.1398 Z-0.1000
G1 X0.4219 Y2.1454 Z-0.1000
G1 X0.4218 Y2.1454 Z-0.1000
G1 X0.4213 Y2.1518 Z-0.1000
G1 X0.4209 Y2.1564 Z-0.1000
G1 X0.4206 Y2.1588 Z-0.1000
G1 X0.4185 Y2.1612 Z-0.1000
G1 X0.4149 Y2.1650 Z-0.1000
G1 X0.4125 Y2.1675 Z-0.1000
G1 X0.4088 Y2.1710 Z-0.1000
G1 X0.4046 Y2.1747 Z-0.1000
G1 X0.4035 Y2.1756 Z-0.1000
G1 X0.4023 Y2.1764 Z-0.1000
G1 X0.4016 Y2.1768 Z-0.1000
G1 X0.4015 Y2.1768 Z-0.1000
G1 X0.3971 Y2.1782 Z-0.1000
G1 X0.3936 Y2.1790 Z-0.1000
G1 X0.3899 Y2.1798 Z-0.1000
G1 X0.3861 Y2.1804 Z-0.1000
G1 X0.3861 Y2.1803 Z-0.1000
G1 X0.3798 Y2.1811 Z-0.1000
G1 X0.3741 Y2.1817 Z-0.1000
G1 X0.3696 Y2.1821 Z-0.1000
G1 X0.3696 Y2.1820 Z-0.1000
G1 X0.3571 Y2.1828 Z-0.1000
G1 X0.3514 Y2.1750 Z-0.1000
G1 X0.3475 Y2.1696 Z-0.1000
G1 X0.3446 Y2.1653 Z-0.1000
G1 X0.3409 Y2.1597 Z-0.1000
G1 X0.3349 Y2.1503 Z-0.1000
G1 X0.3350 Y2.1503 Z-0.1000
G1 Z-0.2000 F50
G1 X0.3313 Y2.1441 Z-0.2000 F100
G1 X0.3280 Y2.1385 Z-0.2000
G1 X0.3220 Y2.1278 Z-0.2000
G1 X0.3186 Y2.1215 Z-0.2000
G1 X0.3154 Y2.1155 Z-0.2000
G1 X0.3123 Y2.1095 Z-0.2000
G1 X0.3093 Y2.1035 Z-0.2000
G1 X0.3060 Y2.0971 Z-0.2000
G1 X0.3059 Y2.0971 Z-0.2000
G1 X0.3037 Y2.0924 Z-0.2000
G1 X0.3004 Y2.0856 Z-0.2000
G1 X0.2975 Y2.0795 Z-0.2000
G1 X0.2951 Y2.0744 Z-0.2000
G1 X0.2920 Y2.0675 Z-0.2000
G1 X0.2890 Y2.0609 Z-0.2000
G1 X0.2863 Y2.0548 Z-0.2000
G1 X0.2862 Y2.0548 Z-0.2000
G1 X0.2835 Y2.0486 Z-0.2000
G1 X0.2809 Y2.0424 Z-0.2000
G1 X0.2781 Y2.0359 Z-0.2000
G1 X0.2756 Y2.0298 Z-0.2000
G1 X0.2755 Y2.0298 Z-0.2000
G1 X0.2708 Y2.0181 Z-0.2000
G1 X0.2679 Y2.0106 Z-0.2000
G1 X0.2652 Y2.0039 Z-0.2000
G1 X0.2651 Y2.0039 Z-0.2000
G1 X0.2630 Y1.9981 Z-0.2000
G1 X0.2604 Y1.9914 Z-0.2000
G1 X0.2583 Y1.9854 Z-0.2000
G1 X0.2558 Y1.9787 Z-0.2000
G1 X0.2536 Y1.9727 Z-0.2000
G1 X0.2513 Y1.9662 Z-0.2000
G1 X0.2473 Y1.9542 Z-0.2000
G1 X0.2449 Y1.9468 Z-0.2000
G1 X0.2426 Y1.9399 Z-0.2000
G1 X0.2409 Y1.9346 Z-0.2000
G1 X0.2386 Y1.9272 Z-0.2000
G1 X0.2364 Y1.9202 Z-0.2000
G1 X0.2345 Y1.9138 Z-0.2000
G1 X0.2268 Y1.8868 Z-0.2000
G1 X0.2232 Y1.8736 Z-0.2000
G1 X0.2215 Y1.8668 Z-0.2000
G1 X0.2196 Y1.8597 Z-0.2000
G1 X0.2195 Y1.8597 Z-0.2000
G1 X0.2182 Y1.8543 Z-0.2000
G1 X0.2162 Y1.8462 Z-0.2000
G1 X0.2147 Y1.8402 Z-0.2000
G1 X0.2113 Y1.8260 Z-0.2000
G1 X0.2112 Y1.8260 Z-0.2000
G1 X0.2098 Y1.8199 Z-0.2000
G1 X0.2099 Y1.8199 Z-0.2000
G1 X0.2035 Y1.7915 Z-0.2000
G1 X0.2007 Y1.7781 Z-0.2000
G1 X0.1993 Y1.7709 Z-0.2000
G1 X0.1978 Y1.7638 Z-0.2000
G1 X0.1977 Y1.7638 Z-0.2000
G1 X0.1951 Y1.7504 Z-0.2000
G1 X0.1938 Y1.7432 Z-0.2000
G1 X0.1924 Y1.7361 Z-0.2000
G1 X0.1913 Y1.7297 Z-0.2000
G1 X0.1900 Y1.7226 Z-0.2000
G1 X0.1899 Y1.7226 Z-0.2000
G1 X0.1888 Y1.7154 Z-0.2000
G1 X0.1875 Y1.7083 Z-0.2000
G1 X0.1874 Y1.7083 Z-0.2000
G1 X0.1852 Y1.6948 Z-0.2000
G1 X0.1840 Y1.6877 Z-0.2000
G1 X0.1829 Y1.6806 Z-0.2000
G1 X0.1819 Y1.6743 Z-0.2000
G1 X0.1797 Y1.6599 Z-0.2000
G1 X0.1787 Y1.6525 Z-0.2000
G1 X0.1776 Y1.6454 Z-0.2000
G1 X0.1747 Y1.6248 Z-0.2000
G1 X0.1738 Y1.6177 Z-0.2000
G1 X0.1728 Y1.6104 Z-0.2000
G1 X0.1702 Y1.5895 Z-0.2000
G1 X0.1694 Y1.5823 Z-0.2000
G1 X0.1685 Y1.5751 Z-0.2000
G1 X0.1678 Y1.5688 Z-0.2000
G1 X0.1670 Y1.5615 Z-0.2000
G1 X0.1662 Y1.5543 Z-0.2000
G1 X0.1655 Y1.5472 Z-0.2000
G1 X0.1647 Y1.5399 Z-0.2000
G1 X0.1634 Y1.5263 Z-0.2000
G1 X0.1627 Y1.5190 Z-0.2000
G1 X0.1621 Y1.5118 Z-0.2000
G1 X0.1614 Y1.5046 Z-0.2000
G1 X0.1609 Y1.4981 Z-0.2000
G1 X0.1603 Y1.4909 Z-0.2000
G1 X0.1597 Y1.4836 Z-0.2000
G1 X0.1585 Y1.4692 Z-0.2000
G1 X0.1584 Y1.4692 Z-0.2000
G1 X0.1580 Y1.4628 Z-0.2000
G1 X0.1581 Y1.4628 Z-0.2000
G1 X0.1575 Y1.4555 Z-0.2000
G1 X0.1570 Y1.4483 Z-0.2000
G1 X0.1571 Y1.4483 Z-0.2000
G1 X0.1565 Y1.4410 Z-0.2000
G1 X0.1561 Y1.4347 Z-0.2000
G1 X0.1557 Y1.4273 Z-0.2000
G1 X0.1553 Y1.4193 Z-0.2000
G1 X0.1548 Y1.4120 Z-0.2000
G1 X0.1547 Y1.4120 Z-0.2000
G1 X0.1545 Y1.4057 Z-0.2000
G1 X0.1541 Y1.3983 Z-0.2000
G1 X0.1537 Y1.3911 Z-0.2000
G1 X0.1534 Y1.3839 Z-0.2000
G1 X0.1530 Y1.3766 Z-0.2000
G1 X0.1527 Y1.3711 Z-0.2000
G1 X0.1528 Y1.3711 Z-0.2000
G1 X0.1525 Y1.3629 Z-0.2000
G1 X0.1522 Y1.3556 Z-0.2000
G1 X0.1519 Y1.3493 Z-0.2000
G1 X0.1520 Y1.3493 Z-0.2000
G1 X0.1518 Y1.3420 Z-0.2000
G1 X0.1516 Y1.3348 Z-0.2000
G1 X0.1512 Y1.3202 Z-0.2000
G1 X0.1510 Y1.3130 Z-0.2000
G1 X0.1508 Y1.3057 Z-0.2000
G1 X0.1507 Y1.2992 Z-0.2000
G1 X0.1506 Y1.2920 Z-0.2000
G1 X0.1504 Y1.2774 Z-0.2000
G1 X0.1503 Y1.2711 Z-0.2000
G1 X0.1503 Y1.2629 Z-0.2000
G1 X0.1502 Y1.2565 Z-0.2000
G1 X0.1502 Y1.2356 Z-0.2000
G1 X0.1503 Y1.2275 Z-0.2000
G1 X0.1503 Y1.2211 Z-0.2000
G1 X0.1505 Y1.2065 Z-0.2000
G1 X0.1506 Y1.1993 Z-0.2000
G1 X0.1508 Y1.1855 Z-0.2000
G1 X0.1510 Y1.1775 Z-0.2000
G1 X0.1511 Y1.1710 Z-0.2000
G1 X0.1513 Y1.1637 Z-0.2000
G1 X0.1515 Y1.1565 Z-0.2000
G1 X0.1517 Y1.1492 Z-0.2000
G1 X0.1516 Y1.1492 Z-0.2000
G1 X0.1520 Y1.1420 Z-0.2000
G1 X0.1522 Y1.1347 Z-0.2000
G1 X0.1521 Y1.1347 Z-0.2000
G1 X0.1524 Y1.1283 Z-0.2000
G1 X0.1527 Y1.1211 Z-0.2000
G1 X0.1533 Y1.1065 Z-0.2000
G1 X0.1536 Y1.1001 Z-0.2000
G1 X0.1540 Y1.0929 Z-0.2000
G1 X0.1548 Y1.0784 Z-0.2000
G1 X0.1560 Y1.0565 Z-0.2000
G1 X0.1565 Y1.0502 Z-0.2000
G1 X0.1570 Y1.0429 Z-0.2000
G1 X0.1569 Y1.0429 Z-0.2000
G1 X0.1575 Y1.0357 Z-0.2000
G1 X0.1580 Y1.0284 Z-0.2000
G1 X0.1579 Y1.0284 Z-0.2000
G1 X0.1583 Y1.0220 Z-0.2000
G1 X0.1584 Y1.0220 Z-0.2000
G1 X0.1590 Y1.0139 Z-0.2000
G1 X0.1594 Y1.0075 Z-0.2000
G1 X0.1595 Y1.0075 Z-0.2000
G1 X0.1601 Y1.0003 Z-0.2000
G1 X0.1612 Y0.9867 Z-0.2000
G1 X0.1620 Y0.9786 Z-0.2000
G1 X0.1625 Y0.9722 Z-0.2000
G1 X0.1632 Y0.9650 Z-0.2000
G1 X0.1639 Y0.9577 Z-0.2000
G1 X0.1652 Y0.9441 Z-0.2000
G1 X0.1660 Y0.9369 Z-0.2000
G1 X0.1676 Y0.9224 Z-0.2000
G1 X0.1699 Y0.9017 Z-0.2000
G1 X0.1734 Y0.8737 Z-0.2000
G1 X0.1745 Y0.8657 Z-0.2000
G1 X0.1753 Y0.8592 Z-0.2000
G1 X0.1763 Y0.8521 Z-0.2000
G1 X0.1782 Y0.8385 Z-0.2000
G1 X0.1805 Y0.8233 Z-0.2000
G1 X0.1815 Y0.8161 Z-0.2000
G1 X0.1826 Y0.8097 Z-0.2000
G1 X0.1837 Y0.8027 Z-0.2000
G1 X0.1848 Y0.7956 Z-0.2000
G1 X0.1847 Y0.7956 Z-0.2000
G1 X0.1880 Y0.7757 Z-0.2000
G1 X0.1881 Y0.7757 Z-0.2000
G1 X0.1895 Y0.7676 Z-0.2000
G1 X0.1905 Y0.7614 Z-0.2000
G1 X0.1906 Y0.7614 Z-0.2000
G1 X0.1919 Y0.7541 Z-0.2000
G1 X0.1930 Y0.7479 Z-0.2000
G1 X0.1946 Y0.7398 Z-0.2000
G1 X0.1957 Y0.7336 Z-0.2000
G1 X0.1986 Y0.7192 Z-0.2000
G1 X0.1998 Y0.7130 Z-0.2000
G1 X0.2071 Y0.6783 Z-0.2000
G1 X0.2101 Y0.6650 Z-0.2000
G1 X0.2118 Y0.6579 Z-0.2000
G1 X0.2136 Y0.6509 Z-0.2000
G1 X0.2151 Y0.6446 Z-0.2000
G1 X0.2166 Y0.6385 Z-0.2000
G1 X0.2187 Y0.6307 Z-0.2000
G1 X0.2203 Y0.6243 Z-0.2000
G1 X0.2204 Y0.6243 Z-0.2000
G1 X0.2222 Y0.6174 Z-0.2000
G1 X0.2258 Y0.6042 Z-0.2000
G1 X0.2301 Y0.5892 Z-0.2000
G1 X0.2315 Y0.5839 Z-0.2000
G1 X0.2337 Y0.5763 Z-0.2000
G1 X0.2358 Y0.5692 Z-0.2000
G1 X0.2376 Y0.5630 Z-0.2000
G1 X0.2399 Y0.5552 Z-0.2000
G1 X0.2417 Y0.5490 Z-0.2000
G1 X0.2437 Y0.5422 Z-0.2000
G1 X0.2459 Y0.5351 Z-0.2000
G1 X0.2501 Y0.5211 Z-0.2000
G1 X0.2500 Y0.5211 Z-0.2000
G1 X0.2523 Y0.5142 Z-0.2000
G1 X0.2544 Y0.5072 Z-0.2000
G1 X0.2543 Y0.5072 Z-0.2000
G1 X0.2563 Y0.5010 Z-0.2000
G1 X0.2584 Y0.4943 Z-0.2000
G1 X0.2607 Y0.4871 Z-0.2000
G1 X0.2626 Y0.4812 Z-0.2000
G1 X0.2651 Y0.4735 Z-0.2000
G1 X0.2671 Y0.4674 Z-0.2000
G1 X0.2717 Y0.4536 Z-0.2000
G1 X0.2741 Y0.4467 Z-0.2000
G1 X0.2764 Y0.4398 Z-0.2000
G1 X0.2763 Y0.4398 Z-0.2000
G1 X0.2781 Y0.4347 Z-0.2000
G1 X0.2782 Y0.4347 Z-0.2000
G1 X0.2810 Y0.4268 Z-0.2000
G1 X0.2828 Y0.4217 Z-0.2000
G1 X0.2873 Y0.4099 Z-0.2000
G1 X0.2901 Y0.4032 Z-0.2000
G1 X0.2900 Y0.4032 Z-0.2000
G1 X0.2908 Y0.4015 Z-0.2000
G1 X0.2915 Y0.4002 Z-0.2000
G1 X0.2945 Y0.3962 Z-0.2000
G1 X0.2992 Y0.3895 Z-0.2000
G1 X0.3031 Y0.3837 Z-0.2000
G1 X0.3076 Y0.3770 Z-0.2000
G1 X0.3112 Y0.3714 Z-0.2000
G1 X0.3158 Y0.3644 Z-0.2000
G1 X0.3193 Y0.3588 Z-0.2000
G1 X0.3234 Y0.3525 Z-0.2000
G1 X0.3268 Y0.3472 Z-0.2000
G1 X0.3307 Y0.3412 Z-0.2000
G1 X0.3329 Y0.3379 Z-0.2000
G1 X0.3360 Y0.3336 Z-0.2000
G1 X0.3399 Y0.3285 Z-0.2000
G1 X0.3424 Y0.3256 Z-0.2000
G1 X0.3443 Y0.3235 Z-0.2000
G1 X0.3469 Y0.3211 Z-0.2000
G1 X0.3496 Y0.3189 Z-0.2000
G1 X0.3505 Y0.3183 Z-0.2000
G1 X0.3520 Y0.3175 Z-0.2000
G1 X0.3529 Y0.3171 Z-0.2000
G1 X0.3540 Y0.3167 Z-0.2000
G1 X0.3571 Y0.3159 Z-0.2000
G1 X0.3587 Y0.3157 Z-0.2000
G1 X0.3641 Y0.3150 Z-0.2000
G1 X0.3663 Y0.3149 Z-0.2000
G1 X0.3719 Y0.3148 Z-0.2000
G1 X0.3731 Y0.3149 Z-0.2000
G1 X0.3751 Y0.3151 Z-0.2000
G1 X0.3793 Y0.3159 Z-0.2000
G1 X0.3822 Y0.3168 Z-0.2000
G1 X0.3851 Y0.3178 Z-0.2000
G1 X0.3896 Y0.3196 Z-0.2000
G1 X0.3923 Y0.3208 Z-0.2000
G1 X0.3965 Y0.3231 Z-0.2000
G1 X0.3988 Y0.3245 Z-0.2000
G1 X0.4036 Y0.3277 Z-0.2000
G1 X0.4063 Y0.3297 Z-0.2000
G1 X0.4091 Y0.3321 Z-0.2000
G1 X0.4140 Y0.3366 Z-0.2000
G1 X0.4149 Y0.3375 Z-0.2000
G1 X0.4171 Y0.3401 Z-0.2000
G1 X0.4187 Y0.3422 Z-0.2000
G1 X0.4217 Y0.3469 Z-0.2000
G1 X0.4302 Y0.3614 Z-0.2000
G1 X0.4283 Y1.2583 Z-0.2000
G1 X0.4283 Y1.3010 Z-0.2000
G1 X0.4282 Y1.3091 Z-0.2000
G1 X0.4282 Y1.3518 Z-0.2000
G1 X0.4281 Y1.3599 Z-0.2000
G1 X0.4281 Y1.3953 Z-0.2000
G1 X0.4280 Y1.4035 Z-0.2000
G1 X0.4280 Y1.4388 Z-0.2000
G1 X0.4279 Y1.4470 Z-0.2000
G1 X0.4279 Y1.4896 Z-0.2000
G1 X0.4278 Y1.4978 Z-0.2000
G1 X0.4278 Y1.5331 Z-0.2000
G1 X0.4277 Y1.5413 Z-0.2000
G1 X0.4277 Y1.5694 Z-0.2000
G1 X0.4276 Y1.5776 Z-0.2000
G1 X0.4276 Y1.6129 Z-0.2000
G1 X0.4275 Y1.6211 Z-0.2000
G1 X0.4275 Y1.6492 Z-0.2000
G1 X0.4274 Y1.6574 Z-0.2000
G1 X0.4274 Y1.6854 Z-0.2000
G1 X0.4273 Y1.6936 Z-0.2000
G1 X0.4273 Y1.7145 Z-0.2000
G1 X0.4272 Y1.7226 Z-0.2000
G1 X0.4272 Y1.7435 Z-0.2000
G1 X0.4271 Y1.7516 Z-0.2000
G1 X0.4271 Y1.7725 Z-0.2000
G1 X0.4270 Y1.7807 Z-0.2000
G1 X0.4270 Y1.7943 Z-0.2000
G1 X0.4269 Y1.8024 Z-0.2000
G1 X0.4269 Y1.8233 Z-0.2000
G1 X0.4268 Y1.8314 Z-0.2000
G1 X0.4268 Y1.8450 Z-0.2000
G1 X0.4267 Y1.8532 Z-0.2000
G1 X0.4267 Y1.8596 Z-0.2000
G1 X0.4266 Y1.8677 Z-0.2000
G1 X0.4266 Y1.8813 Z-0.2000
G1 X0.4265 Y1.8895 Z-0.2000
G1 X0.4265 Y1.8958 Z-0.2000
G1 X0.4264 Y1.9040 Z-0.2000
G1 X0.4264 Y1.9103 Z-0.2000
G1 X0.4263 Y1.9185 Z-0.2000
G1 X0.4263 Y1.9249 Z-0.2000
G1 X0.4262 Y1.9330 Z-0.2000
G1 X0.4262 Y1.9394 Z-0.2000
G1 X0.4261 Y1.9475 Z-0.2000
G1 X0.4261 Y1.9538 Z-0.2000
G1 X0.4259 Y1.9693 Z-0.2000
G1 X0.4259 Y1.9756 Z-0.2000
G1 X0.4258 Y1.9829 Z-0.2000
G1 X0.4257 Y1.9910 Z-0.2000
G1 X0.4257 Y1.9974 Z-0.2000
G1 X0.4256 Y2.0046 Z-0.2000
G1 X0.4255 Y2.0119 Z-0.2000
G1 X0.4254 Y2.0191 Z-0.2000
G1 X0.4252 Y2.0337 Z-0.2000
G1 X0.4251 Y2.0409 Z-0.2000
G1 X0.4250 Y2.0482 Z-0.2000
G1 X0.4249 Y2.0546 Z-0.2000
G1 X0.4247 Y2.0627 Z-0.2000
G1 X0.4246 Y2.0691 Z-0.2000
G1 X0.4244 Y2.0772 Z-0.2000
G1 X0.4243 Y2.0836 Z-0.2000
G1 X0.4241 Y2.0909 Z-0.2000
G1 X0.4239 Y2.0981 Z-0.2000
G1 X0.4237 Y2.1054 Z-0.2000
G1 X0.4238 Y2.1054 Z-0.2000
G1 X0.4234 Y2.1126 Z-0.2000
G1 X0.4232 Y2.1193 Z-0.2000
G1 X0.4229 Y2.1262 Z-0.2000
G1 X0.4226 Y2.1326 Z-0.2000
G1 X0.4222 Y2.1398 Z-0.2000
G1 X0.4219 Y2.1454 Z-0.2000
G1 X0.4218 Y2.1454 Z-0.2000
G1 X0.4213 Y2.1518 Z-0.2000
G1 X0.4209 Y2.1564 Z-0.2000
G1 X0.4206 Y2.1588 Z-0.2000
G1 X0.4185 Y2.1612 Z-0.2000
G1 X0.4149 Y2.1650 Z-0.2000
G1 X0.4125 Y2.1675 Z-0.2000
G1 X0.4088 Y2.1710 Z-0.2000
G1 X0.4046 Y2.1747 Z-0.2000
G1 X0.4035 Y2.1756 Z-0.2000
G1 X0.4023 Y2.1764 Z-0.2000
G1 X0.4016 Y2.1768 Z-0.2000
G1 X0.4015 Y2.1768 Z-0.2000
G1 X0.3971 Y2.1782 Z-0.2000
G1 X0.3936 Y2.1790 Z-0.2000
G1 X0.3899 Y2.1798 Z-0.2000
G1 X0.3861 Y2.1804 Z-0.2000
G1 X0.3861 Y2.1803 Z-0.2000
G1 X0.3798 Y2.1811 Z-0.2000
G1 X0.3741 Y2.1817 Z-0.2000
G1 X0.3696 Y2.1821 Z-0.2000
G1 X0.3696 Y2.1820 Z-0.2000
G1 X0.3571 Y2.1828 Z-0.2000
G1 X0.3514 Y2.1750 Z-0.2000
G1 X0.3475 Y2.1696 Z-0.2000
G1 X0.3446 Y2.1653 Z-0.2000
G1 X0.3409 Y2.1597 Z-0.2000
G1 X0.3349 Y2.1503 Z-0.2000
G1 X0.3350 Y2.1503 Z-0.2000
G1 Z-0.3000 F50
G1 X0.3313 Y2.1441 Z-0.3000 F100
G1 X0.3280 Y2.1385 Z-0.3000
G1 X0.3220 Y2.1278 Z-0.3000
G1 X0.3186 Y2.1215 Z-0.3000
G1 X0.3154 Y2.1155 Z-0.3000
G1 X0.3123 Y2.1095 Z-0.3000
G1 X0.3093 Y2.1035 Z-0.3000
G1 X0.3060 Y2.0971 Z-0.3000
G1 X0.3059 Y2.0971 Z-0.3000
G1 X0.3037 Y2.0924 Z-0.3000
G1 X0.3004 Y2.0856 Z-0.3000
G1 X0.2975 Y2.0795 Z-0.3000
G1 X0.2951 Y2.0744 Z-0.3000
G1 X0.2920 Y2.0675 Z-0.3000
G1 X0.2890 Y2.0609 Z-0.3000
G1 X0.2863 Y2.0548 Z-0.3000
G1 X0.2862 Y2.0548 Z-0.3000
G1 X0.2835 Y2.0486 Z-0.3000
G1 X0.2809 Y2.0424 Z-0.3000
G1 X0.2781 Y2.0359 Z-0.3000
G1 X0.2756 Y2.0298 Z-0.3000
G1 X0.2755 Y2.0298 Z-0.3000
G1 X0.2708 Y2.0181 Z-0.3000
G1 X0.2679 Y2.0106 Z-0.3000
G1 X0.2652 Y2.0039 Z-0.3000
G1 X0.2651 Y2.0039 Z-0.3000
G1 X0.2630 Y1.9981 Z-0.3000
G1 X0.2604 Y1.9914 Z-0.3000
G1 X0.2583 Y1.9854 Z-0.3000
G1 X0.2558 Y1.9787 Z-0.3000
G1 X0.2536 Y1.9727 Z-0.3000
G1 X0.2513 Y1.9662 Z-0.3000
G1 X0.2473 Y1.9542 Z-0.3000
G1 X0.2449 Y1.9468 Z-0.3000
G1 X0.2426 Y1.9399 Z-0.3000
G1 X0.2409 Y1.9346 Z-0.3000
G1 X0.2386 Y1.9272 Z-0.3000
G1 X0.2364 Y1.9202 Z-0.3000
G1 X0.2345 Y1.9138 Z-0.3000
G1 X0.2268 Y1.8868 Z-0.3000
G1 X0.2232 Y1.8736 Z-0.3000
G1 X0.2215 Y1.8668 Z-0.3000
G1 X0.2196 Y1.8597 Z-0.3000
G1 X0.2195 Y1.8597 Z-0.3000
G1 X0.2182 Y1.8543 Z-0.3000
G1 X0.2162 Y1.8462 Z-0.3000
G1 X0.2147 Y1.8402 Z-0.3000
G1 X0.2113 Y1.8260 Z-0.3000
G1 X0.2112 Y1.8260 Z-0.3000
G1 X0.2098 Y1.8199 Z-0.3000
G1 X0.2099 Y1.8199 Z-0.3000
G1 X0.2035 Y1.7915 Z-0.3000
G1 X0.2007 Y1.7781 Z-0.3000
G1 X0.1993 Y1.7709 Z-0.3000
G1 X0.1978 Y1.7638 Z-0.3000
G1 X0.1977 Y1.7638 Z-0.3000
G1 X0.1951 Y1.7504 Z-0.3000
G1 X0.1938 Y1.7432 Z-0.3000
G1 X0.1924 Y1.7361 Z-0.3000
G1 X0.1913 Y1.7297 Z-0.3000
G1 X0.1900 Y1.7226 Z-0.3000
G1 X0.1899 Y1.7226 Z-0.3000
G1 X0.1888 Y1.7154 Z-0.3000
G1 X0.1875 Y1.7083 Z-0.3000
G1 X0.1874 Y1.7083 Z-0.3000
G1 X0.1852 Y1.6948 Z-0.3000
G1 X0.1840 Y1.6877 Z-0.3000
G1 X0.1829 Y1.6806 Z-0.3000
G1 X0.1819 Y1.6743 Z-0.3000
G1 X0.1797 Y1.6599 Z-0.3000
G1 X0.1787 Y1.6525 Z-0.3000
G1 X0.1776 Y1.6454 Z-0.3000
G1 X0.1747 Y1.6248 Z-0.3000
G1 X0.1738 Y1.6177 Z-0.3000
G1 X0.1728 Y1.6104 Z-0.3000
G1 X0.1702 Y1.5895 Z-0.3000
G1 X0.1694 Y1.5823 Z-0.3000
G1 X0.1685 Y1.5751 Z-0.3000
G1 X0.1678 Y1.5688 Z-0.3000
G1 X0.1670 Y1.5615 Z-0.3000
G1 X0.1662 Y1.5543 Z-0.3000
G1 X0.1655 Y1.5472 Z-0.3000
G1 X0.1647 Y1.5399 Z-0.3000
G1 X0.1634 Y1.5263 Z-0.3000
G1 X0.1627 Y1.5190 Z-0.3000
G1 X0.1621 Y1.5118 Z-0.3000
G1 X0.1614 Y1.5046 Z-0.3000
G1 X0.1609 Y1.4981 Z-0.3000
G1 X0.1603 Y1.4909 Z-0.3000
G1 X0.1597 Y1.4836 Z-0.3000
G1 X0.1585 Y1.4692 Z-0.3000
G1 X0.1584 Y1.4692 Z-0.3000
G1 X0.1580 Y1.4628 Z-0.3000
G1 X0.1581 Y1.4628 Z-0.3000
G1 X0.1575 Y1.4555 Z-0.3000
G1 X0.1570 Y1.4483 Z-0.3000
G1 X0.1571 Y1.4483 Z-0.3000
G1 X0.1565 Y1.4410 Z-0.3000
G1 X0.1561 Y1.4347 Z-0.3000
G1 X0.1557 Y1.4273 Z-0.3000
G1 X0.1553 Y1.4193 Z-0.3000
G1 X0.1548 Y1.4120 Z-0.3000
G1 X0.1547 Y1.4120 Z-0.3000
G1 X0.1545 Y1.4057 Z-0.3000
G1 X0.1541 Y1.3983 Z-0.3000
G1 X0.1537 Y1.3911 Z-0.3000
G1 X0.1534 Y1.3839 Z-0.3000
G1 X0.1530 Y1.3766 Z-0.3000
G1 X0.1527 Y1.3711 Z-0.3000
G1 X0.1528 Y1.3711 Z-0.3000
G1 X0.1525 Y1.3629 Z-0.3000
G1 X0.1522 Y1.3556 Z-0.3000
G1 X0.1519 Y1.3493 Z-0.3000
G1 X0.1520 Y1.3493 Z-0.3000
G1 X0.1518 Y1.3420 Z-0.3000
G1 X0.1516 Y1.3348 Z-0.3000
G1 X0.1512 Y1.3202 Z-0.3000
G1 X0.1510 Y1.3130 Z-0.3000
G1 X0.1508 Y1.3057 Z-0.3000
G1 X0.1507 Y1.2992 Z-0.3000
G1 X0.1506 Y1.2920 Z-0.3000
G1 X0.1504 Y1.2774 Z-0.3000
G1 X0.1503 Y1.2711 Z-0.3000
G1 X0.1503 Y1.2629 Z-0.3000
G1 X0.1502 Y1.2565 Z-0.3000
G1 X0.1502 Y1.2356 Z-0.3000
G1 X0.1503 Y1.2275 Z-0.3000
G1 X0.1503 Y1.2211 Z-0.3000
G1 X0.1505 Y1.2065 Z-0.3000
G1 X0.1506 Y1.1993 Z-0.3000
G1 X0.1508 Y1.1855 Z-0.3000
G1 X0.1510 Y1.1775 Z-0.3000
G1 X0.1511 Y1.1710 Z-0.3000
G1 X0.1513 Y1.1637 Z-0.3000
G1 X0.1515 Y1.1565 Z-0.3000
G1 X0.1517 Y1.1492 Z-0.3000
G1 X0.1516 Y1.1492 Z-0.3000
G1 X0.1520 Y1.1420 Z-0.3000
G1 X0.1522 Y1.1347 Z-0.3000
G1 X0.1521 Y1.1347 Z-0.3000
G1 X0.1524 Y1.1283 Z-0.3000
G1 X0.1527 Y1.1211 Z-0.3000
G1 X0.1533 Y1.1065 Z-0.3000
G1 X0.1536 Y1.1001 Z-0.3000
G1 X0.1540 Y1.0929 Z-0.3000
G1 X0.1548 Y1.0784 Z-0.3000
G1 X0.1560 Y1.0565 Z-0.3000
G1 X0.1565 Y1.0502 Z-0.3000
G1 X0.1570 Y1.0429 Z-0.3000
G1 X0.1569 Y1.0429 Z-0.3000
G1 X0.1575 Y1.0357 Z-0.3000
G1 X0.1580 Y1.0284 Z-0.3000
G1 X0.1579 Y1.0284 Z-0.3000
G1 X0.1583 Y1.0220 Z-0.3000
G1 X0.1584 Y1.0220 Z-0.3000
G1 X0.1590 Y1.0139 Z-0.3000
G1 X0.1594 Y1.0075 Z-0.3000
G1 X0.1595 Y1.0075 Z-0.3000
G1 X0.1601 Y1.0003 Z-0.3000
G1 X0.1612 Y0.9867 Z-0.3000
G1 X0.1620 Y0.9786 Z-0.3000
G1 X0.1625 Y0.9722 Z-0.3000
G1 X0.1632 Y0.9650 Z-0.3000
G1 X0.1639 Y0.9577 Z-0.3000
G1 X0.1652 Y0.9441 Z-0.3000
G1 X0.1660 Y0.9369 Z-0.3000
G1 X0.1676 Y0.9224 Z-0.3000
G1 X0.1699 Y0.9017 Z-0.3000
G1 X0.1734 Y0.8737 Z-0.3000
G1 X0.1745 Y0.8657 Z-0.3000
G1 X0.1753 Y0.8592 Z-0.3000
G1 X0.1763 Y0.8521 Z-0.3000
G1 X0.1782 Y0.8385 Z-0.3000
G1 X0.1805 Y0.8233 Z-0.3000
G1 X0.1815 Y0.8161 Z-0.3000
G1 X0.1826 Y0.8097 Z-0.3000
G1 X0.1837 Y0.8027 Z-0.3000
G1 X0.1848 Y0.7956 Z-0.3000
G1 X0.1847 Y0.7956 Z-0.3000
G1 X0.1880 Y0.7757 Z-0.3000
G1 X0.1881 Y0.7757 Z-0.3000
G1 X0.1895 Y0.7676 Z-0.3000
G1 X0.1905 Y0.7614 Z-0.3000
G1 X0.1906 Y0.7614 Z-0.3000
G1 X0.1919 Y0.7541 Z-0.3000
G1 X0.1930 Y0.7479 Z-0.3000
G1 X0.1946 Y0.7398 Z-0.3000
G1 X0.1957 Y0.7336 Z-0.3000
G1 X0.1986 Y0.7192 Z-0.3000
G1 X0.1998 Y0.7130 Z-0.3000
G1 X0.2071 Y0.6783 Z-0.3000
G1 X0.2101 Y0.6650 Z-0.3000
G1 X0.2118 Y0.6579 Z-0.3000
G1 X0.2136 Y0.6509 Z-0.3000
G1 X0.2151 Y0.6446 Z-0.3000
G1 X0.2166 Y0.6385 Z-0.3000
G1 X0.2187 Y0.6307 Z-0.3000
G1 X0.2203 Y0.6243 Z-0.3000
G1 X0.2204 Y0.6243 Z-0.3000
G1 X0.2222 Y0.6174 Z-0.3000
G1 X0.2258 Y0.6042 Z-0.3000
G1 X0.2301 Y0.5892 Z-0.3000
G1 X0.2315 Y0.5839 Z-0.3000
G1 X0.2337 Y0.5763 Z-0.3000
G1 X0.2358 Y0.5692 Z-0.3000
G1 X0.2376 Y0.5630 Z-0.3000
G1 X0.2399 Y0.5552 Z-0.3000
G1 X0.2417 Y0.5490 Z-0.3000
G1 X0.2437 Y0.5422 Z-0.3000
G1 X0.2459 Y0.5351 Z-0.3000
G1 X0.2501 Y0.5211 Z-0.3000
G1 X0.2500 Y0.5211 Z-0.3000
G1 X0.2523 Y0.5142 Z-0.3000
G1 X0.2544 Y0.5072 Z-0.3000
G1 X0.2543 Y0.5072 Z-0.3000
G1 X0.2563 Y0.5010 Z-0.3000
G1 X0.2584 Y0.4943 Z-0.3000
G1 X0.2607 Y0.4871 Z-0.3000
G1 X0.2626 Y0.4812 Z-0.3000
G1 X0.2651 Y0.4735 Z-0.3000
G1 X0.2671 Y0.4674 Z-0.3000
G1 X0.2717 Y0.4536 Z-0.3000
G1 X0.2741 Y0.4467 Z-0.3000
G1 X0.2764 Y0.4398 Z-0.3000
G1 X0.2763 Y0.4398 Z-0.3000
G1 X0.2781 Y0.4347 Z-0.3000
G1 X0.2782 Y0.4347 Z-0.3000
G1 X0.2810 Y0.4268 Z-0.3000
G1 X0.2828 Y0.4217 Z-0.3000
G1 X0.2873 Y0.4099 Z-0.3000
G1 X0.2901 Y0.4032 Z-0.3000
G1 X0.2900 Y0.4032 Z-0.3000
G1 X0.2908 Y0.4015 Z-0.3000
G1 X0.2915 Y0.4002 Z-0.3000
G1 X0.2945 Y0.3962 Z-0.3000
G1 X0.2992 Y0.3895 Z-0.3000
G1 X0.3031 Y0.3837 Z-0.3000
G1 X0.3076 Y0.3770 Z-0.3000
G1 X0.3112 Y0.3714 Z-0.3000
G1 X0.3158 Y0.3644 Z-0.3000
G1 X0.3193 Y0.3588 Z-0.3000
G1 X0.3234 Y0.3525 Z-0.3000
G1 X0.3268 Y0.3472 Z-0.3000
G1 X0.3307 Y0.3412 Z-0.3000
G1 X0.3329 Y0.3379 Z-0.3000
G1 X0.3360 Y0.3336 Z-0.3000
G1 X0.3399 Y0.3285 Z-0.3000
G1 X0.3424 Y0.3256 Z-0.3000
G1 X0.3443 Y0.3235 Z-0.3000
G1 X0.3469 Y0.3211 Z-0.3000
G1 X0.3496 Y0.3189 Z-0.3000
G1 X0.3505 Y0.3183 Z-0.3000
G1 X0.3520 Y0.3175 Z-0.3000
G1 X0.3529 Y0.3171 Z-0.3000
G1 X0.3540 Y0.3167 Z-0.3000
G1 X0.3571 Y0.3159 Z-0.3000
G1 X0.3587 Y0.3157 Z-0.3000
G1 X0.3641 Y0.3150 Z-0.3000
G1 X0.3663 Y0.3149 Z-0.3000
G1 X0.3719 Y0.3148 Z-0.3000
G1 X0.3731 Y0.3149 Z-0.3000
G1 X0.3751 Y0.3151 Z-0.3000
G1 X0.3793 Y0.3159 Z-0.3000
G1 X0.3822 Y0.3168 Z-0.3000
G1 X0.3851 Y0.3178 Z-0.3000
G1 X0.3896 Y0.3196 Z-0.3000
G1 X0.3923 Y0.3208 Z-0.3000
G1 X0.3965 Y0.3231 Z-0.3000
G1 X0.3988 Y0.3245 Z-0.3000
G1 X0.4036 Y0.3277 Z-0.3000
G1 X0.4063 Y0.3297 Z-0.3000
G1 X0.4091 Y0.3321 Z-0.3000
G1 X0.4140 Y0.3366 Z-0.3000
G1 X0.4149 Y0.3375 Z-0.3000
G1 X0.4171 Y0.3401 Z-0.3000
G1 X0.4187 Y0.3422 Z-0.3000
G1 X0.4217 Y0.3469 Z-0.3000
G1 X0.4302 Y0.3614 Z-0.3000
G1 X0.4283 Y1.2583 Z-0.3000
G1 X0.4283 Y1.3010 Z-0.3000
G1 X0.4282 Y1.3091 Z-0.3000
G1 X0.4282 Y1.3518 Z-0.3000
G1 X0.4281 Y1.3599 Z-0.3000
G1 X0.4281 Y1.3953 Z-0.3000
G1 X0.4280 Y1.4035 Z-0.3000
G1 X0.4280 Y1.4388 Z-0.3000
G1 X0.4279 Y1.4470 Z-0.3000
G1 X0.4279 Y1.4896 Z-0.3000
G1 X0.4278 Y1.4978 Z-0.3000
G1 X0.4278 Y1.5331 Z-0.3000
G1 X0.4277 Y1.5413 Z-0.3000
G1 X0.4277 Y1.5694 Z-0.3000
G1 X0.4276 Y1.5776 Z-0.3000
G1 X0.4276 Y1.6129 Z-0.3000
G1 X0.4275 Y1.6211 Z-0.3000
G1 X0.4275 Y1.6492 Z-0.3000
G1 X0.4274 Y1.6574 Z-0.3000
G1 X0.4274 Y1.6854 Z-0.3000
G1 X0.4273 Y1.6936 Z-0.3000
G1 X0.4273 Y1.7145 Z-0.3000
G1 X0.4272 Y1.7226 Z-0.3000
G1 X0.4272 Y1.7435 Z-0.3000
G1 X0.4271 Y1.7516 Z-0.3000
G1 X0.4271 Y1.7725 Z-0.3000
G1 X0.4270 Y1.7807 Z-0.3000
G1 X0.4270 Y1.7943 Z-0.3000
G1 X0.4269 Y1.8024 Z-0.3000
G1 X0.4269 Y1.8233 Z-0.3000
G1 X0.4268 Y1.8314 Z-0.3000
G1 X0.4268 Y1.8450 Z-0.3000
G1 X0.4267 Y1.8532 Z-0.3000
G1 X0.4267 Y1.8596 Z-0.3000
G1 X0.4266 Y1.8677 Z-0.3000
G1 X0.4266 Y1.8813 Z-0.3000
G1 X0.4265 Y1.8895 Z-0.3000
G1 X0.4265 Y1.8958 Z-0.3000
G1 X0.4264 Y1.9040 Z-0.3000
G1 X0.4264 Y1.9103 Z-0.3000
G1 X0.4263 Y1.9185 Z-0.3000
G1 X0.4263 Y1.9249 Z-0.3000
G1 X0.4262 Y1.9330 Z-0.3000
G1 X0.4262 Y1.9394 Z-0.3000
G1 X0.4261 Y1.9475 Z-0.3000
G1 X0.4261 Y1.9538 Z-0.3000
G1 X0.4259 Y1.9693 Z-0.3000
G1 X0.4259 Y1.9756 Z-0.3000
G1 X0.4258 Y1.9829 Z-0.3000
G1 X0.4257 Y1.9910 Z-0.3000
G1 X0.4257 Y1.9974 Z-0.3000
G1 X0.4256 Y2.0046 Z-0.3000
G1 X0.4255 Y2.0119 Z-0.3000
G1 X0.4254 Y2.0191 Z-0.3000
G1 X0.4252 Y2.0337 Z-0.3000
G1 X0.4251 Y2.0409 Z-0.3000
G1 X0.4250 Y2.0482 Z-0.3000
G1 X0.4249 Y2.0546 Z-0.3000
G1 X0.4247 Y2.0627 Z-0.3000
G1 X0.4246 Y2.0691 Z-0.3000
G1 X0.4244 Y2.0772 Z-0.3000
G1 X0.4243 Y2.0836 Z-0.3000
G1 X0.4241 Y2.0909 Z-0.3000
G1 X0.4239 Y2.0981 Z-0.3000
G1 X0.4237 Y2.1054 Z-0.3000
G1 X0.4238 Y2.1054 Z-0.3000
G1 X0.4234 Y2.1126 Z-0.3000
G1 X0.4232 Y2.1193 Z-0.3000
G1 X0.4229 Y2.1262 Z-0.3000
G1 X0.4226 Y2.1326 Z-0.3000
G1 X0.4222 Y2.1398 Z-0.3000
G1 X0.4219 Y2.1454 Z-0.3000
G1 X0.4218 Y2.1454 Z-0.3000
G1 X0.4213 Y2.1518 Z-0.3000
G1 X0.4209 Y2.1564 Z-0.3000
G1 X0.4206 Y2.1588 Z-0.3000
G1 X0.4185 Y2.1612 Z-0.3000
G1 X0.4149 Y2.1650 Z-0.3000
G1 X0.4125 Y2.1675 Z-0.3000
G1 X0.4088 Y2.1710 Z-0.3000
G1 X0.4046 Y2.1747 Z-0.3000
G1 X0.4035 Y2.1756 Z-0.3000
G1 X0.4023 Y2.1764 Z-0.3000
G1 X0.4016 Y2.1768 Z-0.3000
G1 X0.4015 Y2.1768 Z-0.3000
G1 X0.3971 Y2.1782 Z-0.3000
G1 X0.3936 Y2.1790 Z-0.3000
G1 X0.3899 Y2.1798 Z-0.3000
G1 X0.3861 Y2.1804 Z-0.3000
G1 X0.3861 Y2.1803 Z-0.3000
G1 X0.3798 Y2.1811 Z-0.3000
G1 X0.3741 Y2.1817 Z-0.3000
G1 X0.3696 Y2.1821 Z-0.3000
G1 X0.3696 Y2.1820 Z-0.3000
G1 X0.3571 Y2.1828 Z-0.3000
G1 X0.3514 Y2.1750 Z-0.3000
G1 X0.3475 Y2.1696 Z-0.3000
G1 X0.3446 Y2.1653 Z-0.3000
G1 X0.3409 Y2.1597 Z-0.3000
G1 X0.3349 Y2.1503 Z-0.3000
G1 X0.3350 Y2.1503 Z-0.3000
G1 Z-0.4000 F50
G1 X0.3313 Y2.1441 Z-0.4000 F100
G1 X0.3280 Y2.1385 Z-0.4000
G1 X0.3220 Y2.1278 Z-0.4000
G1 X0.3186 Y2.1215 Z-0.4000
G1 X0.3154 Y2.1155 Z-0.4000
G1 X0.3123 Y2.1095 Z-0.4000
G1 X0.3093 Y2.1035 Z-0.4000
G1 X0.3060 Y2.0971 Z-0.4000
G1 X0.3059 Y2.0971 Z-0.4000
G1 X0.3037 Y2.0924 Z-0.4000
G1 X0.3004 Y2.0856 Z-0.4000
G1 X0.2975 Y2.0795 Z-0.4000
G1 X0.2951 Y2.0744 Z-0.4000
G1 X0.2920 Y2.0675 Z-0.4000
G1 X0.2890 Y2.0609 Z-0.4000
G1 X0.2863 Y2.0548 Z-0.4000
G1 X0.2862 Y2.0548 Z-0.4000
G1 X0.2835 Y2.0486 Z-0.4000
G1 X0.2809 Y2.0424 Z-0.4000
G1 X0.2781 Y2.0359 Z-0.4000
G1 X0.2756 Y2.0298 Z-0.4000
G1 X0.2755 Y2.0298 Z-0.4000
G1 X0.2708 Y2.0181 Z-0.4000
G1 X0.2679 Y2.0106 Z-0.4000
G1 X0.2652 Y2.0039 Z-0.4000
G1 X0.2651 Y2.0039 Z-0.4000
G1 X0.2630 Y1.9981 Z-0.4000
G1 X0.2604 Y1.9914 Z-0.4000
G1 X0.2583 Y1.9854 Z-0.4000
G1 X0.2558 Y1.9787 Z-0.4000
G1 X0.2536 Y1.9727 Z-0.4000
G1 X0.2513 Y1.9662 Z-0.4000
G1 X0.2473 Y1.9542 Z-0.4000
G1 X0.2449 Y1.9468 Z-0.4000
G1 X0.2426 Y1.9399 Z-0.4000
G1 X0.2409 Y1.9346 Z-0.4000
G1 X0.2386 Y1.9272 Z-0.4000
G1 X0.2364 Y1.9202 Z-0.4000
G1 X0.2345 Y1.9138 Z-0.4000
G1 X0.2268 Y1.8868 Z-0.4000
G1 X0.2232 Y1.8736 Z-0.4000
G1 X0.2215 Y1.8668 Z-0.4000
G1 X0.2196 Y1.8597 Z-0.4000
G1 X0.2195 Y1.8597 Z-0.4000
G1 X0.2182 Y1.8543 Z-0.4000
G1 X0.2162 Y1.8462 Z-0.4000
G1 X0.2147 Y1.8402 Z-0.4000
G1 X0.2113 Y1.8260 Z-0.4000
G1 X0.2112 Y1.8260 Z-0.4000
G1 X0.2098 Y1.8199 Z-0.4000
G1 X0.2099 Y1.8199 Z-0.4000
G1 X0.2035 Y1.7915 Z-0.4000
G1 X0.2007 Y1.7781 Z-0.4000
G1 X0.1993 Y1.7709 Z-0.4000
G1 X0.1978 Y1.7638 Z-0.4000
G1 X0.1977 Y1.7638 Z-0.4000
G1 X0.1951 Y1.7504 Z-0.4000
G1 X0.1938 Y1.7432 Z-0.4000
G1 X0.1924 Y1.7361 Z-0.4000
G1 X0.1913 Y1.7297 Z-0.4000
G1 X0.1900 Y1.7226 Z-0.4000
G1 X0.1899 Y1.7226 Z-0.4000
G1 X0.1888 Y1.7154 Z-0.4000
G1 X0.1875 Y1.7083 Z-0.4000
G1 X0.1874 Y1.7083 Z-0.4000
G1 X0.1852 Y1.6948 Z-0.4000
G1 X0.1840 Y1.6877 Z-0.4000
G1 X0.1829 Y1.6806 Z-0.4000
G1 X0.1819 Y1.6743 Z-0.4000
G1 X0.1797 Y1.6599 Z-0.4000
G1 X0.1787 Y1.6525 Z-0.4000
G1 X0.1776 Y1.6454 Z-0.4000
G1 X0.1747 Y1.6248 Z-0.4000
G1 X0.1738 Y1.6177 Z-0.4000
G1 X0.1728 Y1.6104 Z-0.4000
G1 X0.1702 Y1.5895 Z-0.4000
G1 X0.1694 Y1.5823 Z-0.4000
G1 X0.1685 Y1.5751 Z-0.4000
G1 X0.1678 Y1.5688 Z-0.4000
G1 X0.1670 Y1.5615 Z-0.4000
G1 X0.1662 Y1.5543 Z-0.4000
G1 X0.1655 Y1.5472 Z-0.4000
G1 X0.1647 Y1.5399 Z-0.4000
G1 X0.1634 Y1.5263 Z-0.4000
G1 X0.1627 Y1.5190 Z-0.4000
G1 X0.1621 Y1.5118 Z-0.4000
G1 X0.1614 Y1.5046 Z-0.4000
G1 X0.1609 Y1.4981 Z-0.4000
G1 X0.1603 Y1.4909 Z-0.4000
G1 X0.1597 Y1.4836 Z-0.4000
G1 X0.1585 Y1.4692 Z-0.4000
G1 X0.1584 Y1.4692 Z-0.4000
G1 X0.1580 Y1.4628 Z-0.4000
G1 X0.1581 Y1.4628 Z-0.4000
G1 X0.1575 Y1.4555 Z-0.4000
G1 X0.1570 Y1.4483 Z-0.4000
G1 X0.1571 Y1.4483 Z-0.4000
G1 X0.1565 Y1.4410 Z-0.4000
G1 X0.1561 Y1.4347 Z-0.4000
G1 X0.1557 Y1.4273 Z-0.4000
G1 X0.1553 Y1.4193 Z-0.4000
G1 X0.1548 Y1.4120 Z-0.4000
G1 X0.1547 Y1.4120 Z-0.4000
G1 X0.1545 Y1.4057 Z-0.4000
G1 X0.1541 Y1.3983 Z-0.4000
G1 X0.1537 Y1.3911 Z-0.4000
G1 X0.1534 Y1.3839 Z-0.4000
G1 X0.1530 Y1.3766 Z-0.4000
G1 X0.1527 Y1.3711 Z-0.4000
G1 X0.1528 Y1.3711 Z-0.4000
G1 X0.1525 Y1.3629 Z-0.4000
G1 X0.1522 Y1.3556 Z-0.4000
G1 X0.1519 Y1.3493 Z-0.4000
G1 X0.1520 Y1.3493 Z-0.4000
G1 X0.1518 Y1.3420 Z-0.4000
G1 X0.1516 Y1.3348 Z-0.4000
G1 X0.1512 Y1.3202 Z-0.4000
G1 X0.1510 Y1.3130 Z-0.4000
G1 X0.1508 Y1.3057 Z-0.4000
G1 X0.1507 Y1.2992 Z-0.4000
G1 X0.1506 Y1.2920 Z-0.4000
G1 X0.1504 Y1.2774 Z-0.4000
G1 X0.1503 Y1.2711 Z-0.4000
G1 X0.1503 Y1.2629 Z-0.4000
G1 X0.1502 Y1.2565 Z-0.4000
G1 X0.1502 Y1.2356 Z-0.4000
G1 X0.1503 Y1.2275 Z-0.4000
G1 X0.1503 Y1.2211 Z-0.4000
G1 X0.1505 Y1.2065 Z-0.4000
G1 X0.1506 Y1.1993 Z-0.4000
G1 X0.1508 Y1.1855 Z-0.4000
G1 X0.1510 Y1.1775 Z-0.4000
G1 X0.1511 Y1.1710 Z-0.4000
G1 X0.1513 Y1.1637 Z-0.4000
G1 X0.1515 Y1.1565 Z-0.4000
G1 X0.1517 Y1.1492 Z-0.4000
G1 X0.1516 Y1.1492 Z-0.4000
G1 X0.1520 Y1.1420 Z-0.4000
G1 X0.1522 Y1.1347 Z-0.4000
G1 X0.1521 Y1.1347 Z-0.4000
G1 X0.1524 Y1.1283 Z-0.4000
G1 X0.1527 Y1.1211 Z-0.4000
G1 X0.1533 Y1.1065 Z-0.4000
G1 X0.1536 Y1.1001 Z-0.4000
G1 X0.1540 Y1.0929 Z-0.4000
G1 X0.1548 Y1.0784 Z-0.4000
G1 X0.1560 Y1.0565 Z-0.4000
G1 X0.1565 Y1.0502 Z-0.4000
G1 X0.1570 Y1.0429 Z-0.4000
G1 X0.1569 Y1.0429 Z-0.4000
G1 X0.1575 Y1.0357 Z-0.4000
G1 X0.1580 Y1.0284 Z-0.4000
G1 X0.1579 Y1.0284 Z-0.4000
G1 X0.1583 Y1.0220 Z-0.4000
G1 X0.1584 Y1.0220 Z-0.4000
G1 X0.1590 Y1.0139 Z-0.4000
G1 X0.1594 Y1.0075 Z-0.4000
G1 X0.1595 Y1.0075 Z-0.4000
G1 X0.1601 Y1.0003 Z-0.4000
G1 X0.1612 Y0.9867 Z-0.4000
G1 X0.1620 Y0.9786 Z-0.4000
G1 X0.1625 Y0.9722 Z-0.4000
G1 X0.1632 Y0.9650 Z-0.4000
G1 X0.1639 Y0.9577 Z-0.4000
G1 X0.1652 Y0.9441 Z-0.4000
G1 X0.1660 Y0.9369 Z-0.4000
G1 X0.1676 Y0.9224 Z-0.4000
G1 X0.1699 Y0.9017 Z-0.4000
G1 X0.1734 Y0.8737 Z-0.4000
G1 X0.1745 Y0.8657 Z-0.4000
G1 X0.1753 Y0.8592 Z-0.4000
G1 X0.1763 Y0.8521 Z-0.4000
G1 X0.1782 Y0.8385 Z-0.4000
G1 X0.1805 Y0.8233 Z-0.4000
G1 X0.1815 Y0.8161 Z-0.4000
G1 X0.1826 Y0.8097 Z-0.4000
G1 X0.1837 Y0.8027 Z-0.4000
G1 X0.1848 Y0.7956 Z-0.4000
G1 X0.1847 Y0.7956 Z-0.4000
G1 X0.1880 Y0.7757 Z-0.4000
G1 X0.1881 Y0.7757 Z-0.4000
G1 X0.1895 Y0.7676 Z-0.4000
G1 X0.1905 Y0.7614 Z-0.4000
G1 X0.1906 Y0.7614 Z-0.4000
G1 X0.1919 Y0.7541 Z-0.4000
G1 X0.1930 Y0.7479 Z-0.4000
G1 X0.1946 Y0.7398 Z-0.4000
G1 X0.1957 Y0.7336 Z-0.4000
G1 X0.1986 Y0.7192 Z-0.4000
G1 X0.1998 Y0.7130 Z-0.4000
G1 X0.2071 Y0.6783 Z-0.4000
G1 X0.2101 Y0.6650 Z-0.4000
G1 X0.2118 Y0.6579 Z-0.4000
G1 X0.2136 Y0.6509 Z-0.4000
G1 X0.2151 Y0.6446 Z-0.4000
G1 X0.2166 Y0.6385 Z-0.4000
G1 X0.2187 Y0.6307 Z-0.4000
G1 X0.2203 Y0.6243 Z-0.4000
G1 X0.2204 Y0.6243 Z-0.4000
G1 X0.2222 Y0.6174 Z-0.4000
G1 X0.2258 Y0.6042 Z-0.4000
G1 X0.2301 Y0.5892 Z-0.4000
G1 X0.2315 Y0.5839 Z-0.4000
G1 X0.2337 Y0.5763 Z-0.4000
G1 X0.2358 Y0.5692 Z-0.4000
G1 X0.2376 Y0.5630 Z-0.4000
G1 X0.2399 Y0.5552 Z-0.4000
G1 X0.2417 Y0.5490 Z-0.4000
G1 X0.2437 Y0.5422 Z-0.4000
G1 X0.2459 Y0.5351 Z-0.4000
G1 X0.2501 Y0.5211 Z-0.4000
G1 X0.2500 Y0.5211 Z-0.4000
G1 X0.2523 Y0.5142 Z-0.4000
G1 X0.2544 Y0.5072 Z-0.4000
G1 X0.2543 Y0.5072 Z-0.4000
G1 X0.2563 Y0.5010 Z-0.4000
G1 X0.2584 Y0.4943 Z-0.4000
G1 X0.2607 Y0.4871 Z-0.4000
G1 X0.2626 Y0.4812 Z-0.4000
G1 X0.2651 Y0.4735 Z-0.4000
G1 X0.2671 Y0.4674 Z-0.4000
G1 X0.2717 Y0.4536 Z-0.4000
G1 X0.2741 Y0.4467 Z-0.4000
G1 X0.2764 Y0.4398 Z-0.4000
G1 X0.2763 Y0.4398 Z-0.4000
G1 X0.2781 Y0.4347 Z-0.4000
G1 X0.2782 Y0.4347 Z-0.4000
G1 X0.2810 Y0.4268 Z-0.4000
G1 X0.2828 Y0.4217 Z-0.4000
G1 X0.2873 Y0.4099 Z-0.4000
G1 X0.2901 Y0.4032 Z-0.4000
G1 X0.2900 Y0.4032 Z-0.4000
G1 X0.2908 Y0.4015 Z-0.4000
G1 X0.2915 Y0.4002 Z-0.4000
G1 X0.2945 Y0.3962 Z-0.4000
G1 X0.2992 Y0.3895 Z-0.4000
G1 X0.3031 Y0.3837 Z-0.4000
G1 X0.3076 Y0.3770 Z-0.4000
G1 X0.3112 Y0.3714 Z-0.4000
G1 X0.3158 Y0.3644 Z-0.4000
G1 X0.3193 Y0.3588 Z-0.4000
G1 X0.3234 Y0.3525 Z-0.4000
G1 X0.3268 Y0.3472 Z-0.4000
G1 X0.3307 Y0.3412 Z-0.4000
G1 X0.3329 Y0.3379 Z-0.4000
G1 X0.3360 Y0.3336 Z-0.4000
G1 X0.3399 Y0.3285 Z-0.4000
G1 X0.3424 Y0.3256 Z-0.4000
G1 X0.3443 Y0.3235 Z-0.4000
G1 X0.3469 Y0.3211 Z-0.4000
G1 X0.3496 Y0.3189 Z-0.4000
G1 X0.3505 Y0.3183 Z-0.4000
G1 X0.3520 Y0.3175 Z-0.4000
G1 X0.3529 Y0.3171 Z-0.4000
G1 X0.3540 Y0.3167 Z-0.4000
G1 X0.3571 Y0.3159 Z-0.4000
G1 X0.3587 Y0.3157 Z-0.4000
G1 X0.3641 Y0.3150 Z-0.4000
G1 X0.3663 Y0.3149 Z-0.4000
G1 X0.3719 Y0.3148 Z-0.4000
G1 X0.3731 Y0.3149 Z-0.4000
G1 X0.3751 Y0.3151 Z-0.4000
G1 X0.3793 Y0.3159 Z-0.4000
G1 X0.3822 Y0.3168 Z-0.4000
G1 X0.3851 Y0.3178 Z-0.4000
G1 X0.3896 Y0.3196 Z-0.4000
G1 X0.3923 Y0.3208 Z-0.4000
G1 X0.3965 Y0.3231 Z-0.4000
G1 X0.3988 Y0.3245 Z-0.4000
G1 X0.4036 Y0.3277 Z-0.4000
G1 X0.4063 Y0.3297 Z-0.4000
G1 X0.4091 Y0.3321 Z-0.4000
G1 X0.4140 Y0.3366 Z-0.4000
G1 X0.4149 Y0.3375 Z-0.4000
G1 X0.4171 Y0.3401 Z-0.4000
G1 X0.4187 Y0.3422 Z-0.4000
G1 X0.4217 Y0.3469 Z-0.4000
G1 X0.4302 Y0.3614 Z-0.4000
G1 X0.4283 Y1.2583 Z-0.4000
G1 X0.4283 Y1.3010 Z-0.4000
G1 X0.4282 Y1.3091 Z-0.4000
G1 X0.4282 Y1.3518 Z-0.4000
G1 X0.4281 Y1.3599 Z-0.4000
G1 X0.4281 Y1.3953 Z-0.4000
G1 X0.4280 Y1.4035 Z-0.4000
G1 X0.4280 Y1.4388 Z-0.4000
G1 X0.4279 Y1.4470 Z-0.4000
G1 X0.4279 Y1.4896 Z-0.4000
G1 X0.4278 Y1.4978 Z-0.4000
G1 X0.4278 Y1.5331 Z-0.4000
G1 X0.4277 Y1.5413 Z-0.4000
G1 X0.4277 Y1.5694 Z-0.4000
G1 X0.4276 Y1.5776 Z-0.4000
G1 X0.4276 Y1.6129 Z-0.4000
G1 X0.4275 Y1.6211 Z-0.4000
G1 X0.4275 Y1.6492 Z-0.4000
G1 X0.4274 Y1.6574 Z-0.4000
G1 X0.4274 Y1.6854 Z-0.4000
G1 X0.4273 Y1.6936 Z-0.4000
G1 X0.4273 Y1.7145 Z-0.4000
G1 X0.4272 Y1.7226 Z-0.4000
G1 X0.4272 Y1.7435 Z-0.4000
G1 X0.4271 Y1.7516 Z-0.4000
G1 X0.4271 Y1.7725 Z-0.4000
G1 X0.4270 Y1.7807 Z-0.4000
G1 X0.4270 Y1.7943 Z-0.4000
G1 X0.4269 Y1.8024 Z-0.4000
G1 X0.4269 Y1.8233 Z-0.4000
G1 X0.4268 Y1.8314 Z-0.4000
G1 X0.4268 Y1.8450 Z-0.4000
G1 X0.4267 Y1.8532 Z-0.4000
G1 X0.4267 Y1.8596 Z-0.4000
G1 X0.4266 Y1.8677 Z-0.4000
G1 X0.4266 Y1.8813 Z-0.4000
G1 X0.4265 Y1.8895 Z-0.4000
G1 X0.4265 Y1.8958 Z-0.4000
G1 X0.4264 Y1.9040 Z-0.4000
G1 X0.4264 Y1.9103 Z-0.4000
G1 X0.4263 Y1.9185 Z-0.4000
G1 X0.4263 Y1.9249 Z-0.4000
G1 X0.4262 Y1.9330 Z-0.4000
G1 X0.4262 Y1.9394 Z-0.4000
G1 X0.4261 Y1.9475 Z-0.4000
G1 X0.4261 Y1.9538 Z-0.4000
G1 X0.4259 Y1.9693 Z-0.4000
G1 X0.4259 Y1.9756 Z-0.4000
G1 X0.4258 Y1.9829 Z-0.4000
G1 X0.4257 Y1.9910 Z-0.4000
G1 X0.4257 Y1.9974 Z-0.4000
G1 X0.4256 Y2.0046 Z-0.4000
G1 X0.4255 Y2.0119 Z-0.4000
G1 X0.4254 Y2.0191 Z-0.4000
G1 X0.4252 Y2.0337 Z-0.4000
G1 X0.4251 Y2.0409 Z-0.4000
G1 X0.4250 Y2.0482 Z-0.4000
G1 X0.4249 Y2.0546 Z-0.4000
G1 X0.4247 Y2.0627 Z-0.4000
G1 X0.4246 Y2.0691 Z-0.4000
G1 X0.4244 Y2.0772 Z-0.4000
G1 X0.4243 Y2.0836 Z-0.4000
G1 X0.4241 Y2.0909 Z-0.4000
G1 X0.4239 Y2.0981 Z-0.4000
G1 X0.4237 Y2.1054 Z-0.4000
G1 X0.4238 Y2.1054 Z-0.4000
G1 X0.4234 Y2.1126 Z-0.4000
G1 X0.4232 Y2.1193 Z-0.4000
G1 X0.4229 Y2.1262 Z-0.4000
G1 X0.4226 Y2.1326 Z-0.4000
G1 X0.4222 Y2.1398 Z-0.4000
G1 X0.4219 Y2.1454 Z-0.4000
G1 X0.4218 Y2.1454 Z-0.4000
G1 X0.4213 Y2.1518 Z-0.4000
G1 X0.4209 Y2.1564 Z-0.4000
G1 X0.4206 Y2.1588 Z-0.4000
G1 X0.4185 Y2.1612 Z-0.4000
G1 X0.4149 Y2.1650 Z-0.4000
G1 X0.4125 Y2.1675 Z-0.4000
G1 X0.4088 Y2.1710 Z-0.4000
G1 X0.4046 Y2.1747 Z-0.4000
G1 X0.4035 Y2.1756 Z-0.4000
G1 X0.4023 Y2.1764 Z-0.4000
G1 X0.4016 Y2.1768 Z-0.4000
G1 X0.4015 Y2.1768 Z-0.4000
G1 X0.3971 Y2.1782 Z-0.4000
G1 X0.3936 Y2.1790 Z-0.4000
G1 X0.3899 Y2.1798 Z-0.4000
G1 X0.3861 Y2.1804 Z-0.4000
G1 X0.3861 Y2.1803 Z-0.4000
G1 X0.3798 Y2.1811 Z-0.4000
G1 X0.3741 Y2.1817 Z-0.4000
G1 X0.3696 Y2.1821 Z-0.4000
G1 X0.3696 Y2.1820 Z-0.4000
G1 X0.3571 Y2.1828 Z-0.4000
G1 X0.3514 Y2.1750 Z-0.4000
G1 X0.3475 Y2.1696 Z-0.4000
G1 X0.3446 Y2.1653 Z-0.4000
G1 X0.3409 Y2.1597 Z-0.4000
G1 X0.3349 Y2.1503 Z-0.4000
G1 X0.3350 Y2.1503 Z-0.4000
G1 Z-0.5000 F50
G1 X0.3313 Y2.1441 Z-0.5000 F100
G1 X0.3280 Y2.1385 Z-0.5000
G1 X0.3220 Y2.1278 Z-0.5000
G1 X0.3186 Y2.1215 Z-0.5000
G1 X0.3154 Y2.1155 Z-0.5000
G1 X0.3123 Y2.1095 Z-0.5000
G1 X0.3093 Y2.1035 Z-0.5000
G1 X0.3060 Y2.0971 Z-0.5000
G1 X0.3059 Y2.0971 Z-0.5000
G1 X0.3037 Y2.0924 Z-0.5000
G1 X0.3004 Y2.0856 Z-0.5000
G1 X0.2975 Y2.0795 Z-0.5000
G1 X0.2951 Y2.0744 Z-0.5000
G1 X0.2920 Y2.0675 Z-0.5000
G1 X0.2890 Y2.0609 Z-0.5000
G1 X0.2863 Y2.0548 Z-0.5000
G1 X0.2862 Y2.0548 Z-0.5000
G1 X0.2835 Y2.0486 Z-0.5000
G1 X0.2809 Y2.0424 Z-0.5000
G1 X0.2781 Y2.0359 Z-0.5000
G1 X0.2756 Y2.0298 Z-0.5000
G1 X0.2755 Y2.0298 Z-0.5000
G1 X0.2708 Y2.0181 Z-0.5000
G1 X0.2679 Y2.0106 Z-0.5000
G1 X0.2652 Y2.0039 Z-0.5000
G1 X0.2651 Y2.0039 Z-0.5000
G1 X0.2630 Y1.9981 Z-0.5000
G1 X0.2604 Y1.9914 Z-0.5000
G1 X0.2583 Y1.9854 Z-0.5000
G1 X0.2558 Y1.9787 Z-0.5000
G1 X0.2536 Y1.9727 Z-0.5000
G1 X0.2513 Y1.9662 Z-0.5000
G1 X0.2473 Y1.9542 Z-0.5000
G1 X0.2449 Y1.9468 Z-0.5000
G1 X0.2426 Y1.9399 Z-0.5000
G1 X0.2409 Y1.9346 Z-0.5000
G1 X0.2386 Y1.9272 Z-0.5000
G1 X0.2364 Y1.9202 Z-0.5000
G1 X0.2345 Y1.9138 Z-0.5000
G1 X0.2268 Y1.8868 Z-0.5000
G1 X0.2232 Y1.8736 Z-0.5000
G1 X0.2215 Y1.8668 Z-0.5000
G1 X0.2196 Y1.8597 Z-0.5000
G1 X0.2195 Y1.8597 Z-0.5000
G1 X0.2182 Y1.8543 Z-0.5000
G1 X0.2162 Y1.8462 Z-0.5000
G1 X0.2147 Y1.8402 Z-0.5000
G1 X0.2113 Y1.8260 Z-0.5000
G1 X0.2112 Y1.8260 Z-0.5000
G1 X0.2098 Y1.8199 Z-0.5000
G1 X0.2099 Y1.8199 Z-0.5000
G1 X0.2035 Y1.7915 Z-0.5000
G1 X0.2007 Y1.7781 Z-0.5000
G1 X0.1993 Y1.7709 Z-0.5000
G1 X0.1978 Y1.7638 Z-0.5000
G1 X0.1977 Y1.7638 Z-0.5000
G1 X0.1951 Y1.7504 Z-0.5000
G1 X0.1938 Y1.7432 Z-0.5000
G1 X0.1924 Y1.7361 Z-0.5000
G1 X0.1913 Y1.7297 Z-0.5000
G1 X0.1900 Y1.7226 Z-0.5000
G1 X0.1899 Y1.7226 Z-0.5000
G1 X0.1888 Y1.7154 Z-0.5000
G1 X0.1875 Y1.7083 Z-0.5000
G1 X0.1874 Y1.7083 Z-0.5000
G1 X0.1852 Y1.6948 Z-0.5000
G1 X0.1840 Y1.6877 Z-0.5000
G1 X0.1829 Y1.6806 Z-0.5000
G1 X0.1819 Y1.6743 Z-0.5000
G1 X0.1797 Y1.6599 Z-0.5000
G1 X0.1787 Y1.6525 Z-0.5000
G1 X0.1776 Y1.6454 Z-0.5000
G1 X0.1747 Y1.6248 Z-0.5000
G1 X0.1738 Y1.6177 Z-0.5000
G1 X0.1728 Y1.6104 Z-0.5000
G1 X0.1702 Y1.5895 Z-0.5000
G1 X0.1694 Y1.5823 Z-0.5000
G1 X0.1685 Y1.5751 Z-0.5000
G1 X0.1678 Y1.5688 Z-0.5000
G1 X0.1670 Y1.5615 Z-0.5000
G1 X0.1662 Y1.5543 Z-0.5000
G1 X0.1655 Y1.5472 Z-0.5000
G1 X0.1647 Y1.5399 Z-0.5000
G1 X0.1634 Y1.5263 Z-0.5000
G1 X0.1627 Y1.5190 Z-0.5000
G1 X0.1621 Y1.5118 Z-0.5000
G1 X0.1614 Y1.5046 Z-0.5000
G1 X0.1609 Y1.4981 Z-0.5000
G1 X0.1603 Y1.4909 Z-0.5000
G1 X0.1597 Y1.4836 Z-0.5000
G1 X0.1585 Y1.4692 Z-0.5000
G1 X0.1584 Y1.4692 Z-0.5000
G1 X0.1580 Y1.4628 Z-0.5000
G1 X0.1581 Y1.4628 Z-0.5000
G1 X0.1575 Y1.4555 Z-0.5000
G1 X0.1570 Y1.4483 Z-0.5000
G1 X0.1571 Y1.4483 Z-0.5000
G1 X0.1565 Y1.4410 Z-0.5000
G1 X0.1561 Y1.4347 Z-0.5000
G1 X0.1557 Y1.4273 Z-0.5000
G1 X0.1553 Y1.4193 Z-0.5000
G1 X0.1548 Y1.4120 Z-0.5000
G1 X0.1547 Y1.4120 Z-0.5000
G1 X0.1545 Y1.4057 Z-0.5000
G1 X0.1541 Y1.3983 Z-0.5000
G1 X0.1537 Y1.3911 Z-0.5000
G1 X0.1534 Y1.3839 Z-0.5000
G1 X0.1530 Y1.3766 Z-0.5000
G1 X0.1527 Y1.3711 Z-0.5000
G1 X0.1528 Y1.3711 Z-0.5000
G1 X0.1525 Y1.3629 Z-0.5000
G1 X0.1522 Y1.3556 Z-0.5000
G1 X0.1519 Y1.3493 Z-0.5000
G1 X0.1520 Y1.3493 Z-0.5000
G1 X0.1518 Y1.3420 Z-0.5000
G1 X0.1516 Y1.3348 Z-0.5000
G1 X0.1512 Y1.3202 Z-0.5000
G1 X0.1510 Y1.3130 Z-0.5000
G1 X0.1508 Y1.3057 Z-0.5000
G1 X0.1507 Y1.2992 Z-0.5000
G1 X0.1506 Y1.2920 Z-0.5000
G1 X0.1504 Y1.2774 Z-0.5000
G1 X0.1503 Y1.2711 Z-0.5000
G1 X0.1503 Y1.2629 Z-0.5000
G1 X0.1502 Y1.2565 Z-0.5000
G1 X0.1502 Y1.2356 Z-0.5000
G1 X0.1503 Y1.2275 Z-0.5000
G1 X0.1503 Y1.2211 Z-0.5000
G1 X0.1505 Y1.2065 Z-0.5000
G1 X0.1506 Y1.1993 Z-0.5000
G1 X0.1508 Y1.1855 Z-0.5000
G1 X0.1510 Y1.1775 Z-0.5000
G1 X0.1511 Y1.1710 Z-0.5000
G1 X0.1513 Y1.1637 Z-0.5000
G1 X0.1515 Y1.1565 Z-0.5000
G1 X0.1517 Y1.1492 Z-0.5000
G1 X0.1516 Y1.1492 Z-0.5000
G1 X0.1520 Y1.1420 Z-0.5000
G1 X0.1522 Y1.1347 Z-0.5000
G1 X0.1521 Y1.1347 Z-0.5000
G1 X0.1524 Y1.1283 Z-0.5000
G1 X0.1527 Y1.1211 Z-0.5000
G1 X0.1533 Y1.1065 Z-0.5000
G1 X0.1536 Y1.1001 Z-0.5000
G1 X0.1540 Y1.0929 Z-0.5000
G1 X0.1548 Y1.0784 Z-0.5000
G1 X0.1560 Y1.0565 Z-0.5000
G1 X0.1565 Y1.0502 Z-0.5000
G1 X0.1570 Y1.0429 Z-0.5000
G1 X0.1569 Y1.0429 Z-0.5000
G1 X0.1575 Y1.0357 Z-0.5000
G1 X0.1580 Y1.0284 Z-0.5000
G1 X0.1579 Y1.0284 Z-0.5000
G1 X0.1583 Y1.0220 Z-0.5000
G1 X0.1584 Y1.0220 Z-0.5000
G1 X0.1590 Y1.0139 Z-0.5000
G1 X0.1594 Y1.0075 Z-0.5000
G1 X0.1595 Y1.0075 Z-0.5000
G1 X0.1601 Y1.0003 Z-0.5000
G1 X0.1612 Y0.9867 Z-0.5000
G1 X0.1620 Y0.9786 Z-0.5000
G1 X0.1625 Y0.9722 Z-0.5000
G1 X0.1632 Y0.9650 Z-0.5000
G1 X0.1639 Y0.9577 Z-0.5000
G1 X0.1652 Y0.9441 Z-0.5000
G1 X0.1660 Y0.9369 Z-0.5000
G1 X0.1676 Y0.9224 Z-0.5000
G1 X0.1699 Y0.9017 Z-0.5000
G1 X0.1734 Y0.8737 Z-0.5000
G1 X0.1745 Y0.8657 Z-0.5000
G1 X0.1753 Y0.8592 Z-0.5000
G1 X0.1763 Y0.8521 Z-0.5000
G1 X0.1782 Y0.8385 Z-0.5000
G1 X0.1805 Y0.8233 Z-0.5000
G1 X0.1815 Y0.8161 Z-0.5000
G1 X0.1826 Y0.8097 Z-0.5000
G1 X0.1837 Y0.8027 Z-0.5000
G1 X0.1848 Y0.7956 Z-0.5000
G1 X0.1847 Y0.7956 Z-0.5000
G1 X0.1880 Y0.7757 Z-0.5000
G1 X0.1881 Y0.7757 Z-0.5000
G1 X0.1895 Y0.7676 Z-0.5000
G1 X0.1905 Y0.7614 Z-0.5000
G1 X0.1906 Y0.7614 Z-0.5000
G1 X0.1919 Y0.7541 Z-0.5000
G1 X0.1930 Y0.7479 Z-0.5000
G1 X0.1946 Y0.7398 Z-0.5000
G1 X0.1957 Y0.7336 Z-0.5000
G1 X0.1986 Y0.7192 Z-0.5000
G1 X0.1998 Y0.7130 Z-0.5000
G1 X0.2071 Y0.6783 Z-0.5000
G1 X0.2101 Y0.6650 Z-0.5000
G1 X0.2118 Y0.6579 Z-0.5000
G1 X0.2136 Y0.6509 Z-0.5000
G1 X0.2151 Y0.6446 Z-0.5000
G1 X0.2166 Y0.6385 Z-0.5000
G1 X0.2187 Y0.6307 Z-0.5000
G1 X0.2203 Y0.6243 Z-0.5000
G1 X0.2204 Y0.6243 Z-0.5000
G1 X0.2222 Y0.6174 Z-0.5000
G1 X0.2258 Y0.6042 Z-0.5000
G1 X0.2301 Y0.5892 Z-0.5000
G1 X0.2315 Y0.5839 Z-0.5000
G1 X0.2337 Y0.5763 Z-0.5000
G1 X0.2358 Y0.5692 Z-0.5000
G1 X0.2376 Y0.5630 Z-0.5000
G1 X0.2399 Y0.5552 Z-0.5000
G1 X0.2417 Y0.5490 Z-0.5000
G1 X0.2437 Y0.5422 Z-0.5000
G1 X0.2459 Y0.5351 Z-0.5000
G1 X0.2501 Y0.5211 Z-0.5000
G1 X0.2500 Y0.5211 Z-0.5000
G1 X0.2523 Y0.5142 Z-0.5000
G1 X0.2544 Y0.5072 Z-0.5000
G1 X0.2543 Y0.5072 Z-0.5000
G1 X0.2563 Y0.5010 Z-0.5000
G1 X0.2584 Y0.4943 Z-0.5000
G1 X0.2607 Y0.4871 Z-0.5000
G1 X0.2626 Y0.4812 Z-0.5000
G1 X0.2651 Y0.4735 Z-0.5000
G1 X0.2671 Y0.4674 Z-0.5000
G1 X0.2717 Y0.4536 Z-0.5000
G1 X0.2741 Y0.4467 Z-0.5000
G1 X0.2764 Y0.4398 Z-0.5000
G1 X0.2763 Y0.4398 Z-0.5000
G1 X0.2781 Y0.4347 Z-0.5000
G1 X0.2782 Y0.4347 Z-0.5000
G1 X0.2810 Y0.4268 Z-0.5000
G1 X0.2828 Y0.4217 Z-0.5000
G1 X0.2873 Y0.4099 Z-0.5000
G1 X0.2901 Y0.4032 Z-0.5000
G1 X0.2900 Y0.4032 Z-0.5000
G1 X0.2908 Y0.4015 Z-0.5000
G1 X0.2915 Y0.4002 Z-0.5000
G1 X0.2945 Y0.3962 Z-0.5000
G1 X0.2992 Y0.3895 Z-0.5000
G1 X0.3031 Y0.3837 Z-0.5000
G1 X0.3076 Y0.3770 Z-0.5000
G1 X0.3112 Y0.3714 Z-0.5000
G1 X0.3158 Y0.3644 Z-0.5000
G1 X0.3193 Y0.3588 Z-0.5000
G1 X0.3234 Y0.3525 Z-0.5000
G1 X0.3268 Y0.3472 Z-0.5000
G1 X0.3307 Y0.3412 Z-0.5000
G1 X0.3329 Y0.3379 Z-0.5000
G1 X0.3360 Y0.3336 Z-0.5000
G1 X0.3399 Y0.3285 Z-0.5000
G1 X0.3424 Y0.3256 Z-0.5000
G1 X0.3443 Y0.3235 Z-0.5000
G1 X0.3469 Y0.3211 Z-0.5000
G1 X0.3496 Y0.3189 Z-0.5000
G1 X0.3505 Y0.3183 Z-0.5000
G1 X0.3520 Y0.3175 Z-0.5000
G1 X0.3529 Y0.3171 Z-0.5000
G1 X0.3540 Y0.3167 Z-0.5000
G1 X0.3571 Y0.3159 Z-0.5000
G1 X0.3587 Y0.3157 Z-0.5000
G1 X0.3641 Y0.3150 Z-0.5000
G1 X0.3663 Y0.3149 Z-0.5000
G1 X0.3719 Y0.3148 Z-0.5000
G1 X0.3731 Y0.3149 Z-0.5000
G1 X0.3751 Y0.3151 Z-0.5000
G1 X0.3793 Y0.3159 Z-0.5000
G1 X0.3822 Y0.3168 Z-0.5000
G1 X0.3851 Y0.3178 Z-0.5000
G1 X0.3896 Y0.3196 Z-0.5000
G1 X0.3923 Y0.3208 Z-0.5000
G1 X0.3965 Y0.3231 Z-0.5000
G1 X0.3988 Y0.3245 Z-0.5000
G1 X0.4036 Y0.3277 Z-0.5000
G1 X0.4063 Y0.3297 Z-0.5000
G1 X0.4091 Y0.3321 Z-0.5000
G1 X0.4140 Y0.3366 Z-0.5000
G1 X0.4149 Y0.3375 Z-0.5000
G1 X0.4171 Y0.3401 Z-0.5000
G1 X0.4187 Y0.3422 Z-0.5000
G1 X0.4217 Y0.3469 Z-0.5000
G1 X0.4302 Y0.3614 Z-0.5000
G1 X0.4283 Y1.2583 Z-0.5000
G1 X0.4283 Y1.3010 Z-0.5000
G1 X0.4282 Y1.3091 Z-0.5000
G1 X0.4282 Y1.3518 Z-0.5000
G1 X0.4281 Y1.3599 Z-0.5000
G1 X0.4281 Y1.3953 Z-0.5000
G1 X0.4280 Y1.4035 Z-0.5000
G1 X0.4280 Y1.4388 Z-0.5000
G1 X0.4279 Y1.4470 Z-0.5000
G1 X0.4279 Y1.4896 Z-0.5000
G1 X0.4278 Y1.4978 Z-0.5000
G1 X0.4278 Y1.5331 Z-0.5000
G1 X0.4277 Y1.5413 Z-0.5000
G1 X0.4277 Y1.5694 Z-0.5000
G1 X0.4276 Y1.5776 Z-0.5000
G1 X0.4276 Y1.6129 Z-0.5000
G1 X0.4275 Y1.6211 Z-0.5000
G1 X0.4275 Y1.6492 Z-0.5000
G1 X0.4274 Y1.6574 Z-0.5000
G1 X0.4274 Y1.6854 Z-0.5000
G1 X0.4273 Y1.6936 Z-0.5000
G1 X0.4273 Y1.7145 Z-0.5000
G1 X0.4272 Y1.7226 Z-0.5000
G1 X0.4272 Y1.7435 Z-0.5000
G1 X0.4271 Y1.7516 Z-0.5000
G1 X0.4271 Y1.7725 Z-0.5000
G1 X0.4270 Y1.7807 Z-0.5000
G1 X0.4270 Y1.7943 Z-0.5000
G1 X0.4269 Y1.8024 Z-0.5000
G1 X0.4269 Y1.8233 Z-0.5000
G1 X0.4268 Y1.8314 Z-0.5000
G1 X0.4268 Y1.8450 Z-0.5000
G1 X0.4267 Y1.8532 Z-0.5000
G1 X0.4267 Y1.8596 Z-0.5000
G1 X0.4266 Y1.8677 Z-0.5000
G1 X0.4266 Y1.8813 Z-0.5000
G1 X0.4265 Y1.8895 Z-0.5000
G1 X0.4265 Y1.8958 Z-0.5000
G1 X0.4264 Y1.9040 Z-0.5000
G1 X0.4264 Y1.9103 Z-0.5000
G1 X0.4263 Y1.9185 Z-0.5000
G1 X0.4263 Y1.9249 Z-0.5000
G1 X0.4262 Y1.9330 Z-0.5000
G1 X0.4262 Y1.9394 Z-0.5000
G1 X0.4261 Y1.9475 Z-0.5000
G1 X0.4261 Y1.9538 Z-0.5000
G1 X0.4259 Y1.9693 Z-0.5000
G1 X0.4259 Y1.9756 Z-0.5000
G1 X0.4258 Y1.9829 Z-0.5000
G1 X0.4257 Y1.9910 Z-0.5000
G1 X0.4257 Y1.9974 Z-0.5000
G1 X0.4256 Y2.0046 Z-0.5000
G1 X0.4255 Y2.0119 Z-0.5000
G1 X0.4254 Y2.0191 Z-0.5000
G1 X0.4252 Y2.0337 Z-0.5000
G1 X0.4251 Y2.0409 Z-0.5000
G1 X0.4250 Y2.0482 Z-0.5000
G1 X0.4249 Y2.0546 Z-0.5000
G1 X0.4247 Y2.0627 Z-0.5000
G1 X0.4246 Y2.0691 Z-0.5000
G1 X0.4244 Y2.0772 Z-0.5000
G1 X0.4243 Y2.0836 Z-0.5000
G1 X0.4241 Y2.0909 Z-0.5000
G1 X0.4239 Y2.0981 Z-0.5000
G1 X0.4237 Y2.1054 Z-0.5000
G1 X0.4238 Y2.1054 Z-0.5000
G1 X0.4234 Y2.1126 Z-0.5000
G1 X0.4232 Y2.1193 Z-0.5000
G1 X0.4229 Y2.1262 Z-0.5000
G1 X0.4226 Y2.1326 Z-0.5000
G1 X0.4222 Y2.1398 Z-0.5000
G1 X0.4219 Y2.1454 Z-0.5000
G1 X0.4218 Y2.1454 Z-0.5000
G1 X0.4213 Y2.1518 Z-0.5000
G1 X0.4209 Y2.1564 Z-0.5000
G1 X0.4206 Y2.1588 Z-0.5000
G1 X0.4185 Y2.1612 Z-0.5000
G1 X0.4149 Y2.1650 Z-0.5000
G1 X0.4125 Y2.1675 Z-0.5000
G1 X0.4088 Y2.1710 Z-0.5000
G1 X0.4046 Y2.1747 Z-0.5000
G1 X0.4035 Y2.1756 Z-0.5000
G1 X0.4023 Y2.1764 Z-0.5000
G1 X0.4016 Y2.1768 Z-0.5000
G1 X0.4015 Y2.1768 Z-0.5000
G1 X0.3971 Y2.1782 Z-0.5000
G1 X0.3936 Y2.1790 Z-0.5000
G1 X0.3899 Y2.1798 Z-0.5000
G1 X0.3861 Y2.1804 Z-0.5000
G1 X0.3861 Y2.1803 Z-0.5000
G1 X0.3798 Y2.1811 Z-0.5000
G1 X0.3741 Y2.1817 Z-0.5000
G1 X0.3696 Y2.1821 Z-0.5000
G1 X0.3696 Y2.1820 Z-0.5000
G1 X0.3571 Y2.1828 Z-0.5000
G1 X0.3514 Y2.1750 Z-0.5000
G1 X0.3475 Y2.1696 Z-0.5000
G1 X0.3446 Y2.1653 Z-0.5000
G1 X0.3409 Y2.1597 Z-0.5000
G1 X0.3349 Y2.1503 Z-0.5000
G1 X0.3350 Y2.1503 Z-0.5000
G1 Z-0.6000 F50
G1 X0.3313 Y2.1441 Z-0.6000 F100
G1 X0.3280 Y2.1385 Z-0.6000
G1 X0.3220 Y2.1278 Z-0.6000
G1 X0.3186 Y2.1215 Z-0.6000
G1 X0.3154 Y2.1155 Z-0.6000
G1 X0.3123 Y2.1095 Z-0.6000
G1 X0.3093 Y2.1035 Z-0.6000
G1 X0.3060 Y2.0971 Z-0.6000
G1 X0.3059 Y2.0971 Z-0.6000
G1 X0.3037 Y2.0924 Z-0.6000
G1 X0.3004 Y2.0856 Z-0.6000
G1 X0.2975 Y2.0795 Z-0.6000
G1 X0.2951 Y2.0744 Z-0.6000
G1 X0.2920 Y2.0675 Z-0.6000
G1 X0.2890 Y2.0609 Z-0.6000
G1 X0.2863 Y2.0548 Z-0.6000
G1 X0.2862 Y2.0548 Z-0.6000
G1 X0.2835 Y2.0486 Z-0.6000
G1 X0.2809 Y2.0424 Z-0.6000
G1 X0.2781 Y2.0359 Z-0.6000
G1 X0.2756 Y2.0298 Z-0.6000
G1 X0.2755 Y2.0298 Z-0.6000
G1 X0.2708 Y2.0181 Z-0.6000
G1 X0.2679 Y2.0106 Z-0.6000
G1 X0.2652 Y2.0039 Z-0.6000
G1 X0.2651 Y2.0039 Z-0.6000
G1 X0.2630 Y1.9981 Z-0.6000
G1 X0.2604 Y1.9914 Z-0.6000
G1 X0.2583 Y1.9854 Z-0.6000
G1 X0.2558 Y1.9787 Z-0.6000
G1 X0.2536 Y1.9727 Z-0.6000
G1 X0.2513 Y1.9662 Z-0.6000
G1 X0.2473 Y1.9542 Z-0.6000
G1 X0.2449 Y1.9468 Z-0.6000
G1 X0.2426 Y1.9399 Z-0.6000
G1 X0.2409 Y1.9346 Z-0.6000
G1 X0.2386 Y1.9272 Z-0.6000
G1 X0.2364 Y1.9202 Z-0.6000
G1 X0.2345 Y1.9138 Z-0.6000
G1 X0.2268 Y1.8868 Z-0.6000
G1 X0.2232 Y1.8736 Z-0.6000
G1 X0.2215 Y1.8668 Z-0.6000
G1 X0.2196 Y1.8597 Z-0.6000
G1 X0.2195 Y1.8597 Z-0.6000
G1 X0.2182 Y1.8543 Z-0.6000
G1 X0.2162 Y1.8462 Z-0.6000
G1 X0.2147 Y1.8402 Z-0.6000
G1 X0.2113 Y1.8260 Z-0.6000
G1 X0.2112 Y1.8260 Z-0.6000
G1 X0.2098 Y1.8199 Z-0.6000
G1 X0.2099 Y1.8199 Z-0.6000
G1 X0.2035 Y1.7915 Z-0.6000
G1 X0.2007 Y1.7781 Z-0.6000
G1 X0.1993 Y1.7709 Z-0.6000
G1 X0.1978 Y1.7638 Z-0.6000
G1 X0.1977 Y1.7638 Z-0.6000
G1 X0.1951 Y1.7504 Z-0.6000
G1 X0.1938 Y1.7432 Z-0.6000
G1 X0.1924 Y1.7361 Z-0.6000
G1 X0.1913 Y1.7297 Z-0.6000
G1 X0.1900 Y1.7226 Z-0.6000
G1 X0.1899 Y1.7226 Z-0.6000
G1 X0.1888 Y1.7154 Z-0.6000
G1 X0.1875 Y1.7083 Z-0.6000
G1 X0.1874 Y1.7083 Z-0.6000
G1 X0.1852 Y1.6948 Z-0.6000
G1 X0.1840 Y1.6877 Z-0.6000
G1 X0.1829 Y1.6806 Z-0.6000
G1 X0.1819 Y1.6743 Z-0.6000
G1 X0.1797 Y1.6599 Z-0.6000
G1 X0.1787 Y1.6525 Z-0.6000
G1 X0.1776 Y1.6454 Z-0.6000
G1 X0.1747 Y1.6248 Z-0.6000
G1 X0.1738 Y1.6177 Z-0.6000
G1 X0.1728 Y1.6104 Z-0.6000
G1 X0.1702 Y1.5895 Z-0.6000
G1 X0.1694 Y1.5823 Z-0.6000
G1 X0.1685 Y1.5751 Z-0.6000
G1 X0.1678 Y1.5688 Z-0.6000
G1 X0.1670 Y1.5615 Z-0.6000
G1 X0.1662 Y1.5543 Z-0.6000
G1 X0.1655 Y1.5472 Z-0.6000
G1 X0.1647 Y1.5399 Z-0.6000
G1 X0.1634 Y1.5263 Z-0.6000
G1 X0.1627 Y1.5190 Z-0.6000
G1 X0.1621 Y1.5118 Z-0.6000
G1 X0.1614 Y1.5046 Z-0.6000
G1 X0.1609 Y1.4981 Z-0.6000
G1 X0.1603 Y1.4909 Z-0.6000
G1 X0.1597 Y1.4836 Z-0.6000
G1 X0.1585 Y1.4692 Z-0.6000
G1 X0.1584 Y1.4692 Z-0.6000
G1 X0.1580 Y1.4628 Z-0.6000
G1 X0.1581 Y1.4628 Z-0.6000
G1 X0.1575 Y1.4555 Z-0.6000
G1 X0.1570 Y1.4483 Z-0.6000
G1 X0.1571 Y1.4483 Z-0.6000
G1 X0.1565 Y1.4410 Z-0.6000
G1 X0.1561 Y1.4347 Z-0.6000
G1 X0.1557 Y1.4273 Z-0.6000
G1 X0.1553 Y1.4193 Z-0.6000
G1 X0.1548 Y1.4120 Z-0.6000
G1 X0.1547 Y1.4120 Z-0.6000
G1 X0.1545 Y1.4057 Z-0.6000
G1 X0.1541 Y1.3983 Z-0.6000
G1 X0.1537 Y1.3911 Z-0.6000
G1 X0.1534 Y1.3839 Z-0.6000
G1 X0.1530 Y1.3766 Z-0.6000
G1 X0.1527 Y1.3711 Z-0.6000
G1 X0.1528 Y1.3711 Z-0.6000
G1 X0.1525 Y1.3629 Z-0.6000
G1 X0.1522 Y1.3556 Z-0.6000
G1 X0.1519 Y1.3493 Z-0.6000
G1 X0.1520 Y1.3493 Z-0.6000
G1 X0.1518 Y1.3420 Z-0.6000
G1 X0.1516 Y1.3348 Z-0.6000
G1 X0.1512 Y1.3202 Z-0.6000
G1 X0.1510 Y1.3130 Z-0.6000
G1 X0.1508 Y1.3057 Z-0.6000
G1 X0.1507 Y1.2992 Z-0.6000
G1 X0.1506 Y1.2920 Z-0.6000
G1 X0.1504 Y1.2774 Z-0.6000
G1 X0.1503 Y1.2711 Z-0.6000
G1 X0.1503 Y1.2629 Z-0.6000
G1 X0.1502 Y1.2565 Z-0.6000
G1 X0.1502 Y1.2356 Z-0.6000
G1 X0.1503 Y1.2275 Z-0.6000
G1 X0.1503 Y1.2211 Z-0.6000
G1 X0.1505 Y1.2065 Z-0.6000
G1 X0.1506 Y1.1993 Z-0.6000
G1 X0.1508 Y1.1855 Z-0.6000
G1 X0.1510 Y1.1775 Z-0.6000
G1 X0.1511 Y1.1710 Z-0.6000
G1 X0.1513 Y1.1637 Z-0.6000
G1 X0.1515 Y1.1565 Z-0.6000
G1 X0.1517 Y1.1492 Z-0.6000
G1 X0.1516 Y1.1492 Z-0.6000
G1 X0.1520 Y1.1420 Z-0.6000
G1 X0.1522 Y1.1347 Z-0.6000
G1 X0.1521 Y1.1347 Z-0.6000
G1 X0.1524 Y1.1283 Z-0.6000
G1 X0.1527 Y1.1211 Z-0.6000
G1 X0.1533 Y1.1065 Z-0.6000
G1 X0.1536 Y1.1001 Z-0.6000
G1 X0.1540 Y1.0929 Z-0.6000
G1 X0.1548 Y1.0784 Z-0.6000
G1 X0.1560 Y1.0565 Z-0.6000
G1 X0.1565 Y1.0502 Z-0.6000
G1 X0.1570 Y1.0429 Z-0.6000
G1 X0.1569 Y1.0429 Z-0.6000
G1 X0.1575 Y1.0357 Z-0.6000
G1 X0.1580 Y1.0284 Z-0.6000
G1 X0.1579 Y1.0284 Z-0.6000
G1 X0.1583 Y1.0220 Z-0.6000
G1 X0.1584 Y1.0220 Z-0.6000
G1 X0.1590 Y1.0139 Z-0.6000
G1 X0.1594 Y1.0075 Z-0.6000
G1 X0.1595 Y1.0075 Z-0.6000
G1 X0.1601 Y1.0003 Z-0.6000
G1 X0.1612 Y0.9867 Z-0.6000
G1 X0.1620 Y0.9786 Z-0.6000
G1 X0.1625 Y0.9722 Z-0.6000
G1 X0.1632 Y0.9650 Z-0.6000
G1 X0.1639 Y0.9577 Z-0.6000
G1 X0.1652 Y0.9441 Z-0.6000
G1 X0.1660 Y0.9369 Z-0.6000
G1 X0.1676 Y0.9224 Z-0.6000
G1 X0.1699 Y0.9017 Z-0.6000
G1 X0.1734 Y0.8737 Z-0.6000
G1 X0.1745 Y0.8657 Z-0.6000
G1 X0.1753 Y0.8592 Z-0.6000
G1 X0.1763 Y0.8521 Z-0.6000
G1 X0.1782 Y0.8385 Z-0.6000
G1 X0.1805 Y0.8233 Z-0.6000
G1 X0.1815 Y0.8161 Z-0.6000
G1 X0.1826 Y0.8097 Z-0.6000
G1 X0.1837 Y0.8027 Z-0.6000
G1 X0.1848 Y0.7956 Z-0.6000
G1 X0.1847 Y0.7956 Z-0.6000
G1 X0.1880 Y0.7757 Z-0.6000
G1 X0.1881 Y0.7757 Z-0.6000
G1 X0.1895 Y0.7676 Z-0.6000
G1 X0.1905 Y0.7614 Z-0.6000
G1 X0.1906 Y0.7614 Z-0.6000
G1 X0.1919 Y0.7541 Z-0.6000
G1 X0.1930 Y0.7479 Z-0.6000
G1 X0.1946 Y0.7398 Z-0.6000
G1 X0.1957 Y0.7336 Z-0.6000
G1 X0.1986 Y0.7192 Z-0.6000
G1 X0.1998 Y0.7130 Z-0.6000
G1 X0.2071 Y0.6783 Z-0.6000
G1 X0.2101 Y0.6650 Z-0.6000
G1 X0.2118 Y0.6579 Z-0.6000
G1 X0.2136 Y0.6509 Z-0.6000
G1 X0.2151 Y0.6446 Z-0.6000
G1 X0.2166 Y0.6385 Z-0.6000
G1 X0.2187 Y0.6307 Z-0.6000
G1 X0.2203 Y0.6243 Z-0.6000
G1 X0.2204 Y0.6243 Z-0.6000
G1 X0.2222 Y0.6174 Z-0.6000
G1 X0.2258 Y0.6042 Z-0.6000
G1 X0.2301 Y0.5892 Z-0.6000
G1 X0.2315 Y0.5839 Z-0.6000
G1 X0.2337 Y0.5763 Z-0.6000
G1 X0.2358 Y0.5692 Z-0.6000
G1 X0.2376 Y0.5630 Z-0.6000
G1 X0.2399 Y0.5552 Z-0.6000
G1 X0.2417 Y0.5490 Z-0.6000
G1 X0.2437 Y0.5422 Z-0.6000
G1 X0.2459 Y0.5351 Z-0.6000
G1 X0.2501 Y0.5211 Z-0.6000
G1 X0.2500 Y0.5211 Z-0.6000
G1 X0.2523 Y0.5142 Z-0.6000
G1 X0.2544 Y0.5072 Z-0.6000
G1 X0.2543 Y0.5072 Z-0.6000
G1 X0.2563 Y0.5010 Z-0.6000
G1 X0.2584 Y0.4943 Z-0.6000
G1 X0.2607 Y0.4871 Z-0.6000
G1 X0.2626 Y0.4812 Z-0.6000
G1 X0.2651 Y0.4735 Z-0.6000
G1 X0.2671 Y0.4674 Z-0.6000
G1 X0.2717 Y0.4536 Z-0.6000
G1 X0.2741 Y0.4467 Z-0.6000
G1 X0.2764 Y0.4398 Z-0.6000
G1 X0.2763 Y0.4398 Z-0.6000
G1 X0.2781 Y0.4347 Z-0.6000
G1 X0.2782 Y0.4347 Z-0.6000
G1 X0.2810 Y0.4268 Z-0.6000
G1 X0.2828 Y0.4217 Z-0.6000
G1 X0.2873 Y0.4099 Z-0.6000
G1 X0.2901 Y0.4032 Z-0.6000
G1 X0.2900 Y0.4032 Z-0.6000
G1 X0.2908 Y0.4015 Z-0.6000
G1 X0.2915 Y0.4002 Z-0.6000
G1 X0.2945 Y0.3962 Z-0.6000
G1 X0.2992 Y0.3895 Z-0.6000
G1 X0.3031 Y0.3837 Z-0.6000
G1 X0.3076 Y0.3770 Z-0.6000
G1 X0.3112 Y0.3714 Z-0.6000
G1 X0.3158 Y0.3644 Z-0.6000
G1 X0.3193 Y0.3588 Z-0.6000
G1 X0.3234 Y0.3525 Z-0.6000
G1 X0.3268 Y0.3472 Z-0.6000
G1 X0.3307 Y0.3412 Z-0.6000
G1 X0.3329 Y0.3379 Z-0.6000
G1 X0.3360 Y0.3336 Z-0.6000
G1 X0.3399 Y0.3285 Z-0.6000
G1 X0.3424 Y0.3256 Z-0.6000
G1 X0.3443 Y0.3235 Z-0.6000
G1 X0.3469 Y0.3211 Z-0.6000
G1 X0.3496 Y0.3189 Z-0.6000
G1 X0.3505 Y0.3183 Z-0.6000
G1 X0.3520 Y0.3175 Z-0.6000
G1 X0.3529 Y0.3171 Z-0.6000
G1 X0.3540 Y0.3167 Z-0.6000
G1 X0.3571 Y0.3159 Z-0.6000
G1 X0.3587 Y0.3157 Z-0.6000
G1 X0.3641 Y0.3150 Z-0.6000
G1 X0.3663 Y0.3149 Z-0.6000
G1 X0.3719 Y0.3148 Z-0.6000
G1 X0.3731 Y0.3149 Z-0.6000
G1 X0.3751 Y0.3151 Z-0.6000
G1 X0.3793 Y0.3159 Z-0.6000
G1 X0.3822 Y0.3168 Z-0.6000
G1 X0.3851 Y0.3178 Z-0.6000
G1 X0.3896 Y0.3196 Z-0.6000
G1 X0.3923 Y0.3208 Z-0.6000
G1 X0.3965 Y0.3231 Z-0.6000
G1 X0.3988 Y0.3245 Z-0.6000
G1 X0.4036 Y0.3277 Z-0.6000
G1 X0.4063 Y0.3297 Z-0.6000
G1 X0.4091 Y0.3321 Z-0.6000
G1 X0.4140 Y0.3366 Z-0.6000
G1 X0.4149 Y0.3375 Z-0.6000
G1 X0.4171 Y0.3401 Z-0.6000
G1 X0.4187 Y0.3422 Z-0.6000
G1 X0.4217 Y0.3469 Z-0.6000
G1 X0.4302 Y0.3614 Z-0.6000
G1 X0.4283 Y1.2583 Z-0.6000
G1 X0.4283 Y1.3010 Z-0.6000
G1 X0.4282 Y1.3091 Z-0.6000
G1 X0.4282 Y1.3518 Z-0.6000
G1 X0.4281 Y1.3599 Z-0.6000
G1 X0.4281 Y1.3953 Z-0.6000
G1 X0.4280 Y1.4035 Z-0.6000
G1 X0.4280 Y1.4388 Z-0.6000
G1 X0.4279 Y1.4470 Z-0.6000
G1 X0.4279 Y1.4896 Z-0.6000
G1 X0.4278 Y1.4978 Z-0.6000
G1 X0.4278 Y1.5331 Z-0.6000
G1 X0.4277 Y1.5413 Z-0.6000
G1 X0.4277 Y1.5694 Z-0.6000
G1 X0.4276 Y1.5776 Z-0.6000
G1 X0.4276 Y1.6129 Z-0.6000
G1 X0.4275 Y1.6211 Z-0.6000
G1 X0.4275 Y1.6492 Z-0.6000
G1 X0.4274 Y1.6574 Z-0.6000
G1 X0.4274 Y1.6854 Z-0.6000
G1 X0.4273 Y1.6936 Z-0.6000
G1 X0.4273 Y1.7145 Z-0.6000
G1 X0.4272 Y1.7226 Z-0.6000
G1 X0.4272 Y1.7435 Z-0.6000
G1 X0.4271 Y1.7516 Z-0.6000
G1 X0.4271 Y1.7725 Z-0.6000
G1 X0.4270 Y1.7807 Z-0.6000
G1 X0.4270 Y1.7943 Z-0.6000
G1 X0.4269 Y1.8024 Z-0.6000
G1 X0.4269 Y1.8233 Z-0.6000
G1 X0.4268 Y1.8314 Z-0.6000
G1 X0.4268 Y1.8450 Z-0.6000
G1 X0.4267 Y1.8532 Z-0.6000
G1 X0.4267 Y1.8596 Z-0.6000
G1 X0.4266 Y1.8677 Z-0.6000
G1 X0.4266 Y1.8813 Z-0.6000
G1 X0.4265 Y1.8895 Z-0.6000
G1 X0.4265 Y1.8958 Z-0.6000
G1 X0.4264 Y1.9040 Z-0.6000
G1 X0.4264 Y1.9103 Z-0.6000
G1 X0.4263 Y1.9185 Z-0.6000
G1 X0.4263 Y1.9249 Z-0.6000
G1 X0.4262 Y1.9330 Z-0.6000
G1 X0.4262 Y1.9394 Z-0.6000
G1 X0.4261 Y1.9475 Z-0.6000
G1 X0.4261 Y1.9538 Z-0.6000
G1 X0.4259 Y1.9693 Z-0.6000
G1 X0.4259 Y1.9756 Z-0.6000
G1 X0.4258 Y1.9829 Z-0.6000
G1 X0.4257 Y1.9910 Z-0.6000
G1 X0.4257 Y1.9974 Z-0.6000
G1 X0.4256 Y2.0046 Z-0.6000
G1 X0.4255 Y2.0119 Z-0.6000
G1 X0.4254 Y2.0191 Z-0.6000
G1 X0.4252 Y2.0337 Z-0.6000
G1 X0.4251 Y2.0409 Z-0.6000
G1 X0.4250 Y2.0482 Z-0.6000
G1 X0.4249 Y2.0546 Z-0.6000
G1 X0.4247 Y2.0627 Z-0.6000
G1 X0.4246 Y2.0691 Z-0.6000
G1 X0.4244 Y2.0772 Z-0.6000
G1 X0.4243 Y2.0836 Z-0.6000
G1 X0.4241 Y2.0909 Z-0.6000
G1 X0.4239 Y2.0981 Z-0.6000
G1 X0.4237 Y2.1054 Z-0.6000
G1 X0.4238 Y2.1054 Z-0.6000
G1 X0.4234 Y2.1126 Z-0.6000
G1 X0.4232 Y2.1193 Z-0.6000
G1 X0.4229 Y2.1262 Z-0.6000
G1 X0.4226 Y2.1326 Z-0.6000
G1 X0.4222 Y2.1398 Z-0.6000
G1 X0.4219 Y2.1454 Z-0.6000
G1 X0.4218 Y2.1454 Z-0.6000
G1 X0.4213 Y2.1518 Z-0.6000
G1 X0.4209 Y2.1564 Z-0.6000
G1 X0.4206 Y2.1588 Z-0.6000
G1 X0.4185 Y2.1612 Z-0.6000
G1 X0.4149 Y2.1650 Z-0.6000
G1 X0.4125 Y2.1675 Z-0.6000
G1 X0.4088 Y2.1710 Z-0.6000
G1 X0.4046 Y2.1747 Z-0.6000
G1 X0.4035 Y2.1756 Z-0.6000
G1 X0.4023 Y2.1764 Z-0.6000
G1 X0.4016 Y2.1768 Z-0.6000
G1 X0.4015 Y2.1768 Z-0.6000
G1 X0.3971 Y2.1782 Z-0.6000
G1 X0.3936 Y2.1790 Z-0.6000
G1 X0.3899 Y2.1798 Z-0.6000
G1 X0.3861 Y2.1804 Z-0.6000
G1 X0.3861 Y2.1803 Z-0.6000
G1 X0.3798 Y2.1811 Z-0.6000
G1 X0.3741 Y2.1817 Z-0.6000
G1 X0.3696 Y2.1821 Z-0.6000
G1 X0.3696 Y2.1820 Z-0.6000
G1 X0.3571 Y2.1828 Z-0.6000
G1 X0.3514 Y2.1750 Z-0.6000
G1 X0.3475 Y2.1696 Z-0.6000
G1 X0.3446 Y2.1653 Z-0.6000
G1 X0.3409 Y2.1597 Z-0.6000
G1 X0.3349 Y2.1503 Z-0.6000
G1 X0.3350 Y2.1503 Z-0.6000
G1 Z-0.7000 F50
G1 X0.3313 Y2.1441 Z-0.7000 F100
G1 X0.3280 Y2.1385 Z-0.7000
G1 X0.3220 Y2.1278 Z-0.7000
G1 X0.3186 Y2.1215 Z-0.7000
G1 X0.3154 Y2.1155 Z-0.7000
G1 X0.3123 Y2.1095 Z-0.7000
G1 X0.3093 Y2.1035 Z-0.7000
G1 X0.3060 Y2.0971 Z-0.7000
G1 X0.3059 Y2.0971 Z-0.7000
G1 X0.3037 Y2.0924 Z-0.7000
G1 X0.3004 Y2.0856 Z-0.7000
G1 X0.2975 Y2.0795 Z-0.7000
G1 X0.2951 Y2.0744 Z-0.7000
G1 X0.2920 Y2.0675 Z-0.7000
G1 X0.2890 Y2.0609 Z-0.7000
G1 X0.2863 Y2.0548 Z-0.7000
G1 X0.2862 Y2.0548 Z-0.7000
G1 X0.2835 Y2.0486 Z-0.7000
G1 X0.2809 Y2.0424 Z-0.7000
G1 X0.2781 Y2.0359 Z-0.7000
G1 X0.2756 Y2.0298 Z-0.7000
G1 X0.2755 Y2.0298 Z-0.7000
G1 X0.2708 Y2.0181 Z-0.7000
G1 X0.2679 Y2.0106 Z-0.7000
G1 X0.2652 Y2.0039 Z-0.7000
G1 X0.2651 Y2.0039 Z-0.7000
G1 X0.2630 Y1.9981 Z-0.7000
G1 X0.2604 Y1.9914 Z-0.7000
G1 X0.2583 Y1.9854 Z-0.7000
G1 X0.2558 Y1.9787 Z-0.7000
G1 X0.2536 Y1.9727 Z-0.7000
G1 X0.2513 Y1.9662 Z-0.7000
G1 X0.2473 Y1.9542 Z-0.7000
G1 X0.2449 Y1.9468 Z-0.7000
G1 X0.2426 Y1.9399 Z-0.7000
G1 X0.2409 Y1.9346 Z-0.7000
G1 X0.2386 Y1.9272 Z-0.7000
G1 X0.2364 Y1.9202 Z-0.7000
G1 X0.2345 Y1.9138 Z-0.7000
G1 X0.2268 Y1.8868 Z-0.7000
G1 X0.2232 Y1.8736 Z-0.7000
G1 X0.2215 Y1.8668 Z-0.7000
G1 X0.2196 Y1.8597 Z-0.7000
G1 X0.2195 Y1.8597 Z-0.7000
G1 X0.2182 Y1.8543 Z-0.7000
G1 X0.2162 Y1.8462 Z-0.7000
G1 X0.2147 Y1.8402 Z-0.7000
G1 X0.2113 Y1.8260 Z-0.7000
G1 X0.2112 Y1.8260 Z-0.7000
G1 X0.2098 Y1.8199 Z-0.7000
G1 X0.2099 Y1.8199 Z-0.7000
G1 X0.2035 Y1.7915 Z-0.7000
G1 X0.2007 Y1.7781 Z-0.7000
G1 X0.1993 Y1.7709 Z-0.7000
G1 X0.1978 Y1.7638 Z-0.7000
G1 X0.1977 Y1.7638 Z-0.7000
G1 X0.1951 Y1.7504 Z-0.7000
G1 X0.1938 Y1.7432 Z-0.7000
G1 X0.1924 Y1.7361 Z-0.7000
G1 X0.1913 Y1.7297 Z-0.7000
G1 X0.1900 Y1.7226 Z-0.7000
G1 X0.1899 Y1.7226 Z-0.7000
G1 X0.1888 Y1.7154 Z-0.7000
G1 X0.1875 Y1.7083 Z-0.7000
G1 X0.1874 Y1.7083 Z-0.7000
G1 X0.1852 Y1.6948 Z-0.7000
G1 X0.1840 Y1.6877 Z-0.7000
G1 X0.1829 Y1.6806 Z-0.7000
G1 X0.1819 Y1.6743 Z-0.7000
G1 X0.1797 Y1.6599 Z-0.7000
G1 X0.1787 Y1.6525 Z-0.7000
G1 X0.1776 Y1.6454 Z-0.7000
G1 X0.1747 Y1.6248 Z-0.7000
G1 X0.1738 Y1.6177 Z-0.7000
G1 X0.1728 Y1.6104 Z-0.7000
G1 X0.1702 Y1.5895 Z-0.7000
G1 X0.1694 Y1.5823 Z-0.7000
G1 X0.1685 Y1.5751 Z-0.7000
G1 X0.1678 Y1.5688 Z-0.7000
G1 X0.1670 Y1.5615 Z-0.7000
G1 X0.1662 Y1.5543 Z-0.7000
G1 X0.1655 Y1.5472 Z-0.7000
G1 X0.1647 Y1.5399 Z-0.7000
G1 X0.1634 Y1.5263 Z-0.7000
G1 X0.1627 Y1.5190 Z-0.7000
G1 X0.1621 Y1.5118 Z-0.7000
G1 X0.1614 Y1.5046 Z-0.7000
G1 X0.1609 Y1.4981 Z-0.7000
G1 X0.1603 Y1.4909 Z-0.7000
G1 X0.1597 Y1.4836 Z-0.7000
G1 X0.1585 Y1.4692 Z-0.7000
G1 X0.1584 Y1.4692 Z-0.7000
G1 X0.1580 Y1.4628 Z-0.7000
G1 X0.1581 Y1.4628 Z-0.7000
G1 X0.1575 Y1.4555 Z-0.7000
G1 X0.1570 Y1.4483 Z-0.7000
G1 X0.1571 Y1.4483 Z-0.7000
G1 X0.1565 Y1.4410 Z-0.7000
G1 X0.1561 Y1.4347 Z-0.7000
G1 X0.1557 Y1.4273 Z-0.7000
G1 X0.1553 Y1.4193 Z-0.7000
G1 X0.1548 Y1.4120 Z-0.7000
G1 X0.1547 Y1.4120 Z-0.7000
G1 X0.1545 Y1.4057 Z-0.7000
G1 X0.1541 Y1.3983 Z-0.7000
G1 X0.1537 Y1.3911 Z-0.7000
G1 X0.1534 Y1.3839 Z-0.7000
G1 X0.1530 Y1.3766 Z-0.7000
G1 X0.1527 Y1.3711 Z-0.7000
G1 X0.1528 Y1.3711 Z-0.7000
G1 X0.1525 Y1.3629 Z-0.7000
G1 X0.1522 Y1.3556 Z-0.7000
G1 X0.1519 Y1.3493 Z-0.7000
G1 X0.1520 Y1.3493 Z-0.7000
G1 X0.1518 Y1.3420 Z-0.7000
G1 X0.1516 Y1.3348 Z-0.7000
G1 X0.1512 Y1.3202 Z-0.7000
G1 X0.1510 Y1.3130 Z-0.7000
G1 X0.1508 Y1.3057 Z-0.7000
G1 X0.1507 Y1.2992 Z-0.7000
G1 X0.1506 Y1.2920 Z-0.7000
G1 X0.1504 Y1.2774 Z-0.7000
G1 X0.1503 Y1.2711 Z-0.7000
G1 X0.1503 Y1.2629 Z-0.7000
G1 X0.1502 Y1.2565 Z-0.7000
G1 X0.1502 Y1.2356 Z-0.7000
G1 X0.1503 Y1.2275 Z-0.7000
G1 X0.1503 Y1.2211 Z-0.7000
G1 X0.1505 Y1.2065 Z-0.7000
G1 X0.1506 Y1.1993 Z-0.7000
G1 X0.1508 Y1.1855 Z-0.7000
G1 X0.1510 Y1.1775 Z-0.7000
G1 X0.1511 Y1.1710 Z-0.7000
G1 X0.1513 Y1.1637 Z-0.7000
G1 X0.1515 Y1.1565 Z-0.7000
G1 X0.1517 Y1.1492 Z-0.7000
G1 X0.1516 Y1.1492 Z-0.7000
G1 X0.1520 Y1.1420 Z-0.7000
G1 X0.1522 Y1.1347 Z-0.7000
G1 X0.1521 Y1.1347 Z-0.7000
G1 X0.1524 Y1.1283 Z-0.7000
G1 X0.1527 Y1.1211 Z-0.7000
G1 X0.1533 Y1.1065 Z-0.7000
G1 X0.1536 Y1.1001 Z-0.7000
G1 X0.1540 Y1.0929 Z-0.7000
G1 X0.1548 Y1.0784 Z-0.7000
G1 X0.1560 Y1.0565 Z-0.7000
G1 X0.1565 Y1.0502 Z-0.7000
G1 X0.1570 Y1.0429 Z-0.7000
G1 X0.1569 Y1.0429 Z-0.7000
G1 X0.1575 Y1.0357 Z-0.7000
G1 X0.1580 Y1.0284 Z-0.7000
G1 X0.1579 Y1.0284 Z-0.7000
G1 X0.1583 Y1.0220 Z-0.7000
G1 X0.1584 Y1.0220 Z-0.7000
G1 X0.1590 Y1.0139 Z-0.7000
G1 X0.1594 Y1.0075 Z-0.7000
G1 X0.1595 Y1.0075 Z-0.7000
G1 X0.1601 Y1.0003 Z-0.7000
G1 X0.1612 Y0.9867 Z-0.7000
G1 X0.1620 Y0.9786 Z-0.7000
G1 X0.1625 Y0.9722 Z-0.7000
G1 X0.1632 Y0.9650 Z-0.7000
G1 X0.1639 Y0.9577 Z-0.7000
G1 X0.1652 Y0.9441 Z-0.7000
G1 X0.1660 Y0.9369 Z-0.7000
G1 X0.1676 Y0.9224 Z-0.7000
G1 X0.1699 Y0.9017 Z-0.7000
G1 X0.1734 Y0.8737 Z-0.7000
G1 X0.1745 Y0.8657 Z-0.7000
G1 X0.1753 Y0.8592 Z-0.7000
G1 X0.1763 Y0.8521 Z-0.7000
G1 X0.1782 Y0.8385 Z-0.7000
G1 X0.1805 Y0.8233 Z-0.7000
G1 X0.1815 Y0.8161 Z-0.7000
G1 X0.1826 Y0.8097 Z-0.7000
G1 X0.1837 Y0.8027 Z-0.7000
G1 X0.1848 Y0.7956 Z-0.7000
G1 X0.1847 Y0.7956 Z-0.7000
G1 X0.1880 Y0.7757 Z-0.7000
G1 X0.1881 Y0.7757 Z-0.7000
G1 X0.1895 Y0.7676 Z-0.7000
G1 X0.1905 Y0.7614 Z-0.7000
G1 X0.1906 Y0.7614 Z-0.7000
G1 X0.1919 Y0.7541 Z-0.7000
G1 X0.1930 Y0.7479 Z-0.7000
G1 X0.1946 Y0.7398 Z-0.7000
G1 X0.1957 Y0.7336 Z-0.7000
G1 X0.1986 Y0.7192 Z-0.7000
G1 X0.1998 Y0.7130 Z-0.7000
G1 X0.2071 Y0.6783 Z-0.7000
G1 X0.2101 Y0.6650 Z-0.7000
G1 X0.2118 Y0.6579 Z-0.7000
G1 X0.2136 Y0.6509 Z-0.7000
G1 X0.2151 Y0.6446 Z-0.7000
G1 X0.2166 Y0.6385 Z-0.7000
G1 X0.2187 Y0.6307 Z-0.7000
G1 X0.2203 Y0.6243 Z-0.7000
G1 X0.2204 Y0.6243 Z-0.7000
G1 X0.2222 Y0.6174 Z-0.7000
G1 X0.2258 Y0.6042 Z-0.7000
G1 X0.2301 Y0.5892 Z-0.7000
G1 X0.2315 Y0.5839 Z-0.7000
G1 X0.2337 Y0.5763 Z-0.7000
G1 X0.2358 Y0.5692 Z-0.7000
G1 X0.2376 Y0.5630 Z-0.7000
G1 X0.2399 Y0.5552 Z-0.7000
G1 X0.2417 Y0.5490 Z-0.7000
G1 X0.2437 Y0.5422 Z-0.7000
G1 X0.2459 Y0.5351 Z-0.7000
G1 X0.2501 Y0.5211 Z-0.7000
G1 X0.2500 Y0.5211 Z-0.7000
G1 X0.2523 Y0.5142 Z-0.7000
G1 X0.2544 Y0.5072 Z-0.7000
G1 X0.2543 Y0.5072 Z-0.7000
G1 X0.2563 Y0.5010 Z-0.7000
G1 X0.2584 Y0.4943 Z-0.7000
G1 X0.2607 Y0.4871 Z-0.7000
G1 X0.2626 Y0.4812 Z-0.7000
G1 X0.2651 Y0.4735 Z-0.7000
G1 X0.2671 Y0.4674 Z-0.7000
G1 X0.2717 Y0.4536 Z-0.7000
G1 X0.2741 Y0.4467 Z-0.7000
G1 X0.2764 Y0.4398 Z-0.7000
G1 X0.2763 Y0.4398 Z-0.7000
G1 X0.2781 Y0.4347 Z-0.7000
G1 X0.2782 Y0.4347 Z-0.7000
G1 X0.2810 Y0.4268 Z-0.7000
G1 X0.2828 Y0.4217 Z-0.7000
G1 X0.2873 Y0.4099 Z-0.7000
G1 X0.2901 Y0.4032 Z-0.7000
G1 X0.2900 Y0.4032 Z-0.7000
G1 X0.2908 Y0.4015 Z-0.7000
G1 X0.2915 Y0.4002 Z-0.7000
G1 X0.2945 Y0.3962 Z-0.7000
G1 X0.2992 Y0.3895 Z-0.7000
G1 X0.3031 Y0.3837 Z-0.7000
G1 X0.3076 Y0.3770 Z-0.7000
G1 X0.3112 Y0.3714 Z-0.7000
G1 X0.3158 Y0.3644 Z-0.7000
G1 X0.3193 Y0.3588 Z-0.7000
G1 X0.3234 Y0.3525 Z-0.7000
G1 X0.3268 Y0.3472 Z-0.7000
G1 X0.3307 Y0.3412 Z-0.7000
G1 X0.3329 Y0.3379 Z-0.7000
G1 X0.3360 Y0.3336 Z-0.7000
G1 X0.3399 Y0.3285 Z-0.7000
G1 X0.3424 Y0.3256 Z-0.7000
G1 X0.3443 Y0.3235 Z-0.7000
G1 X0.3469 Y0.3211 Z-0.7000
G1 X0.3496 Y0.3189 Z-0.7000
G1 X0.3505 Y0.3183 Z-0.7000
G1 X0.3520 Y0.3175 Z-0.7000
G1 X0.3529 Y0.3171 Z-0.7000
G1 X0.3540 Y0.3167 Z-0.7000
G1 X0.3571 Y0.3159 Z-0.7000
G1 X0.3587 Y0.3157 Z-0.7000
G1 X0.3641 Y0.3150 Z-0.7000
G1 X0.3663 Y0.3149 Z-0.7000
G1 X0.3719 Y0.3148 Z-0.7000
G1 X0.3731 Y0.3149 Z-0.7000
G1 X0.3751 Y0.3151 Z-0.7000
G1 X0.3793 Y0.3159 Z-0.7000
G1 X0.3822 Y0.3168 Z-0.7000
G1 X0.3851 Y0.3178 Z-0.7000
G1 X0.3896 Y0.3196 Z-0.7000
G1 X0.3923 Y0.3208 Z-0.7000
G1 X0.3965 Y0.3231 Z-0.7000
G1 X0.3988 Y0.3245 Z-0.7000
G1 X0.4036 Y0.3277 Z-0.7000
G1 X0.4063 Y0.3297 Z-0.7000
G1 X0.4091 Y0.3321 Z-0.7000
G1 X0.4140 Y0.3366 Z-0.7000
G1 X0.4149 Y0.3375 Z-0.7000
G1 X0.4171 Y0.3401 Z-0.7000
G1 X0.4187 Y0.3422 Z-0.7000
G1 X0.4217 Y0.3469 Z-0.7000
G1 X0.4302 Y0.3614 Z-0.7000
G1 X0.4283 Y1.2583 Z-0.7000
G1 X0.4283 Y1.3010 Z-0.7000
G1 X0.4282 Y1.3091 Z-0.7000
G1 X0.4282 Y1.3518 Z-0.7000
G1 X0.4281 Y1.3599 Z-0.7000
G1 X0.4281 Y1.3953 Z-0.7000
G1 X0.4280 Y1.4035 Z-0.7000
G1 X0.4280 Y1.4388 Z-0.7000
G1 X0.4279 Y1.4470 Z-0.7000
G1 X0.4279 Y1.4896 Z-0.7000
G1 X0.4278 Y1.4978 Z-0.7000
G1 X0.4278 Y1.5331 Z-0.7000
G1 X0.4277 Y1.5413 Z-0.7000
G1 X0.4277 Y1.5694 Z-0.7000
G1 X0.4276 Y1.5776 Z-0.7000
G1 X0.4276 Y1.6129 Z-0.7000
G1 X0.4275 Y1.6211 Z-0.7000
G1 X0.4275 Y1.6492 Z-0.7000
G1 X0.4274 Y1.6574 Z-0.7000
G1 X0.4274 Y1.6854 Z-0.7000
G1 X0.4273 Y1.6936 Z-0.7000
G1 X0.4273 Y1.7145 Z-0.7000
G1 X0.4272 Y1.7226 Z-0.7000
G1 X0.4272 Y1.7435 Z-0.7000
G1 X0.4271 Y1.7516 Z-0.7000
G1 X0.4271 Y1.7725 Z-0.7000
G1 X0.4270 Y1.7807 Z-0.7000
G1 X0.4270 Y1.7943 Z-0.7000
G1 X0.4269 Y1.8024 Z-0.7000
G1 X0.4269 Y1.8233 Z-0.7000
G1 X0.4268 Y1.8314 Z-0.7000
G1 X0.4268 Y1.8450 Z-0.7000
G1 X0.4267 Y1.8532 Z-0.7000
G1 X0.4267 Y1.8596 Z-0.7000
G1 X0.4266 Y1.8677 Z-0.7000
G1 X0.4266 Y1.8813 Z-0.7000
G1 X0.4265 Y1.8895 Z-0.7000
G1 X0.4265 Y1.8958 Z-0.7000
G1 X0.4264 Y1.9040 Z-0.7000
G1 X0.4264 Y1.9103 Z-0.7000
G1 X0.4263 Y1.9185 Z-0.7000
G1 X0.4263 Y1.9249 Z-0.7000
G1 X0.4262 Y1.9330 Z-0.7000
G1 X0.4262 Y1.9394 Z-0.7000
G1 X0.4261 Y1.9475 Z-0.7000
G1 X0.4261 Y1.9538 Z-0.7000
G1 X0.4259 Y1.9693 Z-0.7000
G1 X0.4259 Y1.9756 Z-0.7000
G1 X0.4258 Y1.9829 Z-0.7000
G1 X0.4257 Y1.9910 Z-0.7000
G1 X0.4257 Y1.9974 Z-0.7000
G1 X0.4256 Y2.0046 Z-0.7000
G1 X0.4255 Y2.0119 Z-0.7000
G1 X0.4254 Y2.0191 Z-0.7000
G1 X0.4252 Y2.0337 Z-0.7000
G1 X0.4251 Y2.0409 Z-0.7000
G1 X0.4250 Y2.0482 Z-0.7000
G1 X0.4249 Y2.0546 Z-0.7000
G1 X0.4247 Y2.0627 Z-0.7000
G1 X0.4246 Y2.0691 Z-0.7000
G1 X0.4244 Y2.0772 Z-0.7000
G1 X0.4243 Y2.0836 Z-0.7000
G1 X0.4241 Y2.0909 Z-0.7000
G1 X0.4239 Y2.0981 Z-0.7000
G1 X0.4237 Y2.1054 Z-0.7000
G1 X0.4238 Y2.1054 Z-0.7000
G1 X0.4234 Y2.1126 Z-0.7000
G1 X0.4232 Y2.1193 Z-0.7000
G1 X0.4229 Y2.1262 Z-0.7000
G1 X0.4226 Y2.1326 Z-0.7000
G1 X0.4222 Y2.1398 Z-0.7000
G1 X0.4219 Y2.1454 Z-0.7000
G1 X0.4218 Y2.1454 Z-0.7000
G1 X0.4213 Y2.1518 Z-0.7000
G1 X0.4209 Y2.1564 Z-0.7000
G1 X0.4206 Y2.1588 Z-0.7000
G1 X0.4185 Y2.1612 Z-0.7000
G1 X0.4149 Y2.1650 Z-0.7000
G1 X0.4125 Y2.1675 Z-0.7000
G1 X0.4088 Y2.1710 Z-0.7000
G1 X0.4046 Y2.1747 Z-0.7000
G1 X0.4035 Y2.1756 Z-0.7000
G1 X0.4023 Y2.1764 Z-0.7000
G1 X0.4016 Y2.1768 Z-0.7000
G1 X0.4015 Y2.1768 Z-0.7000
G1 X0.3971 Y2.1782 Z-0.7000
G1 X0.3936 Y2.1790 Z-0.7000
G1 X0.3899 Y2.1798 Z-0.7000
G1 X0.3861 Y2.1804 Z-0.7000
G1 X0.3861 Y2.1803 Z-0.7000
G1 X0.3798 Y2.1811 Z-0.7000
G1 X0.3741 Y2.1817 Z-0.7000
G1 X0.3696 Y2.1821 Z-0.7000
G1 X0.3696 Y2.1820 Z-0.7000
G1 X0.3571 Y2.1828 Z-0.7000
G1 X0.3514 Y2.1750 Z-0.7000
G1 X0.3475 Y2.1696 Z-0.7000
G1 X0.3446 Y2.1653 Z-0.7000
G1 X0.3409 Y2.1597 Z-0.7000
G1 X0.3349 Y2.1503 Z-0.7000
G1 X0.3350 Y2.1503 Z-0.7000
G1 Z-0.8000 F50
G1 X0.3313 Y2.1441 Z-0.8000 F100
G1 X0.3280 Y2.1385 Z-0.8000
G1 X0.3220 Y2.1278 Z-0.8000
G1 X0.3186 Y2.1215 Z-0.8000
G1 X0.3154 Y2.1155 Z-0.8000
G1 X0.3123 Y2.1095 Z-0.8000
G1 X0.3093 Y2.1035 Z-0.8000
G1 X0.3060 Y2.0971 Z-0.8000
G1 X0.3059 Y2.0971 Z-0.8000
G1 X0.3037 Y2.0924 Z-0.8000
G1 X0.3004 Y2.0856 Z-0.8000
G1 X0.2975 Y2.0795 Z-0.8000
G1 X0.2951 Y2.0744 Z-0.8000
G1 X0.2920 Y2.0675 Z-0.8000
G1 X0.2890 Y2.0609 Z-0.8000
G1 X0.2863 Y2.0548 Z-0.8000
G1 X0.2862 Y2.0548 Z-0.8000
G1 X0.2835 Y2.0486 Z-0.8000
G1 X0.2809 Y2.0424 Z-0.8000
G1 X0.2781 Y2.0359 Z-0.8000
G1 X0.2756 Y2.0298 Z-0.8000
G1 X0.2755 Y2.0298 Z-0.8000
G1 X0.2708 Y2.0181 Z-0.8000
G1 X0.2679 Y2.0106 Z-0.8000
G1 X0.2652 Y2.0039 Z-0.8000
G1 X0.2651 Y2.0039 Z-0.8000
G1 X0.2630 Y1.9981 Z-0.8000
G1 X0.2604 Y1.9914 Z-0.8000
G1 X0.2583 Y1.9854 Z-0.8000
G1 X0.2558 Y1.9787 Z-0.8000
G1 X0.2536 Y1.9727 Z-0.8000
G1 X0.2513 Y1.9662 Z-0.8000
G1 X0.2473 Y1.9542 Z-0.8000
G1 X0.2449 Y1.9468 Z-0.8000
G1 X0.2426 Y1.9399 Z-0.8000
G1 X0.2409 Y1.9346 Z-0.8000
G1 X0.2386 Y1.9272 Z-0.8000
G1 X0.2364 Y1.9202 Z-0.8000
G1 X0.2345 Y1.9138 Z-0.8000
G1 X0.2268 Y1.8868 Z-0.8000
G1 X0.2232 Y1.8736 Z-0.8000
G1 X0.2215 Y1.8668 Z-0.8000
G1 X0.2196 Y1.8597 Z-0.8000
G1 X0.2195 Y1.8597 Z-0.8000
G1 X0.2182 Y1.8543 Z-0.8000
G1 X0.2162 Y1.8462 Z-0.8000
G1 X0.2147 Y1.8402 Z-0.8000
G1 X0.2113 Y1.8260 Z-0.8000
G1 X0.2112 Y1.8260 Z-0.8000
G1 X0.2098 Y1.8199 Z-0.8000
G1 X0.2099 Y1.8199 Z-0.8000
G1 X0.2035 Y1.7915 Z-0.8000
G1 X0.2007 Y1.7781 Z-0.8000
G1 X0.1993 Y1.7709 Z-0.8000
G1 X0.1978 Y1.7638 Z-0.8000
G1 X0.1977 Y1.7638 Z-0.8000
G1 X0.1951 Y1.7504 Z-0.8000
G1 X0.1938 Y1.7432 Z-0.8000
G1 X0.1924 Y1.7361 Z-0.8000
G1 X0.1913 Y1.7297 Z-0.8000
G1 X0.1900 Y1.7226 Z-0.8000
G1 X0.1899 Y1.7226 Z-0.8000
G1 X0.1888 Y1.7154 Z-0.8000
G1 X0.1875 Y1.7083 Z-0.8000
G1 X0.1874 Y1.7083 Z-0.8000
G1 X0.1852 Y1.6948 Z-0.8000
G1 X0.1840 Y1.6877 Z-0.8000
G1 X0.1829 Y1.6806 Z-0.8000
G1 X0.1819 Y1.6743 Z-0.8000
G1 X0.1797 Y1.6599 Z-0.8000
G1 X0.1787 Y1.6525 Z-0.8000
G1 X0.1776 Y1.6454 Z-0.8000
G1 X0.1747 Y1.6248 Z-0.8000
G1 X0.1738 Y1.6177 Z-0.8000
G1 X0.1728 Y1.6104 Z-0.8000
G1 X0.1702 Y1.5895 Z-0.8000
G1 X0.1694 Y1.5823 Z-0.8000
G1 X0.1685 Y1.5751 Z-0.8000
G1 X0.1678 Y1.5688 Z-0.8000
G1 X0.1670 Y1.5615 Z-0.8000
G1 X0.1662 Y1.5543 Z-0.8000
G1 X0.1655 Y1.5472 Z-0.8000
G1 X0.1647 Y1.5399 Z-0.8000
G1 X0.1634 Y1.5263 Z-0.8000
G1 X0.1627 Y1.5190 Z-0.8000
G1 X0.1621 Y1.5118 Z-0.8000
G1 X0.1614 Y1.5046 Z-0.8000
G1 X0.1609 Y1.4981 Z-0.8000
G1 X0.1603 Y1.4909 Z-0.8000
G1 X0.1597 Y1.4836 Z-0.8000
G1 X0.1585 Y1.4692 Z-0.8000
G1 X0.1584 Y1.4692 Z-0.8000
G1 X0.1580 Y1.4628 Z-0.8000
G1 X0.1581 Y1.4628 Z-0.8000
G1 X0.1575 Y1.4555 Z-0.8000
G1 X0.1570 Y1.4483 Z-0.8000
G1 X0.1571 Y1.4483 Z-0.8000
G1 X0.1565 Y1.4410 Z-0.8000
G1 X0.1561 Y1.4347 Z-0.8000
G1 X0.1557 Y1.4273 Z-0.8000
G1 X0.1553 Y1.4193 Z-0.8000
G1 X0.1548 Y1.4120 Z-0.8000
G1 X0.1547 Y1.4120 Z-0.8000
G1 X0.1545 Y1.4057 Z-0.8000
G1 X0.1541 Y1.3983 Z-0.8000
G1 X0.1537 Y1.3911 Z-0.8000
G1 X0.1534 Y1.3839 Z-0.8000
G1 X0.1530 Y1.3766 Z-0.8000
G1 X0.1527 Y1.3711 Z-0.8000
G1 X0.1528 Y1.3711 Z-0.8000
G1 X0.1525 Y1.3629 Z-0.8000
G1 X0.1522 Y1.3556 Z-0.8000
G1 X0.1519 Y1.3493 Z-0.8000
G1 X0.1520 Y1.3493 Z-0.8000
G1 X0.1518 Y1.3420 Z-0.8000
G1 X0.1516 Y1.3348 Z-0.8000
G1 X0.1512 Y1.3202 Z-0.8000
G1 X0.1510 Y1.3130 Z-0.8000
G1 X0.1508 Y1.3057 Z-0.8000
G1 X0.1507 Y1.2992 Z-0.8000
G1 X0.1506 Y1.2920 Z-0.8000
G1 X0.1504 Y1.2774 Z-0.8000
G1 X0.1503 Y1.2711 Z-0.8000
G1 X0.1503 Y1.2629 Z-0.8000
G1 X0.1502 Y1.2565 Z-0.8000
G1 X0.1502 Y1.2356 Z-0.8000
G1 X0.1503 Y1.2275 Z-0.8000
G1 X0.1503 Y1.2211 Z-0.8000
G1 X0.1505 Y1.2065 Z-0.8000
G1 X0.1506 Y1.1993 Z-0.8000
G1 X0.1508 Y1.1855 Z-0.8000
G1 X0.1510 Y1.1775 Z-0.8000
G1 X0.1511 Y1.1710 Z-0.8000
G1 X0.1513 Y1.1637 Z-0.8000
G1 X0.1515 Y1.1565 Z-0.8000
G1 X0.1517 Y1.1492 Z-0.8000
G1 X0.1516 Y1.1492 Z-0.8000
G1 X0.1520 Y1.1420 Z-0.8000
G1 X0.1522 Y1.1347 Z-0.8000
G1 X0.1521 Y1.1347 Z-0.8000
G1 X0.1524 Y1.1283 Z-0.8000
G1 X0.1527 Y1.1211 Z-0.8000
G1 X0.1533 Y1.1065 Z-0.8000
G1 X0.1536 Y1.1001 Z-0.8000
G1 X0.1540 Y1.0929 Z-0.8000
G1 X0.1548 Y1.0784 Z-0.8000
G1 X0.1560 Y1.0565 Z-0.8000
G1 X0.1565 Y1.0502 Z-0.8000
G1 X0.1570 Y1.0429 Z-0.8000
G1 X0.1569 Y1.0429 Z-0.8000
G1 X0.1575 Y1.0357 Z-0.8000
G1 X0.1580 Y1.0284 Z-0.8000
G1 X0.1579 Y1.0284 Z-0.8000
G1 X0.1583 Y1.0220 Z-0.8000
G1 X0.1584 Y1.0220 Z-0.8000
G1 X0.1590 Y1.0139 Z-0.8000
G1 X0.1594 Y1.0075 Z-0.8000
G1 X0.1595 Y1.0075 Z-0.8000
G1 X0.1601 Y1.0003 Z-0.8000
G1 X0.1612 Y0.9867 Z-0.8000
G1 X0.1620 Y0.9786 Z-0.8000
G1 X0.1625 Y0.9722 Z-0.8000
G1 X0.1632 Y0.9650 Z-0.8000
G1 X0.1639 Y0.9577 Z-0.8000
G1 X0.1652 Y0.9441 Z-0.8000
G1 X0.1660 Y0.9369 Z-0.8000
G1 X0.1676 Y0.9224 Z-0.8000
G1 X0.1699 Y0.9017 Z-0.8000
G1 X0.1734 Y0.8737 Z-0.8000
G1 X0.1745 Y0.8657 Z-0.8000
G1 X0.1753 Y0.8592 Z-0.8000
G1 X0.1763 Y0.8521 Z-0.8000
G1 X0.1782 Y0.8385 Z-0.8000
G1 X0.1805 Y0.8233 Z-0.8000
G1 X0.1815 Y0.8161 Z-0.8000
G1 X0.1826 Y0.8097 Z-0.8000
G1 X0.1837 Y0.8027 Z-0.8000
G1 X0.1848 Y0.7956 Z-0.8000
G1 X0.1847 Y0.7956 Z-0.8000
G1 X0.1880 Y0.7757 Z-0.8000
G1 X0.1881 Y0.7757 Z-0.8000
G1 X0.1895 Y0.7676 Z-0.8000
G1 X0.1905 Y0.7614 Z-0.8000
G1 X0.1906 Y0.7614 Z-0.8000
G1 X0.1919 Y0.7541 Z-0.8000
G1 X0.1930 Y0.7479 Z-0.8000
G1 X0.1946 Y0.7398 Z-0.8000
G1 X0.1957 Y0.7336 Z-0.8000
G1 X0.1986 Y0.7192 Z-0.8000
G1 X0.1998 Y0.7130 Z-0.8000
G1 X0.2071 Y0.6783 Z-0.8000
G1 X0.2101 Y0.6650 Z-0.8000
G1 X0.2118 Y0.6579 Z-0.8000
G1 X0.2136 Y0.6509 Z-0.8000
G1 X0.2151 Y0.6446 Z-0.8000
G1 X0.2166 Y0.6385 Z-0.8000
G1 X0.2187 Y0.6307 Z-0.8000
G1 X0.2203 Y0.6243 Z-0.8000
G1 X0.2204 Y0.6243 Z-0.8000
G1 X0.2222 Y0.6174 Z-0.8000
G1 X0.2258 Y0.6042 Z-0.8000
G1 X0.2301 Y0.5892 Z-0.8000
G1 X0.2315 Y0.5839 Z-0.8000
G1 X0.2337 Y0.5763 Z-0.8000
G1 X0.2358 Y0.5692 Z-0.8000
G1 X0.2376 Y0.5630 Z-0.8000
G1 X0.2399 Y0.5552 Z-0.8000
G1 X0.2417 Y0.5490 Z-0.8000
G1 X0.2437 Y0.5422 Z-0.8000
G1 X0.2459 Y0.5351 Z-0.8000
G1 X0.2501 Y0.5211 Z-0.8000
G1 X0.2500 Y0.5211 Z-0.8000
G1 X0.2523 Y0.5142 Z-0.8000
G1 X0.2544 Y0.5072 Z-0.8000
G1 X0.2543 Y0.5072 Z-0.8000
G1 X0.2563 Y0.5010 Z-0.8000
G1 X0.2584 Y0.4943 Z-0.8000
G1 X0.2607 Y0.4871 Z-0.8000
G1 X0.2626 Y0.4812 Z-0.8000
G1 X0.2651 Y0.4735 Z-0.8000
G1 X0.2671 Y0.4674 Z-0.8000
G1 X0.2717 Y0.4536 Z-0.8000
G1 X0.2741 Y0.4467 Z-0.8000
G1 X0.2764 Y0.4398 Z-0.8000
G1 X0.2763 Y0.4398 Z-0.8000
G1 X0.2781 Y0.4347 Z-0.8000
G1 X0.2782 Y0.4347 Z-0.8000
G1 X0.2810 Y0.4268 Z-0.8000
G1 X0.2828 Y0.4217 Z-0.8000
G1 X0.2873 Y0.4099 Z-0.8000
G1 X0.2901 Y0.4032 Z-0.8000
G1 X0.2900 Y0.4032 Z-0.8000
G1 X0.2908 Y0.4015 Z-0.8000
G1 X0.2915 Y0.4002 Z-0.8000
G1 X0.2945 Y0.3962 Z-0.8000
G1 X0.2992 Y0.3895 Z-0.8000
G1 X0.3031 Y0.3837 Z-0.8000
G1 X0.3076 Y0.3770 Z-0.8000
G1 X0.3112 Y0.3714 Z-0.8000
G1 X0.3158 Y0.3644 Z-0.8000
G1 X0.3193 Y0.3588 Z-0.8000
G1 X0.3234 Y0.3525 Z-0.8000
G1 X0.3268 Y0.3472 Z-0.8000
G1 X0.3307 Y0.3412 Z-0.8000
G1 X0.3329 Y0.3379 Z-0.8000
G1 X0.3360 Y0.3336 Z-0.8000
G1 X0.3399 Y0.3285 Z-0.8000
G1 X0.3424 Y0.3256 Z-0.8000
G1 X0.3443 Y0.3235 Z-0.8000
G1 X0.3469 Y0.3211 Z-0.8000
G1 X0.3496 Y0.3189 Z-0.8000
G1 X0.3505 Y0.3183 Z-0.8000
G1 X0.3520 Y0.3175 Z-0.8000
G1 X0.3529 Y0.3171 Z-0.8000
G1 X0.3540 Y0.3167 Z-0.8000
G1 X0.3571 Y0.3159 Z-0.8000
G1 X0.3587 Y0.3157 Z-0.8000
G1 X0.3641 Y0.3150 Z-0.8000
G1 X0.3663 Y0.3149 Z-0.8000
G1 X0.3719 Y0.3148 Z-0.8000
G1 X0.3731 Y0.3149 Z-0.8000
G1 X0.3751 Y0.3151 Z-0.8000
G1 X0.3793 Y0.3159 Z-0.8000
G1 X0.3822 Y0.3168 Z-0.8000
G1 X0.3851 Y0.3178 Z-0.8000
G1 X0.3896 Y0.3196 Z-0.8000
G1 X0.3923 Y0.3208 Z-0.8000
G1 X0.3965 Y0.3231 Z-0.8000
G1 X0.3988 Y0.3245 Z-0.8000
G1 X0.4036 Y0.3277 Z-0.8000
G1 X0.4063 Y0.3297 Z-0.8000
G1 X0.4091 Y0.3321 Z-0.8000
G1 X0.4140 Y0.3366 Z-0.8000
G1 X0.4149 Y0.3375 Z-0.8000
G1 X0.4171 Y0.3401 Z-0.8000
G1 X0.4187 Y0.3422 Z-0.8000
G1 X0.4217 Y0.3469 Z-0.8000
G1 X0.4302 Y0.3614 Z-0.8000
G1 X0.4283 Y1.2583 Z-0.8000
G1 X0.4283 Y1.3010 Z-0.8000
G1 X0.4282 Y1.3091 Z-0.8000
G1 X0.4282 Y1.3518 Z-0.8000
G1 X0.4281 Y1.3599 Z-0.8000
G1 X0.4281 Y1.3953 Z-0.8000
G1 X0.4280 Y1.4035 Z-0.8000
G1 X0.4280 Y1.4388 Z-0.8000
G1 X0.4279 Y1.4470 Z-0.8000
G1 X0.4279 Y1.4896 Z-0.8000
G1 X0.4278 Y1.4978 Z-0.8000
G1 X0.4278 Y1.5331 Z-0.8000
G1 X0.4277 Y1.5413 Z-0.8000
G1 X0.4277 Y1.5694 Z-0.8000
G1 X0.4276 Y1.5776 Z-0.8000
G1 X0.4276 Y1.6129 Z-0.8000
G1 X0.4275 Y1.6211 Z-0.8000
G1 X0.4275 Y1.6492 Z-0.8000
G1 X0.4274 Y1.6574 Z-0.8000
G1 X0.4274 Y1.6854 Z-0.8000
G1 X0.4273 Y1.6936 Z-0.8000
G1 X0.4273 Y1.7145 Z-0.8000
G1 X0.4272 Y1.7226 Z-0.8000
G1 X0.4272 Y1.7435 Z-0.8000
G1 X0.4271 Y1.7516 Z-0.8000
G1 X0.4271 Y1.7725 Z-0.8000
G1 X0.4270 Y1.7807 Z-0.8000
G1 X0.4270 Y1.7943 Z-0.8000
G1 X0.4269 Y1.8024 Z-0.8000
G1 X0.4269 Y1.8233 Z-0.8000
G1 X0.4268 Y1.8314 Z-0.8000
G1 X0.4268 Y1.8450 Z-0.8000
G1 X0.4267 Y1.8532 Z-0.8000
G1 X0.4267 Y1.8596 Z-0.8000
G1 X0.4266 Y1.8677 Z-0.8000
G1 X0.4266 Y1.8813 Z-0.8000
G1 X0.4265 Y1.8895 Z-0.8000
G1 X0.4265 Y1.8958 Z-0.8000
G1 X0.4264 Y1.9040 Z-0.8000
G1 X0.4264 Y1.9103 Z-0.8000
G1 X0.4263 Y1.9185 Z-0.8000
G1 X0.4263 Y1.9249 Z-0.8000
G1 X0.4262 Y1.9330 Z-0.8000
G1 X0.4262 Y1.9394 Z-0.8000
G1 X0.4261 Y1.9475 Z-0.8000
G1 X0.4261 Y1.9538 Z-0.8000
G1 X0.4259 Y1.9693 Z-0.8000
G1 X0.4259 Y1.9756 Z-0.8000
G1 X0.4258 Y1.9829 Z-0.8000
G1 X0.4257 Y1.9910 Z-0.8000
G1 X0.4257 Y1.9974 Z-0.8000
G1 X0.4256 Y2.0046 Z-0.8000
G1 X0.4255 Y2.0119 Z-0.8000
G1 X0.4254 Y2.0191 Z-0.8000
G1 X0.4252 Y2.0337 Z-0.8000
G1 X0.4251 Y2.0409 Z-0.8000
G1 X0.4250 Y2.0482 Z-0.8000
G1 X0.4249 Y2.0546 Z-0.8000
G1 X0.4247 Y2.0627 Z-0.8000
G1 X0.4246 Y2.0691 Z-0.8000
G1 X0.4244 Y2.0772 Z-0.8000
G1 X0.4243 Y2.0836 Z-0.8000
G1 X0.4241 Y2.0909 Z-0.8000
G1 X0.4239 Y2.0981 Z-0.8000
G1 X0.4237 Y2.1054 Z-0.8000
G1 X0.4238 Y2.1054 Z-0.8000
G1 X0.4234 Y2.1126 Z-0.8000
G1 X0.4232 Y2.1193 Z-0.8000
G1 X0.4229 Y2.1262 Z-0.8000
G1 X0.4226 Y2.1326 Z-0.8000
G1 X0.4222 Y2.1398 Z-0.8000
G1 X0.4219 Y2.1454 Z-0.8000
G1 X0.4218 Y2.1454 Z-0.8000
G1 X0.4213 Y2.1518 Z-0.8000
G1 X0.4209 Y2.1564 Z-0.8000
G1 X0.4206 Y2.1588 Z-0.8000
G1 X0.4185 Y2.1612 Z-0.8000
G1 X0.4149 Y2.1650 Z-0.8000
G1 X0.4125 Y2.1675 Z-0.8000
G1 X0.4088 Y2.1710 Z-0.8000
G1 X0.4046 Y2.1747 Z-0.8000
G1 X0.4035 Y2.1756 Z-0.8000
G1 X0.4023 Y2.1764 Z-0.8000
G1 X0.4016 Y2.1768 Z-0.8000
G1 X0.4015 Y2.1768 Z-0.8000
G1 X0.3971 Y2.1782 Z-0.8000
G1 X0.3936 Y2.1790 Z-0.8000
G1 X0.3899 Y2.1798 Z-0.8000
G1 X0.3861 Y2.1804 Z-0.8000
G1 X0.3861 Y2.1803 Z-0.8000
G1 X0.3798 Y2.1811 Z-0.8000
G1 X0.3741 Y2.1817 Z-0.8000
G1 X0.3696 Y2.1821 Z-0.8000
G1 X0.3696 Y2.1820 Z-0.8000
G1 X0.3571 Y2.1828 Z-0.8000
G1 X0.3514 Y2.1750 Z-0.8000
G1 X0.3475 Y2.1696 Z-0.8000
G1 X0.3446 Y2.1653 Z-0.8000
G1 X0.3409 Y2.1597 Z-0.8000
G1 X0.3349 Y2.1503 Z-0.8000
G1 X0.3350 Y2.1503 Z-0.8000
G1 Z-0.9000 F50
G1 X0.3313 Y2.1441 Z-0.9000 F100
G1 X0.3280 Y2.1385 Z-0.9000
G1 X0.3220 Y2.1278 Z-0.9000
G1 X0.3186 Y2.1215 Z-0.9000
G1 X0.3154 Y2.1155 Z-0.9000
G1 X0.3123 Y2.1095 Z-0.9000
G1 X0.3093 Y2.1035 Z-0.9000
G1 X0.3060 Y2.0971 Z-0.9000
G1 X0.3059 Y2.0971 Z-0.9000
G1 X0.3037 Y2.0924 Z-0.9000
G1 X0.3004 Y2.0856 Z-0.9000
G1 X0.2975 Y2.0795 Z-0.9000
G1 X0.2951 Y2.0744 Z-0.9000
G1 X0.2920 Y2.0675 Z-0.9000
G1 X0.2890 Y2.0609 Z-0.9000
G1 X0.2863 Y2.0548 Z-0.9000
G1 X0.2862 Y2.0548 Z-0.9000
G1 X0.2835 Y2.0486 Z-0.9000
G1 X0.2809 Y2.0424 Z-0.9000
G1 X0.2781 Y2.0359 Z-0.9000
G1 X0.2756 Y2.0298 Z-0.9000
G1 X0.2755 Y2.0298 Z-0.9000
G1 X0.2708 Y2.0181 Z-0.9000
G1 X0.2679 Y2.0106 Z-0.9000
G1 X0.2652 Y2.0039 Z-0.9000
G1 X0.2651 Y2.0039 Z-0.9000
G1 X0.2630 Y1.9981 Z-0.9000
G1 X0.2604 Y1.9914 Z-0.9000
G1 X0.2583 Y1.9854 Z-0.9000
G1 X0.2558 Y1.9787 Z-0.9000
G1 X0.2536 Y1.9727 Z-0.9000
G1 X0.2513 Y1.9662 Z-0.9000
G1 X0.2473 Y1.9542 Z-0.9000
G1 X0.2449 Y1.9468 Z-0.9000
G1 X0.2426 Y1.9399 Z-0.9000
G1 X0.2409 Y1.9346 Z-0.9000
G1 X0.2386 Y1.9272 Z-0.9000
G1 X0.2364 Y1.9202 Z-0.9000
G1 X0.2345 Y1.9138 Z-0.9000
G1 X0.2268 Y1.8868 Z-0.9000
G1 X0.2232 Y1.8736 Z-0.9000
G1 X0.2215 Y1.8668 Z-0.9000
G1 X0.2196 Y1.8597 Z-0.9000
G1 X0.2195 Y1.8597 Z-0.9000
G1 X0.2182 Y1.8543 Z-0.9000
G1 X0.2162 Y1.8462 Z-0.9000
G1 X0.2147 Y1.8402 Z-0.9000
G1 X0.2113 Y1.8260 Z-0.9000
G1 X0.2112 Y1.8260 Z-0.9000
G1 X0.2098 Y1.8199 Z-0.9000
G1 X0.2099 Y1.8199 Z-0.9000
G1 X0.2035 Y1.7915 Z-0.9000
G1 X0.2007 Y1.7781 Z-0.9000
G1 X0.1993 Y1.7709 Z-0.9000
G1 X0.1978 Y1.7638 Z-0.9000
G1 X0.1977 Y1.7638 Z-0.9000
G1 X0.1951 Y1.7504 Z-0.9000
G1 X0.1938 Y1.7432 Z-0.9000
G1 X0.1924 Y1.7361 Z-0.9000
G1 X0.1913 Y1.7297 Z-0.9000
G1 X0.1900 Y1.7226 Z-0.9000
G1 X0.1899 Y1.7226 Z-0.9000
G1 X0.1888 Y1.7154 Z-0.9000
G1 X0.1875 Y1.7083 Z-0.9000
G1 X0.1874 Y1.7083 Z-0.9000
G1 X0.1852 Y1.6948 Z-0.9000
G1 X0.1840 Y1.6877 Z-0.9000
G1 X0.1829 Y1.6806 Z-0.9000
G1 X0.1819 Y1.6743 Z-0.9000
G1 X0.1797 Y1.6599 Z-0.9000
G1 X0.1787 Y1.6525 Z-0.9000
G1 X0.1776 Y1.6454 Z-0.9000
G1 X0.1747 Y1.6248 Z-0.9000
G1 X0.1738 Y1.6177 Z-0.9000
G1 X0.1728 Y1.6104 Z-0.9000
G1 X0.1702 Y1.5895 Z-0.9000
G1 X0.1694 Y1.5823 Z-0.9000
G1 X0.1685 Y1.5751 Z-0.9000
G1 X0.1678 Y1.5688 Z-0.9000
G1 X0.1670 Y1.5615 Z-0.9000
G1 X0.1662 Y1.5543 Z-0.9000
G1 X0.1655 Y1.5472 Z-0.9000
G1 X0.1647 Y1.5399 Z-0.9000
G1 X0.1634 Y1.5263 Z-0.9000
G1 X0.1627 Y1.5190 Z-0.9000
G1 X0.1621 Y1.5118 Z-0.9000
G1 X0.1614 Y1.5046 Z-0.9000
G1 X0.1609 Y1.4981 Z-0.9000
G1 X0.1603 Y1.4909 Z-0.9000
G1 X0.1597 Y1.4836 Z-0.9000
G1 X0.1585 Y1.4692 Z-0.9000
G1 X0.1584 Y1.4692 Z-0.9000
G1 X0.1580 Y1.4628 Z-0.9000
G1 X0.1581 Y1.4628 Z-0.9000
G1 X0.1575 Y1.4555 Z-0.9000
G1 X0.1570 Y1.4483 Z-0.9000
G1 X0.1571 Y1.4483 Z-0.9000
G1 X0.1565 Y1.4410 Z-0.9000
G1 X0.1561 Y1.4347 Z-0.9000
G1 X0.1557 Y1.4273 Z-0.9000
G1 X0.1553 Y1.4193 Z-0.9000
G1 X0.1548 Y1.4120 Z-0.9000
G1 X0.1547 Y1.4120 Z-0.9000
G1 X0.1545 Y1.4057 Z-0.9000
G1 X0.1541 Y1.3983 Z-0.9000
G1 X0.1537 Y1.3911 Z-0.9000
G1 X0.1534 Y1.3839 Z-0.9000
G1 X0.1530 Y1.3766 Z-0.9000
G1 X0.1527 Y1.3711 Z-0.9000
G1 X0.1528 Y1.3711 Z-0.9000
G1 X0.1525 Y1.3629 Z-0.9000
G1 X0.1522 Y1.3556 Z-0.9000
G1 X0.1519 Y1.3493 Z-0.9000
G1 X0.1520 Y1.3493 Z-0.9000
G1 X0.1518 Y1.3420 Z-0.9000
G1 X0.1516 Y1.3348 Z-0.9000
G1 X0.1512 Y1.3202 Z-0.9000
G1 X0.1510 Y1.3130 Z-0.9000
G1 X0.1508 Y1.3057 Z-0.9000
G1 X0.1507 Y1.2992 Z-0.9000
G1 X0.1506 Y1.2920 Z-0.9000
G1 X0.1504 Y1.2774 Z-0.9000
G1 X0.1503 Y1.2711 Z-0.9000
G1 X0.1503 Y1.2629 Z-0.9000
G1 X0.1502 Y1.2565 Z-0.9000
G1 X0.1502 Y1.2356 Z-0.9000
G1 X0.1503 Y1.2275 Z-0.9000
G1 X0.1503 Y1.2211 Z-0.9000
G1 X0.1505 Y1.2065 Z-0.9000
G1 X0.1506 Y1.1993 Z-0.9000
G1 X0.1508 Y1.1855 Z-0.9000
G1 X0.1510 Y1.1775 Z-0.9000
G1 X0.1511 Y1.1710 Z-0.9000
G1 X0.1513 Y1.1637 Z-0.9000
G1 X0.1515 Y1.1565 Z-0.9000
G1 X0.1517 Y1.1492 Z-0.9000
G1 X0.1516 Y1.1492 Z-0.9000
G1 X0.1520 Y1.1420 Z-0.9000
G1 X0.1522 Y1.1347 Z-0.9000
G1 X0.1521 Y1.1347 Z-0.9000
G1 X0.1524 Y1.1283 Z-0.9000
G1 X0.1527 Y1.1211 Z-0.9000
G1 X0.1533 Y1.1065 Z-0.9000
G1 X0.1536 Y1.1001 Z-0.9000
G1 X0.1540 Y1.0929 Z-0.9000
G1 X0.1548 Y1.0784 Z-0.9000
G1 X0.1560 Y1.0565 Z-0.9000
G1 X0.1565 Y1.0502 Z-0.9000
G1 X0.1570 Y1.0429 Z-0.9000
G1 X0.1569 Y1.0429 Z-0.9000
G1 X0.1575 Y1.0357 Z-0.9000
G1 X0.1580 Y1.0284 Z-0.9000
G1 X0.1579 Y1.0284 Z-0.9000
G1 X0.1583 Y1.0220 Z-0.9000
G1 X0.1584 Y1.0220 Z-0.9000
G1 X0.1590 Y1.0139 Z-0.9000
G1 X0.1594 Y1.0075 Z-0.9000
G1 X0.1595 Y1.0075 Z-0.9000
G1 X0.1601 Y1.0003 Z-0.9000
G1 X0.1612 Y0.9867 Z-0.9000
G1 X0.1620 Y0.9786 Z-0.9000
G1 X0.1625 Y0.9722 Z-0.9000
G1 X0.1632 Y0.9650 Z-0.9000
G1 X0.1639 Y0.9577 Z-0.9000
G1 X0.1652 Y0.9441 Z-0.9000
G1 X0.1660 Y0.9369 Z-0.9000
G1 X0.1676 Y0.9224 Z-0.9000
G1 X0.1699 Y0.9017 Z-0.9000
G1 X0.1734 Y0.8737 Z-0.9000
G1 X0.1745 Y0.8657 Z-0.9000
G1 X0.1753 Y0.8592 Z-0.9000
G1 X0.1763 Y0.8521 Z-0.9000
G1 X0.1782 Y0.8385 Z-0.9000
G1 X0.1805 Y0.8233 Z-0.9000
G1 X0.1815 Y0.8161 Z-0.9000
G1 X0.1826 Y0.8097 Z-0.9000
G1 X0.1837 Y0.8027 Z-0.9000
G1 X0.1848 Y0.7956 Z-0.9000
G1 X0.1847 Y0.7956 Z-0.9000
G1 X0.1880 Y0.7757 Z-0.9000
G1 X0.1881 Y0.7757 Z-0.9000
G1 X0.1895 Y0.7676 Z-0.9000
G1 X0.1905 Y0.7614 Z-0.9000
G1 X0.1906 Y0.7614 Z-0.9000
G1 X0.1919 Y0.7541 Z-0.9000
G1 X0.1930 Y0.7479 Z-0.9000
G1 X0.1946 Y0.7398 Z-0.9000
G1 X0.1957 Y0.7336 Z-0.9000
G1 X0.1986 Y0.7192 Z-0.9000
G1 X0.1998 Y0.7130 Z-0.9000
G1 X0.2071 Y0.6783 Z-0.9000
G1 X0.2101 Y0.6650 Z-0.9000
G1 X0.2118 Y0.6579 Z-0.9000
G1 X0.2136 Y0.6509 Z-0.9000
G1 X0.2151 Y0.6446 Z-0.9000
G1 X0.2166 Y0.6385 Z-0.9000
G1 X0.2187 Y0.6307 Z-0.9000
G1 X0.2203 Y0.6243 Z-0.9000
G1 X0.2204 Y0.6243 Z-0.9000
G1 X0.2222 Y0.6174 Z-0.9000
G1 X0.2258 Y0.6042 Z-0.9000
G1 X0.2301 Y0.5892 Z-0.9000
G1 X0.2315 Y0.5839 Z-0.9000
G1 X0.2337 Y0.5763 Z-0.9000
G1 X0.2358 Y0.5692 Z-0.9000
G1 X0.2376 Y0.5630 Z-0.9000
G1 X0.2399 Y0.5552 Z-0.9000
G1 X0.2417 Y0.5490 Z-0.9000
G1 X0.2437 Y0.5422 Z-0.9000
G1 X0.2459 Y0.5351 Z-0.9000
G1 X0.2501 Y0.5211 Z-0.9000
G1 X0.2500 Y0.5211 Z-0.9000
G1 X0.2523 Y0.5142 Z-0.9000
G1 X0.2544 Y0.5072 Z-0.9000
G1 X0.2543 Y0.5072 Z-0.9000
G1 X0.2563 Y0.5010 Z-0.9000
G1 X0.2584 Y0.4943 Z-0.9000
G1 X0.2607 Y0.4871 Z-0.9000
G1 X0.2626 Y0.4812 Z-0.9000
G1 X0.2651 Y0.4735 Z-0.9000
G1 X0.2671 Y0.4674 Z-0.9000
G1 X0.2717 Y0.4536 Z-0.9000
G1 X0.2741 Y0.4467 Z-0.9000
G1 X0.2764 Y0.4398 Z-0.9000
G1 X0.2763 Y0.4398 Z-0.9000
G1 X0.2781 Y0.4347 Z-0.9000
G1 X0.2782 Y0.4347 Z-0.9000
G1 X0.2810 Y0.4268 Z-0.9000
G1 X0.2828 Y0.4217 Z-0.9000
G1 X0.2873 Y0.4099 Z-0.9000
G1 X0.2901 Y0.4032 Z-0.9000
G1 X0.2900 Y0.4032 Z-0.9000
G1 X0.2908 Y0.4015 Z-0.9000
G1 X0.2915 Y0.4002 Z-0.9000
G1 X0.2945 Y0.3962 Z-0.9000
G1 X0.2992 Y0.3895 Z-0.9000
G1 X0.3031 Y0.3837 Z-0.9000
G1 X0.3076 Y0.3770 Z-0.9000
G1 X0.3112 Y0.3714 Z-0.9000
G1 X0.3158 Y0.3644 Z-0.9000
G1 X0.3193 Y0.3588 Z-0.9000
G1 X0.3234 Y0.3525 Z-0.9000
G1 X0.3268 Y0.3472 Z-0.9000
G1 X0.3307 Y0.3412 Z-0.9000
G1 X0.3329 Y0.3379 Z-0.9000
G1 X0.3360 Y0.3336 Z-0.9000
G1 X0.3399 Y0.3285 Z-0.9000
G1 X0.3424 Y0.3256 Z-0.9000
G1 X0.3443 Y0.3235 Z-0.9000
G1 X0.3469 Y0.3211 Z-0.9000
G1 X0.3496 Y0.3189 Z-0.9000
G1 X0.3505 Y0.3183 Z-0.9000
G1 X0.3520 Y0.3175 Z-0.9000
G1 X0.3529 Y0.3171 Z-0.9000
G1 X0.3540 Y0.3167 Z-0.9000
G1 X0.3571 Y0.3159 Z-0.9000
G1 X0.3587 Y0.3157 Z-0.9000
G1 X0.3641 Y0.3150 Z-0.9000
G1 X0.3663 Y0.3149 Z-0.9000
G1 X0.3719 Y0.3148 Z-0.9000
G1 X0.3731 Y0.3149 Z-0.9000
G1 X0.3751 Y0.3151 Z-0.9000
G1 X0.3793 Y0.3159 Z-0.9000
G1 X0.3822 Y0.3168 Z-0.9000
G1 X0.3851 Y0.3178 Z-0.9000
G1 X0.3896 Y0.3196 Z-0.9000
G1 X0.3923 Y0.3208 Z-0.9000
G1 X0.3965 Y0.3231 Z-0.9000
G1 X0.3988 Y0.3245 Z-0.9000
G1 X0.4036 Y0.3277 Z-0.9000
G1 X0.4063 Y0.3297 Z-0.9000
G1 X0.4091 Y0.3321 Z-0.9000
G1 X0.4140 Y0.3366 Z-0.9000
G1 X0.4149 Y0.3375 Z-0.9000
G1 X0.4171 Y0.3401 Z-0.9000
G1 X0.4187 Y0.3422 Z-0.9000
G1 X0.4217 Y0.3469 Z-0.9000
G1 X0.4302 Y0.3614 Z-0.9000
G1 X0.4283 Y1.2583 Z-0.9000
G1 X0.4283 Y1.3010 Z-0.9000
G1 X0.4282 Y1.3091 Z-0.9000
G1 X0.4282 Y1.3518 Z-0.9000
G1 X0.4281 Y1.3599 Z-0.9000
G1 X0.4281 Y1.3953 Z-0.9000
G1 X0.4280 Y1.4035 Z-0.9000
G1 X0.4280 Y1.4388 Z-0.9000
G1 X0.4279 Y1.4470 Z-0.9000
G1 X0.4279 Y1.4896 Z-0.9000
G1 X0.4278 Y1.4978 Z-0.9000
G1 X0.4278 Y1.5331 Z-0.9000
G1 X0.4277 Y1.5413 Z-0.9000
G1 X0.4277 Y1.5694 Z-0.9000
G1 X0.4276 Y1.5776 Z-0.9000
G1 X0.4276 Y1.6129 Z-0.9000
G1 X0.4275 Y1.6211 Z-0.9000
G1 X0.4275 Y1.6492 Z-0.9000
G1 X0.4274 Y1.6574 Z-0.9000
G1 X0.4274 Y1.6854 Z-0.9000
G1 X0.4273 Y1.6936 Z-0.9000
G1 X0.4273 Y1.7145 Z-0.9000
G1 X0.4272 Y1.7226 Z-0.9000
G1 X0.4272 Y1.7435 Z-0.9000
G1 X0.4271 Y1.7516 Z-0.9000
G1 X0.4271 Y1.7725 Z-0.9000
G1 X0.4270 Y1.7807 Z-0.9000
G1 X0.4270 Y1.7943 Z-0.9000
G1 X0.4269 Y1.8024 Z-0.9000
G1 X0.4269 Y1.8233 Z-0.9000
G1 X0.4268 Y1.8314 Z-0.9000
G1 X0.4268 Y1.8450 Z-0.9000
G1 X0.4267 Y1.8532 Z-0.9000
G1 X0.4267 Y1.8596 Z-0.9000
G1 X0.4266 Y1.8677 Z-0.9000
G1 X0.4266 Y1.8813 Z-0.9000
G1 X0.4265 Y1.8895 Z-0.9000
G1 X0.4265 Y1.8958 Z-0.9000
G1 X0.4264 Y1.9040 Z-0.9000
G1 X0.4264 Y1.9103 Z-0.9000
G1 X0.4263 Y1.9185 Z-0.9000
G1 X0.4263 Y1.9249 Z-0.9000
G1 X0.4262 Y1.9330 Z-0.9000
G1 X0.4262 Y1.9394 Z-0.9000
G1 X0.4261 Y1.9475 Z-0.9000
G1 X0.4261 Y1.9538 Z-0.9000
G1 X0.4259 Y1.9693 Z-0.9000
G1 X0.4259 Y1.9756 Z-0.9000
G1 X0.4258 Y1.9829 Z-0.9000
G1 X0.4257 Y1.9910 Z-0.9000
G1 X0.4257 Y1.9974 Z-0.9000
G1 X0.4256 Y2.0046 Z-0.9000
G1 X0.4255 Y2.0119 Z-0.9000
G1 X0.4254 Y2.0191 Z-0.9000
G1 X0.4252 Y2.0337 Z-0.9000
G1 X0.4251 Y2.0409 Z-0.9000
G1 X0.4250 Y2.0482 Z-0.9000
G1 X0.4249 Y2.0546 Z-0.9000
G1 X0.4247 Y2.0627 Z-0.9000
G1 X0.4246 Y2.0691 Z-0.9000
G1 X0.4244 Y2.0772 Z-0.9000
G1 X0.4243 Y2.0836 Z-0.9000
G1 X0.4241 Y2.0909 Z-0.9000
G1 X0.4239 Y2.0981 Z-0.9000
G1 X0.4237 Y2.1054 Z-0.9000
G1 X0.4238 Y2.1054 Z-0.9000
G1 X0.4234 Y2.1126 Z-0.9000
G1 X0.4232 Y2.1193 Z-0.9000
G1 X0.4229 Y2.1262 Z-0.9000
G1 X0.4226 Y2.1326 Z-0.9000
G1 X0.4222 Y2.1398 Z-0.9000
G1 X0.4219 Y2.1454 Z-0.9000
G1 X0.4218 Y2.1454 Z-0.9000
G1 X0.4213 Y2.1518 Z-0.9000
G1 X0.4209 Y2.1564 Z-0.9000
G1 X0.4206 Y2.1588 Z-0.9000
G1 X0.4185 Y2.1612 Z-0.9000
G1 X0.4149 Y2.1650 Z-0.9000
G1 X0.4125 Y2.1675 Z-0.9000
G1 X0.4088 Y2.1710 Z-0.9000
G1 X0.4046 Y2.1747 Z-0.9000
G1 X0.4035 Y2.1756 Z-0.9000
G1 X0.4023 Y2.1764 Z-0.9000
G1 X0.4016 Y2.1768 Z-0.9000
G1 X0.4015 Y2.1768 Z-0.9000
G1 X0.3971 Y2.1782 Z-0.9000
G1 X0.3936 Y2.1790 Z-0.9000
G1 X0.3899 Y2.1798 Z-0.9000
G1 X0.3861 Y2.1804 Z-0.9000
G1 X0.3861 Y2.1803 Z-0.9000
G1 X0.3798 Y2.1811 Z-0.9000
G1 X0.3741 Y2.1817 Z-0.9000
G1 X0.3696 Y2.1821 Z-0.9000
G1 X0.3696 Y2.1820 Z-0.9000
G1 X0.3571 Y2.1828 Z-0.9000
G1 X0.3514 Y2.1750 Z-0.9000
G1 X0.3475 Y2.1696 Z-0.9000
G1 X0.3446 Y2.1653 Z-0.9000
G1 X0.3409 Y2.1597 Z-0.9000
G1 X0.3349 Y2.1503 Z-0.9000
G1 X0.3350 Y2.1503 Z-0.9000
G1 Z-1.0000 F50
G1 X0.3313 Y2.1441 Z-1.0000 F100
G1 X0.3280 Y2.1385 Z-1.0000
G1 X0.3220 Y2.1278 Z-1.0000
G1 X0.3186 Y2.1215 Z-1.0000
G1 X0.3154 Y2.1155 Z-1.0000
G1 X0.3123 Y2.1095 Z-1.0000
G1 X0.3093 Y2.1035 Z-1.0000
G1 X0.3060 Y2.0971 Z-1.0000
G1 X0.3059 Y2.0971 Z-1.0000
G1 X0.3037 Y2.0924 Z-1.0000
G1 X0.3004 Y2.0856 Z-1.0000
G1 X0.2975 Y2.0795 Z-1.0000
G1 X0.2951 Y2.0744 Z-1.0000
G1 X0.2920 Y2.0675 Z-1.0000
G1 X0.2890 Y2.0609 Z-1.0000
G1 X0.2863 Y2.0548 Z-1.0000
G1 X0.2862 Y2.0548 Z-1.0000
G1 X0.2835 Y2.0486 Z-1.0000
G1 X0.2809 Y2.0424 Z-1.0000
G1 X0.2781 Y2.0359 Z-1.0000
G1 X0.2756 Y2.0298 Z-1.0000
G1 X0.2755 Y2.0298 Z-1.0000
G1 X0.2708 Y2.0181 Z-1.0000
G1 X0.2679 Y2.0106 Z-1.0000
G1 X0.2652 Y2.0039 Z-1.0000
G1 X0.2651 Y2.0039 Z-1.0000
G1 X0.2630 Y1.9981 Z-1.0000
G1 X0.2604 Y1.9914 Z-1.0000
G1 X0.2583 Y1.9854 Z-1.0000
G1 X0.2558 Y1.9787 Z-1.0000
G1 X0.2536 Y1.9727 Z-1.0000
G1 X0.2513 Y1.9662 Z-1.0000
G1 X0.2473 Y1.9542 Z-1.0000
G1 X0.2449 Y1.9468 Z-1.0000
G1 X0.2426 Y1.9399 Z-1.0000
G1 X0.2409 Y1.9346 Z-1.0000
G1 X0.2386 Y1.9272 Z-1.0000
G1 X0.2364 Y1.9202 Z-1.0000
G1 X0.2345 Y1.9138 Z-1.0000
G1 X0.2268 Y1.8868 Z-1.0000
G1 X0.2232 Y1.8736 Z-1.0000
G1 X0.2215 Y1.8668 Z-1.0000
G1 X0.2196 Y1.8597 Z-1.0000
G1 X0.2195 Y1.8597 Z-1.0000
G1 X0.2182 Y1.8543 Z-1.0000
G1 X0.2162 Y1.8462 Z-1.0000
G1 X0.2147 Y1.8402 Z-1.0000
G1 X0.2113 Y1.8260 Z-1.0000
G1 X0.2112 Y1.8260 Z-1.0000
G1 X0.2098 Y1.8199 Z-1.0000
G1 X0.2099 Y1.8199 Z-1.0000
G1 X0.2035 Y1.7915 Z-1.0000
G1 X0.2007 Y1.7781 Z-1.0000
G1 X0.1993 Y1.7709 Z-1.0000
G1 X0.1978 Y1.7638 Z-1.0000
G1 X0.1977 Y1.7638 Z-1.0000
G1 X0.1951 Y1.7504 Z-1.0000
G1 X0.1938 Y1.7432 Z-1.0000
G1 X0.1924 Y1.7361 Z-1.0000
G1 X0.1913 Y1.7297 Z-1.0000
G1 X0.1900 Y1.7226 Z-1.0000
G1 X0.1899 Y1.7226 Z-1.0000
G1 X0.1888 Y1.7154 Z-1.0000
G1 X0.1875 Y1.7083 Z-1.0000
G1 X0.1874 Y1.7083 Z-1.0000
G1 X0.1852 Y1.6948 Z-1.0000
G1 X0.1840 Y1.6877 Z-1.0000
G1 X0.1829 Y1.6806 Z-1.0000
G1 X0.1819 Y1.6743 Z-1.0000
G1 X0.1797 Y1.6599 Z-1.0000
G1 X0.1787 Y1.6525 Z-1.0000
G1 X0.1776 Y1.6454 Z-1.0000
G1 X0.1747 Y1.6248 Z-1.0000
G1 X0.1738 Y1.6177 Z-1.0000
G1 X0.1728 Y1.6104 Z-1.0000
G1 X0.1702 Y1.5895 Z-1.0000
G1 X0.1694 Y1.5823 Z-1.0000
G1 X0.1685 Y1.5751 Z-1.0000
G1 X0.1678 Y1.5688 Z-1.0000
G1 X0.1670 Y1.5615 Z-1.0000
G1 X0.1662 Y1.5543 Z-1.0000
G1 X0.1655 Y1.5472 Z-1.0000
G1 X0.1647 Y1.5399 Z-1.0000
G1 X0.1634 Y1.5263 Z-1.0000
G1 X0.1627 Y1.5190 Z-1.0000
G1 X0.1621 Y1.5118 Z-1.0000
G1 X0.1614 Y1.5046 Z-1.0000
G1 X0.1609 Y1.4981 Z-1.0000
G1 X0.1603 Y1.4909 Z-1.0000
G1 X0.1597 Y1.4836 Z-1.0000
G1 X0.1585 Y1.4692 Z-1.0000
G1 X0.1584 Y1.4692 Z-1.0000
G1 X0.1580 Y1.4628 Z-1.0000
G1 X0.1581 Y1.4628 Z-1.0000
G1 X0.1575 Y1.4555 Z-1.0000
G1 X0.1570 Y1.4483 Z-1.0000
G1 X0.1571 Y1.4483 Z-1.0000
G1 X0.1565 Y1.4410 Z-1.0000
G1 X0.1561 Y1.4347 Z-1.0000
G1 X0.1557 Y1.4273 Z-1.0000
G1 X0.1553 Y1.4193 Z-1.0000
G1 X0.1548 Y1.4120 Z-1.0000
G1 X0.1547 Y1.4120 Z-1.0000
G1 X0.1545 Y1.4057 Z-1.0000
G1 X0.1541 Y1.3983 Z-1.0000
G1 X0.1537 Y1.3911 Z-1.0000
G1 X0.1534 Y1.3839 Z-1.0000
G1 X0.1530 Y1.3766 Z-1.0000
G1 X0.1527 Y1.3711 Z-1.0000
G1 X0.1528 Y1.3711 Z-1.0000
G1 X0.1525 Y1.3629 Z-1.0000
G1 X0.1522 Y1.3556 Z-1.0000
G1 X0.1519 Y1.3493 Z-1.0000
G1 X0.1520 Y1.3493 Z-1.0000
G1 X0.1518 Y1.3420 Z-1.0000
G1 X0.1516 Y1.3348 Z-1.0000
G1 X0.1512 Y1.3202 Z-1.0000
G1 X0.1510 Y1.3130 Z-1.0000
G1 X0.1508 Y1.3057 Z-1.0000
G1 X0.1507 Y1.2992 Z-1.0000
G1 X0.1506 Y1.2920 Z-1.0000
G1 X0.1504 Y1.2774 Z-1.0000
G1 X0.1503 Y1.2711 Z-1.0000
G1 X0.1503 Y1.2629 Z-1.0000
G1 X0.1502 Y1.2565 Z-1.0000
G1 X0.1502 Y1.2356 Z-1.0000
G1 X0.1503 Y1.2275 Z-1.0000
G1 X0.1503 Y1.2211 Z-1.0000
G1 X0.1505 Y1.2065 Z-1.0000
G1 X0.1506 Y1.1993 Z-1.0000
G1 X0.1508 Y1.1855 Z-1.0000
G1 X0.1510 Y1.1775 Z-1.0000
G1 X0.1511 Y1.1710 Z-1.0000
G1 X0.1513 Y1.1637 Z-1.0000
G1 X0.1515 Y1.1565 Z-1.0000
G1 X0.1517 Y1.1492 Z-1.0000
G1 X0.1516 Y1.1492 Z-1.0000
G1 X0.1520 Y1.1420 Z-1.0000
G1 X0.1522 Y1.1347 Z-1.0000
G1 X0.1521 Y1.1347 Z-1.0000
G1 X0.1524 Y1.1283 Z-1.0000
G1 X0.1527 Y1.1211 Z-1.0000
G1 X0.1533 Y1.1065 Z-1.0000
G1 X0.1536 Y1.1001 Z-1.0000
G1 X0.1540 Y1.0929 Z-1.0000
G1 X0.1548 Y1.0784 Z-1.0000
