; GCODE Generated by Basic CAM on 2024-07-19
G20 ;inch-mode

; Operation 0: CNC: Vector (no offset)
; Bit Diameter: 0.125

G0 Z0.5 ; move to z-safe height
G0 X2.7500 Y1.2500
G1 Z-0.1000 F50
G1 X2.7356 Y1.3963 Z-0.1000 F100
G1 X2.6929 Y1.5370 Z-0.1000
G1 X2.6236 Y1.6667 Z-0.1000
G1 X2.5303 Y1.7803 Z-0.1000
G1 X2.4167 Y1.8736 Z-0.1000
G1 X2.2870 Y1.9429 Z-0.1000
G1 X2.1463 Y1.9856 Z-0.1000
G1 X2.0000 Y2.0000 Z-0.1000
G1 X1.8537 Y1.9856 Z-0.1000
G1 X1.7130 Y1.9429 Z-0.1000
G1 X1.5833 Y1.8736 Z-0.1000
G1 X1.4697 Y1.7803 Z-0.1000
G1 X1.3764 Y1.6667 Z-0.1000
G1 X1.3071 Y1.5370 Z-0.1000
G1 X1.2644 Y1.3963 Z-0.1000
G1 X1.2500 Y1.2500 Z-0.1000
G1 X1.2644 Y1.1037 Z-0.1000
G1 X1.3071 Y0.9630 Z-0.1000
G1 X1.3764 Y0.8333 Z-0.1000
G1 X1.4697 Y0.7197 Z-0.1000
G1 X1.5833 Y0.6264 Z-0.1000
G1 X1.7130 Y0.5571 Z-0.1000
G1 X1.8537 Y0.5144 Z-0.1000
G1 X2.0000 Y0.5000 Z-0.1000
G1 X2.1463 Y0.5144 Z-0.1000
G1 X2.2870 Y0.5571 Z-0.1000
G1 X2.4167 Y0.6264 Z-0.1000
G1 X2.5303 Y0.7197 Z-0.1000
G1 X2.6236 Y0.8333 Z-0.1000
G1 X2.6929 Y0.9630 Z-0.1000
G1 X2.7356 Y1.1037 Z-0.1000
G1 X2.7500 Y1.2500 Z-0.1000
G1 X2.7500 Y1.2500 Z-0.1000
G1 Z-0.2000 F50
G1 X2.7356 Y1.3963 Z-0.2000 F100
G1 X2.6929 Y1.5370 Z-0.2000
G1 X2.6236 Y1.6667 Z-0.2000
G1 X2.5303 Y1.7803 Z-0.2000
G1 X2.4167 Y1.8736 Z-0.2000
G1 X2.2870 Y1.9429 Z-0.2000
G1 X2.1463 Y1.9856 Z-0.2000
G1 X2.0000 Y2.0000 Z-0.2000
G1 X1.8537 Y1.9856 Z-0.2000
G1 X1.7130 Y1.9429 Z-0.2000
G1 X1.5833 Y1.8736 Z-0.2000
G1 X1.4697 Y1.7803 Z-0.2000
G1 X1.3764 Y1.6667 Z-0.2000
G1 X1.3071 Y1.5370 Z-0.2000
G1 X1.2644 Y1.3963 Z-0.2000
G1 X1.2500 Y1.2500 Z-0.2000
G1 X1.2644 Y1.1037 Z-0.2000
G1 X1.3071 Y0.9630 Z-0.2000
G1 X1.3764 Y0.8333 Z-0.2000
G1 X1.4697 Y0.7197 Z-0.2000
G1 X1.5833 Y0.6264 Z-0.2000
G1 X1.7130 Y0.5571 Z-0.2000
G1 X1.8537 Y0.5144 Z-0.2000
G1 X2.0000 Y0.5000 Z-0.2000
G1 X2.1463 Y0.5144 Z-0.2000
G1 X2.2870 Y0.5571 Z-0.2000
G1 X2.4167 Y0.6264 Z-0.2000
G1 X2.5303 Y0.7197 Z-0.2000
G1 X2.6236 Y0.8333 Z-0.2000
G1 X2.6929 Y0.9630 Z-0.2000
G1 X2.7356 Y1.1037 Z-0.2000
G1 X2.7500 Y1.2500 Z-0.2000
G1 X2.7500 Y1.2500 Z-0.2000
G1 Z-0.3000 F50
G1 X2.7356 Y1.3963 Z-0.3000 F100
G1 X2.6929 Y1.5370 Z-0.3000
G1 X2.6236 Y1.6667 Z-0.3000
G1 X2.5303 Y1.7803 Z-0.3000
G1 X2.4167 Y1.8736 Z-0.3000
G1 X2.2870 Y1.9429 Z-0.3000
G1 X2.1463 Y1.9856 Z-0.3000
G1 X2.0000 Y2.0000 Z-0.3000
G1 X1.8537 Y1.9856 Z-0.3000
G1 X1.7130 Y1.9429 Z-0.3000
G1 X1.5833 Y1.8736 Z-0.3000
G1 X1.4697 Y1.7803 Z-0.3000
G1 X1.3764 Y1.6667 Z-0.3000
G1 X1.3071 Y1.5370 Z-0.3000
G1 X1.2644 Y1.3963 Z-0.3000
G1 X1.2500 Y1.2500 Z-0.3000
G1 X1.2644 Y1.1037 Z-0.3000
G1 X1.3071 Y0.9630 Z-0.3000
G1 X1.3764 Y0.8333 Z-0.3000
G1 X1.4697 Y0.7197 Z-0.3000
G1 X1.5833 Y0.6264 Z-0.3000
G1 X1.7130 Y0.5571 Z-0.3000
G1 X1.8537 Y0.5144 Z-0.3000
G1 X2.0000 Y0.5000 Z-0.3000
G1 X2.1463 Y0.5144 Z-0.3000
G1 X2.2870 Y0.5571 Z-0.3000
G1 X2.4167 Y0.6264 Z-0.3000
G1 X2.5303 Y0.7197 Z-0.3000
G1 X2.6236 Y0.8333 Z-0.3000
G1 X2.6929 Y0.9630 Z-0.3000
G1 X2.7356 Y1.1037 Z-0.3000
G1 X2.7500 Y1.2500 Z-0.3000
G1 X2.7500 Y1.2500 Z-0.3000
G1 Z-0.4000 F50
G1 X2.7356 Y1.3963 Z-0.4000 F100
G1 X2.6929 Y1.5370 Z-0.4000
G1 X2.6236 Y1.6667 Z-0.4000
G1 X2.5303 Y1.7803 Z-0.4000
G1 X2.4167 Y1.8736 Z-0.4000
G1 X2.2870 Y1.9429 Z-0.4000
G1 X2.1463 Y1.9856 Z-0.4000
G1 X2.0000 Y2.0000 Z-0.4000
G1 X1.8537 Y1.9856 Z-0.4000
G1 X1.7130 Y1.9429 Z-0.4000
G1 X1.5833 Y1.8736 Z-0.4000
G1 X1.4697 Y1.7803 Z-0.4000
G1 X1.3764 Y1.6667 Z-0.4000
G1 X1.3071 Y1.5370 Z-0.4000
G1 X1.2644 Y1.3963 Z-0.4000
G1 X1.2500 Y1.2500 Z-0.4000
G1 X1.2644 Y1.1037 Z-0.4000
G1 X1.3071 Y0.9630 Z-0.4000
G1 X1.3764 Y0.8333 Z-0.4000
G1 X1.4697 Y0.7197 Z-0.4000
G1 X1.5833 Y0.6264 Z-0.4000
G1 X1.7130 Y0.5571 Z-0.4000
G1 X1.8537 Y0.5144 Z-0.4000
G1 X2.0000 Y0.5000 Z-0.4000
G1 X2.1463 Y0.5144 Z-0.4000
G1 X2.2870 Y0.5571 Z-0.4000
G1 X2.4167 Y0.6264 Z-0.4000
G1 X2.5303 Y0.7197 Z-0.4000
G1 X2.6236 Y0.8333 Z-0.4000
G1 X2.6929 Y0.9630 Z-0.4000
G1 X2.7356 Y1.1037 Z-0.4000
G1 X2.7500 Y1.2500 Z-0.4000
G1 X2.7500 Y1.2500 Z-0.4000
G1 Z-0.5000 F50
G1 X2.7356 Y1.3963 Z-0.5000 F100
G1 X2.6929 Y1.5370 Z-0.5000
G1 X2.6236 Y1.6667 Z-0.5000
G1 X2.5303 Y1.7803 Z-0.5000
G1 X2.4167 Y1.8736 Z-0.5000
G1 X2.2870 Y1.9429 Z-0.5000
G1 X2.1463 Y1.9856 Z-0.5000
G1 X2.0000 Y2.0000 Z-0.5000
G1 X1.8537 Y1.9856 Z-0.5000
G1 X1.7130 Y1.9429 Z-0.5000
G1 X1.5833 Y1.8736 Z-0.5000
G1 X1.4697 Y1.7803 Z-0.5000
G1 X1.3764 Y1.6667 Z-0.5000
G1 X1.3071 Y1.5370 Z-0.5000
G1 X1.2644 Y1.3963 Z-0.5000
G1 X1.2500 Y1.2500 Z-0.5000
G1 X1.2644 Y1.1037 Z-0.5000
G1 X1.3071 Y0.9630 Z-0.5000
G1 X1.3764 Y0.8333 Z-0.5000
G1 X1.4697 Y0.7197 Z-0.5000
G1 X1.5833 Y0.6264 Z-0.5000
G1 X1.7130 Y0.5571 Z-0.5000
G1 X1.8537 Y0.5144 Z-0.5000
G1 X2.0000 Y0.5000 Z-0.5000
G1 X2.1463 Y0.5144 Z-0.5000
G1 X2.2870 Y0.5571 Z-0.5000
G1 X2.4167 Y0.6264 Z-0.5000
G1 X2.5303 Y0.7197 Z-0.5000
G1 X2.6236 Y0.8333 Z-0.5000
G1 X2.6929 Y0.9630 Z-0.5000
G1 X2.7356 Y1.1037 Z-0.5000
G1 X2.7500 Y1.2500 Z-0.5000
G1 X2.7500 Y1.2500 Z-0.5000
G1 Z-0.6000 F50
G1 X2.7356 Y1.3963 Z-0.6000 F100
G1 X2.6929 Y1.5370 Z-0.6000
G1 X2.6236 Y1.6667 Z-0.6000
G1 X2.5303 Y1.7803 Z-0.6000
G1 X2.4167 Y1.8736 Z-0.6000
G1 X2.2870 Y1.9429 Z-0.6000
G1 X2.1463 Y1.9856 Z-0.6000
G1 X2.0000 Y2.0000 Z-0.6000
G1 X1.8537 Y1.9856 Z-0.6000
G1 X1.7130 Y1.9429 Z-0.6000
G1 X1.5833 Y1.8736 Z-0.6000
G1 X1.4697 Y1.7803 Z-0.6000
G1 X1.3764 Y1.6667 Z-0.6000
G1 X1.3071 Y1.5370 Z-0.6000
G1 X1.2644 Y1.3963 Z-0.6000
G1 X1.2500 Y1.2500 Z-0.6000
G1 X1.2644 Y1.1037 Z-0.6000
G1 X1.3071 Y0.9630 Z-0.6000
G1 X1.3764 Y0.8333 Z-0.6000
G1 X1.4697 Y0.7197 Z-0.6000
G1 X1.5833 Y0.6264 Z-0.6000
G1 X1.7130 Y0.5571 Z-0.6000
G1 X1.8537 Y0.5144 Z-0.6000
G1 X2.0000 Y0.5000 Z-0.6000
G1 X2.1463 Y0.5144 Z-0.6000
G1 X2.2870 Y0.5571 Z-0.6000
G1 X2.4167 Y0.6264 Z-0.6000
G1 X2.5303 Y0.7197 Z-0.6000
G1 X2.6236 Y0.8333 Z-0.6000
G1 X2.6929 Y0.9630 Z-0.6000
G1 X2.7356 Y1.1037 Z-0.6000
G1 X2.7500 Y1.2500 Z-0.6000
G1 X2.7500 Y1.2500 Z-0.6000
G1 Z-0.7000 F50
G1 X2.7356 Y1.3963 Z-0.7000 F100
G1 X2.6929 Y1.5370 Z-0.7000
G1 X2.6236 Y1.6667 Z-0.7000
G1 X2.5303 Y1.7803 Z-0.7000
G1 X2.4167 Y1.8736 Z-0.7000
G1 X2.2870 Y1.9429 Z-0.7000
G1 X2.1463 Y1.9856 Z-0.7000
G1 X2.0000 Y2.0000 Z-0.7000
G1 X1.8537 Y1.9856 Z-0.7000
G1 X1.7130 Y1.9429 Z-0.7000
G1 X1.5833 Y1.8736 Z-0.7000
G1 X1.4697 Y1.7803 Z-0.7000
G1 X1.3764 Y1.6667 Z-0.7000
G1 X1.3071 Y1.5370 Z-0.7000
G1 X1.2644 Y1.3963 Z-0.7000
G1 X1.2500 Y1.2500 Z-0.7000
G1 X1.2644 Y1.1037 Z-0.7000
G1 X1.3071 Y0.9630 Z-0.7000
G1 X1.3764 Y0.8333 Z-0.7000
G1 X1.4697 Y0.7197 Z-0.7000
G1 X1.5833 Y0.6264 Z-0.7000
G1 X1.7130 Y0.5571 Z-0.7000
G1 X1.8537 Y0.5144 Z-0.7000
G1 X2.0000 Y0.5000 Z-0.7000
G1 X2.1463 Y0.5144 Z-0.7000
G1 X2.2870 Y0.5571 Z-0.7000
G1 X2.4167 Y0.6264 Z-0.7000
G1 X2.5303 Y0.7197 Z-0.7000
G1 X2.6236 Y0.8333 Z-0.7000
G1 X2.6929 Y0.9630 Z-0.7000
G1 X2.7356 Y1.1037 Z-0.7000
G1 X2.7500 Y1.2500 Z-0.7000
G1 X2.7500 Y1.2500 Z-0.7000
G1 Z-0.8000 F50
G1 X2.7356 Y1.3963 Z-0.8000 F100
G1 X2.6929 Y1.5370 Z-0.8000
G1 X2.6236 Y1.6667 Z-0.8000
G1 X2.5303 Y1.7803 Z-0.8000
G1 X2.4167 Y1.8736 Z-0.8000
G1 X2.2870 Y1.9429 Z-0.8000
G1 X2.1463 Y1.9856 Z-0.8000
G1 X2.0000 Y2.0000 Z-0.8000
G1 X1.8537 Y1.9856 Z-0.8000
G1 X1.7130 Y1.9429 Z-0.8000
G1 X1.5833 Y1.8736 Z-0.8000
G1 X1.4697 Y1.7803 Z-0.8000
G1 X1.3764 Y1.6667 Z-0.8000
G1 X1.3071 Y1.5370 Z-0.8000
G1 X1.2644 Y1.3963 Z-0.8000
G1 X1.2500 Y1.2500 Z-0.8000
G1 X1.2644 Y1.1037 Z-0.8000
G1 X1.3071 Y0.9630 Z-0.8000
G1 X1.3764 Y0.8333 Z-0.8000
G1 X1.4697 Y0.7197 Z-0.8000
G1 X1.5833 Y0.6264 Z-0.8000
G1 X1.7130 Y0.5571 Z-0.8000
G1 X1.8537 Y0.5144 Z-0.8000
G1 X2.0000 Y0.5000 Z-0.8000
G1 X2.1463 Y0.5144 Z-0.8000
G1 X2.2870 Y0.5571 Z-0.8000
G1 X2.4167 Y0.6264 Z-0.8000
G1 X2.5303 Y0.7197 Z-0.8000
G1 X2.6236 Y0.8333 Z-0.8000
G1 X2.6929 Y0.9630 Z-0.8000
G1 X2.7356 Y1.1037 Z-0.8000
G1 X2.7500 Y1.2500 Z-0.8000
G1 X2.7500 Y1.2500 Z-0.8000
G1 Z-0.9000 F50
G1 X2.7356 Y1.3963 Z-0.9000 F100
G1 X2.6929 Y1.5370 Z-0.9000
G1 X2.6236 Y1.6667 Z-0.9000
G1 X2.5303 Y1.7803 Z-0.9000
G1 X2.4167 Y1.8736 Z-0.9000
G1 X2.2870 Y1.9429 Z-0.9000
G1 X2.1463 Y1.9856 Z-0.9000
G1 X2.0000 Y2.0000 Z-0.9000
G1 X1.8537 Y1.9856 Z-0.9000
G1 X1.7130 Y1.9429 Z-0.9000
G1 X1.5833 Y1.8736 Z-0.9000
G1 X1.4697 Y1.7803 Z-0.9000
G1 X1.3764 Y1.6667 Z-0.9000
G1 X1.3071 Y1.5370 Z-0.9000
G1 X1.2644 Y1.3963 Z-0.9000
G1 X1.2500 Y1.2500 Z-0.9000
G1 X1.2644 Y1.1037 Z-0.9000
G1 X1.3071 Y0.9630 Z-0.9000
G1 X1.3764 Y0.8333 Z-0.9000
G1 X1.4697 Y0.7197 Z-0.9000
G1 X1.5833 Y0.6264 Z-0.9000
G1 X1.7130 Y0.5571 Z-0.9000
G1 X1.8537 Y0.5144 Z-0.9000
G1 X2.0000 Y0.5000 Z-0.9000
G1 X2.1463 Y0.5144 Z-0.9000
G1 X2.2870 Y0.5571 Z-0.9000
G1 X2.4167 Y0.6264 Z-0.9000
G1 X2.5303 Y0.7197 Z-0.9000
G1 X2.6236 Y0.8333 Z-0.9000
G1 X2.6929 Y0.9630 Z-0.9000
G1 X2.7356 Y1.1037 Z-0.9000
G1 X2.7500 Y1.2500 Z-0.9000
G1 X2.7500 Y1.2500 Z-0.9000
G1 Z-1.0000 F50
G1 X2.7356 Y1.3963 Z-1.0000 F100
G1 X2.6929 Y1.5370 Z-1.0000
G1 X2.6236 Y1.6667 Z-1.0000
G1 X2.5303 Y1.7803 Z-1.0000
G1 X2.4167 Y1.8736 Z-1.0000
G1 X2.2870 Y1.9429 Z-1.0000
G1 X2.1463 Y1.9856 Z-1.0000
G1 X2.0000 Y2.0000 Z-1.0000
G1 X1.8537 Y1.9856 Z-1.0000
G1 X1.7130 Y1.9429 Z-1.0000
G1 X1.5833 Y1.8736 Z-1.0000
G1 X1.4697 Y1.7803 Z-1.0000
G1 X1.3764 Y1.6667 Z-1.0000
G1 X1.3071 Y1.5370 Z-1.0000
G1 X1.2644 Y1.3963 Z-1.0000
G1 X1.2500 Y1.2500 Z-1.0000
G1 X1.2644 Y1.1037 Z-1.0000
G1 X1.3071 Y0.9630 Z-1.0000
G1 X1.3764 Y0.8333 Z-1.0000
G1 X1.4697 Y0.7197 Z-1.0000
G1 X1.5833 Y0.6264 Z-1.0000
G1 X1.7130 Y0.5571 Z-1.0000
G1 X1.8537 Y0.5144 Z-1.0000
G1 X2.0000 Y0.5000 Z-1.0000
G1 X2.1463 Y0.5144 Z-1.0000
G1 X2.2870 Y0.5571 Z-1.0000
G1 X2.4167 Y0.6264 Z-1.0000
G1 X2.5303 Y0.7197 Z-1.0000
G1 X2.6236 Y0.8333 Z-1.0000
G1 X2.6929 Y0.9630 Z-1.0000
G1 X2.7356 Y1.1037 Z-1.0000
G1 X2.7500 Y1.2500 Z-1.0000
G1 X2.7500 Y1.2500 Z-1.0000
G1 Z-1.1000 F50
G1 X2.7356 Y1.3963 Z-1.1000 F100
G1 X2.6929 Y1.5370 Z-1.1000
G1 X2.6236 Y1.6667 Z-1.1000
G1 X2.5303 Y1.7803 Z-1.1000
G1 X2.4167 Y1.8736 Z-1.1000
G1 X2.2870 Y1.9429 Z-1.1000
G1 X2.1463 Y1.9856 Z-1.1000
G1 X2.0000 Y2.0000 Z-1.1000
G1 X1.8537 Y1.9856 Z-1.1000
G1 X1.7130 Y1.9429 Z-1.1000
G1 X1.5833 Y1.8736 Z-1.1000
G1 X1.4697 Y1.7803 Z-1.1000
G1 X1.3764 Y1.6667 Z-1.1000
G1 X1.3071 Y1.5370 Z-1.1000
G1 X1.2644 Y1.3963 Z-1.1000
G1 X1.2500 Y1.2500 Z-1.1000
G1 X1.2644 Y1.1037 Z-1.1000
G1 X1.3071 Y0.9630 Z-1.1000
G1 X1.3764 Y0.8333 Z-1.1000
G1 X1.4697 Y0.7197 Z-1.1000
G1 X1.5833 Y0.6264 Z-1.1000
G1 X1.7130 Y0.5571 Z-1.1000
G1 X1.8537 Y0.5144 Z-1.1000
G1 X2.0000 Y0.5000 Z-1.1000
G1 X2.1463 Y0.5144 Z-1.1000
G1 X2.2870 Y0.5571 Z-1.1000
G1 X2.4167 Y0.6264 Z-1.1000
G1 X2.5303 Y0.7197 Z-1.1000
G1 X2.6236 Y0.8333 Z-1.1000
G1 X2.6929 Y0.9630 Z-1.1000
G1 X2.7356 Y1.1037 Z-1.1000
G1 X2.7500 Y1.2500 Z-1.1000
G1 X2.7500 Y1.2500 Z-1.1000
G1 Z-1.2000 F50
G1 X2.7356 Y1.3963 Z-1.2000 F100
G1 X2.6929 Y1.5370 Z-1.2000
G1 X2.6236 Y1.6667 Z-1.2000
G1 X2.5303 Y1.7803 Z-1.2000
G1 X2.4167 Y1.8736 Z-1.2000
G1 X2.2870 Y1.9429 Z-1.2000
G1 X2.1463 Y1.9856 Z-1.2000
G1 X2.0000 Y2.0000 Z-1.2000
G1 X1.8537 Y1.9856 Z-1.2000
G1 X1.7130 Y1.9429 Z-1.2000
G1 X1.5833 Y1.8736 Z-1.2000
G1 X1.4697 Y1.7803 Z-1.2000
G1 X1.3764 Y1.6667 Z-1.2000
G1 X1.3071 Y1.5370 Z-1.2000
G1 X1.2644 Y1.3963 Z-1.2000
G1 X1.2500 Y1.2500 Z-1.2000
G1 X1.2644 Y1.1037 Z-1.2000
G1 X1.3071 Y0.9630 Z-1.2000
G1 X1.3764 Y0.8333 Z-1.2000
G1 X1.4697 Y0.7197 Z-1.2000
G1 X1.5833 Y0.6264 Z-1.2000
G1 X1.7130 Y0.5571 Z-1.2000
G1 X1.8537 Y0.5144 Z-1.2000
G1 X2.0000 Y0.5000 Z-1.2000
G1 X2.1463 Y0.5144 Z-1.2000
G1 X2.2870 Y0.5571 Z-1.2000
G1 X2.4167 Y0.6264 Z-1.2000
G1 X2.5303 Y0.7197 Z-1.2000
G1 X2.6236 Y0.8333 Z-1.2000
G1 X2.6929 Y0.9630 Z-1.2000
G1 X2.7356 Y1.1037 Z-1.2000
G1 X2.7500 Y1.2500 Z-1.2000
G1 X2.7500 Y1.2500 Z-1.2000
G1 Z-1.3000 F50
G1 X2.7356 Y1.3963 Z-1.3000 F100
G1 X2.6929 Y1.5370 Z-1.3000
G1 X2.6236 Y1.6667 Z-1.3000
G1 X2.5303 Y1.7803 Z-1.3000
G1 X2.4167 Y1.8736 Z-1.3000
G1 X2.2870 Y1.9429 Z-1.3000
G1 X2.1463 Y1.9856 Z-1.3000
G1 X2.0000 Y2.0000 Z-1.3000
G1 X1.8537 Y1.9856 Z-1.3000
G1 X1.7130 Y1.9429 Z-1.3000
G1 X1.5833 Y1.8736 Z-1.3000
G1 X1.4697 Y1.7803 Z-1.3000
G1 X1.3764 Y1.6667 Z-1.3000
G1 X1.3071 Y1.5370 Z-1.3000
G1 X1.2644 Y1.3963 Z-1.3000
G1 X1.2500 Y1.2500 Z-1.3000
G1 X1.2644 Y1.1037 Z-1.3000
G1 X1.3071 Y0.9630 Z-1.3000
G1 X1.3764 Y0.8333 Z-1.3000
G1 X1.4697 Y0.7197 Z-1.3000
G1 X1.5833 Y0.6264 Z-1.3000
G1 X1.7130 Y0.5571 Z-1.3000
G1 X1.8537 Y0.5144 Z-1.3000
G1 X2.0000 Y0.5000 Z-1.3000
G1 X2.1463 Y0.5144 Z-1.3000
G1 X2.2870 Y0.5571 Z-1.3000
G1 X2.4167 Y0.6264 Z-1.3000
G1 X2.5303 Y0.7197 Z-1.3000
G1 X2.6236 Y0.8333 Z-1.3000
G1 X2.6929 Y0.9630 Z-1.3000
G1 X2.7356 Y1.1037 Z-1.3000
G1 X2.7500 Y1.2500 Z-1.3000
G1 X2.7500 Y1.2500 Z-1.3000
G1 Z-1.4000 F50
G1 X2.7356 Y1.3963 Z-1.4000 F100
G1 X2.6929 Y1.5370 Z-1.4000
G1 X2.6236 Y1.6667 Z-1.4000
G1 X2.5303 Y1.7803 Z-1.4000
G1 X2.4167 Y1.8736 Z-1.4000
G1 X2.2870 Y1.9429 Z-1.4000
G1 X2.1463 Y1.9856 Z-1.4000
G1 X2.0000 Y2.0000 Z-1.4000
G1 X1.8537 Y1.9856 Z-1.4000
G1 X1.7130 Y1.9429 Z-1.4000
G1 X1.5833 Y1.8736 Z-1.4000
G1 X1.4697 Y1.7803 Z-1.4000
G1 X1.3764 Y1.6667 Z-1.4000
G1 X1.3071 Y1.5370 Z-1.4000
G1 X1.2644 Y1.3963 Z-1.4000
G1 X1.2500 Y1.2500 Z-1.4000
G1 X1.2644 Y1.1037 Z-1.4000
G1 X1.3071 Y0.9630 Z-1.4000
G1 X1.3764 Y0.8333 Z-1.4000
G1 X1.4697 Y0.7197 Z-1.4000
G1 X1.5833 Y0.6264 Z-1.4000
G1 X1.7130 Y0.5571 Z-1.4000
G1 X1.8537 Y0.5144 Z-1.4000
G1 X2.0000 Y0.5000 Z-1.4000
G1 X2.1463 Y0.5144 Z-1.4000
G1 X2.2870 Y0.5571 Z-1.4000
G1 X2.4167 Y0.6264 Z-1.4000
G1 X2.5303 Y0.7197 Z-1.4000
G1 X2.6236 Y0.8333 Z-1.4000
G1 X2.6929 Y0.9630 Z-1.4000
G1 X2.7356 Y1.1037 Z-1.4000
G1 X2.7500 Y1.2500 Z-1.4000
G1 X2.7500 Y1.2500 Z-1.4000
G1 Z-1.5000 F50
G1 X2.7356 Y1.3963 Z-1.5000 F100
G1 X2.6929 Y1.5370 Z-1.5000
G1 X2.6236 Y1.6667 Z-1.5000
G1 X2.5303 Y1.7803 Z-1.5000
G1 X2.4167 Y1.8736 Z-1.5000
G1 X2.2870 Y1.9429 Z-1.5000
G1 X2.1463 Y1.9856 Z-1.5000
G1 X2.0000 Y2.0000 Z-1.5000
G1 X1.8537 Y1.9856 Z-1.5000
G1 X1.7130 Y1.9429 Z-1.5000
G1 X1.5833 Y1.8736 Z-1.5000
G1 X1.4697 Y1.7803 Z-1.5000
G1 X1.3764 Y1.6667 Z-1.5000
G1 X1.3071 Y1.5370 Z-1.5000
G1 X1.2644 Y1.3963 Z-1.5000
G1 X1.2500 Y1.2500 Z-1.5000
G1 X1.2644 Y1.1037 Z-1.5000
G1 X1.3071 Y0.9630 Z-1.5000
G1 X1.3764 Y0.8333 Z-1.5000
G1 X1.4697 Y0.7197 Z-1.5000
G1 X1.5833 Y0.6264 Z-1.5000
G1 X1.7130 Y0.5571 Z-1.5000
G1 X1.8537 Y0.5144 Z-1.5000
G1 X2.0000 Y0.5000 Z-1.5000
G1 X2.1463 Y0.5144 Z-1.5000
G1 X2.2870 Y0.5571 Z-1.5000
G1 X2.4167 Y0.6264 Z-1.5000
G1 X2.5303 Y0.7197 Z-1.5000
G1 X2.6236 Y0.8333 Z-1.5000
G1 X2.6929 Y0.9630 Z-1.5000
G1 X2.7356 Y1.1037 Z-1.5000
G1 X2.7500 Y1.2500 Z-1.5000
G1 X2.7500 Y1.2500 Z-1.5000
G1 Z-1.6000 F50
G1 X2.7356 Y1.3963 Z-1.6000 F100
G1 X2.6929 Y1.5370 Z-1.6000
G1 X2.6236 Y1.6667 Z-1.6000
G1 X2.5303 Y1.7803 Z-1.6000
G1 X2.4167 Y1.8736 Z-1.6000
G1 X2.2870 Y1.9429 Z-1.6000
G1 X2.1463 Y1.9856 Z-1.6000
G1 X2.0000 Y2.0000 Z-1.6000
G1 X1.8537 Y1.9856 Z-1.6000
G1 X1.7130 Y1.9429 Z-1.6000
G1 X1.5833 Y1.8736 Z-1.6000
G1 X1.4697 Y1.7803 Z-1.6000
G1 X1.3764 Y1.6667 Z-1.6000
G1 X1.3071 Y1.5370 Z-1.6000
G1 X1.2644 Y1.3963 Z-1.6000
G1 X1.2500 Y1.2500 Z-1.6000
G1 X1.2644 Y1.1037 Z-1.6000
G1 X1.3071 Y0.9630 Z-1.6000
G1 X1.3764 Y0.8333 Z-1.6000
G1 X1.4697 Y0.7197 Z-1.6000
G1 X1.5833 Y0.6264 Z-1.6000
G1 X1.7130 Y0.5571 Z-1.6000
G1 X1.8537 Y0.5144 Z-1.6000
G1 X2.0000 Y0.5000 Z-1.6000
G1 X2.1463 Y0.5144 Z-1.6000
G1 X2.2870 Y0.5571 Z-1.6000
G1 X2.4167 Y0.6264 Z-1.6000
G1 X2.5303 Y0.7197 Z-1.6000
G1 X2.6236 Y0.8333 Z-1.6000
G1 X2.6929 Y0.9630 Z-1.6000
G1 X2.7356 Y1.1037 Z-1.6000
G1 X2.7500 Y1.2500 Z-1.6000
G1 X2.7500 Y1.2500 Z-1.6000

G0 Z0.5 ; move to z-safe height
G0 X5.0000 Y1.2500
G1 Z-0.1000 F50
G1 X4.9856 Y1.3963 Z-0.1000 F100
G1 X4.9429 Y1.5370 Z-0.1000
G1 X4.8736 Y1.6667 Z-0.1000
G1 X4.7803 Y1.7803 Z-0.1000
G1 X4.6667 Y1.8736 Z-0.1000
G1 X4.5370 Y1.9429 Z-0.1000
G1 X4.3963 Y1.9856 Z-0.1000
G1 X4.2500 Y2.0000 Z-0.1000
G1 X4.1037 Y1.9856 Z-0.1000
G1 X3.9630 Y1.9429 Z-0.1000
G1 X3.8333 Y1.8736 Z-0.1000
G1 X3.7197 Y1.7803 Z-0.1000
G1 X3.6264 Y1.6667 Z-0.1000
G1 X3.5571 Y1.5370 Z-0.1000
G1 X3.5144 Y1.3963 Z-0.1000
G1 X3.5000 Y1.2500 Z-0.1000
G1 X3.5144 Y1.1037 Z-0.1000
G1 X3.5571 Y0.9630 Z-0.1000
G1 X3.6264 Y0.8333 Z-0.1000
G1 X3.7197 Y0.7197 Z-0.1000
G1 X3.8333 Y0.6264 Z-0.1000
G1 X3.9630 Y0.5571 Z-0.1000
G1 X4.1037 Y0.5144 Z-0.1000
G1 X4.2500 Y0.5000 Z-0.1000
G1 X4.3963 Y0.5144 Z-0.1000
G1 X4.5370 Y0.5571 Z-0.1000
G1 X4.6667 Y0.6264 Z-0.1000
G1 X4.7803 Y0.7197 Z-0.1000
G1 X4.8736 Y0.8333 Z-0.1000
G1 X4.9429 Y0.9630 Z-0.1000
G1 X4.9856 Y1.1037 Z-0.1000
G1 X5.0000 Y1.2500 Z-0.1000
G1 X5.0000 Y1.2500 Z-0.1000
G1 Z-0.2000 F50
G1 X4.9856 Y1.3963 Z-0.2000 F100
G1 X4.9429 Y1.5370 Z-0.2000
G1 X4.8736 Y1.6667 Z-0.2000
G1 X4.7803 Y1.7803 Z-0.2000
G1 X4.6667 Y1.8736 Z-0.2000
G1 X4.5370 Y1.9429 Z-0.2000
G1 X4.3963 Y1.9856 Z-0.2000
G1 X4.2500 Y2.0000 Z-0.2000
G1 X4.1037 Y1.9856 Z-0.2000
G1 X3.9630 Y1.9429 Z-0.2000
G1 X3.8333 Y1.8736 Z-0.2000
G1 X3.7197 Y1.7803 Z-0.2000
G1 X3.6264 Y1.6667 Z-0.2000
G1 X3.5571 Y1.5370 Z-0.2000
G1 X3.5144 Y1.3963 Z-0.2000
G1 X3.5000 Y1.2500 Z-0.2000
G1 X3.5144 Y1.1037 Z-0.2000
G1 X3.5571 Y0.9630 Z-0.2000
G1 X3.6264 Y0.8333 Z-0.2000
G1 X3.7197 Y0.7197 Z-0.2000
G1 X3.8333 Y0.6264 Z-0.2000
G1 X3.9630 Y0.5571 Z-0.2000
G1 X4.1037 Y0.5144 Z-0.2000
G1 X4.2500 Y0.5000 Z-0.2000
G1 X4.3963 Y0.5144 Z-0.2000
G1 X4.5370 Y0.5571 Z-0.2000
G1 X4.6667 Y0.6264 Z-0.2000
G1 X4.7803 Y0.7197 Z-0.2000
G1 X4.8736 Y0.8333 Z-0.2000
G1 X4.9429 Y0.9630 Z-0.2000
G1 X4.9856 Y1.1037 Z-0.2000
G1 X5.0000 Y1.2500 Z-0.2000
G1 X5.0000 Y1.2500 Z-0.2000
G1 Z-0.3000 F50
G1 X4.9856 Y1.3963 Z-0.3000 F100
G1 X4.9429 Y1.5370 Z-0.3000
G1 X4.8736 Y1.6667 Z-0.3000
G1 X4.7803 Y1.7803 Z-0.3000
G1 X4.6667 Y1.8736 Z-0.3000
G1 X4.5370 Y1.9429 Z-0.3000
G1 X4.3963 Y1.9856 Z-0.3000
G1 X4.2500 Y2.0000 Z-0.3000
G1 X4.1037 Y1.9856 Z-0.3000
G1 X3.9630 Y1.9429 Z-0.3000
G1 X3.8333 Y1.8736 Z-0.3000
G1 X3.7197 Y1.7803 Z-0.3000
G1 X3.6264 Y1.6667 Z-0.3000
G1 X3.5571 Y1.5370 Z-0.3000
G1 X3.5144 Y1.3963 Z-0.3000
G1 X3.5000 Y1.2500 Z-0.3000
G1 X3.5144 Y1.1037 Z-0.3000
G1 X3.5571 Y0.9630 Z-0.3000
G1 X3.6264 Y0.8333 Z-0.3000
G1 X3.7197 Y0.7197 Z-0.3000
G1 X3.8333 Y0.6264 Z-0.3000
G1 X3.9630 Y0.5571 Z-0.3000
G1 X4.1037 Y0.5144 Z-0.3000
G1 X4.2500 Y0.5000 Z-0.3000
G1 X4.3963 Y0.5144 Z-0.3000
G1 X4.5370 Y0.5571 Z-0.3000
G1 X4.6667 Y0.6264 Z-0.3000
G1 X4.7803 Y0.7197 Z-0.3000
G1 X4.8736 Y0.8333 Z-0.3000
G1 X4.9429 Y0.9630 Z-0.3000
G1 X4.9856 Y1.1037 Z-0.3000
G1 X5.0000 Y1.2500 Z-0.3000
G1 X5.0000 Y1.2500 Z-0.3000
G1 Z-0.4000 F50
G1 X4.9856 Y1.3963 Z-0.4000 F100
G1 X4.9429 Y1.5370 Z-0.4000
G1 X4.8736 Y1.6667 Z-0.4000
G1 X4.7803 Y1.7803 Z-0.4000
G1 X4.6667 Y1.8736 Z-0.4000
G1 X4.5370 Y1.9429 Z-0.4000
G1 X4.3963 Y1.9856 Z-0.4000
G1 X4.2500 Y2.0000 Z-0.4000
G1 X4.1037 Y1.9856 Z-0.4000
G1 X3.9630 Y1.9429 Z-0.4000
G1 X3.8333 Y1.8736 Z-0.4000
G1 X3.7197 Y1.7803 Z-0.4000
G1 X3.6264 Y1.6667 Z-0.4000
G1 X3.5571 Y1.5370 Z-0.4000
G1 X3.5144 Y1.3963 Z-0.4000
G1 X3.5000 Y1.2500 Z-0.4000
G1 X3.5144 Y1.1037 Z-0.4000
G1 X3.5571 Y0.9630 Z-0.4000
G1 X3.6264 Y0.8333 Z-0.4000
G1 X3.7197 Y0.7197 Z-0.4000
G1 X3.8333 Y0.6264 Z-0.4000
G1 X3.9630 Y0.5571 Z-0.4000
G1 X4.1037 Y0.5144 Z-0.4000
G1 X4.2500 Y0.5000 Z-0.4000
G1 X4.3963 Y0.5144 Z-0.4000
G1 X4.5370 Y0.5571 Z-0.4000
G1 X4.6667 Y0.6264 Z-0.4000
G1 X4.7803 Y0.7197 Z-0.4000
G1 X4.8736 Y0.8333 Z-0.4000
G1 X4.9429 Y0.9630 Z-0.4000
G1 X4.9856 Y1.1037 Z-0.4000
G1 X5.0000 Y1.2500 Z-0.4000
G1 X5.0000 Y1.2500 Z-0.4000
G1 Z-0.5000 F50
G1 X4.9856 Y1.3963 Z-0.5000 F100
G1 X4.9429 Y1.5370 Z-0.5000
G1 X4.8736 Y1.6667 Z-0.5000
G1 X4.7803 Y1.7803 Z-0.5000
G1 X4.6667 Y1.8736 Z-0.5000
G1 X4.5370 Y1.9429 Z-0.5000
G1 X4.3963 Y1.9856 Z-0.5000
G1 X4.2500 Y2.0000 Z-0.5000
G1 X4.1037 Y1.9856 Z-0.5000
G1 X3.9630 Y1.9429 Z-0.5000
G1 X3.8333 Y1.8736 Z-0.5000
G1 X3.7197 Y1.7803 Z-0.5000
G1 X3.6264 Y1.6667 Z-0.5000
G1 X3.5571 Y1.5370 Z-0.5000
G1 X3.5144 Y1.3963 Z-0.5000
G1 X3.5000 Y1.2500 Z-0.5000
G1 X3.5144 Y1.1037 Z-0.5000
G1 X3.5571 Y0.9630 Z-0.5000
G1 X3.6264 Y0.8333 Z-0.5000
G1 X3.7197 Y0.7197 Z-0.5000
G1 X3.8333 Y0.6264 Z-0.5000
G1 X3.9630 Y0.5571 Z-0.5000
G1 X4.1037 Y0.5144 Z-0.5000
G1 X4.2500 Y0.5000 Z-0.5000
G1 X4.3963 Y0.5144 Z-0.5000
G1 X4.5370 Y0.5571 Z-0.5000
G1 X4.6667 Y0.6264 Z-0.5000
G1 X4.7803 Y0.7197 Z-0.5000
G1 X4.8736 Y0.8333 Z-0.5000
G1 X4.9429 Y0.9630 Z-0.5000
G1 X4.9856 Y1.1037 Z-0.5000
G1 X5.0000 Y1.2500 Z-0.5000
G1 X5.0000 Y1.2500 Z-0.5000
G1 Z-0.6000 F50
G1 X4.9856 Y1.3963 Z-0.6000 F100
G1 X4.9429 Y1.5370 Z-0.6000
G1 X4.8736 Y1.6667 Z-0.6000
G1 X4.7803 Y1.7803 Z-0.6000
G1 X4.6667 Y1.8736 Z-0.6000
G1 X4.5370 Y1.9429 Z-0.6000
G1 X4.3963 Y1.9856 Z-0.6000
G1 X4.2500 Y2.0000 Z-0.6000
G1 X4.1037 Y1.9856 Z-0.6000
G1 X3.9630 Y1.9429 Z-0.6000
G1 X3.8333 Y1.8736 Z-0.6000
G1 X3.7197 Y1.7803 Z-0.6000
G1 X3.6264 Y1.6667 Z-0.6000
G1 X3.5571 Y1.5370 Z-0.6000
G1 X3.5144 Y1.3963 Z-0.6000
G1 X3.5000 Y1.2500 Z-0.6000
G1 X3.5144 Y1.1037 Z-0.6000
G1 X3.5571 Y0.9630 Z-0.6000
G1 X3.6264 Y0.8333 Z-0.6000
G1 X3.7197 Y0.7197 Z-0.6000
G1 X3.8333 Y0.6264 Z-0.6000
G1 X3.9630 Y0.5571 Z-0.6000
G1 X4.1037 Y0.5144 Z-0.6000
G1 X4.2500 Y0.5000 Z-0.6000
G1 X4.3963 Y0.5144 Z-0.6000
G1 X4.5370 Y0.5571 Z-0.6000
G1 X4.6667 Y0.6264 Z-0.6000
G1 X4.7803 Y0.7197 Z-0.6000
G1 X4.8736 Y0.8333 Z-0.6000
G1 X4.9429 Y0.9630 Z-0.6000
G1 X4.9856 Y1.1037 Z-0.6000
G1 X5.0000 Y1.2500 Z-0.6000
G1 X5.0000 Y1.2500 Z-0.6000
G1 Z-0.7000 F50
G1 X4.9856 Y1.3963 Z-0.7000 F100
G1 X4.9429 Y1.5370 Z-0.7000
G1 X4.8736 Y1.6667 Z-0.7000
G1 X4.7803 Y1.7803 Z-0.7000
G1 X4.6667 Y1.8736 Z-0.7000
G1 X4.5370 Y1.9429 Z-0.7000
G1 X4.3963 Y1.9856 Z-0.7000
G1 X4.2500 Y2.0000 Z-0.7000
G1 X4.1037 Y1.9856 Z-0.7000
G1 X3.9630 Y1.9429 Z-0.7000
G1 X3.8333 Y1.8736 Z-0.7000
G1 X3.7197 Y1.7803 Z-0.7000
G1 X3.6264 Y1.6667 Z-0.7000
G1 X3.5571 Y1.5370 Z-0.7000
G1 X3.5144 Y1.3963 Z-0.7000
G1 X3.5000 Y1.2500 Z-0.7000
G1 X3.5144 Y1.1037 Z-0.7000
G1 X3.5571 Y0.9630 Z-0.7000
G1 X3.6264 Y0.8333 Z-0.7000
G1 X3.7197 Y0.7197 Z-0.7000
G1 X3.8333 Y0.6264 Z-0.7000
G1 X3.9630 Y0.5571 Z-0.7000
G1 X4.1037 Y0.5144 Z-0.7000
G1 X4.2500 Y0.5000 Z-0.7000
G1 X4.3963 Y0.5144 Z-0.7000
G1 X4.5370 Y0.5571 Z-0.7000
G1 X4.6667 Y0.6264 Z-0.7000
G1 X4.7803 Y0.7197 Z-0.7000
G1 X4.8736 Y0.8333 Z-0.7000
G1 X4.9429 Y0.9630 Z-0.7000
G1 X4.9856 Y1.1037 Z-0.7000
G1 X5.0000 Y1.2500 Z-0.7000
G1 X5.0000 Y1.2500 Z-0.7000
G1 Z-0.8000 F50
G1 X4.9856 Y1.3963 Z-0.8000 F100
G1 X4.9429 Y1.5370 Z-0.8000
G1 X4.8736 Y1.6667 Z-0.8000
G1 X4.7803 Y1.7803 Z-0.8000
G1 X4.6667 Y1.8736 Z-0.8000
G1 X4.5370 Y1.9429 Z-0.8000
G1 X4.3963 Y1.9856 Z-0.8000
G1 X4.2500 Y2.0000 Z-0.8000
G1 X4.1037 Y1.9856 Z-0.8000
G1 X3.9630 Y1.9429 Z-0.8000
G1 X3.8333 Y1.8736 Z-0.8000
G1 X3.7197 Y1.7803 Z-0.8000
G1 X3.6264 Y1.6667 Z-0.8000
G1 X3.5571 Y1.5370 Z-0.8000
G1 X3.5144 Y1.3963 Z-0.8000
G1 X3.5000 Y1.2500 Z-0.8000
G1 X3.5144 Y1.1037 Z-0.8000
G1 X3.5571 Y0.9630 Z-0.8000
G1 X3.6264 Y0.8333 Z-0.8000
G1 X3.7197 Y0.7197 Z-0.8000
G1 X3.8333 Y0.6264 Z-0.8000
G1 X3.9630 Y0.5571 Z-0.8000
G1 X4.1037 Y0.5144 Z-0.8000
G1 X4.2500 Y0.5000 Z-0.8000
G1 X4.3963 Y0.5144 Z-0.8000
G1 X4.5370 Y0.5571 Z-0.8000
G1 X4.6667 Y0.6264 Z-0.8000
G1 X4.7803 Y0.7197 Z-0.8000
G1 X4.8736 Y0.8333 Z-0.8000
G1 X4.9429 Y0.9630 Z-0.8000
G1 X4.9856 Y1.1037 Z-0.8000
G1 X5.0000 Y1.2500 Z-0.8000
G1 X5.0000 Y1.2500 Z-0.8000
G1 Z-0.9000 F50
G1 X4.9856 Y1.3963 Z-0.9000 F100
G1 X4.9429 Y1.5370 Z-0.9000
G1 X4.8736 Y1.6667 Z-0.9000
G1 X4.7803 Y1.7803 Z-0.9000
G1 X4.6667 Y1.8736 Z-0.9000
G1 X4.5370 Y1.9429 Z-0.9000
G1 X4.3963 Y1.9856 Z-0.9000
G1 X4.2500 Y2.0000 Z-0.9000
G1 X4.1037 Y1.9856 Z-0.9000
G1 X3.9630 Y1.9429 Z-0.9000
G1 X3.8333 Y1.8736 Z-0.9000
G1 X3.7197 Y1.7803 Z-0.9000
G1 X3.6264 Y1.6667 Z-0.9000
G1 X3.5571 Y1.5370 Z-0.9000
G1 X3.5144 Y1.3963 Z-0.9000
G1 X3.5000 Y1.2500 Z-0.9000
G1 X3.5144 Y1.1037 Z-0.9000
G1 X3.5571 Y0.9630 Z-0.9000
G1 X3.6264 Y0.8333 Z-0.9000
G1 X3.7197 Y0.7197 Z-0.9000
G1 X3.8333 Y0.6264 Z-0.9000
G1 X3.9630 Y0.5571 Z-0.9000
G1 X4.1037 Y0.5144 Z-0.9000
G1 X4.2500 Y0.5000 Z-0.9000
G1 X4.3963 Y0.5144 Z-0.9000
G1 X4.5370 Y0.5571 Z-0.9000
G1 X4.6667 Y0.6264 Z-0.9000
G1 X4.7803 Y0.7197 Z-0.9000
G1 X4.8736 Y0.8333 Z-0.9000
G1 X4.9429 Y0.9630 Z-0.9000
G1 X4.9856 Y1.1037 Z-0.9000
G1 X5.0000 Y1.2500 Z-0.9000
G1 X5.0000 Y1.2500 Z-0.9000
G1 Z-1.0000 F50
G1 X4.9856 Y1.3963 Z-1.0000 F100
G1 X4.9429 Y1.5370 Z-1.0000
G1 X4.8736 Y1.6667 Z-1.0000
G1 X4.7803 Y1.7803 Z-1.0000
G1 X4.6667 Y1.8736 Z-1.0000
G1 X4.5370 Y1.9429 Z-1.0000
G1 X4.3963 Y1.9856 Z-1.0000
G1 X4.2500 Y2.0000 Z-1.0000
G1 X4.1037 Y1.9856 Z-1.0000
G1 X3.9630 Y1.9429 Z-1.0000
G1 X3.8333 Y1.8736 Z-1.0000
G1 X3.7197 Y1.7803 Z-1.0000
G1 X3.6264 Y1.6667 Z-1.0000
G1 X3.5571 Y1.5370 Z-1.0000
G1 X3.5144 Y1.3963 Z-1.0000
G1 X3.5000 Y1.2500 Z-1.0000
G1 X3.5144 Y1.1037 Z-1.0000
G1 X3.5571 Y0.9630 Z-1.0000
G1 X3.6264 Y0.8333 Z-1.0000
G1 X3.7197 Y0.7197 Z-1.0000
G1 X3.8333 Y0.6264 Z-1.0000
G1 X3.9630 Y0.5571 Z-1.0000
G1 X4.1037 Y0.5144 Z-1.0000
G1 X4.2500 Y0.5000 Z-1.0000
G1 X4.3963 Y0.5144 Z-1.0000
G1 X4.5370 Y0.5571 Z-1.0000
G1 X4.6667 Y0.6264 Z-1.0000
G1 X4.7803 Y0.7197 Z-1.0000
G1 X4.8736 Y0.8333 Z-1.0000
G1 X4.9429 Y0.9630 Z-1.0000
G1 X4.9856 Y1.1037 Z-1.0000
G1 X5.0000 Y1.2500 Z-1.0000
G1 X5.0000 Y1.2500 Z-1.0000
G1 Z-1.1000 F50
G1 X4.9856 Y1.3963 Z-1.1000 F100
G1 X4.9429 Y1.5370 Z-1.1000
G1 X4.8736 Y1.6667 Z-1.1000
G1 X4.7803 Y1.7803 Z-1.1000
G1 X4.6667 Y1.8736 Z-1.1000
G1 X4.5370 Y1.9429 Z-1.1000
G1 X4.3963 Y1.9856 Z-1.1000
G1 X4.2500 Y2.0000 Z-1.1000
G1 X4.1037 Y1.9856 Z-1.1000
G1 X3.9630 Y1.9429 Z-1.1000
G1 X3.8333 Y1.8736 Z-1.1000
G1 X3.7197 Y1.7803 Z-1.1000
G1 X3.6264 Y1.6667 Z-1.1000
G1 X3.5571 Y1.5370 Z-1.1000
G1 X3.5144 Y1.3963 Z-1.1000
G1 X3.5000 Y1.2500 Z-1.1000
G1 X3.5144 Y1.1037 Z-1.1000
G1 X3.5571 Y0.9630 Z-1.1000
G1 X3.6264 Y0.8333 Z-1.1000
G1 X3.7197 Y0.7197 Z-1.1000
G1 X3.8333 Y0.6264 Z-1.1000
G1 X3.9630 Y0.5571 Z-1.1000
G1 X4.1037 Y0.5144 Z-1.1000
G1 X4.2500 Y0.5000 Z-1.1000
G1 X4.3963 Y0.5144 Z-1.1000
G1 X4.5370 Y0.5571 Z-1.1000
G1 X4.6667 Y0.6264 Z-1.1000
G1 X4.7803 Y0.7197 Z-1.1000
G1 X4.8736 Y0.8333 Z-1.1000
G1 X4.9429 Y0.9630 Z-1.1000
G1 X4.9856 Y1.1037 Z-1.1000
G1 X5.0000 Y1.2500 Z-1.1000
G1 X5.0000 Y1.2500 Z-1.1000
G1 Z-1.2000 F50
G1 X4.9856 Y1.3963 Z-1.2000 F100
G1 X4.9429 Y1.5370 Z-1.2000
G1 X4.8736 Y1.6667 Z-1.2000
G1 X4.7803 Y1.7803 Z-1.2000
G1 X4.6667 Y1.8736 Z-1.2000
G1 X4.5370 Y1.9429 Z-1.2000
G1 X4.3963 Y1.9856 Z-1.2000
G1 X4.2500 Y2.0000 Z-1.2000
G1 X4.1037 Y1.9856 Z-1.2000
G1 X3.9630 Y1.9429 Z-1.2000
G1 X3.8333 Y1.8736 Z-1.2000
G1 X3.7197 Y1.7803 Z-1.2000
G1 X3.6264 Y1.6667 Z-1.2000
G1 X3.5571 Y1.5370 Z-1.2000
G1 X3.5144 Y1.3963 Z-1.2000
G1 X3.5000 Y1.2500 Z-1.2000
G1 X3.5144 Y1.1037 Z-1.2000
G1 X3.5571 Y0.9630 Z-1.2000
G1 X3.6264 Y0.8333 Z-1.2000
G1 X3.7197 Y0.7197 Z-1.2000
G1 X3.8333 Y0.6264 Z-1.2000
G1 X3.9630 Y0.5571 Z-1.2000
G1 X4.1037 Y0.5144 Z-1.2000
G1 X4.2500 Y0.5000 Z-1.2000
G1 X4.3963 Y0.5144 Z-1.2000
G1 X4.5370 Y0.5571 Z-1.2000
G1 X4.6667 Y0.6264 Z-1.2000
G1 X4.7803 Y0.7197 Z-1.2000
G1 X4.8736 Y0.8333 Z-1.2000
G1 X4.9429 Y0.9630 Z-1.2000
G1 X4.9856 Y1.1037 Z-1.2000
G1 X5.0000 Y1.2500 Z-1.2000
G1 X5.0000 Y1.2500 Z-1.2000
G1 Z-1.3000 F50
G1 X4.9856 Y1.3963 Z-1.3000 F100
G1 X4.9429 Y1.5370 Z-1.3000
G1 X4.8736 Y1.6667 Z-1.3000
G1 X4.7803 Y1.7803 Z-1.3000
G1 X4.6667 Y1.8736 Z-1.3000
G1 X4.5370 Y1.9429 Z-1.3000
G1 X4.3963 Y1.9856 Z-1.3000
G1 X4.2500 Y2.0000 Z-1.3000
G1 X4.1037 Y1.9856 Z-1.3000
G1 X3.9630 Y1.9429 Z-1.3000
G1 X3.8333 Y1.8736 Z-1.3000
G1 X3.7197 Y1.7803 Z-1.3000
G1 X3.6264 Y1.6667 Z-1.3000
G1 X3.5571 Y1.5370 Z-1.3000
G1 X3.5144 Y1.3963 Z-1.3000
G1 X3.5000 Y1.2500 Z-1.3000
G1 X3.5144 Y1.1037 Z-1.3000
G1 X3.5571 Y0.9630 Z-1.3000
G1 X3.6264 Y0.8333 Z-1.3000
G1 X3.7197 Y0.7197 Z-1.3000
G1 X3.8333 Y0.6264 Z-1.3000
G1 X3.9630 Y0.5571 Z-1.3000
G1 X4.1037 Y0.5144 Z-1.3000
G1 X4.2500 Y0.5000 Z-1.3000
G1 X4.3963 Y0.5144 Z-1.3000
G1 X4.5370 Y0.5571 Z-1.3000
G1 X4.6667 Y0.6264 Z-1.3000
G1 X4.7803 Y0.7197 Z-1.3000
G1 X4.8736 Y0.8333 Z-1.3000
G1 X4.9429 Y0.9630 Z-1.3000
G1 X4.9856 Y1.1037 Z-1.3000
G1 X5.0000 Y1.2500 Z-1.3000
G1 X5.0000 Y1.2500 Z-1.3000
G1 Z-1.4000 F50
G1 X4.9856 Y1.3963 Z-1.4000 F100
G1 X4.9429 Y1.5370 Z-1.4000
G1 X4.8736 Y1.6667 Z-1.4000
G1 X4.7803 Y1.7803 Z-1.4000
G1 X4.6667 Y1.8736 Z-1.4000
G1 X4.5370 Y1.9429 Z-1.4000
G1 X4.3963 Y1.9856 Z-1.4000
G1 X4.2500 Y2.0000 Z-1.4000
G1 X4.1037 Y1.9856 Z-1.4000
G1 X3.9630 Y1.9429 Z-1.4000
G1 X3.8333 Y1.8736 Z-1.4000
G1 X3.7197 Y1.7803 Z-1.4000
G1 X3.6264 Y1.6667 Z-1.4000
G1 X3.5571 Y1.5370 Z-1.4000
G1 X3.5144 Y1.3963 Z-1.4000
G1 X3.5000 Y1.2500 Z-1.4000
G1 X3.5144 Y1.1037 Z-1.4000
G1 X3.5571 Y0.9630 Z-1.4000
G1 X3.6264 Y0.8333 Z-1.4000
G1 X3.7197 Y0.7197 Z-1.4000
G1 X3.8333 Y0.6264 Z-1.4000
G1 X3.9630 Y0.5571 Z-1.4000
G1 X4.1037 Y0.5144 Z-1.4000
G1 X4.2500 Y0.5000 Z-1.4000
G1 X4.3963 Y0.5144 Z-1.4000
G1 X4.5370 Y0.5571 Z-1.4000
G1 X4.6667 Y0.6264 Z-1.4000
G1 X4.7803 Y0.7197 Z-1.4000
G1 X4.8736 Y0.8333 Z-1.4000
G1 X4.9429 Y0.9630 Z-1.4000
G1 X4.9856 Y1.1037 Z-1.4000
G1 X5.0000 Y1.2500 Z-1.4000
G1 X5.0000 Y1.2500 Z-1.4000
G1 Z-1.5000 F50
G1 X4.9856 Y1.3963 Z-1.5000 F100
G1 X4.9429 Y1.5370 Z-1.5000
G1 X4.8736 Y1.6667 Z-1.5000
G1 X4.7803 Y1.7803 Z-1.5000
G1 X4.6667 Y1.8736 Z-1.5000
G1 X4.5370 Y1.9429 Z-1.5000
G1 X4.3963 Y1.9856 Z-1.5000
G1 X4.2500 Y2.0000 Z-1.5000
G1 X4.1037 Y1.9856 Z-1.5000
G1 X3.9630 Y1.9429 Z-1.5000
G1 X3.8333 Y1.8736 Z-1.5000
G1 X3.7197 Y1.7803 Z-1.5000
G1 X3.6264 Y1.6667 Z-1.5000
G1 X3.5571 Y1.5370 Z-1.5000
G1 X3.5144 Y1.3963 Z-1.5000
G1 X3.5000 Y1.2500 Z-1.5000
G1 X3.5144 Y1.1037 Z-1.5000
G1 X3.5571 Y0.9630 Z-1.5000
G1 X3.6264 Y0.8333 Z-1.5000
G1 X3.7197 Y0.7197 Z-1.5000
G1 X3.8333 Y0.6264 Z-1.5000
G1 X3.9630 Y0.5571 Z-1.5000
G1 X4.1037 Y0.5144 Z-1.5000
G1 X4.2500 Y0.5000 Z-1.5000
G1 X4.3963 Y0.5144 Z-1.5000
G1 X4.5370 Y0.5571 Z-1.5000
G1 X4.6667 Y0.6264 Z-1.5000
G1 X4.7803 Y0.7197 Z-1.5000
G1 X4.8736 Y0.8333 Z-1.5000
G1 X4.9429 Y0.9630 Z-1.5000
G1 X4.9856 Y1.1037 Z-1.5000
G1 X5.0000 Y1.2500 Z-1.5000
G1 X5.0000 Y1.2500 Z-1.5000
G1 Z-1.6000 F50
G1 X4.9856 Y1.3963 Z-1.6000 F100
G1 X4.9429 Y1.5370 Z-1.6000
G1 X4.8736 Y1.6667 Z-1.6000
G1 X4.7803 Y1.7803 Z-1.6000
G1 X4.6667 Y1.8736 Z-1.6000
G1 X4.5370 Y1.9429 Z-1.6000
G1 X4.3963 Y1.9856 Z-1.6000
G1 X4.2500 Y2.0000 Z-1.6000
G1 X4.1037 Y1.9856 Z-1.6000
G1 X3.9630 Y1.9429 Z-1.6000
G1 X3.8333 Y1.8736 Z-1.6000
G1 X3.7197 Y1.7803 Z-1.6000
G1 X3.6264 Y1.6667 Z-1.6000
G1 X3.5571 Y1.5370 Z-1.6000
G1 X3.5144 Y1.3963 Z-1.6000
G1 X3.5000 Y1.2500 Z-1.6000
G1 X3.5144 Y1.1037 Z-1.6000
G1 X3.5571 Y0.9630 Z-1.6000
G1 X3.6264 Y0.8333 Z-1.6000
G1 X3.7197 Y0.7197 Z-1.6000
G1 X3.8333 Y0.6264 Z-1.6000
G1 X3.9630 Y0.5571 Z-1.6000
G1 X4.1037 Y0.5144 Z-1.6000
G1 X4.2500 Y0.5000 Z-1.6000
G1 X4.3963 Y0.5144 Z-1.6000
G1 X4.5370 Y0.5571 Z-1.6000
G1 X4.6667 Y0.6264 Z-1.6000
G1 X4.7803 Y0.7197 Z-1.6000
G1 X4.8736 Y0.8333 Z-1.6000
G1 X4.9429 Y0.9630 Z-1.6000
G1 X4.9856 Y1.1037 Z-1.6000
G1 X5.0000 Y1.2500 Z-1.6000
G1 X5.0000 Y1.2500 Z-1.6000

G0 Z0.5 ; move to z-safe height
G0 X7.2500 Y1.2500
G1 Z-0.1000 F50
G1 X7.2356 Y1.3963 Z-0.1000 F100
G1 X7.1929 Y1.5370 Z-0.1000
G1 X7.1236 Y1.6667 Z-0.1000
G1 X7.0303 Y1.7803 Z-0.1000
G1 X6.9167 Y1.8736 Z-0.1000
G1 X6.7870 Y1.9429 Z-0.1000
G1 X6.6463 Y1.9856 Z-0.1000
G1 X6.5000 Y2.0000 Z-0.1000
G1 X6.3537 Y1.9856 Z-0.1000
G1 X6.2130 Y1.9429 Z-0.1000
G1 X6.0833 Y1.8736 Z-0.1000
G1 X5.9697 Y1.7803 Z-0.1000
G1 X5.8764 Y1.6667 Z-0.1000
G1 X5.8071 Y1.5370 Z-0.1000
G1 X5.7644 Y1.3963 Z-0.1000
G1 X5.7500 Y1.2500 Z-0.1000
G1 X5.7644 Y1.1037 Z-0.1000
G1 X5.8071 Y0.9630 Z-0.1000
G1 X5.8764 Y0.8333 Z-0.1000
G1 X5.9697 Y0.7197 Z-0.1000
G1 X6.0833 Y0.6264 Z-0.1000
G1 X6.2130 Y0.5571 Z-0.1000
G1 X6.3537 Y0.5144 Z-0.1000
G1 X6.5000 Y0.5000 Z-0.1000
G1 X6.6463 Y0.5144 Z-0.1000
G1 X6.7870 Y0.5571 Z-0.1000
G1 X6.9167 Y0.6264 Z-0.1000
G1 X7.0303 Y0.7197 Z-0.1000
G1 X7.1236 Y0.8333 Z-0.1000
G1 X7.1929 Y0.9630 Z-0.1000
G1 X7.2356 Y1.1037 Z-0.1000
G1 X7.2500 Y1.2500 Z-0.1000
G1 X7.2500 Y1.2500 Z-0.1000
G1 Z-0.2000 F50
G1 X7.2356 Y1.3963 Z-0.2000 F100
G1 X7.1929 Y1.5370 Z-0.2000
G1 X7.1236 Y1.6667 Z-0.2000
G1 X7.0303 Y1.7803 Z-0.2000
G1 X6.9167 Y1.8736 Z-0.2000
G1 X6.7870 Y1.9429 Z-0.2000
G1 X6.6463 Y1.9856 Z-0.2000
G1 X6.5000 Y2.0000 Z-0.2000
G1 X6.3537 Y1.9856 Z-0.2000
G1 X6.2130 Y1.9429 Z-0.2000
G1 X6.0833 Y1.8736 Z-0.2000
G1 X5.9697 Y1.7803 Z-0.2000
G1 X5.8764 Y1.6667 Z-0.2000
G1 X5.8071 Y1.5370 Z-0.2000
G1 X5.7644 Y1.3963 Z-0.2000
G1 X5.7500 Y1.2500 Z-0.2000
G1 X5.7644 Y1.1037 Z-0.2000
G1 X5.8071 Y0.9630 Z-0.2000
G1 X5.8764 Y0.8333 Z-0.2000
G1 X5.9697 Y0.7197 Z-0.2000
G1 X6.0833 Y0.6264 Z-0.2000
G1 X6.2130 Y0.5571 Z-0.2000
G1 X6.3537 Y0.5144 Z-0.2000
G1 X6.5000 Y0.5000 Z-0.2000
G1 X6.6463 Y0.5144 Z-0.2000
G1 X6.7870 Y0.5571 Z-0.2000
G1 X6.9167 Y0.6264 Z-0.2000
G1 X7.0303 Y0.7197 Z-0.2000
G1 X7.1236 Y0.8333 Z-0.2000
G1 X7.1929 Y0.9630 Z-0.2000
G1 X7.2356 Y1.1037 Z-0.2000
G1 X7.2500 Y1.2500 Z-0.2000
G1 X7.2500 Y1.2500 Z-0.2000
G1 Z-0.3000 F50
G1 X7.2356 Y1.3963 Z-0.3000 F100
G1 X7.1929 Y1.5370 Z-0.3000
G1 X7.1236 Y1.6667 Z-0.3000
G1 X7.0303 Y1.7803 Z-0.3000
G1 X6.9167 Y1.8736 Z-0.3000
G1 X6.7870 Y1.9429 Z-0.3000
G1 X6.6463 Y1.9856 Z-0.3000
G1 X6.5000 Y2.0000 Z-0.3000
G1 X6.3537 Y1.9856 Z-0.3000
G1 X6.2130 Y1.9429 Z-0.3000
G1 X6.0833 Y1.8736 Z-0.3000
G1 X5.9697 Y1.7803 Z-0.3000
G1 X5.8764 Y1.6667 Z-0.3000
G1 X5.8071 Y1.5370 Z-0.3000
G1 X5.7644 Y1.3963 Z-0.3000
G1 X5.7500 Y1.2500 Z-0.3000
G1 X5.7644 Y1.1037 Z-0.3000
G1 X5.8071 Y0.9630 Z-0.3000
G1 X5.8764 Y0.8333 Z-0.3000
G1 X5.9697 Y0.7197 Z-0.3000
G1 X6.0833 Y0.6264 Z-0.3000
G1 X6.2130 Y0.5571 Z-0.3000
G1 X6.3537 Y0.5144 Z-0.3000
G1 X6.5000 Y0.5000 Z-0.3000
G1 X6.6463 Y0.5144 Z-0.3000
G1 X6.7870 Y0.5571 Z-0.3000
G1 X6.9167 Y0.6264 Z-0.3000
G1 X7.0303 Y0.7197 Z-0.3000
G1 X7.1236 Y0.8333 Z-0.3000
G1 X7.1929 Y0.9630 Z-0.3000
G1 X7.2356 Y1.1037 Z-0.3000
G1 X7.2500 Y1.2500 Z-0.3000
G1 X7.2500 Y1.2500 Z-0.3000
G1 Z-0.4000 F50
G1 X7.2356 Y1.3963 Z-0.4000 F100
G1 X7.1929 Y1.5370 Z-0.4000
G1 X7.1236 Y1.6667 Z-0.4000
G1 X7.0303 Y1.7803 Z-0.4000
G1 X6.9167 Y1.8736 Z-0.4000
G1 X6.7870 Y1.9429 Z-0.4000
G1 X6.6463 Y1.9856 Z-0.4000
G1 X6.5000 Y2.0000 Z-0.4000
G1 X6.3537 Y1.9856 Z-0.4000
G1 X6.2130 Y1.9429 Z-0.4000
G1 X6.0833 Y1.8736 Z-0.4000
G1 X5.9697 Y1.7803 Z-0.4000
G1 X5.8764 Y1.6667 Z-0.4000
G1 X5.8071 Y1.5370 Z-0.4000
G1 X5.7644 Y1.3963 Z-0.4000
G1 X5.7500 Y1.2500 Z-0.4000
G1 X5.7644 Y1.1037 Z-0.4000
G1 X5.8071 Y0.9630 Z-0.4000
G1 X5.8764 Y0.8333 Z-0.4000
G1 X5.9697 Y0.7197 Z-0.4000
G1 X6.0833 Y0.6264 Z-0.4000
G1 X6.2130 Y0.5571 Z-0.4000
G1 X6.3537 Y0.5144 Z-0.4000
G1 X6.5000 Y0.5000 Z-0.4000
G1 X6.6463 Y0.5144 Z-0.4000
G1 X6.7870 Y0.5571 Z-0.4000
G1 X6.9167 Y0.6264 Z-0.4000
G1 X7.0303 Y0.7197 Z-0.4000
G1 X7.1236 Y0.8333 Z-0.4000
G1 X7.1929 Y0.9630 Z-0.4000
G1 X7.2356 Y1.1037 Z-0.4000
G1 X7.2500 Y1.2500 Z-0.4000
G1 X7.2500 Y1.2500 Z-0.4000
G1 Z-0.5000 F50
G1 X7.2356 Y1.3963 Z-0.5000 F100
G1 X7.1929 Y1.5370 Z-0.5000
G1 X7.1236 Y1.6667 Z-0.5000
G1 X7.0303 Y1.7803 Z-0.5000
G1 X6.9167 Y1.8736 Z-0.5000
G1 X6.7870 Y1.9429 Z-0.5000
G1 X6.6463 Y1.9856 Z-0.5000
G1 X6.5000 Y2.0000 Z-0.5000
G1 X6.3537 Y1.9856 Z-0.5000
G1 X6.2130 Y1.9429 Z-0.5000
G1 X6.0833 Y1.8736 Z-0.5000
G1 X5.9697 Y1.7803 Z-0.5000
G1 X5.8764 Y1.6667 Z-0.5000
G1 X5.8071 Y1.5370 Z-0.5000
G1 X5.7644 Y1.3963 Z-0.5000
G1 X5.7500 Y1.2500 Z-0.5000
G1 X5.7644 Y1.1037 Z-0.5000
G1 X5.8071 Y0.9630 Z-0.5000
G1 X5.8764 Y0.8333 Z-0.5000
G1 X5.9697 Y0.7197 Z-0.5000
G1 X6.0833 Y0.6264 Z-0.5000
G1 X6.2130 Y0.5571 Z-0.5000
G1 X6.3537 Y0.5144 Z-0.5000
G1 X6.5000 Y0.5000 Z-0.5000
G1 X6.6463 Y0.5144 Z-0.5000
G1 X6.7870 Y0.5571 Z-0.5000
G1 X6.9167 Y0.6264 Z-0.5000
G1 X7.0303 Y0.7197 Z-0.5000
G1 X7.1236 Y0.8333 Z-0.5000
G1 X7.1929 Y0.9630 Z-0.5000
G1 X7.2356 Y1.1037 Z-0.5000
G1 X7.2500 Y1.2500 Z-0.5000
G1 X7.2500 Y1.2500 Z-0.5000
G1 Z-0.6000 F50
G1 X7.2356 Y1.3963 Z-0.6000 F100
G1 X7.1929 Y1.5370 Z-0.6000
G1 X7.1236 Y1.6667 Z-0.6000
G1 X7.0303 Y1.7803 Z-0.6000
G1 X6.9167 Y1.8736 Z-0.6000
G1 X6.7870 Y1.9429 Z-0.6000
G1 X6.6463 Y1.9856 Z-0.6000
G1 X6.5000 Y2.0000 Z-0.6000
G1 X6.3537 Y1.9856 Z-0.6000
G1 X6.2130 Y1.9429 Z-0.6000
G1 X6.0833 Y1.8736 Z-0.6000
G1 X5.9697 Y1.7803 Z-0.6000
G1 X5.8764 Y1.6667 Z-0.6000
G1 X5.8071 Y1.5370 Z-0.6000
G1 X5.7644 Y1.3963 Z-0.6000
G1 X5.7500 Y1.2500 Z-0.6000
G1 X5.7644 Y1.1037 Z-0.6000
G1 X5.8071 Y0.9630 Z-0.6000
G1 X5.8764 Y0.8333 Z-0.6000
G1 X5.9697 Y0.7197 Z-0.6000
G1 X6.0833 Y0.6264 Z-0.6000
G1 X6.2130 Y0.5571 Z-0.6000
G1 X6.3537 Y0.5144 Z-0.6000
G1 X6.5000 Y0.5000 Z-0.6000
G1 X6.6463 Y0.5144 Z-0.6000
G1 X6.7870 Y0.5571 Z-0.6000
G1 X6.9167 Y0.6264 Z-0.6000
G1 X7.0303 Y0.7197 Z-0.6000
G1 X7.1236 Y0.8333 Z-0.6000
G1 X7.1929 Y0.9630 Z-0.6000
G1 X7.2356 Y1.1037 Z-0.6000
G1 X7.2500 Y1.2500 Z-0.6000
G1 X7.2500 Y1.2500 Z-0.6000
G1 Z-0.7000 F50
G1 X7.2356 Y1.3963 Z-0.7000 F100
G1 X7.1929 Y1.5370 Z-0.7000
G1 X7.1236 Y1.6667 Z-0.7000
G1 X7.0303 Y1.7803 Z-0.7000
G1 X6.9167 Y1.8736 Z-0.7000
G1 X6.7870 Y1.9429 Z-0.7000
G1 X6.6463 Y1.9856 Z-0.7000
G1 X6.5000 Y2.0000 Z-0.7000
G1 X6.3537 Y1.9856 Z-0.7000
G1 X6.2130 Y1.9429 Z-0.7000
G1 X6.0833 Y1.8736 Z-0.7000
G1 X5.9697 Y1.7803 Z-0.7000
G1 X5.8764 Y1.6667 Z-0.7000
G1 X5.8071 Y1.5370 Z-0.7000
G1 X5.7644 Y1.3963 Z-0.7000
G1 X5.7500 Y1.2500 Z-0.7000
G1 X5.7644 Y1.1037 Z-0.7000
G1 X5.8071 Y0.9630 Z-0.7000
G1 X5.8764 Y0.8333 Z-0.7000
G1 X5.9697 Y0.7197 Z-0.7000
G1 X6.0833 Y0.6264 Z-0.7000
G1 X6.2130 Y0.5571 Z-0.7000
G1 X6.3537 Y0.5144 Z-0.7000
G1 X6.5000 Y0.5000 Z-0.7000
G1 X6.6463 Y0.5144 Z-0.7000
G1 X6.7870 Y0.5571 Z-0.7000
G1 X6.9167 Y0.6264 Z-0.7000
G1 X7.0303 Y0.7197 Z-0.7000
G1 X7.1236 Y0.8333 Z-0.7000
G1 X7.1929 Y0.9630 Z-0.7000
G1 X7.2356 Y1.1037 Z-0.7000
G1 X7.2500 Y1.2500 Z-0.7000
G1 X7.2500 Y1.2500 Z-0.7000
G1 Z-0.8000 F50
G1 X7.2356 Y1.3963 Z-0.8000 F100
G1 X7.1929 Y1.5370 Z-0.8000
G1 X7.1236 Y1.6667 Z-0.8000
G1 X7.0303 Y1.7803 Z-0.8000
G1 X6.9167 Y1.8736 Z-0.8000
G1 X6.7870 Y1.9429 Z-0.8000
G1 X6.6463 Y1.9856 Z-0.8000
G1 X6.5000 Y2.0000 Z-0.8000
G1 X6.3537 Y1.9856 Z-0.8000
G1 X6.2130 Y1.9429 Z-0.8000
G1 X6.0833 Y1.8736 Z-0.8000
G1 X5.9697 Y1.7803 Z-0.8000
G1 X5.8764 Y1.6667 Z-0.8000
G1 X5.8071 Y1.5370 Z-0.8000
G1 X5.7644 Y1.3963 Z-0.8000
G1 X5.7500 Y1.2500 Z-0.8000
G1 X5.7644 Y1.1037 Z-0.8000
G1 X5.8071 Y0.9630 Z-0.8000
G1 X5.8764 Y0.8333 Z-0.8000
G1 X5.9697 Y0.7197 Z-0.8000
G1 X6.0833 Y0.6264 Z-0.8000
G1 X6.2130 Y0.5571 Z-0.8000
G1 X6.3537 Y0.5144 Z-0.8000
G1 X6.5000 Y0.5000 Z-0.8000
G1 X6.6463 Y0.5144 Z-0.8000
G1 X6.7870 Y0.5571 Z-0.8000
G1 X6.9167 Y0.6264 Z-0.8000
G1 X7.0303 Y0.7197 Z-0.8000
G1 X7.1236 Y0.8333 Z-0.8000
G1 X7.1929 Y0.9630 Z-0.8000
G1 X7.2356 Y1.1037 Z-0.8000
G1 X7.2500 Y1.2500 Z-0.8000
G1 X7.2500 Y1.2500 Z-0.8000
G1 Z-0.9000 F50
G1 X7.2356 Y1.3963 Z-0.9000 F100
G1 X7.1929 Y1.5370 Z-0.9000
G1 X7.1236 Y1.6667 Z-0.9000
G1 X7.0303 Y1.7803 Z-0.9000
G1 X6.9167 Y1.8736 Z-0.9000
G1 X6.7870 Y1.9429 Z-0.9000
G1 X6.6463 Y1.9856 Z-0.9000
G1 X6.5000 Y2.0000 Z-0.9000
G1 X6.3537 Y1.9856 Z-0.9000
G1 X6.2130 Y1.9429 Z-0.9000
G1 X6.0833 Y1.8736 Z-0.9000
G1 X5.9697 Y1.7803 Z-0.9000
G1 X5.8764 Y1.6667 Z-0.9000
G1 X5.8071 Y1.5370 Z-0.9000
G1 X5.7644 Y1.3963 Z-0.9000
G1 X5.7500 Y1.2500 Z-0.9000
G1 X5.7644 Y1.1037 Z-0.9000
G1 X5.8071 Y0.9630 Z-0.9000
G1 X5.8764 Y0.8333 Z-0.9000
G1 X5.9697 Y0.7197 Z-0.9000
G1 X6.0833 Y0.6264 Z-0.9000
G1 X6.2130 Y0.5571 Z-0.9000
G1 X6.3537 Y0.5144 Z-0.9000
G1 X6.5000 Y0.5000 Z-0.9000
G1 X6.6463 Y0.5144 Z-0.9000
G1 X6.7870 Y0.5571 Z-0.9000
G1 X6.9167 Y0.6264 Z-0.9000
G1 X7.0303 Y0.7197 Z-0.9000
G1 X7.1236 Y0.8333 Z-0.9000
G1 X7.1929 Y0.9630 Z-0.9000
G1 X7.2356 Y1.1037 Z-0.9000
G1 X7.2500 Y1.2500 Z-0.9000
G1 X7.2500 Y1.2500 Z-0.9000
G1 Z-1.0000 F50
G1 X7.2356 Y1.3963 Z-1.0000 F100
G1 X7.1929 Y1.5370 Z-1.0000
G1 X7.1236 Y1.6667 Z-1.0000
G1 X7.0303 Y1.7803 Z-1.0000
G1 X6.9167 Y1.8736 Z-1.0000
G1 X6.7870 Y1.9429 Z-1.0000
G1 X6.6463 Y1.9856 Z-1.0000
G1 X6.5000 Y2.0000 Z-1.0000
G1 X6.3537 Y1.9856 Z-1.0000
G1 X6.2130 Y1.9429 Z-1.0000
G1 X6.0833 Y1.8736 Z-1.0000
G1 X5.9697 Y1.7803 Z-1.0000
G1 X5.8764 Y1.6667 Z-1.0000
G1 X5.8071 Y1.5370 Z-1.0000
G1 X5.7644 Y1.3963 Z-1.0000
G1 X5.7500 Y1.2500 Z-1.0000
G1 X5.7644 Y1.1037 Z-1.0000
G1 X5.8071 Y0.9630 Z-1.0000
G1 X5.8764 Y0.8333 Z-1.0000
G1 X5.9697 Y0.7197 Z-1.0000
G1 X6.0833 Y0.6264 Z-1.0000
G1 X6.2130 Y0.5571 Z-1.0000
G1 X6.3537 Y0.5144 Z-1.0000
G1 X6.5000 Y0.5000 Z-1.0000
G1 X6.6463 Y0.5144 Z-1.0000
G1 X6.7870 Y0.5571 Z-1.0000
G1 X6.9167 Y0.6264 Z-1.0000
G1 X7.0303 Y0.7197 Z-1.0000
G1 X7.1236 Y0.8333 Z-1.0000
G1 X7.1929 Y0.9630 Z-1.0000
G1 X7.2356 Y1.1037 Z-1.0000
G1 X7.2500 Y1.2500 Z-1.0000
G1 X7.2500 Y1.2500 Z-1.0000
G1 Z-1.1000 F50
G1 X7.2356 Y1.3963 Z-1.1000 F100
G1 X7.1929 Y1.5370 Z-1.1000
G1 X7.1236 Y1.6667 Z-1.1000
G1 X7.0303 Y1.7803 Z-1.1000
G1 X6.9167 Y1.8736 Z-1.1000
G1 X6.7870 Y1.9429 Z-1.1000
G1 X6.6463 Y1.9856 Z-1.1000
G1 X6.5000 Y2.0000 Z-1.1000
G1 X6.3537 Y1.9856 Z-1.1000
G1 X6.2130 Y1.9429 Z-1.1000
G1 X6.0833 Y1.8736 Z-1.1000
G1 X5.9697 Y1.7803 Z-1.1000
G1 X5.8764 Y1.6667 Z-1.1000
G1 X5.8071 Y1.5370 Z-1.1000
G1 X5.7644 Y1.3963 Z-1.1000
G1 X5.7500 Y1.2500 Z-1.1000
G1 X5.7644 Y1.1037 Z-1.1000
G1 X5.8071 Y0.9630 Z-1.1000
G1 X5.8764 Y0.8333 Z-1.1000
G1 X5.9697 Y0.7197 Z-1.1000
G1 X6.0833 Y0.6264 Z-1.1000
G1 X6.2130 Y0.5571 Z-1.1000
G1 X6.3537 Y0.5144 Z-1.1000
G1 X6.5000 Y0.5000 Z-1.1000
G1 X6.6463 Y0.5144 Z-1.1000
G1 X6.7870 Y0.5571 Z-1.1000
G1 X6.9167 Y0.6264 Z-1.1000
G1 X7.0303 Y0.7197 Z-1.1000
G1 X7.1236 Y0.8333 Z-1.1000
G1 X7.1929 Y0.9630 Z-1.1000
G1 X7.2356 Y1.1037 Z-1.1000
G1 X7.2500 Y1.2500 Z-1.1000
G1 X7.2500 Y1.2500 Z-1.1000
G1 Z-1.2000 F50
G1 X7.2356 Y1.3963 Z-1.2000 F100
G1 X7.1929 Y1.5370 Z-1.2000
G1 X7.1236 Y1.6667 Z-1.2000
G1 X7.0303 Y1.7803 Z-1.2000
G1 X6.9167 Y1.8736 Z-1.2000
G1 X6.7870 Y1.9429 Z-1.2000
G1 X6.6463 Y1.9856 Z-1.2000
G1 X6.5000 Y2.0000 Z-1.2000
G1 X6.3537 Y1.9856 Z-1.2000
G1 X6.2130 Y1.9429 Z-1.2000
G1 X6.0833 Y1.8736 Z-1.2000
G1 X5.9697 Y1.7803 Z-1.2000
G1 X5.8764 Y1.6667 Z-1.2000
G1 X5.8071 Y1.5370 Z-1.2000
G1 X5.7644 Y1.3963 Z-1.2000
G1 X5.7500 Y1.2500 Z-1.2000
G1 X5.7644 Y1.1037 Z-1.2000
G1 X5.8071 Y0.9630 Z-1.2000
G1 X5.8764 Y0.8333 Z-1.2000
G1 X5.9697 Y0.7197 Z-1.2000
G1 X6.0833 Y0.6264 Z-1.2000
G1 X6.2130 Y0.5571 Z-1.2000
G1 X6.3537 Y0.5144 Z-1.2000
G1 X6.5000 Y0.5000 Z-1.2000
G1 X6.6463 Y0.5144 Z-1.2000
G1 X6.7870 Y0.5571 Z-1.2000
G1 X6.9167 Y0.6264 Z-1.2000
G1 X7.0303 Y0.7197 Z-1.2000
G1 X7.1236 Y0.8333 Z-1.2000
G1 X7.1929 Y0.9630 Z-1.2000
G1 X7.2356 Y1.1037 Z-1.2000
G1 X7.2500 Y1.2500 Z-1.2000
G1 X7.2500 Y1.2500 Z-1.2000
G1 Z-1.3000 F50
G1 X7.2356 Y1.3963 Z-1.3000 F100
G1 X7.1929 Y1.5370 Z-1.3000
G1 X7.1236 Y1.6667 Z-1.3000
G1 X7.0303 Y1.7803 Z-1.3000
G1 X6.9167 Y1.8736 Z-1.3000
G1 X6.7870 Y1.9429 Z-1.3000
G1 X6.6463 Y1.9856 Z-1.3000
G1 X6.5000 Y2.0000 Z-1.3000
G1 X6.3537 Y1.9856 Z-1.3000
G1 X6.2130 Y1.9429 Z-1.3000
G1 X6.0833 Y1.8736 Z-1.3000
G1 X5.9697 Y1.7803 Z-1.3000
G1 X5.8764 Y1.6667 Z-1.3000
G1 X5.8071 Y1.5370 Z-1.3000
G1 X5.7644 Y1.3963 Z-1.3000
G1 X5.7500 Y1.2500 Z-1.3000
G1 X5.7644 Y1.1037 Z-1.3000
G1 X5.8071 Y0.9630 Z-1.3000
G1 X5.8764 Y0.8333 Z-1.3000
G1 X5.9697 Y0.7197 Z-1.3000
G1 X6.0833 Y0.6264 Z-1.3000
G1 X6.2130 Y0.5571 Z-1.3000
G1 X6.3537 Y0.5144 Z-1.3000
G1 X6.5000 Y0.5000 Z-1.3000
G1 X6.6463 Y0.5144 Z-1.3000
G1 X6.7870 Y0.5571 Z-1.3000
G1 X6.9167 Y0.6264 Z-1.3000
G1 X7.0303 Y0.7197 Z-1.3000
G1 X7.1236 Y0.8333 Z-1.3000
G1 X7.1929 Y0.9630 Z-1.3000
G1 X7.2356 Y1.1037 Z-1.3000
G1 X7.2500 Y1.2500 Z-1.3000
G1 X7.2500 Y1.2500 Z-1.3000
G1 Z-1.4000 F50
G1 X7.2356 Y1.3963 Z-1.4000 F100
G1 X7.1929 Y1.5370 Z-1.4000
G1 X7.1236 Y1.6667 Z-1.4000
G1 X7.0303 Y1.7803 Z-1.4000
G1 X6.9167 Y1.8736 Z-1.4000
G1 X6.7870 Y1.9429 Z-1.4000
G1 X6.6463 Y1.9856 Z-1.4000
G1 X6.5000 Y2.0000 Z-1.4000
G1 X6.3537 Y1.9856 Z-1.4000
G1 X6.2130 Y1.9429 Z-1.4000
G1 X6.0833 Y1.8736 Z-1.4000
G1 X5.9697 Y1.7803 Z-1.4000
G1 X5.8764 Y1.6667 Z-1.4000
G1 X5.8071 Y1.5370 Z-1.4000
G1 X5.7644 Y1.3963 Z-1.4000
G1 X5.7500 Y1.2500 Z-1.4000
G1 X5.7644 Y1.1037 Z-1.4000
G1 X5.8071 Y0.9630 Z-1.4000
G1 X5.8764 Y0.8333 Z-1.4000
G1 X5.9697 Y0.7197 Z-1.4000
G1 X6.0833 Y0.6264 Z-1.4000
G1 X6.2130 Y0.5571 Z-1.4000
G1 X6.3537 Y0.5144 Z-1.4000
G1 X6.5000 Y0.5000 Z-1.4000
G1 X6.6463 Y0.5144 Z-1.4000
G1 X6.7870 Y0.5571 Z-1.4000
G1 X6.9167 Y0.6264 Z-1.4000
G1 X7.0303 Y0.7197 Z-1.4000
G1 X7.1236 Y0.8333 Z-1.4000
G1 X7.1929 Y0.9630 Z-1.4000
G1 X7.2356 Y1.1037 Z-1.4000
G1 X7.2500 Y1.2500 Z-1.4000
G1 X7.2500 Y1.2500 Z-1.4000
G1 Z-1.5000 F50
G1 X7.2356 Y1.3963 Z-1.5000 F100
G1 X7.1929 Y1.5370 Z-1.5000
G1 X7.1236 Y1.6667 Z-1.5000
G1 X7.0303 Y1.7803 Z-1.5000
G1 X6.9167 Y1.8736 Z-1.5000
G1 X6.7870 Y1.9429 Z-1.5000
G1 X6.6463 Y1.9856 Z-1.5000
G1 X6.5000 Y2.0000 Z-1.5000
G1 X6.3537 Y1.9856 Z-1.5000
G1 X6.2130 Y1.9429 Z-1.5000
G1 X6.0833 Y1.8736 Z-1.5000
G1 X5.9697 Y1.7803 Z-1.5000
G1 X5.8764 Y1.6667 Z-1.5000
G1 X5.8071 Y1.5370 Z-1.5000
G1 X5.7644 Y1.3963 Z-1.5000
G1 X5.7500 Y1.2500 Z-1.5000
G1 X5.7644 Y1.1037 Z-1.5000
G1 X5.8071 Y0.9630 Z-1.5000
G1 X5.8764 Y0.8333 Z-1.5000
G1 X5.9697 Y0.7197 Z-1.5000
G1 X6.0833 Y0.6264 Z-1.5000
G1 X6.2130 Y0.5571 Z-1.5000
G1 X6.3537 Y0.5144 Z-1.5000
G1 X6.5000 Y0.5000 Z-1.5000
G1 X6.6463 Y0.5144 Z-1.5000
G1 X6.7870 Y0.5571 Z-1.5000
G1 X6.9167 Y0.6264 Z-1.5000
G1 X7.0303 Y0.7197 Z-1.5000
G1 X7.1236 Y0.8333 Z-1.5000
G1 X7.1929 Y0.9630 Z-1.5000
G1 X7.2356 Y1.1037 Z-1.5000
G1 X7.2500 Y1.2500 Z-1.5000
G1 X7.2500 Y1.2500 Z-1.5000
G1 Z-1.6000 F50
G1 X7.2356 Y1.3963 Z-1.6000 F100
G1 X7.1929 Y1.5370 Z-1.6000
G1 X7.1236 Y1.6667 Z-1.6000
G1 X7.0303 Y1.7803 Z-1.6000
G1 X6.9167 Y1.8736 Z-1.6000
G1 X6.7870 Y1.9429 Z-1.6000
G1 X6.6463 Y1.9856 Z-1.6000
G1 X6.5000 Y2.0000 Z-1.6000
G1 X6.3537 Y1.9856 Z-1.6000
G1 X6.2130 Y1.9429 Z-1.6000
G1 X6.0833 Y1.8736 Z-1.6000
G1 X5.9697 Y1.7803 Z-1.6000
G1 X5.8764 Y1.6667 Z-1.6000
G1 X5.8071 Y1.5370 Z-1.6000
G1 X5.7644 Y1.3963 Z-1.6000
G1 X5.7500 Y1.2500 Z-1.6000
G1 X5.7644 Y1.1037 Z-1.6000
G1 X5.8071 Y0.9630 Z-1.6000
G1 X5.8764 Y0.8333 Z-1.6000
G1 X5.9697 Y0.7197 Z-1.6000
G1 X6.0833 Y0.6264 Z-1.6000
G1 X6.2130 Y0.5571 Z-1.6000
G1 X6.3537 Y0.5144 Z-1.6000
G1 X6.5000 Y0.5000 Z-1.6000
G1 X6.6463 Y0.5144 Z-1.6000
G1 X6.7870 Y0.5571 Z-1.6000
G1 X6.9167 Y0.6264 Z-1.6000
G1 X7.0303 Y0.7197 Z-1.6000
G1 X7.1236 Y0.8333 Z-1.6000
G1 X7.1929 Y0.9630 Z-1.6000
G1 X7.2356 Y1.1037 Z-1.6000
G1 X7.2500 Y1.2500 Z-1.6000
G1 X7.2500 Y1.2500 Z-1.6000

G0 Z0.5 ; move to z-safe height
G0 X9.5000 Y1.2500
G1 Z-0.1000 F50
G1 X9.4856 Y1.3963 Z-0.1000 F100
G1 X9.4429 Y1.5370 Z-0.1000
G1 X9.3736 Y1.6667 Z-0.1000
G1 X9.2803 Y1.7803 Z-0.1000
G1 X9.1667 Y1.8736 Z-0.1000
G1 X9.0370 Y1.9429 Z-0.1000
G1 X8.8963 Y1.9856 Z-0.1000
G1 X8.7500 Y2.0000 Z-0.1000
G1 X8.6037 Y1.9856 Z-0.1000
G1 X8.4630 Y1.9429 Z-0.1000
G1 X8.3333 Y1.8736 Z-0.1000
G1 X8.2197 Y1.7803 Z-0.1000
G1 X8.1264 Y1.6667 Z-0.1000
G1 X8.0571 Y1.5370 Z-0.1000
G1 X8.0144 Y1.3963 Z-0.1000
G1 X8.0000 Y1.2500 Z-0.1000
G1 X8.0144 Y1.1037 Z-0.1000
G1 X8.0571 Y0.9630 Z-0.1000
G1 X8.1264 Y0.8333 Z-0.1000
G1 X8.2197 Y0.7197 Z-0.1000
G1 X8.3333 Y0.6264 Z-0.1000
G1 X8.4630 Y0.5571 Z-0.1000
G1 X8.6037 Y0.5144 Z-0.1000
G1 X8.7500 Y0.5000 Z-0.1000
G1 X8.8963 Y0.5144 Z-0.1000
G1 X9.0370 Y0.5571 Z-0.1000
G1 X9.1667 Y0.6264 Z-0.1000
G1 X9.2803 Y0.7197 Z-0.1000
G1 X9.3736 Y0.8333 Z-0.1000
G1 X9.4429 Y0.9630 Z-0.1000
G1 X9.4856 Y1.1037 Z-0.1000
G1 X9.5000 Y1.2500 Z-0.1000
G1 X9.5000 Y1.2500 Z-0.1000
G1 Z-0.2000 F50
G1 X9.4856 Y1.3963 Z-0.2000 F100
G1 X9.4429 Y1.5370 Z-0.2000
G1 X9.3736 Y1.6667 Z-0.2000
G1 X9.2803 Y1.7803 Z-0.2000
G1 X9.1667 Y1.8736 Z-0.2000
G1 X9.0370 Y1.9429 Z-0.2000
G1 X8.8963 Y1.9856 Z-0.2000
G1 X8.7500 Y2.0000 Z-0.2000
G1 X8.6037 Y1.9856 Z-0.2000
G1 X8.4630 Y1.9429 Z-0.2000
G1 X8.3333 Y1.8736 Z-0.2000
G1 X8.2197 Y1.7803 Z-0.2000
G1 X8.1264 Y1.6667 Z-0.2000
G1 X8.0571 Y1.5370 Z-0.2000
G1 X8.0144 Y1.3963 Z-0.2000
G1 X8.0000 Y1.2500 Z-0.2000
G1 X8.0144 Y1.1037 Z-0.2000
G1 X8.0571 Y0.9630 Z-0.2000
G1 X8.1264 Y0.8333 Z-0.2000
G1 X8.2197 Y0.7197 Z-0.2000
G1 X8.3333 Y0.6264 Z-0.2000
G1 X8.4630 Y0.5571 Z-0.2000
G1 X8.6037 Y0.5144 Z-0.2000
G1 X8.7500 Y0.5000 Z-0.2000
G1 X8.8963 Y0.5144 Z-0.2000
G1 X9.0370 Y0.5571 Z-0.2000
G1 X9.1667 Y0.6264 Z-0.2000
G1 X9.2803 Y0.7197 Z-0.2000
G1 X9.3736 Y0.8333 Z-0.2000
G1 X9.4429 Y0.9630 Z-0.2000
G1 X9.4856 Y1.1037 Z-0.2000
G1 X9.5000 Y1.2500 Z-0.2000
G1 X9.5000 Y1.2500 Z-0.2000
G1 Z-0.3000 F50
G1 X9.4856 Y1.3963 Z-0.3000 F100
G1 X9.4429 Y1.5370 Z-0.3000
G1 X9.3736 Y1.6667 Z-0.3000
G1 X9.2803 Y1.7803 Z-0.3000
G1 X9.1667 Y1.8736 Z-0.3000
G1 X9.0370 Y1.9429 Z-0.3000
G1 X8.8963 Y1.9856 Z-0.3000
G1 X8.7500 Y2.0000 Z-0.3000
G1 X8.6037 Y1.9856 Z-0.3000
G1 X8.4630 Y1.9429 Z-0.3000
G1 X8.3333 Y1.8736 Z-0.3000
G1 X8.2197 Y1.7803 Z-0.3000
G1 X8.1264 Y1.6667 Z-0.3000
G1 X8.0571 Y1.5370 Z-0.3000
G1 X8.0144 Y1.3963 Z-0.3000
G1 X8.0000 Y1.2500 Z-0.3000
G1 X8.0144 Y1.1037 Z-0.3000
G1 X8.0571 Y0.9630 Z-0.3000
G1 X8.1264 Y0.8333 Z-0.3000
G1 X8.2197 Y0.7197 Z-0.3000
G1 X8.3333 Y0.6264 Z-0.3000
G1 X8.4630 Y0.5571 Z-0.3000
G1 X8.6037 Y0.5144 Z-0.3000
G1 X8.7500 Y0.5000 Z-0.3000
G1 X8.8963 Y0.5144 Z-0.3000
G1 X9.0370 Y0.5571 Z-0.3000
G1 X9.1667 Y0.6264 Z-0.3000
G1 X9.2803 Y0.7197 Z-0.3000
G1 X9.3736 Y0.8333 Z-0.3000
G1 X9.4429 Y0.9630 Z-0.3000
G1 X9.4856 Y1.1037 Z-0.3000
G1 X9.5000 Y1.2500 Z-0.3000
G1 X9.5000 Y1.2500 Z-0.3000
G1 Z-0.4000 F50
G1 X9.4856 Y1.3963 Z-0.4000 F100
G1 X9.4429 Y1.5370 Z-0.4000
G1 X9.3736 Y1.6667 Z-0.4000
G1 X9.2803 Y1.7803 Z-0.4000
G1 X9.1667 Y1.8736 Z-0.4000
G1 X9.0370 Y1.9429 Z-0.4000
G1 X8.8963 Y1.9856 Z-0.4000
G1 X8.7500 Y2.0000 Z-0.4000
G1 X8.6037 Y1.9856 Z-0.4000
G1 X8.4630 Y1.9429 Z-0.4000
G1 X8.3333 Y1.8736 Z-0.4000
G1 X8.2197 Y1.7803 Z-0.4000
G1 X8.1264 Y1.6667 Z-0.4000
G1 X8.0571 Y1.5370 Z-0.4000
G1 X8.0144 Y1.3963 Z-0.4000
G1 X8.0000 Y1.2500 Z-0.4000
G1 X8.0144 Y1.1037 Z-0.4000
G1 X8.0571 Y0.9630 Z-0.4000
G1 X8.1264 Y0.8333 Z-0.4000
G1 X8.2197 Y0.7197 Z-0.4000
G1 X8.3333 Y0.6264 Z-0.4000
G1 X8.4630 Y0.5571 Z-0.4000
G1 X8.6037 Y0.5144 Z-0.4000
G1 X8.7500 Y0.5000 Z-0.4000
G1 X8.8963 Y0.5144 Z-0.4000
G1 X9.0370 Y0.5571 Z-0.4000
G1 X9.1667 Y0.6264 Z-0.4000
G1 X9.2803 Y0.7197 Z-0.4000
G1 X9.3736 Y0.8333 Z-0.4000
G1 X9.4429 Y0.9630 Z-0.4000
G1 X9.4856 Y1.1037 Z-0.4000
G1 X9.5000 Y1.2500 Z-0.4000
G1 X9.5000 Y1.2500 Z-0.4000
G1 Z-0.5000 F50
G1 X9.4856 Y1.3963 Z-0.5000 F100
G1 X9.4429 Y1.5370 Z-0.5000
G1 X9.3736 Y1.6667 Z-0.5000
G1 X9.2803 Y1.7803 Z-0.5000
G1 X9.1667 Y1.8736 Z-0.5000
G1 X9.0370 Y1.9429 Z-0.5000
G1 X8.8963 Y1.9856 Z-0.5000
G1 X8.7500 Y2.0000 Z-0.5000
G1 X8.6037 Y1.9856 Z-0.5000
G1 X8.4630 Y1.9429 Z-0.5000
G1 X8.3333 Y1.8736 Z-0.5000
G1 X8.2197 Y1.7803 Z-0.5000
G1 X8.1264 Y1.6667 Z-0.5000
G1 X8.0571 Y1.5370 Z-0.5000
G1 X8.0144 Y1.3963 Z-0.5000
G1 X8.0000 Y1.2500 Z-0.5000
G1 X8.0144 Y1.1037 Z-0.5000
G1 X8.0571 Y0.9630 Z-0.5000
G1 X8.1264 Y0.8333 Z-0.5000
G1 X8.2197 Y0.7197 Z-0.5000
G1 X8.3333 Y0.6264 Z-0.5000
G1 X8.4630 Y0.5571 Z-0.5000
G1 X8.6037 Y0.5144 Z-0.5000
G1 X8.7500 Y0.5000 Z-0.5000
G1 X8.8963 Y0.5144 Z-0.5000
G1 X9.0370 Y0.5571 Z-0.5000
G1 X9.1667 Y0.6264 Z-0.5000
G1 X9.2803 Y0.7197 Z-0.5000
G1 X9.3736 Y0.8333 Z-0.5000
G1 X9.4429 Y0.9630 Z-0.5000
G1 X9.4856 Y1.1037 Z-0.5000
G1 X9.5000 Y1.2500 Z-0.5000
G1 X9.5000 Y1.2500 Z-0.5000
G1 Z-0.6000 F50
G1 X9.4856 Y1.3963 Z-0.6000 F100
G1 X9.4429 Y1.5370 Z-0.6000
G1 X9.3736 Y1.6667 Z-0.6000
G1 X9.2803 Y1.7803 Z-0.6000
G1 X9.1667 Y1.8736 Z-0.6000
G1 X9.0370 Y1.9429 Z-0.6000
G1 X8.8963 Y1.9856 Z-0.6000
G1 X8.7500 Y2.0000 Z-0.6000
G1 X8.6037 Y1.9856 Z-0.6000
G1 X8.4630 Y1.9429 Z-0.6000
G1 X8.3333 Y1.8736 Z-0.6000
G1 X8.2197 Y1.7803 Z-0.6000
G1 X8.1264 Y1.6667 Z-0.6000
G1 X8.0571 Y1.5370 Z-0.6000
G1 X8.0144 Y1.3963 Z-0.6000
G1 X8.0000 Y1.2500 Z-0.6000
G1 X8.0144 Y1.1037 Z-0.6000
G1 X8.0571 Y0.9630 Z-0.6000
G1 X8.1264 Y0.8333 Z-0.6000
G1 X8.2197 Y0.7197 Z-0.6000
G1 X8.3333 Y0.6264 Z-0.6000
G1 X8.4630 Y0.5571 Z-0.6000
G1 X8.6037 Y0.5144 Z-0.6000
G1 X8.7500 Y0.5000 Z-0.6000
G1 X8.8963 Y0.5144 Z-0.6000
G1 X9.0370 Y0.5571 Z-0.6000
G1 X9.1667 Y0.6264 Z-0.6000
G1 X9.2803 Y0.7197 Z-0.6000
G1 X9.3736 Y0.8333 Z-0.6000
G1 X9.4429 Y0.9630 Z-0.6000
G1 X9.4856 Y1.1037 Z-0.6000
G1 X9.5000 Y1.2500 Z-0.6000
G1 X9.5000 Y1.2500 Z-0.6000
G1 Z-0.7000 F50
G1 X9.4856 Y1.3963 Z-0.7000 F100
G1 X9.4429 Y1.5370 Z-0.7000
G1 X9.3736 Y1.6667 Z-0.7000
G1 X9.2803 Y1.7803 Z-0.7000
G1 X9.1667 Y1.8736 Z-0.7000
G1 X9.0370 Y1.9429 Z-0.7000
G1 X8.8963 Y1.9856 Z-0.7000
G1 X8.7500 Y2.0000 Z-0.7000
G1 X8.6037 Y1.9856 Z-0.7000
G1 X8.4630 Y1.9429 Z-0.7000
G1 X8.3333 Y1.8736 Z-0.7000
G1 X8.2197 Y1.7803 Z-0.7000
G1 X8.1264 Y1.6667 Z-0.7000
G1 X8.0571 Y1.5370 Z-0.7000
G1 X8.0144 Y1.3963 Z-0.7000
G1 X8.0000 Y1.2500 Z-0.7000
G1 X8.0144 Y1.1037 Z-0.7000
G1 X8.0571 Y0.9630 Z-0.7000
G1 X8.1264 Y0.8333 Z-0.7000
G1 X8.2197 Y0.7197 Z-0.7000
G1 X8.3333 Y0.6264 Z-0.7000
G1 X8.4630 Y0.5571 Z-0.7000
G1 X8.6037 Y0.5144 Z-0.7000
G1 X8.7500 Y0.5000 Z-0.7000
G1 X8.8963 Y0.5144 Z-0.7000
G1 X9.0370 Y0.5571 Z-0.7000
G1 X9.1667 Y0.6264 Z-0.7000
G1 X9.2803 Y0.7197 Z-0.7000
G1 X9.3736 Y0.8333 Z-0.7000
G1 X9.4429 Y0.9630 Z-0.7000
G1 X9.4856 Y1.1037 Z-0.7000
G1 X9.5000 Y1.2500 Z-0.7000
G1 X9.5000 Y1.2500 Z-0.7000
G1 Z-0.8000 F50
G1 X9.4856 Y1.3963 Z-0.8000 F100
G1 X9.4429 Y1.5370 Z-0.8000
G1 X9.3736 Y1.6667 Z-0.8000
G1 X9.2803 Y1.7803 Z-0.8000
G1 X9.1667 Y1.8736 Z-0.8000
G1 X9.0370 Y1.9429 Z-0.8000
G1 X8.8963 Y1.9856 Z-0.8000
G1 X8.7500 Y2.0000 Z-0.8000
G1 X8.6037 Y1.9856 Z-0.8000
G1 X8.4630 Y1.9429 Z-0.8000
G1 X8.3333 Y1.8736 Z-0.8000
G1 X8.2197 Y1.7803 Z-0.8000
G1 X8.1264 Y1.6667 Z-0.8000
G1 X8.0571 Y1.5370 Z-0.8000
G1 X8.0144 Y1.3963 Z-0.8000
G1 X8.0000 Y1.2500 Z-0.8000
G1 X8.0144 Y1.1037 Z-0.8000
G1 X8.0571 Y0.9630 Z-0.8000
G1 X8.1264 Y0.8333 Z-0.8000
G1 X8.2197 Y0.7197 Z-0.8000
G1 X8.3333 Y0.6264 Z-0.8000
G1 X8.4630 Y0.5571 Z-0.8000
G1 X8.6037 Y0.5144 Z-0.8000
G1 X8.7500 Y0.5000 Z-0.8000
G1 X8.8963 Y0.5144 Z-0.8000
G1 X9.0370 Y0.5571 Z-0.8000
G1 X9.1667 Y0.6264 Z-0.8000
G1 X9.2803 Y0.7197 Z-0.8000
G1 X9.3736 Y0.8333 Z-0.8000
G1 X9.4429 Y0.9630 Z-0.8000
G1 X9.4856 Y1.1037 Z-0.8000
G1 X9.5000 Y1.2500 Z-0.8000
G1 X9.5000 Y1.2500 Z-0.8000
G1 Z-0.9000 F50
G1 X9.4856 Y1.3963 Z-0.9000 F100
G1 X9.4429 Y1.5370 Z-0.9000
G1 X9.3736 Y1.6667 Z-0.9000
G1 X9.2803 Y1.7803 Z-0.9000
G1 X9.1667 Y1.8736 Z-0.9000
G1 X9.0370 Y1.9429 Z-0.9000
G1 X8.8963 Y1.9856 Z-0.9000
G1 X8.7500 Y2.0000 Z-0.9000
G1 X8.6037 Y1.9856 Z-0.9000
G1 X8.4630 Y1.9429 Z-0.9000
G1 X8.3333 Y1.8736 Z-0.9000
G1 X8.2197 Y1.7803 Z-0.9000
G1 X8.1264 Y1.6667 Z-0.9000
G1 X8.0571 Y1.5370 Z-0.9000
G1 X8.0144 Y1.3963 Z-0.9000
G1 X8.0000 Y1.2500 Z-0.9000
G1 X8.0144 Y1.1037 Z-0.9000
G1 X8.0571 Y0.9630 Z-0.9000
G1 X8.1264 Y0.8333 Z-0.9000
G1 X8.2197 Y0.7197 Z-0.9000
G1 X8.3333 Y0.6264 Z-0.9000
G1 X8.4630 Y0.5571 Z-0.9000
G1 X8.6037 Y0.5144 Z-0.9000
G1 X8.7500 Y0.5000 Z-0.9000
G1 X8.8963 Y0.5144 Z-0.9000
G1 X9.0370 Y0.5571 Z-0.9000
G1 X9.1667 Y0.6264 Z-0.9000
G1 X9.2803 Y0.7197 Z-0.9000
G1 X9.3736 Y0.8333 Z-0.9000
G1 X9.4429 Y0.9630 Z-0.9000
G1 X9.4856 Y1.1037 Z-0.9000
G1 X9.5000 Y1.2500 Z-0.9000
G1 X9.5000 Y1.2500 Z-0.9000
G1 Z-1.0000 F50
G1 X9.4856 Y1.3963 Z-1.0000 F100
G1 X9.4429 Y1.5370 Z-1.0000
G1 X9.3736 Y1.6667 Z-1.0000
G1 X9.2803 Y1.7803 Z-1.0000
G1 X9.1667 Y1.8736 Z-1.0000
G1 X9.0370 Y1.9429 Z-1.0000
G1 X8.8963 Y1.9856 Z-1.0000
G1 X8.7500 Y2.0000 Z-1.0000
G1 X8.6037 Y1.9856 Z-1.0000
G1 X8.4630 Y1.9429 Z-1.0000
G1 X8.3333 Y1.8736 Z-1.0000
G1 X8.2197 Y1.7803 Z-1.0000
G1 X8.1264 Y1.6667 Z-1.0000
G1 X8.0571 Y1.5370 Z-1.0000
G1 X8.0144 Y1.3963 Z-1.0000
G1 X8.0000 Y1.2500 Z-1.0000
G1 X8.0144 Y1.1037 Z-1.0000
G1 X8.0571 Y0.9630 Z-1.0000
G1 X8.1264 Y0.8333 Z-1.0000
G1 X8.2197 Y0.7197 Z-1.0000
G1 X8.3333 Y0.6264 Z-1.0000
G1 X8.4630 Y0.5571 Z-1.0000
G1 X8.6037 Y0.5144 Z-1.0000
G1 X8.7500 Y0.5000 Z-1.0000
G1 X8.8963 Y0.5144 Z-1.0000
G1 X9.0370 Y0.5571 Z-1.0000
G1 X9.1667 Y0.6264 Z-1.0000
G1 X9.2803 Y0.7197 Z-1.0000
G1 X9.3736 Y0.8333 Z-1.0000
G1 X9.4429 Y0.9630 Z-1.0000
G1 X9.4856 Y1.1037 Z-1.0000
G1 X9.5000 Y1.2500 Z-1.0000
G1 X9.5000 Y1.2500 Z-1.0000
G1 Z-1.1000 F50
G1 X9.4856 Y1.3963 Z-1.1000 F100
G1 X9.4429 Y1.5370 Z-1.1000
G1 X9.3736 Y1.6667 Z-1.1000
G1 X9.2803 Y1.7803 Z-1.1000
G1 X9.1667 Y1.8736 Z-1.1000
G1 X9.0370 Y1.9429 Z-1.1000
G1 X8.8963 Y1.9856 Z-1.1000
G1 X8.7500 Y2.0000 Z-1.1000
G1 X8.6037 Y1.9856 Z-1.1000
G1 X8.4630 Y1.9429 Z-1.1000
G1 X8.3333 Y1.8736 Z-1.1000
G1 X8.2197 Y1.7803 Z-1.1000
G1 X8.1264 Y1.6667 Z-1.1000
G1 X8.0571 Y1.5370 Z-1.1000
G1 X8.0144 Y1.3963 Z-1.1000
G1 X8.0000 Y1.2500 Z-1.1000
G1 X8.0144 Y1.1037 Z-1.1000
G1 X8.0571 Y0.9630 Z-1.1000
G1 X8.1264 Y0.8333 Z-1.1000
G1 X8.2197 Y0.7197 Z-1.1000
G1 X8.3333 Y0.6264 Z-1.1000
G1 X8.4630 Y0.5571 Z-1.1000
G1 X8.6037 Y0.5144 Z-1.1000
G1 X8.7500 Y0.5000 Z-1.1000
G1 X8.8963 Y0.5144 Z-1.1000
G1 X9.0370 Y0.5571 Z-1.1000
G1 X9.1667 Y0.6264 Z-1.1000
G1 X9.2803 Y0.7197 Z-1.1000
G1 X9.3736 Y0.8333 Z-1.1000
G1 X9.4429 Y0.9630 Z-1.1000
G1 X9.4856 Y1.1037 Z-1.1000
G1 X9.5000 Y1.2500 Z-1.1000
G1 X9.5000 Y1.2500 Z-1.1000
G1 Z-1.2000 F50
G1 X9.4856 Y1.3963 Z-1.2000 F100
G1 X9.4429 Y1.5370 Z-1.2000
G1 X9.3736 Y1.6667 Z-1.2000
G1 X9.2803 Y1.7803 Z-1.2000
G1 X9.1667 Y1.8736 Z-1.2000
G1 X9.0370 Y1.9429 Z-1.2000
G1 X8.8963 Y1.9856 Z-1.2000
G1 X8.7500 Y2.0000 Z-1.2000
G1 X8.6037 Y1.9856 Z-1.2000
G1 X8.4630 Y1.9429 Z-1.2000
G1 X8.3333 Y1.8736 Z-1.2000
G1 X8.2197 Y1.7803 Z-1.2000
G1 X8.1264 Y1.6667 Z-1.2000
G1 X8.0571 Y1.5370 Z-1.2000
G1 X8.0144 Y1.3963 Z-1.2000
G1 X8.0000 Y1.2500 Z-1.2000
G1 X8.0144 Y1.1037 Z-1.2000
G1 X8.0571 Y0.9630 Z-1.2000
G1 X8.1264 Y0.8333 Z-1.2000
G1 X8.2197 Y0.7197 Z-1.2000
G1 X8.3333 Y0.6264 Z-1.2000
G1 X8.4630 Y0.5571 Z-1.2000
G1 X8.6037 Y0.5144 Z-1.2000
G1 X8.7500 Y0.5000 Z-1.2000
G1 X8.8963 Y0.5144 Z-1.2000
G1 X9.0370 Y0.5571 Z-1.2000
G1 X9.1667 Y0.6264 Z-1.2000
G1 X9.2803 Y0.7197 Z-1.2000
G1 X9.3736 Y0.8333 Z-1.2000
G1 X9.4429 Y0.9630 Z-1.2000
G1 X9.4856 Y1.1037 Z-1.2000
G1 X9.5000 Y1.2500 Z-1.2000
G1 X9.5000 Y1.2500 Z-1.2000
G1 Z-1.3000 F50
G1 X9.4856 Y1.3963 Z-1.3000 F100
G1 X9.4429 Y1.5370 Z-1.3000
G1 X9.3736 Y1.6667 Z-1.3000
G1 X9.2803 Y1.7803 Z-1.3000
G1 X9.1667 Y1.8736 Z-1.3000
G1 X9.0370 Y1.9429 Z-1.3000
G1 X8.8963 Y1.9856 Z-1.3000
G1 X8.7500 Y2.0000 Z-1.3000
G1 X8.6037 Y1.9856 Z-1.3000
G1 X8.4630 Y1.9429 Z-1.3000
G1 X8.3333 Y1.8736 Z-1.3000
G1 X8.2197 Y1.7803 Z-1.3000
G1 X8.1264 Y1.6667 Z-1.3000
G1 X8.0571 Y1.5370 Z-1.3000
G1 X8.0144 Y1.3963 Z-1.3000
G1 X8.0000 Y1.2500 Z-1.3000
G1 X8.0144 Y1.1037 Z-1.3000
G1 X8.0571 Y0.9630 Z-1.3000
G1 X8.1264 Y0.8333 Z-1.3000
G1 X8.2197 Y0.7197 Z-1.3000
G1 X8.3333 Y0.6264 Z-1.3000
G1 X8.4630 Y0.5571 Z-1.3000
G1 X8.6037 Y0.5144 Z-1.3000
G1 X8.7500 Y0.5000 Z-1.3000
G1 X8.8963 Y0.5144 Z-1.3000
G1 X9.0370 Y0.5571 Z-1.3000
G1 X9.1667 Y0.6264 Z-1.3000
G1 X9.2803 Y0.7197 Z-1.3000
G1 X9.3736 Y0.8333 Z-1.3000
G1 X9.4429 Y0.9630 Z-1.3000
G1 X9.4856 Y1.1037 Z-1.3000
G1 X9.5000 Y1.2500 Z-1.3000
G1 X9.5000 Y1.2500 Z-1.3000
G1 Z-1.4000 F50
G1 X9.4856 Y1.3963 Z-1.4000 F100
G1 X9.4429 Y1.5370 Z-1.4000
G1 X9.3736 Y1.6667 Z-1.4000
G1 X9.2803 Y1.7803 Z-1.4000
G1 X9.1667 Y1.8736 Z-1.4000
G1 X9.0370 Y1.9429 Z-1.4000
G1 X8.8963 Y1.9856 Z-1.4000
G1 X8.7500 Y2.0000 Z-1.4000
G1 X8.6037 Y1.9856 Z-1.4000
G1 X8.4630 Y1.9429 Z-1.4000
G1 X8.3333 Y1.8736 Z-1.4000
G1 X8.2197 Y1.7803 Z-1.4000
G1 X8.1264 Y1.6667 Z-1.4000
G1 X8.0571 Y1.5370 Z-1.4000
G1 X8.0144 Y1.3963 Z-1.4000
G1 X8.0000 Y1.2500 Z-1.4000
G1 X8.0144 Y1.1037 Z-1.4000
G1 X8.0571 Y0.9630 Z-1.4000
G1 X8.1264 Y0.8333 Z-1.4000
G1 X8.2197 Y0.7197 Z-1.4000
G1 X8.3333 Y0.6264 Z-1.4000
G1 X8.4630 Y0.5571 Z-1.4000
G1 X8.6037 Y0.5144 Z-1.4000
G1 X8.7500 Y0.5000 Z-1.4000
G1 X8.8963 Y0.5144 Z-1.4000
G1 X9.0370 Y0.5571 Z-1.4000
G1 X9.1667 Y0.6264 Z-1.4000
G1 X9.2803 Y0.7197 Z-1.4000
G1 X9.3736 Y0.8333 Z-1.4000
G1 X9.4429 Y0.9630 Z-1.4000
G1 X9.4856 Y1.1037 Z-1.4000
G1 X9.5000 Y1.2500 Z-1.4000
G1 X9.5000 Y1.2500 Z-1.4000
G1 Z-1.5000 F50
G1 X9.4856 Y1.3963 Z-1.5000 F100
G1 X9.4429 Y1.5370 Z-1.5000
G1 X9.3736 Y1.6667 Z-1.5000
G1 X9.2803 Y1.7803 Z-1.5000
G1 X9.1667 Y1.8736 Z-1.5000
G1 X9.0370 Y1.9429 Z-1.5000
G1 X8.8963 Y1.9856 Z-1.5000
G1 X8.7500 Y2.0000 Z-1.5000
G1 X8.6037 Y1.9856 Z-1.5000
G1 X8.4630 Y1.9429 Z-1.5000
G1 X8.3333 Y1.8736 Z-1.5000
G1 X8.2197 Y1.7803 Z-1.5000
G1 X8.1264 Y1.6667 Z-1.5000
G1 X8.0571 Y1.5370 Z-1.5000
G1 X8.0144 Y1.3963 Z-1.5000
G1 X8.0000 Y1.2500 Z-1.5000
G1 X8.0144 Y1.1037 Z-1.5000
G1 X8.0571 Y0.9630 Z-1.5000
G1 X8.1264 Y0.8333 Z-1.5000
G1 X8.2197 Y0.7197 Z-1.5000
G1 X8.3333 Y0.6264 Z-1.5000
G1 X8.4630 Y0.5571 Z-1.5000
G1 X8.6037 Y0.5144 Z-1.5000
G1 X8.7500 Y0.5000 Z-1.5000
G1 X8.8963 Y0.5144 Z-1.5000
G1 X9.0370 Y0.5571 Z-1.5000
G1 X9.1667 Y0.6264 Z-1.5000
G1 X9.2803 Y0.7197 Z-1.5000
G1 X9.3736 Y0.8333 Z-1.5000
G1 X9.4429 Y0.9630 Z-1.5000
G1 X9.4856 Y1.1037 Z-1.5000
G1 X9.5000 Y1.2500 Z-1.5000
G1 X9.5000 Y1.2500 Z-1.5000
G1 Z-1.6000 F50
G1 X9.4856 Y1.3963 Z-1.6000 F100
G1 X9.4429 Y1.5370 Z-1.6000
G1 X9.3736 Y1.6667 Z-1.6000
G1 X9.2803 Y1.7803 Z-1.6000
G1 X9.1667 Y1.8736 Z-1.6000
G1 X9.0370 Y1.9429 Z-1.6000
G1 X8.8963 Y1.9856 Z-1.6000
G1 X8.7500 Y2.0000 Z-1.6000
G1 X8.6037 Y1.9856 Z-1.6000
G1 X8.4630 Y1.9429 Z-1.6000
G1 X8.3333 Y1.8736 Z-1.6000
G1 X8.2197 Y1.7803 Z-1.6000
G1 X8.1264 Y1.6667 Z-1.6000
G1 X8.0571 Y1.5370 Z-1.6000
G1 X8.0144 Y1.3963 Z-1.6000
G1 X8.0000 Y1.2500 Z-1.6000
G1 X8.0144 Y1.1037 Z-1.6000
G1 X8.0571 Y0.9630 Z-1.6000
G1 X8.1264 Y0.8333 Z-1.6000
G1 X8.2197 Y0.7197 Z-1.6000
G1 X8.3333 Y0.6264 Z-1.6000
G1 X8.4630 Y0.5571 Z-1.6000
G1 X8.6037 Y0.5144 Z-1.6000
G1 X8.7500 Y0.5000 Z-1.6000
G1 X8.8963 Y0.5144 Z-1.6000
G1 X9.0370 Y0.5571 Z-1.6000
G1 X9.1667 Y0.6264 Z-1.6000
G1 X9.2803 Y0.7197 Z-1.6000
G1 X9.3736 Y0.8333 Z-1.6000
G1 X9.4429 Y0.9630 Z-1.6000
G1 X9.4856 Y1.1037 Z-1.6000
G1 X9.5000 Y1.2500 Z-1.6000
G1 X9.5000 Y1.2500 Z-1.6000

G0 Z0.5 ; move to z-safe height
G0 X11.2518 Y0.0020
G1 Z-0.1000 F50
G1 X11.2518 Y0.0020 Z-0.1000 F100
G1 X11.2496 Y0.0020 Z-0.1000
G1 X11.2474 Y0.0022 Z-0.1000
G1 X11.2453 Y0.0024 Z-0.1000
G1 X11.2431 Y0.0026 Z-0.1000
G1 X11.2409 Y0.0030 Z-0.1000
G1 X11.2388 Y0.0034 Z-0.1000
G1 X11.2366 Y0.0038 Z-0.1000
G1 X11.2345 Y0.0043 Z-0.1000
G1 X11.2324 Y0.0048 Z-0.1000
G1 X11.2303 Y0.0054 Z-0.1000
G1 X11.2282 Y0.0060 Z-0.1000
G1 X11.2261 Y0.0066 Z-0.1000
G1 X11.2240 Y0.0072 Z-0.1000
G1 X11.2219 Y0.0079 Z-0.1000
G1 X11.2198 Y0.0087 Z-0.1000
G1 X11.2178 Y0.0094 Z-0.1000
G1 X11.2157 Y0.0102 Z-0.1000
G1 X11.2137 Y0.0110 Z-0.1000
G1 X11.2117 Y0.0118 Z-0.1000
G1 X11.2097 Y0.0126 Z-0.1000
G1 X11.2076 Y0.0135 Z-0.1000
G1 X11.2056 Y0.0143 Z-0.1000
G1 X11.2036 Y0.0152 Z-0.1000
G1 X11.2017 Y0.0161 Z-0.1000
G1 X11.1997 Y0.0171 Z-0.1000
G1 X11.1977 Y0.0180 Z-0.1000
G1 X11.1957 Y0.0190 Z-0.1000
G1 X11.1938 Y0.0199 Z-0.1000
G1 X11.1918 Y0.0209 Z-0.1000
G1 X11.1899 Y0.0219 Z-0.1000
G1 X11.1880 Y0.0229 Z-0.1000
G1 X11.1860 Y0.0240 Z-0.1000
G1 X11.1841 Y0.0250 Z-0.1000
G1 X11.1822 Y0.0261 Z-0.1000
G1 X11.1803 Y0.0271 Z-0.1000
G1 X11.1784 Y0.0282 Z-0.1000
G1 X11.1765 Y0.0293 Z-0.1000
G1 X11.1746 Y0.0304 Z-0.1000
G1 X11.1727 Y0.0315 Z-0.1000
G1 X11.1708 Y0.0326 Z-0.1000
G1 X11.1690 Y0.0338 Z-0.1000
G1 X11.1671 Y0.0349 Z-0.1000
G1 X11.1653 Y0.0361 Z-0.1000
G1 X11.1634 Y0.0372 Z-0.1000
G1 X11.1616 Y0.0384 Z-0.1000
G1 X11.1597 Y0.0396 Z-0.1000
G1 X11.1579 Y0.0408 Z-0.1000
G1 X11.1561 Y0.0420 Z-0.1000
G1 X11.1542 Y0.0432 Z-0.1000
G1 X11.1524 Y0.0444 Z-0.1000
G1 X11.1506 Y0.0457 Z-0.1000
G1 X11.1488 Y0.0469 Z-0.1000
G1 X11.1470 Y0.0481 Z-0.1000
G1 X11.1452 Y0.0494 Z-0.1000
G1 X11.1435 Y0.0506 Z-0.1000
G1 X11.1417 Y0.0519 Z-0.1000
G1 X11.1399 Y0.0532 Z-0.1000
G1 X11.1381 Y0.0545 Z-0.1000
G1 X11.1364 Y0.0558 Z-0.1000
G1 X11.1346 Y0.0571 Z-0.1000
G1 X11.1329 Y0.0584 Z-0.1000
G1 X11.1311 Y0.0597 Z-0.1000
G1 X11.1294 Y0.0610 Z-0.1000
G1 X11.1276 Y0.0624 Z-0.1000
G1 X11.1259 Y0.0637 Z-0.1000
G1 X11.1242 Y0.0650 Z-0.1000
G1 X11.1225 Y0.0664 Z-0.1000
G1 X11.1208 Y0.0678 Z-0.1000
G1 X11.1191 Y0.0691 Z-0.1000
G1 X11.1174 Y0.0705 Z-0.1000
G1 X11.1157 Y0.0719 Z-0.1000
G1 X11.1140 Y0.0733 Z-0.1000
G1 X11.1123 Y0.0747 Z-0.1000
G1 X11.1106 Y0.0761 Z-0.1000
G1 X11.1090 Y0.0775 Z-0.1000
G1 X11.1073 Y0.0789 Z-0.1000
G1 X11.1056 Y0.0803 Z-0.1000
G1 X11.1040 Y0.0818 Z-0.1000
G1 X11.1023 Y0.0832 Z-0.1000
G1 X11.1007 Y0.0846 Z-0.1000
G1 X11.0991 Y0.0861 Z-0.1000
G1 X11.0974 Y0.0876 Z-0.1000
G1 X11.0958 Y0.0890 Z-0.1000
G1 X11.0942 Y0.0905 Z-0.1000
G1 X11.0926 Y0.0920 Z-0.1000
G1 X11.0910 Y0.0935 Z-0.1000
G1 X11.0894 Y0.0950 Z-0.1000
G1 X11.0878 Y0.0965 Z-0.1000
G1 X11.0862 Y0.0980 Z-0.1000
G1 X11.0847 Y0.0995 Z-0.1000
G1 X11.0831 Y0.1010 Z-0.1000
G1 X11.0815 Y0.1025 Z-0.1000
G1 X11.0800 Y0.1041 Z-0.1000
G1 X11.0784 Y0.1056 Z-0.1000
G1 X11.0769 Y0.1072 Z-0.1000
G1 X11.0754 Y0.1087 Z-0.1000
G1 X11.0738 Y0.1103 Z-0.1000
G1 X11.0723 Y0.1118 Z-0.1000
G1 X11.0708 Y0.1134 Z-0.1000
G1 X11.0693 Y0.1150 Z-0.1000
G1 X11.0678 Y0.1166 Z-0.1000
G1 X11.0663 Y0.1182 Z-0.1000
G1 X11.0663 Y0.1182 Z-0.1000
G1 X11.0648 Y0.1198 Z-0.1000
G1 X11.0634 Y0.1214 Z-0.1000
G1 X11.0619 Y0.1230 Z-0.1000
G1 X11.0604 Y0.1246 Z-0.1000
G1 X11.0590 Y0.1263 Z-0.1000
G1 X11.0575 Y0.1279 Z-0.1000
G1 X11.0561 Y0.1295 Z-0.1000
G1 X11.0546 Y0.1312 Z-0.1000
G1 X11.0532 Y0.1328 Z-0.1000
G1 X11.0518 Y0.1345 Z-0.1000
G1 X11.0503 Y0.1361 Z-0.1000
G1 X11.0489 Y0.1378 Z-0.1000
G1 X11.0475 Y0.1395 Z-0.1000
G1 X11.0461 Y0.1411 Z-0.1000
G1 X11.0447 Y0.1428 Z-0.1000
G1 X11.0433 Y0.1445 Z-0.1000
G1 X11.0419 Y0.1462 Z-0.1000
G1 X11.0405 Y0.1479 Z-0.1000
G1 X11.0392 Y0.1496 Z-0.1000
G1 X11.0378 Y0.1512 Z-0.1000
G1 X11.0364 Y0.1529 Z-0.1000
G1 X11.0351 Y0.1547 Z-0.1000
G1 X11.0337 Y0.1564 Z-0.1000
G1 X11.0323 Y0.1581 Z-0.1000
G1 X11.0310 Y0.1598 Z-0.1000
G1 X11.0297 Y0.1615 Z-0.1000
G1 X11.0283 Y0.1633 Z-0.1000
G1 X11.0270 Y0.1650 Z-0.1000
G1 X11.0257 Y0.1667 Z-0.1000
G1 X11.0243 Y0.1685 Z-0.1000
G1 X11.0230 Y0.1702 Z-0.1000
G1 X11.0217 Y0.1720 Z-0.1000
G1 X11.0204 Y0.1737 Z-0.1000
G1 X11.0191 Y0.1755 Z-0.1000
G1 X11.0178 Y0.1772 Z-0.1000
G1 X11.0165 Y0.1790 Z-0.1000
G1 X11.0153 Y0.1808 Z-0.1000
G1 X11.0140 Y0.1825 Z-0.1000
G1 X11.0127 Y0.1843 Z-0.1000
G1 X11.0115 Y0.1861 Z-0.1000
G1 X11.0102 Y0.1879 Z-0.1000
G1 X11.0089 Y0.1897 Z-0.1000
G1 X11.0077 Y0.1915 Z-0.1000
G1 X11.0064 Y0.1932 Z-0.1000
G1 X11.0052 Y0.1950 Z-0.1000
G1 X11.0040 Y0.1968 Z-0.1000
G1 X11.0027 Y0.1986 Z-0.1000
G1 X11.0015 Y0.2004 Z-0.1000
G1 X11.0003 Y0.2023 Z-0.1000
G1 X10.9991 Y0.2041 Z-0.1000
G1 X10.9978 Y0.2059 Z-0.1000
G1 X10.9966 Y0.2077 Z-0.1000
G1 X10.9954 Y0.2095 Z-0.1000
G1 X10.9942 Y0.2113 Z-0.1000
G1 X10.9930 Y0.2132 Z-0.1000
G1 X10.9918 Y0.2150 Z-0.1000
G1 X10.9907 Y0.2168 Z-0.1000
G1 X10.9895 Y0.2187 Z-0.1000
G1 X10.9883 Y0.2205 Z-0.1000
G1 X10.9871 Y0.2224 Z-0.1000
G1 X10.9860 Y0.2242 Z-0.1000
G1 X10.9848 Y0.2261 Z-0.1000
G1 X10.9836 Y0.2279 Z-0.1000
G1 X10.9825 Y0.2298 Z-0.1000
G1 X10.9814 Y0.2316 Z-0.1000
G1 X10.9802 Y0.2335 Z-0.1000
G1 X10.9791 Y0.2353 Z-0.1000
G1 X10.9779 Y0.2372 Z-0.1000
G1 X10.9768 Y0.2391 Z-0.1000
G1 X10.9757 Y0.2410 Z-0.1000
G1 X10.9746 Y0.2428 Z-0.1000
G1 X10.9734 Y0.2447 Z-0.1000
G1 X10.9723 Y0.2466 Z-0.1000
G1 X10.9712 Y0.2485 Z-0.1000
G1 X10.9701 Y0.2504 Z-0.1000
G1 X10.9690 Y0.2522 Z-0.1000
G1 X10.9679 Y0.2541 Z-0.1000
G1 X10.9668 Y0.2560 Z-0.1000
G1 X10.9657 Y0.2579 Z-0.1000
G1 X10.9647 Y0.2598 Z-0.1000
G1 X10.9636 Y0.2617 Z-0.1000
G1 X10.9625 Y0.2636 Z-0.1000
G1 X10.9614 Y0.2655 Z-0.1000
G1 X10.9604 Y0.2674 Z-0.1000
G1 X10.9593 Y0.2693 Z-0.1000
G1 X10.9582 Y0.2712 Z-0.1000
G1 X10.9572 Y0.2731 Z-0.1000
G1 X10.9561 Y0.2751 Z-0.1000
G1 X10.9551 Y0.2770 Z-0.1000
G1 X10.9540 Y0.2789 Z-0.1000
G1 X10.9530 Y0.2808 Z-0.1000
G1 X10.9520 Y0.2827 Z-0.1000
G1 X10.9509 Y0.2847 Z-0.1000
G1 X10.9499 Y0.2866 Z-0.1000
G1 X10.9489 Y0.2885 Z-0.1000
G1 X10.9479 Y0.2905 Z-0.1000
G1 X10.9469 Y0.2924 Z-0.1000
G1 X10.9459 Y0.2943 Z-0.1000
G1 X10.9449 Y0.2962 Z-0.1000
G1 X10.9438 Y0.2982 Z-0.1000
G1 X10.9428 Y0.3001 Z-0.1000
G1 X10.9418 Y0.3021 Z-0.1000
G1 X10.9409 Y0.3040 Z-0.1000
G1 X10.9399 Y0.3060 Z-0.1000
G1 X10.9389 Y0.3079 Z-0.1000
G1 X10.9379 Y0.3099 Z-0.1000
G1 X10.9369 Y0.3118 Z-0.1000
G1 X10.9360 Y0.3138 Z-0.1000
G1 X10.9350 Y0.3157 Z-0.1000
G1 X10.9340 Y0.3177 Z-0.1000
G1 X10.9331 Y0.3197 Z-0.1000
G1 X10.9321 Y0.3216 Z-0.1000
G1 X10.9312 Y0.3236 Z-0.1000
G1 X10.9302 Y0.3255 Z-0.1000
G1 X10.9293 Y0.3275 Z-0.1000
G1 X10.9283 Y0.3295 Z-0.1000
G1 X10.9274 Y0.3315 Z-0.1000
G1 X10.9264 Y0.3334 Z-0.1000
G1 X10.9255 Y0.3354 Z-0.1000
G1 X10.9246 Y0.3374 Z-0.1000
G1 X10.9236 Y0.3394 Z-0.1000
G1 X10.9227 Y0.3413 Z-0.1000
G1 X10.9218 Y0.3433 Z-0.1000
G1 X10.9209 Y0.3453 Z-0.1000
G1 X10.9200 Y0.3473 Z-0.1000
G1 X10.9191 Y0.3493 Z-0.1000
G1 X10.9182 Y0.3513 Z-0.1000
G1 X10.9173 Y0.3532 Z-0.1000
G1 X10.9164 Y0.3552 Z-0.1000
G1 X10.9155 Y0.3572 Z-0.1000
G1 X10.9146 Y0.3592 Z-0.1000
G1 X10.9137 Y0.3612 Z-0.1000
G1 X10.9128 Y0.3632 Z-0.1000
G1 X10.9119 Y0.3652 Z-0.1000
G1 X10.9111 Y0.3672 Z-0.1000
G1 X10.9102 Y0.3692 Z-0.1000
G1 X10.9093 Y0.3712 Z-0.1000
G1 X10.9084 Y0.3732 Z-0.1000
G1 X10.9076 Y0.3752 Z-0.1000
G1 X10.9067 Y0.3772 Z-0.1000
G1 X10.9059 Y0.3792 Z-0.1000
G1 X10.9050 Y0.3812 Z-0.1000
G1 X10.9042 Y0.3833 Z-0.1000
G1 X10.9033 Y0.3853 Z-0.1000
G1 X10.9025 Y0.3873 Z-0.1000
G1 X10.9016 Y0.3893 Z-0.1000
G1 X10.9008 Y0.3913 Z-0.1000
G1 X10.8999 Y0.3933 Z-0.1000
G1 X10.8991 Y0.3953 Z-0.1000
G1 X10.8983 Y0.3974 Z-0.1000
G1 X10.8975 Y0.3994 Z-0.1000
G1 X10.8966 Y0.4014 Z-0.1000
G1 X10.8958 Y0.4034 Z-0.1000
G1 X10.8950 Y0.4055 Z-0.1000
G1 X10.8942 Y0.4075 Z-0.1000
G1 X10.8934 Y0.4095 Z-0.1000
G1 X10.8926 Y0.4115 Z-0.1000
G1 X10.8918 Y0.4136 Z-0.1000
G1 X10.8910 Y0.4156 Z-0.1000
G1 X10.8902 Y0.4177 Z-0.1000
G1 X10.8894 Y0.4197 Z-0.1000
G1 X10.8886 Y0.4217 Z-0.1000
G1 X10.8878 Y0.4237 Z-0.1000
G1 X10.8870 Y0.4258 Z-0.1000
G1 X10.8862 Y0.4278 Z-0.1000
G1 X10.8854 Y0.4299 Z-0.1000
G1 X10.8847 Y0.4319 Z-0.1000
G1 X10.8839 Y0.4340 Z-0.1000
G1 X10.8831 Y0.4360 Z-0.1000
G1 X10.8824 Y0.4380 Z-0.1000
G1 X10.8816 Y0.4401 Z-0.1000
G1 X10.8808 Y0.4421 Z-0.1000
G1 X10.8801 Y0.4442 Z-0.1000
G1 X10.8793 Y0.4462 Z-0.1000
G1 X10.8785 Y0.4483 Z-0.1000
G1 X10.8778 Y0.4503 Z-0.1000
G1 X10.8771 Y0.4524 Z-0.1000
G1 X10.8763 Y0.4544 Z-0.1000
G1 X10.8756 Y0.4565 Z-0.1000
G1 X10.8748 Y0.4585 Z-0.1000
G1 X10.8741 Y0.4606 Z-0.1000
G1 X10.8734 Y0.4626 Z-0.1000
G1 X10.8726 Y0.4647 Z-0.1000
G1 X10.8719 Y0.4668 Z-0.1000
G1 X10.8712 Y0.4688 Z-0.1000
G1 X10.8705 Y0.4709 Z-0.1000
G1 X10.8697 Y0.4729 Z-0.1000
G1 X10.8690 Y0.4750 Z-0.1000
G1 X10.8683 Y0.4771 Z-0.1000
G1 X10.8676 Y0.4791 Z-0.1000
G1 X10.8669 Y0.4812 Z-0.1000
G1 X10.8662 Y0.4833 Z-0.1000
G1 X10.8655 Y0.4853 Z-0.1000
G1 X10.8648 Y0.4874 Z-0.1000
G1 X10.8641 Y0.4895 Z-0.1000
G1 X10.8634 Y0.4915 Z-0.1000
G1 X10.8627 Y0.4936 Z-0.1000
G1 X10.8620 Y0.4957 Z-0.1000
G1 X10.8613 Y0.4978 Z-0.1000
G1 X10.8606 Y0.4998 Z-0.1000
G1 X10.8599 Y0.5019 Z-0.1000
G1 X10.8593 Y0.5040 Z-0.1000
G1 X10.8586 Y0.5060 Z-0.1000
G1 X10.8579 Y0.5081 Z-0.1000
G1 X10.8572 Y0.5102 Z-0.1000
G1 X10.8566 Y0.5123 Z-0.1000
G1 X10.8559 Y0.5144 Z-0.1000
G1 X10.8552 Y0.5164 Z-0.1000
G1 X10.8546 Y0.5185 Z-0.1000
G1 X10.8539 Y0.5206 Z-0.1000
G1 X10.8533 Y0.5227 Z-0.1000
G1 X10.8526 Y0.5248 Z-0.1000
G1 X10.8520 Y0.5269 Z-0.1000
G1 X10.8513 Y0.5289 Z-0.1000
G1 X10.8507 Y0.5310 Z-0.1000
G1 X10.8500 Y0.5331 Z-0.1000
G1 X10.8494 Y0.5352 Z-0.1000
G1 X10.8488 Y0.5373 Z-0.1000
G1 X10.8481 Y0.5394 Z-0.1000
G1 X10.8475 Y0.5415 Z-0.1000
G1 X10.8469 Y0.5436 Z-0.1000
G1 X10.8462 Y0.5457 Z-0.1000
G1 X10.8456 Y0.5477 Z-0.1000
G1 X10.8450 Y0.5498 Z-0.1000
G1 X10.8444 Y0.5519 Z-0.1000
G1 X10.8437 Y0.5540 Z-0.1000
G1 X10.8431 Y0.5561 Z-0.1000
G1 X10.8425 Y0.5582 Z-0.1000
G1 X10.8419 Y0.5603 Z-0.1000
G1 X10.8413 Y0.5624 Z-0.1000
G1 X10.8407 Y0.5645 Z-0.1000
G1 X10.8401 Y0.5666 Z-0.1000
G1 X10.8395 Y0.5687 Z-0.1000
G1 X10.8389 Y0.5708 Z-0.1000
G1 X10.8383 Y0.5729 Z-0.1000
G1 X10.8377 Y0.5750 Z-0.1000
G1 X10.8371 Y0.5771 Z-0.1000
G1 X10.8365 Y0.5792 Z-0.1000
G1 X10.8359 Y0.5813 Z-0.1000
G1 X10.8354 Y0.5834 Z-0.1000
G1 X10.8348 Y0.5855 Z-0.1000
G1 X10.8342 Y0.5876 Z-0.1000
G1 X10.8336 Y0.5897 Z-0.1000
G1 X10.8330 Y0.5918 Z-0.1000
G1 X10.8325 Y0.5939 Z-0.1000
G1 X10.8319 Y0.5961 Z-0.1000
G1 X10.8313 Y0.5982 Z-0.1000
G1 X10.8308 Y0.6003 Z-0.1000
G1 X10.8302 Y0.6024 Z-0.1000
G1 X10.8296 Y0.6045 Z-0.1000
G1 X10.8291 Y0.6066 Z-0.1000
G1 X10.8285 Y0.6087 Z-0.1000
G1 X10.8280 Y0.6108 Z-0.1000
G1 X10.8274 Y0.6129 Z-0.1000
G1 X10.8269 Y0.6151 Z-0.1000
G1 X10.8263 Y0.6172 Z-0.1000
G1 X10.8258 Y0.6193 Z-0.1000
G1 X10.8252 Y0.6214 Z-0.1000
G1 X10.8247 Y0.6235 Z-0.1000
G1 X10.8242 Y0.6256 Z-0.1000
G1 X10.8236 Y0.6277 Z-0.1000
G1 X10.8231 Y0.6299 Z-0.1000
G1 X10.8226 Y0.6320 Z-0.1000
G1 X10.8220 Y0.6341 Z-0.1000
G1 X10.8215 Y0.6362 Z-0.1000
G1 X10.8210 Y0.6383 Z-0.1000
G1 X10.8205 Y0.6404 Z-0.1000
G1 X10.8200 Y0.6426 Z-0.1000
G1 X10.8194 Y0.6447 Z-0.1000
G1 X10.8189 Y0.6468 Z-0.1000
G1 X10.8184 Y0.6489 Z-0.1000
G1 X10.8179 Y0.6511 Z-0.1000
G1 X10.8174 Y0.6532 Z-0.1000
G1 X10.8169 Y0.6553 Z-0.1000
G1 X10.8164 Y0.6574 Z-0.1000
G1 X10.8159 Y0.6595 Z-0.1000
G1 X10.8154 Y0.6617 Z-0.1000
G1 X10.8149 Y0.6638 Z-0.1000
G1 X10.8144 Y0.6659 Z-0.1000
G1 X10.8139 Y0.6681 Z-0.1000
G1 X10.8134 Y0.6702 Z-0.1000
G1 X10.8129 Y0.6723 Z-0.1000
G1 X10.8124 Y0.6744 Z-0.1000
G1 X10.8119 Y0.6766 Z-0.1000
G1 X10.8115 Y0.6787 Z-0.1000
G1 X10.8110 Y0.6808 Z-0.1000
G1 X10.8105 Y0.6830 Z-0.1000
G1 X10.8100 Y0.6851 Z-0.1000
G1 X10.8095 Y0.6872 Z-0.1000
G1 X10.8091 Y0.6894 Z-0.1000
G1 X10.8086 Y0.6915 Z-0.1000
G1 X10.8081 Y0.6936 Z-0.1000
G1 X10.8077 Y0.6957 Z-0.1000
G1 X10.8072 Y0.6979 Z-0.1000
G1 X10.8068 Y0.7000 Z-0.1000
G1 X10.8063 Y0.7022 Z-0.1000
G1 X10.8058 Y0.7043 Z-0.1000
G1 X10.8054 Y0.7064 Z-0.1000
G1 X10.8049 Y0.7086 Z-0.1000
G1 X10.8045 Y0.7107 Z-0.1000
G1 X10.8040 Y0.7128 Z-0.1000
G1 X10.8036 Y0.7150 Z-0.1000
G1 X10.8031 Y0.7171 Z-0.1000
G1 X10.8027 Y0.7193 Z-0.1000
G1 X10.8023 Y0.7214 Z-0.1000
G1 X10.8018 Y0.7235 Z-0.1000
G1 X10.8014 Y0.7257 Z-0.1000
G1 X10.8009 Y0.7278 Z-0.1000
G1 X10.8005 Y0.7299 Z-0.1000
G1 X10.8001 Y0.7321 Z-0.1000
G1 X10.7997 Y0.7342 Z-0.1000
G1 X10.7992 Y0.7364 Z-0.1000
G1 X10.7988 Y0.7385 Z-0.1000
G1 X10.7984 Y0.7407 Z-0.1000
G1 X10.7980 Y0.7428 Z-0.1000
G1 X10.7975 Y0.7449 Z-0.1000
G1 X10.7971 Y0.7471 Z-0.1000
G1 X10.7967 Y0.7492 Z-0.1000
G1 X10.7963 Y0.7514 Z-0.1000
G1 X10.7959 Y0.7535 Z-0.1000
G1 X10.7955 Y0.7557 Z-0.1000
G1 X10.7951 Y0.7578 Z-0.1000
G1 X10.7947 Y0.7599 Z-0.1000
G1 X10.7943 Y0.7621 Z-0.1000
G1 X10.7939 Y0.7642 Z-0.1000
G1 X10.7935 Y0.7664 Z-0.1000
G1 X10.7931 Y0.7685 Z-0.1000
G1 X10.7927 Y0.7707 Z-0.1000
G1 X10.7923 Y0.7728 Z-0.1000
G1 X10.7919 Y0.7750 Z-0.1000
G1 X10.7915 Y0.7771 Z-0.1000
G1 X10.7911 Y0.7793 Z-0.1000
G1 X10.7908 Y0.7814 Z-0.1000
G1 X10.7904 Y0.7836 Z-0.1000
G1 X10.7900 Y0.7857 Z-0.1000
G1 X10.7896 Y0.7879 Z-0.1000
G1 X10.7892 Y0.7900 Z-0.1000
G1 X10.7889 Y0.7922 Z-0.1000
G1 X10.7885 Y0.7943 Z-0.1000
G1 X10.7881 Y0.7965 Z-0.1000
G1 X10.7877 Y0.7986 Z-0.1000
G1 X10.7874 Y0.8008 Z-0.1000
G1 X10.7870 Y0.8029 Z-0.1000
G1 X10.7867 Y0.8051 Z-0.1000
G1 X10.7863 Y0.8072 Z-0.1000
G1 X10.7859 Y0.8094 Z-0.1000
G1 X10.7856 Y0.8116 Z-0.1000
G1 X10.7852 Y0.8137 Z-0.1000
G1 X10.7849 Y0.8159 Z-0.1000
G1 X10.7845 Y0.8180 Z-0.1000
G1 X10.7842 Y0.8202 Z-0.1000
G1 X10.7838 Y0.8223 Z-0.1000
G1 X10.7835 Y0.8245 Z-0.1000
G1 X10.7831 Y0.8266 Z-0.1000
G1 X10.7828 Y0.8288 Z-0.1000
G1 X10.7825 Y0.8310 Z-0.1000
G1 X10.7821 Y0.8331 Z-0.1000
G1 X10.7818 Y0.8353 Z-0.1000
G1 X10.7814 Y0.8374 Z-0.1000
G1 X10.7811 Y0.8396 Z-0.1000
G1 X10.7808 Y0.8417 Z-0.1000
G1 X10.7805 Y0.8439 Z-0.1000
G1 X10.7801 Y0.8461 Z-0.1000
G1 X10.7798 Y0.8482 Z-0.1000
G1 X10.7795 Y0.8504 Z-0.1000
G1 X10.7792 Y0.8525 Z-0.1000
G1 X10.7788 Y0.8547 Z-0.1000
G1 X10.7785 Y0.8568 Z-0.1000
G1 X10.7782 Y0.8590 Z-0.1000
G1 X10.7779 Y0.8612 Z-0.1000
G1 X10.7776 Y0.8633 Z-0.1000
G1 X10.7773 Y0.8655 Z-0.1000
G1 X10.7770 Y0.8677 Z-0.1000
G1 X10.7767 Y0.8698 Z-0.1000
G1 X10.7764 Y0.8720 Z-0.1000
G1 X10.7761 Y0.8741 Z-0.1000
G1 X10.7758 Y0.8763 Z-0.1000
G1 X10.7755 Y0.8785 Z-0.1000
G1 X10.7752 Y0.8806 Z-0.1000
G1 X10.7749 Y0.8828 Z-0.1000
G1 X10.7746 Y0.8850 Z-0.1000
G1 X10.7743 Y0.8871 Z-0.1000
G1 X10.7740 Y0.8893 Z-0.1000
G1 X10.7737 Y0.8915 Z-0.1000
G1 X10.7734 Y0.8936 Z-0.1000
G1 X10.7731 Y0.8958 Z-0.1000
G1 X10.7729 Y0.8979 Z-0.1000
G1 X10.7726 Y0.9001 Z-0.1000
G1 X10.7723 Y0.9023 Z-0.1000
G1 X10.7720 Y0.9044 Z-0.1000
G1 X10.7717 Y0.9066 Z-0.1000
G1 X10.7715 Y0.9088 Z-0.1000
G1 X10.7712 Y0.9109 Z-0.1000
G1 X10.7709 Y0.9131 Z-0.1000
G1 X10.7707 Y0.9153 Z-0.1000
G1 X10.7704 Y0.9174 Z-0.1000
G1 X10.7701 Y0.9196 Z-0.1000
G1 X10.7699 Y0.9218 Z-0.1000
G1 X10.7696 Y0.9239 Z-0.1000
G1 X10.7694 Y0.9261 Z-0.1000
G1 X10.7691 Y0.9283 Z-0.1000
G1 X10.7688 Y0.9304 Z-0.1000
G1 X10.7686 Y0.9326 Z-0.1000
G1 X10.7683 Y0.9348 Z-0.1000
G1 X10.7681 Y0.9369 Z-0.1000
G1 X10.7678 Y0.9391 Z-0.1000
G1 X10.7676 Y0.9413 Z-0.1000
G1 X10.7674 Y0.9435 Z-0.1000
G1 X10.7671 Y0.9456 Z-0.1000
G1 X10.7669 Y0.9478 Z-0.1000
G1 X10.7666 Y0.9500 Z-0.1000
G1 X10.7664 Y0.9521 Z-0.1000
G1 X10.7662 Y0.9543 Z-0.1000
G1 X10.7659 Y0.9565 Z-0.1000
G1 X10.7657 Y0.9586 Z-0.1000
G1 X10.7655 Y0.9608 Z-0.1000
G1 X10.7652 Y0.9630 Z-0.1000
G1 X10.7650 Y0.9652 Z-0.1000
G1 X10.7648 Y0.9673 Z-0.1000
G1 X10.7646 Y0.9695 Z-0.1000
G1 X10.7643 Y0.9717 Z-0.1000
G1 X10.7641 Y0.9739 Z-0.1000
G1 X10.7639 Y0.9760 Z-0.1000
G1 X10.7637 Y0.9782 Z-0.1000
G1 X10.7635 Y0.9804 Z-0.1000
G1 X10.7633 Y0.9825 Z-0.1000
G1 X10.7631 Y0.9847 Z-0.1000
G1 X10.7628 Y0.9869 Z-0.1000
G1 X10.7626 Y0.9891 Z-0.1000
G1 X10.7624 Y0.9912 Z-0.1000
G1 X10.7622 Y0.9934 Z-0.1000
G1 X10.7620 Y0.9956 Z-0.1000
G1 X10.7618 Y0.9978 Z-0.1000
G1 X10.7616 Y0.9999 Z-0.1000
G1 X10.7614 Y1.0021 Z-0.1000
G1 X10.7612 Y1.0043 Z-0.1000
G1 X10.7610 Y1.0065 Z-0.1000
G1 X10.7609 Y1.0086 Z-0.1000
G1 X10.7607 Y1.0108 Z-0.1000
G1 X10.7605 Y1.0130 Z-0.1000
G1 X10.7603 Y1.0152 Z-0.1000
G1 X10.7601 Y1.0173 Z-0.1000
G1 X10.7599 Y1.0195 Z-0.1000
G1 X10.7597 Y1.0217 Z-0.1000
G1 X10.7596 Y1.0239 Z-0.1000
G1 X10.7594 Y1.0260 Z-0.1000
G1 X10.7592 Y1.0282 Z-0.1000
G1 X10.7590 Y1.0304 Z-0.1000
G1 X10.7589 Y1.0326 Z-0.1000
G1 X10.7587 Y1.0347 Z-0.1000
G1 X10.7585 Y1.0369 Z-0.1000
G1 X10.7584 Y1.0391 Z-0.1000
G1 X10.7582 Y1.0413 Z-0.1000
G1 X10.7580 Y1.0435 Z-0.1000
G1 X10.7579 Y1.0456 Z-0.1000
G1 X10.7577 Y1.0478 Z-0.1000
G1 X10.7576 Y1.0500 Z-0.1000
G1 X10.7574 Y1.0522 Z-0.1000
G1 X10.7572 Y1.0543 Z-0.1000
G1 X10.7571 Y1.0565 Z-0.1000
G1 X10.7569 Y1.0587 Z-0.1000
G1 X10.7568 Y1.0609 Z-0.1000
G1 X10.7566 Y1.0631 Z-0.1000
G1 X10.7565 Y1.0652 Z-0.1000
G1 X10.7563 Y1.0674 Z-0.1000
G1 X10.7562 Y1.0696 Z-0.1000
G1 X10.7561 Y1.0718 Z-0.1000
G1 X10.7559 Y1.0739 Z-0.1000
G1 X10.7558 Y1.0761 Z-0.1000
G1 X10.7556 Y1.0783 Z-0.1000
G1 X10.7555 Y1.0805 Z-0.1000
G1 X10.7554 Y1.0827 Z-0.1000
G1 X10.7553 Y1.0848 Z-0.1000
G1 X10.7551 Y1.0870 Z-0.1000
G1 X10.7550 Y1.0892 Z-0.1000
G1 X10.7549 Y1.0914 Z-0.1000
G1 X10.7547 Y1.0936 Z-0.1000
G1 X10.7546 Y1.0957 Z-0.1000
G1 X10.7545 Y1.0979 Z-0.1000
G1 X10.7544 Y1.1001 Z-0.1000
G1 X10.7543 Y1.1023 Z-0.1000
G1 X10.7542 Y1.1045 Z-0.1000
G1 X10.7540 Y1.1066 Z-0.1000
G1 X10.7539 Y1.1088 Z-0.1000
G1 X10.7538 Y1.1110 Z-0.1000
G1 X10.7537 Y1.1132 Z-0.1000
G1 X10.7536 Y1.1154 Z-0.1000
G1 X10.7535 Y1.1175 Z-0.1000
G1 X10.7534 Y1.1197 Z-0.1000
G1 X10.7533 Y1.1219 Z-0.1000
G1 X10.7532 Y1.1241 Z-0.1000
G1 X10.7531 Y1.1263 Z-0.1000
G1 X10.7530 Y1.1284 Z-0.1000
G1 X10.7529 Y1.1306 Z-0.1000
G1 X10.7528 Y1.1328 Z-0.1000
G1 X10.7527 Y1.1350 Z-0.1000
G1 X10.7526 Y1.1372 Z-0.1000
G1 X10.7525 Y1.1393 Z-0.1000
G1 X10.7524 Y1.1415 Z-0.1000
G1 X10.7524 Y1.1437 Z-0.1000
G1 X10.7523 Y1.1459 Z-0.1000
G1 X10.7522 Y1.1481 Z-0.1000
G1 X10.7521 Y1.1503 Z-0.1000
G1 X10.7520 Y1.1524 Z-0.1000
G1 X10.7520 Y1.1546 Z-0.1000
G1 X10.7519 Y1.1568 Z-0.1000
G1 X10.7518 Y1.1590 Z-0.1000
G1 X10.7517 Y1.1612 Z-0.1000
G1 X10.7517 Y1.1634 Z-0.1000
G1 X10.7516 Y1.1655 Z-0.1000
G1 X10.7515 Y1.1677 Z-0.1000
G1 X10.7515 Y1.1699 Z-0.1000
G1 X10.7514 Y1.1721 Z-0.1000
G1 X10.7514 Y1.1743 Z-0.1000
G1 X10.7513 Y1.1764 Z-0.1000
G1 X10.7512 Y1.1786 Z-0.1000
G1 X10.7512 Y1.1808 Z-0.1000
G1 X10.7511 Y1.1830 Z-0.1000
G1 X10.7511 Y1.1852 Z-0.1000
G1 X10.7510 Y1.1874 Z-0.1000
G1 X10.7510 Y1.1895 Z-0.1000
G1 X10.7509 Y1.1917 Z-0.1000
G1 X10.7509 Y1.1939 Z-0.1000
G1 X10.7508 Y1.1961 Z-0.1000
G1 X10.7508 Y1.1983 Z-0.1000
G1 X10.7507 Y1.2005 Z-0.1000
G1 X10.7507 Y1.2026 Z-0.1000
G1 X10.7507 Y1.2048 Z-0.1000
G1 X10.7506 Y1.2070 Z-0.1000
G1 X10.7506 Y1.2092 Z-0.1000
G1 X10.7506 Y1.2114 Z-0.1000
G1 X10.7505 Y1.2135 Z-0.1000
G1 X10.7505 Y1.2157 Z-0.1000
G1 X10.7505 Y1.2179 Z-0.1000
G1 X10.7505 Y1.2201 Z-0.1000
G1 X10.7504 Y1.2223 Z-0.1000
G1 X10.7504 Y1.2245 Z-0.1000
G1 X10.7504 Y1.2267 Z-0.1000
G1 X10.7504 Y1.2288 Z-0.1000
G1 X10.7504 Y1.2310 Z-0.1000
G1 X10.7503 Y1.2332 Z-0.1000
G1 X10.7503 Y1.2354 Z-0.1000
G1 X10.7503 Y1.2376 Z-0.1000
G1 X10.7503 Y1.2397 Z-0.1000
G1 X10.7503 Y1.2419 Z-0.1000
G1 X10.7503 Y1.2441 Z-0.1000
G1 X10.7503 Y1.2463 Z-0.1000
G1 X10.7503 Y1.2485 Z-0.1000
G1 X10.7503 Y1.2507 Z-0.1000
G1 X10.7503 Y1.2528 Z-0.1000
G1 X10.7503 Y1.2550 Z-0.1000
G1 X10.7503 Y1.2572 Z-0.1000
G1 X10.7503 Y1.2594 Z-0.1000
G1 X10.7503 Y1.2616 Z-0.1000
G1 X10.7503 Y1.2638 Z-0.1000
G1 X10.7503 Y1.2659 Z-0.1000
G1 X10.7503 Y1.2681 Z-0.1000
G1 X10.7503 Y1.2703 Z-0.1000
G1 X10.7503 Y1.2725 Z-0.1000
G1 X10.7504 Y1.2747 Z-0.1000
G1 X10.7504 Y1.2769 Z-0.1000
G1 X10.7504 Y1.2790 Z-0.1000
G1 X10.7504 Y1.2812 Z-0.1000
G1 X10.7504 Y1.2834 Z-0.1000
G1 X10.7505 Y1.2856 Z-0.1000
G1 X10.7505 Y1.2878 Z-0.1000
G1 X10.7505 Y1.2900 Z-0.1000
G1 X10.7505 Y1.2921 Z-0.1000
G1 X10.7506 Y1.2943 Z-0.1000
G1 X10.7506 Y1.2965 Z-0.1000
G1 X10.7506 Y1.2987 Z-0.1000
G1 X10.7507 Y1.3009 Z-0.1000
G1 X10.7507 Y1.3031 Z-0.1000
G1 X10.7508 Y1.3052 Z-0.1000
G1 X10.7508 Y1.3074 Z-0.1000
G1 X10.7508 Y1.3096 Z-0.1000
G1 X10.7509 Y1.3118 Z-0.1000
G1 X10.7509 Y1.3140 Z-0.1000
G1 X10.7510 Y1.3162 Z-0.1000
G1 X10.7510 Y1.3183 Z-0.1000
G1 X10.7511 Y1.3205 Z-0.1000
G1 X10.7511 Y1.3227 Z-0.1000
G1 X10.7512 Y1.3249 Z-0.1000
G1 X10.7513 Y1.3271 Z-0.1000
G1 X10.7513 Y1.3293 Z-0.1000
G1 X10.7514 Y1.3314 Z-0.1000
G1 X10.7514 Y1.3336 Z-0.1000
G1 X10.7515 Y1.3358 Z-0.1000
G1 X10.7516 Y1.3380 Z-0.1000
G1 X10.7516 Y1.3402 Z-0.1000
G1 X10.7517 Y1.3423 Z-0.1000
G1 X10.7518 Y1.3445 Z-0.1000
G1 X10.7518 Y1.3467 Z-0.1000
G1 X10.7519 Y1.3489 Z-0.1000
G1 X10.7520 Y1.3511 Z-0.1000
G1 X10.7521 Y1.3533 Z-0.1000
G1 X10.7522 Y1.3554 Z-0.1000
G1 X10.7522 Y1.3576 Z-0.1000
G1 X10.7523 Y1.3598 Z-0.1000
G1 X10.7524 Y1.3620 Z-0.1000
G1 X10.7525 Y1.3642 Z-0.1000
G1 X10.7526 Y1.3663 Z-0.1000
G1 X10.7527 Y1.3685 Z-0.1000
G1 X10.7528 Y1.3707 Z-0.1000
G1 X10.7529 Y1.3729 Z-0.1000
G1 X10.7529 Y1.3751 Z-0.1000
G1 X10.7530 Y1.3773 Z-0.1000
G1 X10.7531 Y1.3794 Z-0.1000
G1 X10.7532 Y1.3816 Z-0.1000
G1 X10.7533 Y1.3838 Z-0.1000
G1 X10.7534 Y1.3860 Z-0.1000
G1 X10.7535 Y1.3882 Z-0.1000
G1 X10.7537 Y1.3903 Z-0.1000
G1 X10.7538 Y1.3925 Z-0.1000
G1 X10.7539 Y1.3947 Z-0.1000
G1 X10.7540 Y1.3969 Z-0.1000
G1 X10.7541 Y1.3991 Z-0.1000
G1 X10.7542 Y1.4012 Z-0.1000
G1 X10.7543 Y1.4034 Z-0.1000
G1 X10.7545 Y1.4056 Z-0.1000
G1 X10.7546 Y1.4078 Z-0.1000
G1 X10.7547 Y1.4100 Z-0.1000
G1 X10.7548 Y1.4121 Z-0.1000
G1 X10.7549 Y1.4143 Z-0.1000
G1 X10.7551 Y1.4165 Z-0.1000
G1 X10.7552 Y1.4187 Z-0.1000
G1 X10.7553 Y1.4209 Z-0.1000
G1 X10.7555 Y1.4230 Z-0.1000
G1 X10.7556 Y1.4252 Z-0.1000
G1 X10.7557 Y1.4274 Z-0.1000
G1 X10.7559 Y1.4296 Z-0.1000
G1 X10.7560 Y1.4317 Z-0.1000
G1 X10.7562 Y1.4339 Z-0.1000
G1 X10.7563 Y1.4361 Z-0.1000
G1 X10.7564 Y1.4383 Z-0.1000
G1 X10.7566 Y1.4405 Z-0.1000
G1 X10.7567 Y1.4426 Z-0.1000
G1 X10.7569 Y1.4448 Z-0.1000
G1 X10.7570 Y1.4470 Z-0.1000
G1 X10.7572 Y1.4492 Z-0.1000
G1 X10.7573 Y1.4514 Z-0.1000
G1 X10.7575 Y1.4535 Z-0.1000
G1 X10.7577 Y1.4557 Z-0.1000
G1 X10.7578 Y1.4579 Z-0.1000
G1 X10.7580 Y1.4601 Z-0.1000
G1 X10.7581 Y1.4622 Z-0.1000
G1 X10.7583 Y1.4644 Z-0.1000
G1 X10.7585 Y1.4666 Z-0.1000
G1 X10.7587 Y1.4688 Z-0.1000
G1 X10.7588 Y1.4709 Z-0.1000
G1 X10.7590 Y1.4731 Z-0.1000
G1 X10.7592 Y1.4753 Z-0.1000
G1 X10.7593 Y1.4775 Z-0.1000
G1 X10.7595 Y1.4797 Z-0.1000
G1 X10.7597 Y1.4818 Z-0.1000
G1 X10.7599 Y1.4840 Z-0.1000
G1 X10.7601 Y1.4862 Z-0.1000
G1 X10.7603 Y1.4884 Z-0.1000
G1 X10.7604 Y1.4905 Z-0.1000
G1 X10.7606 Y1.4927 Z-0.1000
G1 X10.7608 Y1.4949 Z-0.1000
G1 X10.7610 Y1.4971 Z-0.1000
G1 X10.7612 Y1.4992 Z-0.1000
G1 X10.7614 Y1.5014 Z-0.1000
G1 X10.7616 Y1.5036 Z-0.1000
G1 X10.7618 Y1.5058 Z-0.1000
G1 X10.7620 Y1.5079 Z-0.1000
G1 X10.7622 Y1.5101 Z-0.1000
G1 X10.7624 Y1.5123 Z-0.1000
G1 X10.7626 Y1.5144 Z-0.1000
G1 X10.7628 Y1.5166 Z-0.1000
G1 X10.7630 Y1.5188 Z-0.1000
G1 X10.7632 Y1.5210 Z-0.1000
G1 X10.7635 Y1.5231 Z-0.1000
G1 X10.7637 Y1.5253 Z-0.1000
G1 X10.7639 Y1.5275 Z-0.1000
G1 X10.7641 Y1.5297 Z-0.1000
G1 X10.7643 Y1.5318 Z-0.1000
G1 X10.7646 Y1.5340 Z-0.1000
G1 X10.7648 Y1.5362 Z-0.1000
G1 X10.7650 Y1.5383 Z-0.1000
G1 X10.7652 Y1.5405 Z-0.1000
G1 X10.7655 Y1.5427 Z-0.1000
G1 X10.7657 Y1.5449 Z-0.1000
G1 X10.7659 Y1.5470 Z-0.1000
G1 X10.7662 Y1.5492 Z-0.1000
G1 X10.7664 Y1.5514 Z-0.1000
G1 X10.7666 Y1.5535 Z-0.1000
G1 X10.7669 Y1.5557 Z-0.1000
G1 X10.7671 Y1.5579 Z-0.1000
G1 X10.7674 Y1.5600 Z-0.1000
G1 X10.7676 Y1.5622 Z-0.1000
G1 X10.7679 Y1.5644 Z-0.1000
G1 X10.7681 Y1.5666 Z-0.1000
G1 X10.7684 Y1.5687 Z-0.1000
G1 X10.7686 Y1.5709 Z-0.1000
G1 X10.7689 Y1.5731 Z-0.1000
G1 X10.7691 Y1.5752 Z-0.1000
G1 X10.7694 Y1.5774 Z-0.1000
G1 X10.7697 Y1.5796 Z-0.1000
G1 X10.7699 Y1.5817 Z-0.1000
G1 X10.7702 Y1.5839 Z-0.1000
G1 X10.7704 Y1.5861 Z-0.1000
G1 X10.7707 Y1.5882 Z-0.1000
G1 X10.7710 Y1.5904 Z-0.1000
G1 X10.7713 Y1.5926 Z-0.1000
G1 X10.7715 Y1.5947 Z-0.1000
G1 X10.7718 Y1.5969 Z-0.1000
G1 X10.7721 Y1.5991 Z-0.1000
G1 X10.7724 Y1.6012 Z-0.1000
G1 X10.7726 Y1.6034 Z-0.1000
G1 X10.7729 Y1.6056 Z-0.1000
G1 X10.7732 Y1.6077 Z-0.1000
G1 X10.7735 Y1.6099 Z-0.1000
G1 X10.7738 Y1.6120 Z-0.1000
G1 X10.7741 Y1.6142 Z-0.1000
G1 X10.7744 Y1.6164 Z-0.1000
G1 X10.7747 Y1.6185 Z-0.1000
G1 X10.7750 Y1.6207 Z-0.1000
G1 X10.7753 Y1.6229 Z-0.1000
G1 X10.7756 Y1.6250 Z-0.1000
G1 X10.7759 Y1.6272 Z-0.1000
G1 X10.7762 Y1.6294 Z-0.1000
G1 X10.7765 Y1.6315 Z-0.1000
G1 X10.7768 Y1.6337 Z-0.1000
G1 X10.7771 Y1.6358 Z-0.1000
G1 X10.7774 Y1.6380 Z-0.1000
G1 X10.7777 Y1.6402 Z-0.1000
G1 X10.7780 Y1.6423 Z-0.1000
G1 X10.7784 Y1.6445 Z-0.1000
G1 X10.7787 Y1.6466 Z-0.1000
G1 X10.7790 Y1.6488 Z-0.1000
G1 X10.7793 Y1.6510 Z-0.1000
G1 X10.7796 Y1.6531 Z-0.1000
G1 X10.7800 Y1.6553 Z-0.1000
G1 X10.7803 Y1.6574 Z-0.1000
G1 X10.7806 Y1.6596 Z-0.1000
G1 X10.7810 Y1.6617 Z-0.1000
G1 X10.7813 Y1.6639 Z-0.1000
G1 X10.7816 Y1.6661 Z-0.1000
G1 X10.7820 Y1.6682 Z-0.1000
G1 X10.7823 Y1.6704 Z-0.1000
G1 X10.7827 Y1.6725 Z-0.1000
G1 X10.7830 Y1.6747 Z-0.1000
G1 X10.7833 Y1.6768 Z-0.1000
G1 X10.7837 Y1.6790 Z-0.1000
G1 X10.7840 Y1.6812 Z-0.1000
G1 X10.7844 Y1.6833 Z-0.1000
G1 X10.7847 Y1.6855 Z-0.1000
G1 X10.7851 Y1.6876 Z-0.1000
G1 X10.7855 Y1.6898 Z-0.1000
G1 X10.7858 Y1.6919 Z-0.1000
G1 X10.7862 Y1.6941 Z-0.1000
G1 X10.7865 Y1.6962 Z-0.1000
G1 X10.7869 Y1.6984 Z-0.1000
G1 X10.7873 Y1.7005 Z-0.1000
G1 X10.7876 Y1.7027 Z-0.1000
G1 X10.7880 Y1.7048 Z-0.1000
G1 X10.7884 Y1.7070 Z-0.1000
G1 X10.7888 Y1.7091 Z-0.1000
G1 X10.7891 Y1.7113 Z-0.1000
G1 X10.7895 Y1.7134 Z-0.1000
G1 X10.7899 Y1.7156 Z-0.1000
G1 X10.7903 Y1.7177 Z-0.1000
G1 X10.7907 Y1.7199 Z-0.1000
G1 X10.7911 Y1.7220 Z-0.1000
G1 X10.7915 Y1.7242 Z-0.1000
G1 X10.7918 Y1.7263 Z-0.1000
G1 X10.7922 Y1.7285 Z-0.1000
G1 X10.7926 Y1.7306 Z-0.1000
G1 X10.7930 Y1.7328 Z-0.1000
G1 X10.7934 Y1.7349 Z-0.1000
G1 X10.7938 Y1.7371 Z-0.1000
G1 X10.7942 Y1.7392 Z-0.1000
G1 X10.7946 Y1.7414 Z-0.1000
G1 X10.7951 Y1.7435 Z-0.1000
G1 X10.7955 Y1.7456 Z-0.1000
G1 X10.7959 Y1.7478 Z-0.1000
G1 X10.7963 Y1.7499 Z-0.1000
G1 X10.7967 Y1.7521 Z-0.1000
G1 X10.7971 Y1.7542 Z-0.1000
G1 X10.7975 Y1.7564 Z-0.1000
G1 X10.7980 Y1.7585 Z-0.1000
G1 X10.7984 Y1.7606 Z-0.1000
G1 X10.7988 Y1.7628 Z-0.1000
G1 X10.7992 Y1.7649 Z-0.1000
G1 X10.7997 Y1.7671 Z-0.1000
G1 X10.8001 Y1.7692 Z-0.1000
G1 X10.8005 Y1.7714 Z-0.1000
G1 X10.8010 Y1.7735 Z-0.1000
G1 X10.8014 Y1.7756 Z-0.1000
G1 X10.8018 Y1.7778 Z-0.1000
G1 X10.8023 Y1.7799 Z-0.1000
G1 X10.8027 Y1.7820 Z-0.1000
G1 X10.8032 Y1.7842 Z-0.1000
G1 X10.8036 Y1.7863 Z-0.1000
G1 X10.8041 Y1.7885 Z-0.1000
G1 X10.8045 Y1.7906 Z-0.1000
G1 X10.8050 Y1.7927 Z-0.1000
G1 X10.8054 Y1.7949 Z-0.1000
G1 X10.8059 Y1.7970 Z-0.1000
G1 X10.8064 Y1.7991 Z-0.1000
G1 X10.8068 Y1.8013 Z-0.1000
G1 X10.8073 Y1.8034 Z-0.1000
G1 X10.8078 Y1.8055 Z-0.1000
G1 X10.8082 Y1.8077 Z-0.1000
G1 X10.8087 Y1.8098 Z-0.1000
G1 X10.8092 Y1.8119 Z-0.1000
G1 X10.8097 Y1.8141 Z-0.1000
G1 X10.8101 Y1.8162 Z-0.1000
G1 X10.8106 Y1.8183 Z-0.1000
G1 X10.8111 Y1.8204 Z-0.1000
G1 X10.8116 Y1.8226 Z-0.1000
G1 X10.8121 Y1.8247 Z-0.1000
G1 X10.8126 Y1.8268 Z-0.1000
G1 X10.8130 Y1.8290 Z-0.1000
G1 X10.8135 Y1.8311 Z-0.1000
G1 X10.8140 Y1.8332 Z-0.1000
G1 X10.8145 Y1.8353 Z-0.1000
G1 X10.8150 Y1.8375 Z-0.1000
G1 X10.8155 Y1.8396 Z-0.1000
G1 X10.8160 Y1.8417 Z-0.1000
G1 X10.8165 Y1.8438 Z-0.1000
G1 X10.8171 Y1.8460 Z-0.1000
G1 X10.8176 Y1.8481 Z-0.1000
G1 X10.8181 Y1.8502 Z-0.1000
G1 X10.8186 Y1.8523 Z-0.1000
G1 X10.8191 Y1.8544 Z-0.1000
G1 X10.8196 Y1.8566 Z-0.1000
G1 X10.8201 Y1.8587 Z-0.1000
G1 X10.8207 Y1.8608 Z-0.1000
G1 X10.8212 Y1.8629 Z-0.1000
G1 X10.8217 Y1.8650 Z-0.1000
G1 X10.8223 Y1.8672 Z-0.1000
G1 X10.8228 Y1.8693 Z-0.1000
G1 X10.8233 Y1.8714 Z-0.1000
G1 X10.8239 Y1.8735 Z-0.1000
G1 X10.8244 Y1.8756 Z-0.1000
G1 X10.8250 Y1.8778 Z-0.1000
G1 X10.8255 Y1.8799 Z-0.1000
G1 X10.8260 Y1.8820 Z-0.1000
G1 X10.8266 Y1.8841 Z-0.1000
G1 X10.8272 Y1.8862 Z-0.1000
G1 X10.8277 Y1.8883 Z-0.1000
G1 X10.8283 Y1.8905 Z-0.1000
G1 X10.8288 Y1.8926 Z-0.1000
G1 X10.8294 Y1.8947 Z-0.1000
G1 X10.8300 Y1.8968 Z-0.1000
G1 X10.8305 Y1.8989 Z-0.1000
G1 X10.8311 Y1.9010 Z-0.1000
G1 X10.8317 Y1.9031 Z-0.1000
G1 X10.8322 Y1.9052 Z-0.1000
G1 X10.8328 Y1.9073 Z-0.1000
G1 X10.8334 Y1.9094 Z-0.1000
G1 X10.8340 Y1.9116 Z-0.1000
G1 X10.8346 Y1.9137 Z-0.1000
G1 X10.8351 Y1.9158 Z-0.1000
G1 X10.8357 Y1.9179 Z-0.1000
G1 X10.8363 Y1.9200 Z-0.1000
G1 X10.8369 Y1.9221 Z-0.1000
G1 X10.8375 Y1.9242 Z-0.1000
G1 X10.8381 Y1.9263 Z-0.1000
G1 X10.8387 Y1.9284 Z-0.1000
G1 X10.8393 Y1.9305 Z-0.1000
G1 X10.8399 Y1.9326 Z-0.1000
G1 X10.8405 Y1.9347 Z-0.1000
G1 X10.8412 Y1.9368 Z-0.1000
G1 X10.8418 Y1.9389 Z-0.1000
G1 X10.8424 Y1.9410 Z-0.1000
G1 X10.8430 Y1.9431 Z-0.1000
G1 X10.8436 Y1.9452 Z-0.1000
G1 X10.8442 Y1.9473 Z-0.1000
G1 X10.8449 Y1.9494 Z-0.1000
G1 X10.8455 Y1.9515 Z-0.1000
G1 X10.8461 Y1.9536 Z-0.1000
G1 X10.8468 Y1.9556 Z-0.1000
G1 X10.8474 Y1.9577 Z-0.1000
G1 X10.8480 Y1.9598 Z-0.1000
G1 X10.8487 Y1.9619 Z-0.1000
G1 X10.8493 Y1.9640 Z-0.1000
G1 X10.8500 Y1.9661 Z-0.1000
G1 X10.8506 Y1.9682 Z-0.1000
G1 X10.8513 Y1.9703 Z-0.1000
G1 X10.8519 Y1.9724 Z-0.1000
G1 X10.8526 Y1.9744 Z-0.1000
G1 X10.8533 Y1.9765 Z-0.1000
G1 X10.8539 Y1.9786 Z-0.1000
G1 X10.8546 Y1.9807 Z-0.1000
G1 X10.8553 Y1.9828 Z-0.1000
G1 X10.8559 Y1.9849 Z-0.1000
G1 X10.8566 Y1.9869 Z-0.1000
G1 X10.8573 Y1.9890 Z-0.1000
G1 X10.8579 Y1.9911 Z-0.1000
G1 X10.8586 Y1.9932 Z-0.1000
G1 X10.8593 Y1.9953 Z-0.1000
G1 X10.8600 Y1.9973 Z-0.1000
G1 X10.8607 Y1.9994 Z-0.1000
G1 X10.8614 Y2.0015 Z-0.1000
G1 X10.8621 Y2.0035 Z-0.1000
G1 X10.8628 Y2.0056 Z-0.1000
G1 X10.8635 Y2.0077 Z-0.1000
G1 X10.8642 Y2.0098 Z-0.1000
G1 X10.8649 Y2.0118 Z-0.1000
G1 X10.8656 Y2.0139 Z-0.1000
G1 X10.8663 Y2.0160 Z-0.1000
G1 X10.8670 Y2.0180 Z-0.1000
G1 X10.8677 Y2.0201 Z-0.1000
G1 X10.8684 Y2.0222 Z-0.1000
G1 X10.8692 Y2.0242 Z-0.1000
G1 X10.8699 Y2.0263 Z-0.1000
G1 X10.8706 Y2.0284 Z-0.1000
G1 X10.8713 Y2.0304 Z-0.1000
G1 X10.8721 Y2.0325 Z-0.1000
G1 X10.8728 Y2.0345 Z-0.1000
G1 X10.8735 Y2.0366 Z-0.1000
G1 X10.8743 Y2.0387 Z-0.1000
G1 X10.8750 Y2.0407 Z-0.1000
G1 X10.8758 Y2.0428 Z-0.1000
G1 X10.8765 Y2.0448 Z-0.1000
G1 X10.8773 Y2.0469 Z-0.1000
G1 X10.8780 Y2.0489 Z-0.1000
G1 X10.8788 Y2.0510 Z-0.1000
G1 X10.8795 Y2.0530 Z-0.1000
G1 X10.8803 Y2.0551 Z-0.1000
G1 X10.8811 Y2.0571 Z-0.1000
G1 X10.8818 Y2.0592 Z-0.1000
G1 X10.8826 Y2.0612 Z-0.1000
G1 X10.8834 Y2.0633 Z-0.1000
G1 X10.8842 Y2.0653 Z-0.1000
G1 X10.8849 Y2.0673 Z-0.1000
G1 X10.8857 Y2.0694 Z-0.1000
G1 X10.8865 Y2.0714 Z-0.1000
G1 X10.8873 Y2.0735 Z-0.1000
G1 X10.8881 Y2.0755 Z-0.1000
G1 X10.8889 Y2.0775 Z-0.1000
G1 X10.8897 Y2.0796 Z-0.1000
G1 X10.8905 Y2.0816 Z-0.1000
G1 X10.8913 Y2.0836 Z-0.1000
G1 X10.8921 Y2.0857 Z-0.1000
G1 X10.8929 Y2.0877 Z-0.1000
G1 X10.8937 Y2.0897 Z-0.1000
G1 X10.8945 Y2.0918 Z-0.1000
G1 X10.8953 Y2.0938 Z-0.1000
G1 X10.8962 Y2.0958 Z-0.1000
G1 X10.8970 Y2.0979 Z-0.1000
G1 X10.8978 Y2.0999 Z-0.1000
G1 X10.8986 Y2.1019 Z-0.1000
G1 X10.8995 Y2.1039 Z-0.1000
G1 X10.9003 Y2.1059 Z-0.1000
G1 X10.9011 Y2.1080 Z-0.1000
G1 X10.9020 Y2.1100 Z-0.1000
G1 X10.9028 Y2.1120 Z-0.1000
G1 X10.9037 Y2.1140 Z-0.1000
G1 X10.9045 Y2.1160 Z-0.1000
G1 X10.9054 Y2.1180 Z-0.1000
G1 X10.9062 Y2.1200 Z-0.1000
G1 X10.9071 Y2.1221 Z-0.1000
G1 X10.9080 Y2.1241 Z-0.1000
G1 X10.9088 Y2.1261 Z-0.1000
G1 X10.9097 Y2.1281 Z-0.1000
G1 X10.9106 Y2.1301 Z-0.1000
G1 X10.9114 Y2.1321 Z-0.1000
G1 X10.9123 Y2.1341 Z-0.1000
G1 X10.9132 Y2.1361 Z-0.1000
G1 X10.9141 Y2.1381 Z-0.1000
G1 X10.9150 Y2.1401 Z-0.1000
G1 X10.9159 Y2.1421 Z-0.1000
G1 X10.9168 Y2.1441 Z-0.1000
G1 X10.9177 Y2.1461 Z-0.1000
G1 X10.9186 Y2.1481 Z-0.1000
G1 X10.9195 Y2.1501 Z-0.1000
G1 X10.9204 Y2.1520 Z-0.1000
G1 X10.9213 Y2.1540 Z-0.1000
G1 X10.9222 Y2.1560 Z-0.1000
G1 X10.9231 Y2.1580 Z-0.1000
G1 X10.9240 Y2.1600 Z-0.1000
G1 X10.9250 Y2.1620 Z-0.1000
G1 X10.9259 Y2.1640 Z-0.1000
G1 X10.9268 Y2.1659 Z-0.1000
G1 X10.9278 Y2.1679 Z-0.1000
G1 X10.9287 Y2.1699 Z-0.1000
G1 X10.9296 Y2.1719 Z-0.1000
G1 X10.9306 Y2.1738 Z-0.1000
G1 X10.9315 Y2.1758 Z-0.1000
G1 X10.9325 Y2.1778 Z-0.1000
G1 X10.9334 Y2.1797 Z-0.1000
G1 X10.9344 Y2.1817 Z-0.1000
G1 X10.9353 Y2.1837 Z-0.1000
G1 X10.9363 Y2.1856 Z-0.1000
G1 X10.9373 Y2.1876 Z-0.1000
G1 X10.9383 Y2.1895 Z-0.1000
G1 X10.9392 Y2.1915 Z-0.1000
G1 X10.9402 Y2.1935 Z-0.1000
G1 X10.9412 Y2.1954 Z-0.1000
G1 X10.9422 Y2.1974 Z-0.1000
G1 X10.9432 Y2.1993 Z-0.1000
G1 X10.9442 Y2.2013 Z-0.1000
G1 X10.9452 Y2.2032 Z-0.1000
G1 X10.9462 Y2.2052 Z-0.1000
G1 X10.9472 Y2.2071 Z-0.1000
G1 X10.9482 Y2.2090 Z-0.1000
G1 X10.9492 Y2.2110 Z-0.1000
G1 X10.9502 Y2.2129 Z-0.1000
G1 X10.9512 Y2.2148 Z-0.1000
G1 X10.9522 Y2.2168 Z-0.1000
G1 X10.9533 Y2.2187 Z-0.1000
G1 X10.9543 Y2.2206 Z-0.1000
G1 X10.9553 Y2.2226 Z-0.1000
G1 X10.9564 Y2.2245 Z-0.1000
G1 X10.9574 Y2.2264 Z-0.1000
G1 X10.9585 Y2.2283 Z-0.1000
G1 X10.9595 Y2.2302 Z-0.1000
G1 X10.9606 Y2.2322 Z-0.1000
G1 X10.9616 Y2.2341 Z-0.1000
G1 X10.9627 Y2.2360 Z-0.1000
G1 X10.9637 Y2.2379 Z-0.1000
G1 X10.9648 Y2.2398 Z-0.1000
G1 X10.9659 Y2.2417 Z-0.1000
G1 X10.9670 Y2.2436 Z-0.1000
G1 X10.9680 Y2.2455 Z-0.1000
G1 X10.9691 Y2.2474 Z-0.1000
G1 X10.9702 Y2.2493 Z-0.1000
G1 X10.9713 Y2.2512 Z-0.1000
G1 X10.9724 Y2.2531 Z-0.1000
G1 X10.9735 Y2.2550 Z-0.1000
G1 X10.9746 Y2.2569 Z-0.1000
G1 X10.9757 Y2.2587 Z-0.1000
G1 X10.9768 Y2.2606 Z-0.1000
G1 X10.9780 Y2.2625 Z-0.1000
G1 X10.9791 Y2.2644 Z-0.1000
G1 X10.9802 Y2.2663 Z-0.1000
G1 X10.9813 Y2.2681 Z-0.1000
G1 X10.9825 Y2.2700 Z-0.1000
G1 X10.9836 Y2.2719 Z-0.1000
G1 X10.9848 Y2.2737 Z-0.1000
G1 X10.9859 Y2.2756 Z-0.1000
G1 X10.9871 Y2.2774 Z-0.1000
G1 X10.9882 Y2.2793 Z-0.1000
G1 X10.9894 Y2.2812 Z-0.1000
G1 X10.9906 Y2.2830 Z-0.1000
G1 X10.9917 Y2.2849 Z-0.1000
G1 X10.9929 Y2.2867 Z-0.1000
G1 X10.9941 Y2.2885 Z-0.1000
G1 X10.9953 Y2.2904 Z-0.1000
G1 X10.9964 Y2.2922 Z-0.1000
G1 X10.9976 Y2.2940 Z-0.1000
G1 X10.9988 Y2.2959 Z-0.1000
G1 X11.0000 Y2.2977 Z-0.1000
G1 X11.0013 Y2.2995 Z-0.1000
G1 X11.0025 Y2.3013 Z-0.1000
G1 X11.0037 Y2.3032 Z-0.1000
G1 X11.0049 Y2.3050 Z-0.1000
G1 X11.0061 Y2.3068 Z-0.1000
G1 X11.0074 Y2.3086 Z-0.1000
G1 X11.0086 Y2.3104 Z-0.1000
G1 X11.0098 Y2.3122 Z-0.1000
G1 X11.0111 Y2.3140 Z-0.1000
G1 X11.0123 Y2.3158 Z-0.1000
G1 X11.0136 Y2.3176 Z-0.1000
G1 X11.0149 Y2.3194 Z-0.1000
G1 X11.0161 Y2.3211 Z-0.1000
G1 X11.0174 Y2.3229 Z-0.1000
G1 X11.0187 Y2.3247 Z-0.1000
G1 X11.0199 Y2.3265 Z-0.1000
G1 X11.0212 Y2.3282 Z-0.1000
G1 X11.0225 Y2.3300 Z-0.1000
G1 X11.0238 Y2.3318 Z-0.1000
G1 X11.0251 Y2.3335 Z-0.1000
G1 X11.0264 Y2.3353 Z-0.1000
G1 X11.0277 Y2.3370 Z-0.1000
G1 X11.0291 Y2.3388 Z-0.1000
G1 X11.0304 Y2.3405 Z-0.1000
G1 X11.0317 Y2.3422 Z-0.1000
G1 X11.0330 Y2.3440 Z-0.1000
G1 X11.0344 Y2.3457 Z-0.1000
G1 X11.0357 Y2.3474 Z-0.1000
G1 X11.0371 Y2.3492 Z-0.1000
G1 X11.0384 Y2.3509 Z-0.1000
G1 X11.0398 Y2.3526 Z-0.1000
G1 X11.0412 Y2.3543 Z-0.1000
G1 X11.0425 Y2.3560 Z-0.1000
G1 X11.0439 Y2.3577 Z-0.1000
G1 X11.0453 Y2.3594 Z-0.1000
G1 X11.0467 Y2.3611 Z-0.1000
G1 X11.0481 Y2.3627 Z-0.1000
G1 X11.0495 Y2.3644 Z-0.1000
G1 X11.0509 Y2.3661 Z-0.1000
G1 X11.0523 Y2.3678 Z-0.1000
G1 X11.0537 Y2.3694 Z-0.1000
G1 X11.0552 Y2.3711 Z-0.1000
G1 X11.0566 Y2.3727 Z-0.1000
G1 X11.0580 Y2.3744 Z-0.1000
G1 X11.0595 Y2.3760 Z-0.1000
G1 X11.0609 Y2.3777 Z-0.1000
G1 X11.0624 Y2.3793 Z-0.1000
G1 X11.0639 Y2.3809 Z-0.1000
G1 X11.0653 Y2.3825 Z-0.1000
G1 X11.0668 Y2.3841 Z-0.1000
G1 X11.0683 Y2.3857 Z-0.1000
G1 X11.0698 Y2.3873 Z-0.1000
G1 X11.0713 Y2.3889 Z-0.1000
G1 X11.0728 Y2.3905 Z-0.1000
G1 X11.0743 Y2.3921 Z-0.1000
G1 X11.0758 Y2.3937 Z-0.1000
G1 X11.0773 Y2.3953 Z-0.1000
G1 X11.0789 Y2.3968 Z-0.1000
G1 X11.0804 Y2.3984 Z-0.1000
G1 X11.0820 Y2.3999 Z-0.1000
G1 X11.0835 Y2.4015 Z-0.1000
G1 X11.0851 Y2.4030 Z-0.1000
G1 X11.0866 Y2.4045 Z-0.1000
G1 X11.0882 Y2.4060 Z-0.1000
G1 X11.0898 Y2.4076 Z-0.1000
G1 X11.0914 Y2.4091 Z-0.1000
G1 X11.0930 Y2.4106 Z-0.1000
G1 X11.0946 Y2.4120 Z-0.1000
G1 X11.0962 Y2.4135 Z-0.1000
G1 X11.0978 Y2.4150 Z-0.1000
G1 X11.0994 Y2.4165 Z-0.1000
G1 X11.1010 Y2.4179 Z-0.1000
G1 X11.1027 Y2.4194 Z-0.1000
G1 X11.1043 Y2.4208 Z-0.1000
G1 X11.1060 Y2.4222 Z-0.1000
G1 X11.1077 Y2.4237 Z-0.1000
G1 X11.1093 Y2.4251 Z-0.1000
G1 X11.1110 Y2.4265 Z-0.1000
G1 X11.1127 Y2.4279 Z-0.1000
G1 X11.1144 Y2.4293 Z-0.1000
G1 X11.1161 Y2.4306 Z-0.1000
G1 X11.1178 Y2.4320 Z-0.1000
G1 X11.1195 Y2.4334 Z-0.1000
G1 X11.1212 Y2.4347 Z-0.1000
G1 X11.1230 Y2.4360 Z-0.1000
G1 X11.1247 Y2.4374 Z-0.1000
G1 X11.1247 Y2.4374 Z-0.1000
G1 X11.1264 Y2.4387 Z-0.1000
G1 X11.1282 Y2.4400 Z-0.1000
G1 X11.1300 Y2.4413 Z-0.1000
G1 X11.1317 Y2.4426 Z-0.1000
G1 X11.1335 Y2.4438 Z-0.1000
G1 X11.1353 Y2.4451 Z-0.1000
G1 X11.1371 Y2.4463 Z-0.1000
G1 X11.1389 Y2.4476 Z-0.1000
G1 X11.1407 Y2.4488 Z-0.1000
G1 X11.1425 Y2.4500 Z-0.1000
G1 X11.1444 Y2.4512 Z-0.1000
G1 X11.1462 Y2.4525 Z-0.1000
G1 X11.1480 Y2.4536 Z-0.1000
G1 X11.1499 Y2.4548 Z-0.1000
G1 X11.1517 Y2.4560 Z-0.1000
G1 X11.1536 Y2.4572 Z-0.1000
G1 X11.1554 Y2.4583 Z-0.1000
G1 X11.1573 Y2.4595 Z-0.1000
G1 X11.1592 Y2.4606 Z-0.1000
G1 X11.1610 Y2.4617 Z-0.1000
G1 X11.1629 Y2.4629 Z-0.1000
G1 X11.1648 Y2.4640 Z-0.1000
G1 X11.1667 Y2.4651 Z-0.1000
G1 X11.1686 Y2.4662 Z-0.1000
G1 X11.1705 Y2.4673 Z-0.1000
G1 X11.1724 Y2.4683 Z-0.1000
G1 X11.1743 Y2.4694 Z-0.1000
G1 X11.1762 Y2.4705 Z-0.1000
G1 X11.1782 Y2.4715 Z-0.1000
G1 X11.1801 Y2.4725 Z-0.1000
G1 X11.1820 Y2.4736 Z-0.1000
G1 X11.1840 Y2.4746 Z-0.1000
G1 X11.1859 Y2.4756 Z-0.1000
G1 X11.1879 Y2.4766 Z-0.1000
G1 X11.1898 Y2.4776 Z-0.1000
G1 X11.1918 Y2.4786 Z-0.1000
G1 X11.1937 Y2.4795 Z-0.1000
G1 X11.1957 Y2.4805 Z-0.1000
G1 X11.1977 Y2.4814 Z-0.1000
G1 X11.1997 Y2.4824 Z-0.1000
G1 X11.2016 Y2.4833 Z-0.1000
G1 X11.2036 Y2.4842 Z-0.1000
G1 X11.2056 Y2.4851 Z-0.1000
G1 X11.2076 Y2.4860 Z-0.1000
G1 X11.2097 Y2.4868 Z-0.1000
G1 X11.2117 Y2.4877 Z-0.1000
G1 X11.2137 Y2.4885 Z-0.1000
G1 X11.2157 Y2.4893 Z-0.1000
G1 X11.2178 Y2.4901 Z-0.1000
G1 X11.2198 Y2.4909 Z-0.1000
G1 X11.2219 Y2.4917 Z-0.1000
G1 X11.2239 Y2.4925 Z-0.1000
G1 X11.2260 Y2.4932 Z-0.1000
G1 X11.2280 Y2.4939 Z-0.1000
G1 X11.2301 Y2.4946 Z-0.1000
G1 X11.2322 Y2.4952 Z-0.1000
G1 X11.2343 Y2.4959 Z-0.1000
G1 X11.2364 Y2.4965 Z-0.1000
G1 X11.2385 Y2.4970 Z-0.1000
G1 X11.2407 Y2.4976 Z-0.1000
G1 X11.2428 Y2.4980 Z-0.1000
G1 X11.2449 Y2.4985 Z-0.1000
G1 X11.2471 Y2.4989 Z-0.1000
G1 X11.2471 Y2.4989 Z-0.1000
G1 X11.2493 Y2.4992 Z-0.1000
G1 X11.2516 Y2.4995 Z-0.1000
G1 X11.2538 Y2.4998 Z-0.1000
G1 X11.2561 Y2.5001 Z-0.1000
G1 X11.2583 Y2.5002 Z-0.1000
G1 X11.2606 Y2.5002 Z-0.1000
G1 X11.2628 Y2.4999 Z-0.1000
G1 X11.2648 Y2.4988 Z-0.1000
G1 X11.2661 Y2.4970 Z-0.1000
G1 X11.2667 Y2.4948 Z-0.1000
G1 X11.2669 Y2.4926 Z-0.1000
G1 X11.2669 Y2.4903 Z-0.1000
G1 X11.2669 Y2.4903 Z-0.1000
G1 X11.2669 Y2.4881 Z-0.1000
G1 X11.2666 Y2.4859 Z-0.1000
G1 X11.2659 Y2.4838 Z-0.1000
G1 X11.2647 Y2.4819 Z-0.1000
G1 X11.2630 Y2.4805 Z-0.1000
G1 X11.2610 Y2.4796 Z-0.1000
G1 X11.2588 Y2.4791 Z-0.1000
G1 X11.2566 Y2.4788 Z-0.1000
G1 X11.2544 Y2.4787 Z-0.1000
G1 X11.2522 Y2.4786 Z-0.1000
G1 X11.2522 Y2.4786 Z-0.1000
G1 X11.2501 Y2.4785 Z-0.1000
G1 X11.2479 Y2.4781 Z-0.1000
G1 X11.2458 Y2.4777 Z-0.1000
G1 X11.2437 Y2.4771 Z-0.1000
G1 X11.2417 Y2.4766 Z-0.1000
G1 X11.2396 Y2.4760 Z-0.1000
G1 X11.2375 Y2.4753 Z-0.1000
G1 X11.2355 Y2.4747 Z-0.1000
G1 X11.2334 Y2.4740 Z-0.1000
G1 X11.2314 Y2.4733 Z-0.1000
G1 X11.2294 Y2.4726 Z-0.1000
G1 X11.2274 Y2.4718 Z-0.1000
G1 X11.2254 Y2.4711 Z-0.1000
G1 X11.2233 Y2.4703 Z-0.1000
G1 X11.2213 Y2.4695 Z-0.1000
G1 X11.2193 Y2.4687 Z-0.1000
G1 X11.2173 Y2.4679 Z-0.1000
G1 X11.2154 Y2.4671 Z-0.1000
G1 X11.2134 Y2.4662 Z-0.1000
G1 X11.2114 Y2.4654 Z-0.1000
G1 X11.2094 Y2.4645 Z-0.1000
