; GCODE Generated by Basic CAM on 2024-07-19
G20 ;inch-mode

; Operation 0: CNC: Vector (no offset)
; Bit Diameter: 0.125

G0 Z0.5 ; move to z-safe height
G0 X0.8619 Y-0.0501
G1 Z-0.1000 F50
G1 X0.8619 Y-0.0501 Z-0.1000 F100
G1 X0.8585 Y-0.0498 Z-0.1000
G1 X0.8550 Y-0.0492 Z-0.1000
G1 X0.8516 Y-0.0485 Z-0.1000
G1 X0.8483 Y-0.0476 Z-0.1000
G1 X0.8449 Y-0.0466 Z-0.1000
G1 X0.8416 Y-0.0456 Z-0.1000
G1 X0.8383 Y-0.0445 Z-0.1000
G1 X0.8350 Y-0.0433 Z-0.1000
G1 X0.8317 Y-0.0421 Z-0.1000
G1 X0.8285 Y-0.0409 Z-0.1000
G1 X0.8252 Y-0.0396 Z-0.1000
G1 X0.8220 Y-0.0383 Z-0.1000
G1 X0.8188 Y-0.0370 Z-0.1000
G1 X0.8155 Y-0.0356 Z-0.1000
G1 X0.8123 Y-0.0342 Z-0.1000
G1 X0.8091 Y-0.0328 Z-0.1000
G1 X0.8060 Y-0.0314 Z-0.1000
G1 X0.8028 Y-0.0300 Z-0.1000
G1 X0.7996 Y-0.0285 Z-0.1000
G1 X0.7965 Y-0.0270 Z-0.1000
G1 X0.7933 Y-0.0255 Z-0.1000
G1 X0.7902 Y-0.0240 Z-0.1000
G1 X0.7870 Y-0.0225 Z-0.1000
G1 X0.7839 Y-0.0210 Z-0.1000
G1 X0.7808 Y-0.0194 Z-0.1000
G1 X0.7777 Y-0.0178 Z-0.1000
G1 X0.7746 Y-0.0163 Z-0.1000
G1 X0.7715 Y-0.0147 Z-0.1000
G1 X0.7684 Y-0.0130 Z-0.1000
G1 X0.7653 Y-0.0114 Z-0.1000
G1 X0.7622 Y-0.0098 Z-0.1000
G1 X0.7591 Y-0.0081 Z-0.1000
G1 X0.7561 Y-0.0065 Z-0.1000
G1 X0.7530 Y-0.0048 Z-0.1000
G1 X0.7500 Y-0.0031 Z-0.1000
G1 X0.7469 Y-0.0014 Z-0.1000
G1 X0.7439 Y0.0003 Z-0.1000
G1 X0.7409 Y0.0021 Z-0.1000
G1 X0.7379 Y0.0038 Z-0.1000
G1 X0.7348 Y0.0056 Z-0.1000
G1 X0.7318 Y0.0073 Z-0.1000
G1 X0.7288 Y0.0091 Z-0.1000
G1 X0.7259 Y0.0109 Z-0.1000
G1 X0.7229 Y0.0127 Z-0.1000
G1 X0.7199 Y0.0146 Z-0.1000
G1 X0.7170 Y0.0164 Z-0.1000
G1 X0.7140 Y0.0183 Z-0.1000
G1 X0.7111 Y0.0202 Z-0.1000
G1 X0.7082 Y0.0221 Z-0.1000
G1 X0.7053 Y0.0240 Z-0.1000
G1 X0.7024 Y0.0260 Z-0.1000
G1 X0.6995 Y0.0279 Z-0.1000
G1 X0.6966 Y0.0299 Z-0.1000
G1 X0.6938 Y0.0319 Z-0.1000
G1 X0.6938 Y0.0319 Z-0.1000
G1 X0.6909 Y0.0340 Z-0.1000
G1 X0.6881 Y0.0360 Z-0.1000
G1 X0.6853 Y0.0381 Z-0.1000
G1 X0.6825 Y0.0402 Z-0.1000
G1 X0.6796 Y0.0423 Z-0.1000
G1 X0.6769 Y0.0444 Z-0.1000
G1 X0.6741 Y0.0465 Z-0.1000
G1 X0.6713 Y0.0487 Z-0.1000
G1 X0.6685 Y0.0509 Z-0.1000
G1 X0.6658 Y0.0530 Z-0.1000
G1 X0.6630 Y0.0552 Z-0.1000
G1 X0.6603 Y0.0574 Z-0.1000
G1 X0.6576 Y0.0597 Z-0.1000
G1 X0.6549 Y0.0619 Z-0.1000
G1 X0.6522 Y0.0641 Z-0.1000
G1 X0.6495 Y0.0664 Z-0.1000
G1 X0.6468 Y0.0687 Z-0.1000
G1 X0.6442 Y0.0709 Z-0.1000
G1 X0.6415 Y0.0732 Z-0.1000
G1 X0.6389 Y0.0755 Z-0.1000
G1 X0.6362 Y0.0779 Z-0.1000
G1 X0.6336 Y0.0802 Z-0.1000
G1 X0.6310 Y0.0825 Z-0.1000
G1 X0.6284 Y0.0849 Z-0.1000
G1 X0.6258 Y0.0873 Z-0.1000
G1 X0.6232 Y0.0897 Z-0.1000
G1 X0.6207 Y0.0920 Z-0.1000
G1 X0.6181 Y0.0944 Z-0.1000
G1 X0.6156 Y0.0968 Z-0.1000
G1 X0.6131 Y0.0993 Z-0.1000
G1 X0.6105 Y0.1017 Z-0.1000
G1 X0.6080 Y0.1042 Z-0.1000
G1 X0.6055 Y0.1066 Z-0.1000
G1 X0.6030 Y0.1091 Z-0.1000
G1 X0.6005 Y0.1116 Z-0.1000
G1 X0.5981 Y0.1140 Z-0.1000
G1 X0.5956 Y0.1166 Z-0.1000
G1 X0.5931 Y0.1191 Z-0.1000
G1 X0.5907 Y0.1216 Z-0.1000
G1 X0.5883 Y0.1241 Z-0.1000
G1 X0.5858 Y0.1266 Z-0.1000
G1 X0.5834 Y0.1292 Z-0.1000
G1 X0.5810 Y0.1317 Z-0.1000
G1 X0.5786 Y0.1343 Z-0.1000
G1 X0.5762 Y0.1369 Z-0.1000
G1 X0.5739 Y0.1394 Z-0.1000
G1 X0.5715 Y0.1420 Z-0.1000
G1 X0.5691 Y0.1447 Z-0.1000
G1 X0.5668 Y0.1473 Z-0.1000
G1 X0.5645 Y0.1499 Z-0.1000
G1 X0.5621 Y0.1525 Z-0.1000
G1 X0.5598 Y0.1551 Z-0.1000
G1 X0.5575 Y0.1578 Z-0.1000
G1 X0.5552 Y0.1604 Z-0.1000
G1 X0.5529 Y0.1631 Z-0.1000
G1 X0.5507 Y0.1657 Z-0.1000
G1 X0.5484 Y0.1684 Z-0.1000
G1 X0.5461 Y0.1711 Z-0.1000
G1 X0.5439 Y0.1738 Z-0.1000
G1 X0.5416 Y0.1765 Z-0.1000
G1 X0.5394 Y0.1792 Z-0.1000
G1 X0.5372 Y0.1819 Z-0.1000
G1 X0.5350 Y0.1846 Z-0.1000
G1 X0.5328 Y0.1874 Z-0.1000
G1 X0.5306 Y0.1901 Z-0.1000
G1 X0.5284 Y0.1929 Z-0.1000
G1 X0.5262 Y0.1956 Z-0.1000
G1 X0.5240 Y0.1984 Z-0.1000
G1 X0.5219 Y0.2011 Z-0.1000
G1 X0.5197 Y0.2039 Z-0.1000
G1 X0.5176 Y0.2067 Z-0.1000
G1 X0.5154 Y0.2095 Z-0.1000
G1 X0.5133 Y0.2122 Z-0.1000
G1 X0.5112 Y0.2150 Z-0.1000
G1 X0.5091 Y0.2178 Z-0.1000
G1 X0.5070 Y0.2207 Z-0.1000
G1 X0.5049 Y0.2235 Z-0.1000
G1 X0.5028 Y0.2263 Z-0.1000
G1 X0.5007 Y0.2291 Z-0.1000
G1 X0.4987 Y0.2320 Z-0.1000
G1 X0.4966 Y0.2348 Z-0.1000
G1 X0.4946 Y0.2376 Z-0.1000
G1 X0.4925 Y0.2405 Z-0.1000
G1 X0.4905 Y0.2434 Z-0.1000
G1 X0.4885 Y0.2462 Z-0.1000
G1 X0.4865 Y0.2491 Z-0.1000
G1 X0.4845 Y0.2520 Z-0.1000
G1 X0.4825 Y0.2548 Z-0.1000
G1 X0.4805 Y0.2577 Z-0.1000
G1 X0.4785 Y0.2606 Z-0.1000
G1 X0.4765 Y0.2635 Z-0.1000
G1 X0.4745 Y0.2664 Z-0.1000
G1 X0.4726 Y0.2693 Z-0.1000
G1 X0.4706 Y0.2723 Z-0.1000
G1 X0.4687 Y0.2752 Z-0.1000
G1 X0.4667 Y0.2781 Z-0.1000
G1 X0.4648 Y0.2810 Z-0.1000
G1 X0.4629 Y0.2840 Z-0.1000
G1 X0.4610 Y0.2869 Z-0.1000
G1 X0.4591 Y0.2898 Z-0.1000
G1 X0.4572 Y0.2928 Z-0.1000
G1 X0.4553 Y0.2958 Z-0.1000
G1 X0.4534 Y0.2987 Z-0.1000
G1 X0.4515 Y0.3017 Z-0.1000
G1 X0.4496 Y0.3046 Z-0.1000
G1 X0.4478 Y0.3076 Z-0.1000
G1 X0.4459 Y0.3106 Z-0.1000
G1 X0.4441 Y0.3136 Z-0.1000
G1 X0.4422 Y0.3166 Z-0.1000
G1 X0.4404 Y0.3195 Z-0.1000
G1 X0.4386 Y0.3225 Z-0.1000
G1 X0.4368 Y0.3255 Z-0.1000
G1 X0.4349 Y0.3285 Z-0.1000
G1 X0.4331 Y0.3316 Z-0.1000
G1 X0.4313 Y0.3346 Z-0.1000
G1 X0.4295 Y0.3376 Z-0.1000
G1 X0.4278 Y0.3406 Z-0.1000
G1 X0.4260 Y0.3436 Z-0.1000
G1 X0.4242 Y0.3467 Z-0.1000
G1 X0.4225 Y0.3497 Z-0.1000
G1 X0.4207 Y0.3527 Z-0.1000
G1 X0.4189 Y0.3558 Z-0.1000
G1 X0.4172 Y0.3588 Z-0.1000
G1 X0.4155 Y0.3619 Z-0.1000
G1 X0.4137 Y0.3649 Z-0.1000
G1 X0.4120 Y0.3680 Z-0.1000
G1 X0.4103 Y0.3710 Z-0.1000
G1 X0.4086 Y0.3741 Z-0.1000
G1 X0.4069 Y0.3772 Z-0.1000
G1 X0.4052 Y0.3802 Z-0.1000
G1 X0.4035 Y0.3833 Z-0.1000
G1 X0.4018 Y0.3864 Z-0.1000
G1 X0.4001 Y0.3895 Z-0.1000
G1 X0.3985 Y0.3926 Z-0.1000
G1 X0.3968 Y0.3957 Z-0.1000
G1 X0.3952 Y0.3987 Z-0.1000
G1 X0.3935 Y0.4018 Z-0.1000
G1 X0.3919 Y0.4049 Z-0.1000
G1 X0.3902 Y0.4080 Z-0.1000
G1 X0.3886 Y0.4111 Z-0.1000
G1 X0.3870 Y0.4143 Z-0.1000
G1 X0.3853 Y0.4174 Z-0.1000
G1 X0.3837 Y0.4205 Z-0.1000
G1 X0.3821 Y0.4236 Z-0.1000
G1 X0.3805 Y0.4267 Z-0.1000
G1 X0.3789 Y0.4298 Z-0.1000
G1 X0.3773 Y0.4330 Z-0.1000
G1 X0.3757 Y0.4361 Z-0.1000
G1 X0.3742 Y0.4392 Z-0.1000
G1 X0.3726 Y0.4424 Z-0.1000
G1 X0.3710 Y0.4455 Z-0.1000
G1 X0.3695 Y0.4486 Z-0.1000
G1 X0.3679 Y0.4518 Z-0.1000
G1 X0.3664 Y0.4549 Z-0.1000
G1 X0.3648 Y0.4581 Z-0.1000
G1 X0.3633 Y0.4612 Z-0.1000
G1 X0.3618 Y0.4644 Z-0.1000
G1 X0.3603 Y0.4675 Z-0.1000
G1 X0.3587 Y0.4707 Z-0.1000
G1 X0.3572 Y0.4739 Z-0.1000
G1 X0.3557 Y0.4771 Z-0.1000
G1 X0.3542 Y0.4802 Z-0.1000
G1 X0.3527 Y0.4834 Z-0.1000
G1 X0.3512 Y0.4866 Z-0.1000
G1 X0.3498 Y0.4897 Z-0.1000
G1 X0.3483 Y0.4929 Z-0.1000
G1 X0.3468 Y0.4961 Z-0.1000
G1 X0.3453 Y0.4993 Z-0.1000
G1 X0.3439 Y0.5025 Z-0.1000
G1 X0.3424 Y0.5057 Z-0.1000
G1 X0.3410 Y0.5089 Z-0.1000
G1 X0.3395 Y0.5121 Z-0.1000
G1 X0.3381 Y0.5153 Z-0.1000
G1 X0.3366 Y0.5185 Z-0.1000
G1 X0.3352 Y0.5217 Z-0.1000
G1 X0.3338 Y0.5249 Z-0.1000
G1 X0.3324 Y0.5281 Z-0.1000
G1 X0.3310 Y0.5313 Z-0.1000
G1 X0.3296 Y0.5345 Z-0.1000
G1 X0.3282 Y0.5377 Z-0.1000
G1 X0.3268 Y0.5409 Z-0.1000
G1 X0.3254 Y0.5442 Z-0.1000
G1 X0.3240 Y0.5474 Z-0.1000
G1 X0.3226 Y0.5506 Z-0.1000
G1 X0.3212 Y0.5538 Z-0.1000
G1 X0.3199 Y0.5571 Z-0.1000
G1 X0.3185 Y0.5603 Z-0.1000
G1 X0.3171 Y0.5635 Z-0.1000
G1 X0.3158 Y0.5668 Z-0.1000
G1 X0.3144 Y0.5700 Z-0.1000
G1 X0.3131 Y0.5733 Z-0.1000
G1 X0.3117 Y0.5765 Z-0.1000
G1 X0.3104 Y0.5797 Z-0.1000
G1 X0.3091 Y0.5830 Z-0.1000
G1 X0.3078 Y0.5862 Z-0.1000
G1 X0.3064 Y0.5895 Z-0.1000
G1 X0.3051 Y0.5927 Z-0.1000
G1 X0.3038 Y0.5960 Z-0.1000
G1 X0.3025 Y0.5993 Z-0.1000
G1 X0.3012 Y0.6025 Z-0.1000
G1 X0.2999 Y0.6058 Z-0.1000
G1 X0.2986 Y0.6090 Z-0.1000
G1 X0.2973 Y0.6123 Z-0.1000
G1 X0.2961 Y0.6156 Z-0.1000
G1 X0.2948 Y0.6188 Z-0.1000
G1 X0.2935 Y0.6221 Z-0.1000
G1 X0.2922 Y0.6254 Z-0.1000
G1 X0.2910 Y0.6286 Z-0.1000
G1 X0.2897 Y0.6319 Z-0.1000
G1 X0.2885 Y0.6352 Z-0.1000
G1 X0.2872 Y0.6385 Z-0.1000
G1 X0.2860 Y0.6418 Z-0.1000
G1 X0.2847 Y0.6450 Z-0.1000
G1 X0.2835 Y0.6483 Z-0.1000
G1 X0.2823 Y0.6516 Z-0.1000
G1 X0.2811 Y0.6549 Z-0.1000
G1 X0.2798 Y0.6582 Z-0.1000
G1 X0.2786 Y0.6615 Z-0.1000
G1 X0.2774 Y0.6648 Z-0.1000
G1 X0.2762 Y0.6681 Z-0.1000
G1 X0.2750 Y0.6714 Z-0.1000
G1 X0.2738 Y0.6747 Z-0.1000
G1 X0.2726 Y0.6779 Z-0.1000
G1 X0.2714 Y0.6812 Z-0.1000
G1 X0.2703 Y0.6846 Z-0.1000
G1 X0.2691 Y0.6879 Z-0.1000
G1 X0.2679 Y0.6912 Z-0.1000
G1 X0.2667 Y0.6945 Z-0.1000
G1 X0.2656 Y0.6978 Z-0.1000
G1 X0.2644 Y0.7011 Z-0.1000
G1 X0.2633 Y0.7044 Z-0.1000
G1 X0.2621 Y0.7077 Z-0.1000
G1 X0.2610 Y0.7110 Z-0.1000
G1 X0.2598 Y0.7144 Z-0.1000
G1 X0.2587 Y0.7177 Z-0.1000
G1 X0.2575 Y0.7210 Z-0.1000
G1 X0.2564 Y0.7243 Z-0.1000
G1 X0.2553 Y0.7276 Z-0.1000
G1 X0.2542 Y0.7309 Z-0.1000
G1 X0.2531 Y0.7343 Z-0.1000
G1 X0.2519 Y0.7376 Z-0.1000
G1 X0.2508 Y0.7409 Z-0.1000
G1 X0.2497 Y0.7443 Z-0.1000
G1 X0.2486 Y0.7476 Z-0.1000
G1 X0.2475 Y0.7509 Z-0.1000
G1 X0.2464 Y0.7543 Z-0.1000
G1 X0.2454 Y0.7576 Z-0.1000
G1 X0.2443 Y0.7609 Z-0.1000
G1 X0.2432 Y0.7643 Z-0.1000
G1 X0.2421 Y0.7676 Z-0.1000
G1 X0.2410 Y0.7710 Z-0.1000
G1 X0.2400 Y0.7743 Z-0.1000
G1 X0.2389 Y0.7776 Z-0.1000
G1 X0.2379 Y0.7810 Z-0.1000
G1 X0.2368 Y0.7843 Z-0.1000
G1 X0.2358 Y0.7877 Z-0.1000
G1 X0.2347 Y0.7910 Z-0.1000
G1 X0.2337 Y0.7944 Z-0.1000
G1 X0.2326 Y0.7977 Z-0.1000
G1 X0.2316 Y0.8011 Z-0.1000
G1 X0.2306 Y0.8044 Z-0.1000
G1 X0.2296 Y0.8078 Z-0.1000
G1 X0.2285 Y0.8111 Z-0.1000
G1 X0.2275 Y0.8145 Z-0.1000
G1 X0.2265 Y0.8179 Z-0.1000
G1 X0.2255 Y0.8212 Z-0.1000
G1 X0.2245 Y0.8246 Z-0.1000
G1 X0.2235 Y0.8279 Z-0.1000
G1 X0.2225 Y0.8313 Z-0.1000
G1 X0.2215 Y0.8347 Z-0.1000
G1 X0.2205 Y0.8380 Z-0.1000
G1 X0.2195 Y0.8414 Z-0.1000
G1 X0.2185 Y0.8448 Z-0.1000
G1 X0.2176 Y0.8482 Z-0.1000
G1 X0.2166 Y0.8515 Z-0.1000
G1 X0.2156 Y0.8549 Z-0.1000
G1 X0.2147 Y0.8582 Z-0.1000
G1 X0.2137 Y0.8616 Z-0.1000
G1 X0.2127 Y0.8650 Z-0.1000
G1 X0.2118 Y0.8684 Z-0.1000
G1 X0.2108 Y0.8718 Z-0.1000
G1 X0.2099 Y0.8751 Z-0.1000
G1 X0.2089 Y0.8785 Z-0.1000
G1 X0.2080 Y0.8819 Z-0.1000
G1 X0.2071 Y0.8853 Z-0.1000
G1 X0.2061 Y0.8886 Z-0.1000
G1 X0.2052 Y0.8920 Z-0.1000
G1 X0.2043 Y0.8954 Z-0.1000
G1 X0.2034 Y0.8988 Z-0.1000
G1 X0.2024 Y0.9022 Z-0.1000
G1 X0.2015 Y0.9056 Z-0.1000
G1 X0.2006 Y0.9090 Z-0.1000
G1 X0.1997 Y0.9123 Z-0.1000
G1 X0.1988 Y0.9157 Z-0.1000
G1 X0.1979 Y0.9191 Z-0.1000
G1 X0.1970 Y0.9225 Z-0.1000
G1 X0.1961 Y0.9259 Z-0.1000
G1 X0.1952 Y0.9293 Z-0.1000
G1 X0.1944 Y0.9327 Z-0.1000
G1 X0.1935 Y0.9361 Z-0.1000
G1 X0.1926 Y0.9395 Z-0.1000
G1 X0.1917 Y0.9429 Z-0.1000
G1 X0.1909 Y0.9463 Z-0.1000
G1 X0.1900 Y0.9497 Z-0.1000
G1 X0.1891 Y0.9531 Z-0.1000
G1 X0.1883 Y0.9565 Z-0.1000
G1 X0.1874 Y0.9599 Z-0.1000
G1 X0.1866 Y0.9633 Z-0.1000
G1 X0.1857 Y0.9667 Z-0.1000
G1 X0.1849 Y0.9701 Z-0.1000
G1 X0.1841 Y0.9735 Z-0.1000
G1 X0.1832 Y0.9769 Z-0.1000
G1 X0.1824 Y0.9803 Z-0.1000
G1 X0.1816 Y0.9838 Z-0.1000
G1 X0.1807 Y0.9872 Z-0.1000
G1 X0.1799 Y0.9906 Z-0.1000
G1 X0.1791 Y0.9940 Z-0.1000
G1 X0.1783 Y0.9974 Z-0.1000
G1 X0.1775 Y1.0008 Z-0.1000
G1 X0.1767 Y1.0042 Z-0.1000
G1 X0.1758 Y1.0076 Z-0.1000
G1 X0.1750 Y1.0110 Z-0.1000
G1 X0.1742 Y1.0145 Z-0.1000
G1 X0.1735 Y1.0179 Z-0.1000
G1 X0.1727 Y1.0213 Z-0.1000
G1 X0.1719 Y1.0247 Z-0.1000
G1 X0.1711 Y1.0281 Z-0.1000
G1 X0.1703 Y1.0315 Z-0.1000
G1 X0.1695 Y1.0350 Z-0.1000
G1 X0.1688 Y1.0384 Z-0.1000
G1 X0.1680 Y1.0418 Z-0.1000
G1 X0.1672 Y1.0452 Z-0.1000
G1 X0.1665 Y1.0487 Z-0.1000
G1 X0.1657 Y1.0521 Z-0.1000
G1 X0.1650 Y1.0555 Z-0.1000
G1 X0.1642 Y1.0589 Z-0.1000
G1 X0.1634 Y1.0624 Z-0.1000
G1 X0.1627 Y1.0658 Z-0.1000
G1 X0.1620 Y1.0692 Z-0.1000
G1 X0.1612 Y1.0727 Z-0.1000
G1 X0.1605 Y1.0761 Z-0.1000
G1 X0.1598 Y1.0795 Z-0.1000
G1 X0.1590 Y1.0829 Z-0.1000
G1 X0.1583 Y1.0864 Z-0.1000
G1 X0.1576 Y1.0898 Z-0.1000
G1 X0.1569 Y1.0932 Z-0.1000
G1 X0.1561 Y1.0967 Z-0.1000
G1 X0.1554 Y1.1001 Z-0.1000
G1 X0.1547 Y1.1035 Z-0.1000
G1 X0.1540 Y1.1070 Z-0.1000
G1 X0.1533 Y1.1104 Z-0.1000
G1 X0.1526 Y1.1138 Z-0.1000
G1 X0.1519 Y1.1173 Z-0.1000
G1 X0.1512 Y1.1207 Z-0.1000
G1 X0.1505 Y1.1242 Z-0.1000
G1 X0.1498 Y1.1276 Z-0.1000
G1 X0.1492 Y1.1311 Z-0.1000
G1 X0.1485 Y1.1345 Z-0.1000
G1 X0.1478 Y1.1379 Z-0.1000
G1 X0.1471 Y1.1414 Z-0.1000
G1 X0.1465 Y1.1448 Z-0.1000
G1 X0.1458 Y1.1483 Z-0.1000
G1 X0.1451 Y1.1517 Z-0.1000
G1 X0.1445 Y1.1552 Z-0.1000
G1 X0.1438 Y1.1586 Z-0.1000
G1 X0.1432 Y1.1620 Z-0.1000
G1 X0.1425 Y1.1655 Z-0.1000
G1 X0.1419 Y1.1689 Z-0.1000
G1 X0.1412 Y1.1724 Z-0.1000
G1 X0.1406 Y1.1758 Z-0.1000
G1 X0.1399 Y1.1793 Z-0.1000
G1 X0.1393 Y1.1827 Z-0.1000
G1 X0.1387 Y1.1862 Z-0.1000
G1 X0.1380 Y1.1896 Z-0.1000
G1 X0.1374 Y1.1931 Z-0.1000
G1 X0.1368 Y1.1965 Z-0.1000
G1 X0.1362 Y1.2000 Z-0.1000
G1 X0.1356 Y1.2034 Z-0.1000
G1 X0.1349 Y1.2069 Z-0.1000
G1 X0.1343 Y1.2104 Z-0.1000
G1 X0.1337 Y1.2138 Z-0.1000
G1 X0.1331 Y1.2173 Z-0.1000
G1 X0.1325 Y1.2207 Z-0.1000
G1 X0.1319 Y1.2242 Z-0.1000
G1 X0.1313 Y1.2276 Z-0.1000
G1 X0.1307 Y1.2311 Z-0.1000
G1 X0.1301 Y1.2345 Z-0.1000
G1 X0.1296 Y1.2380 Z-0.1000
G1 X0.1290 Y1.2415 Z-0.1000
G1 X0.1284 Y1.2449 Z-0.1000
G1 X0.1278 Y1.2484 Z-0.1000
G1 X0.1273 Y1.2519 Z-0.1000
G1 X0.1267 Y1.2553 Z-0.1000
G1 X0.1261 Y1.2588 Z-0.1000
G1 X0.1256 Y1.2622 Z-0.1000
G1 X0.1250 Y1.2657 Z-0.1000
G1 X0.1244 Y1.2692 Z-0.1000
G1 X0.1239 Y1.2726 Z-0.1000
G1 X0.1233 Y1.2761 Z-0.1000
G1 X0.1228 Y1.2796 Z-0.1000
G1 X0.1222 Y1.2830 Z-0.1000
G1 X0.1217 Y1.2865 Z-0.1000
G1 X0.1212 Y1.2899 Z-0.1000
G1 X0.1206 Y1.2934 Z-0.1000
G1 X0.1201 Y1.2969 Z-0.1000
G1 X0.1196 Y1.3004 Z-0.1000
G1 X0.1190 Y1.3038 Z-0.1000
G1 X0.1185 Y1.3073 Z-0.1000
G1 X0.1180 Y1.3108 Z-0.1000
G1 X0.1175 Y1.3142 Z-0.1000
G1 X0.1170 Y1.3177 Z-0.1000
G1 X0.1164 Y1.3212 Z-0.1000
G1 X0.1159 Y1.3246 Z-0.1000
G1 X0.1154 Y1.3281 Z-0.1000
G1 X0.1149 Y1.3316 Z-0.1000
G1 X0.1144 Y1.3351 Z-0.1000
G1 X0.1139 Y1.3385 Z-0.1000
G1 X0.1134 Y1.3420 Z-0.1000
G1 X0.1129 Y1.3455 Z-0.1000
G1 X0.1125 Y1.3489 Z-0.1000
G1 X0.1120 Y1.3524 Z-0.1000
G1 X0.1115 Y1.3559 Z-0.1000
G1 X0.1110 Y1.3594 Z-0.1000
G1 X0.1105 Y1.3628 Z-0.1000
G1 X0.1101 Y1.3663 Z-0.1000
G1 X0.1096 Y1.3698 Z-0.1000
G1 X0.1091 Y1.3733 Z-0.1000
G1 X0.1087 Y1.3767 Z-0.1000
G1 X0.1082 Y1.3802 Z-0.1000
G1 X0.1077 Y1.3837 Z-0.1000
G1 X0.1073 Y1.3872 Z-0.1000
G1 X0.1068 Y1.3907 Z-0.1000
G1 X0.1064 Y1.3941 Z-0.1000
G1 X0.1059 Y1.3976 Z-0.1000
G1 X0.1055 Y1.4011 Z-0.1000
G1 X0.1051 Y1.4046 Z-0.1000
G1 X0.1046 Y1.4081 Z-0.1000
G1 X0.1042 Y1.4115 Z-0.1000
G1 X0.1038 Y1.4150 Z-0.1000
G1 X0.1033 Y1.4185 Z-0.1000
G1 X0.1029 Y1.4220 Z-0.1000
G1 X0.1025 Y1.4255 Z-0.1000
G1 X0.1021 Y1.4290 Z-0.1000
G1 X0.1016 Y1.4324 Z-0.1000
G1 X0.1012 Y1.4359 Z-0.1000
G1 X0.1008 Y1.4394 Z-0.1000
G1 X0.1004 Y1.4429 Z-0.1000
G1 X0.1000 Y1.4464 Z-0.1000
G1 X0.0996 Y1.4498 Z-0.1000
G1 X0.0992 Y1.4533 Z-0.1000
G1 X0.0988 Y1.4568 Z-0.1000
G1 X0.0984 Y1.4603 Z-0.1000
G1 X0.0980 Y1.4638 Z-0.1000
G1 X0.0976 Y1.4673 Z-0.1000
G1 X0.0972 Y1.4708 Z-0.1000
G1 X0.0969 Y1.4742 Z-0.1000
G1 X0.0965 Y1.4777 Z-0.1000
G1 X0.0961 Y1.4812 Z-0.1000
G1 X0.0957 Y1.4847 Z-0.1000
G1 X0.0954 Y1.4882 Z-0.1000
G1 X0.0950 Y1.4917 Z-0.1000
G1 X0.0946 Y1.4952 Z-0.1000
G1 X0.0943 Y1.4987 Z-0.1000
G1 X0.0939 Y1.5022 Z-0.1000
G1 X0.0935 Y1.5056 Z-0.1000
G1 X0.0932 Y1.5091 Z-0.1000
G1 X0.0928 Y1.5126 Z-0.1000
G1 X0.0925 Y1.5161 Z-0.1000
G1 X0.0921 Y1.5196 Z-0.1000
G1 X0.0918 Y1.5231 Z-0.1000
G1 X0.0915 Y1.5266 Z-0.1000
G1 X0.0911 Y1.5301 Z-0.1000
G1 X0.0908 Y1.5336 Z-0.1000
G1 X0.0905 Y1.5371 Z-0.1000
G1 X0.0901 Y1.5406 Z-0.1000
G1 X0.0898 Y1.5441 Z-0.1000
G1 X0.0895 Y1.5475 Z-0.1000
G1 X0.0892 Y1.5510 Z-0.1000
G1 X0.0888 Y1.5545 Z-0.1000
G1 X0.0885 Y1.5580 Z-0.1000
G1 X0.0882 Y1.5615 Z-0.1000
G1 X0.0879 Y1.5650 Z-0.1000
G1 X0.0876 Y1.5685 Z-0.1000
G1 X0.0873 Y1.5720 Z-0.1000
G1 X0.0870 Y1.5755 Z-0.1000
G1 X0.0867 Y1.5790 Z-0.1000
G1 X0.0864 Y1.5825 Z-0.1000
G1 X0.0861 Y1.5860 Z-0.1000
G1 X0.0858 Y1.5895 Z-0.1000
G1 X0.0855 Y1.5930 Z-0.1000
G1 X0.0852 Y1.5965 Z-0.1000
G1 X0.0850 Y1.6000 Z-0.1000
G1 X0.0847 Y1.6035 Z-0.1000
G1 X0.0844 Y1.6070 Z-0.1000
G1 X0.0841 Y1.6105 Z-0.1000
G1 X0.0839 Y1.6140 Z-0.1000
G1 X0.0836 Y1.6175 Z-0.1000
G1 X0.0833 Y1.6210 Z-0.1000
G1 X0.0831 Y1.6245 Z-0.1000
G1 X0.0828 Y1.6279 Z-0.1000
G1 X0.0826 Y1.6314 Z-0.1000
G1 X0.0823 Y1.6349 Z-0.1000
G1 X0.0821 Y1.6384 Z-0.1000
G1 X0.0818 Y1.6419 Z-0.1000
G1 X0.0816 Y1.6454 Z-0.1000
G1 X0.0813 Y1.6490 Z-0.1000
G1 X0.0811 Y1.6524 Z-0.1000
G1 X0.0809 Y1.6559 Z-0.1000
G1 X0.0806 Y1.6594 Z-0.1000
G1 X0.0804 Y1.6629 Z-0.1000
G1 X0.0802 Y1.6664 Z-0.1000
G1 X0.0799 Y1.6699 Z-0.1000
G1 X0.0797 Y1.6734 Z-0.1000
G1 X0.0795 Y1.6769 Z-0.1000
G1 X0.0793 Y1.6805 Z-0.1000
G1 X0.0791 Y1.6840 Z-0.1000
G1 X0.0789 Y1.6875 Z-0.1000
G1 X0.0786 Y1.6910 Z-0.1000
G1 X0.0784 Y1.6945 Z-0.1000
G1 X0.0782 Y1.6980 Z-0.1000
G1 X0.0780 Y1.7015 Z-0.1000
G1 X0.0778 Y1.7050 Z-0.1000
G1 X0.0776 Y1.7085 Z-0.1000
G1 X0.0774 Y1.7120 Z-0.1000
G1 X0.0773 Y1.7155 Z-0.1000
G1 X0.0771 Y1.7190 Z-0.1000
G1 X0.0769 Y1.7225 Z-0.1000
G1 X0.0767 Y1.7260 Z-0.1000
G1 X0.0765 Y1.7295 Z-0.1000
G1 X0.0764 Y1.7330 Z-0.1000
G1 X0.0762 Y1.7365 Z-0.1000
G1 X0.0760 Y1.7400 Z-0.1000
G1 X0.0758 Y1.7435 Z-0.1000
G1 X0.0757 Y1.7470 Z-0.1000
G1 X0.0755 Y1.7505 Z-0.1000
G1 X0.0754 Y1.7540 Z-0.1000
G1 X0.0752 Y1.7575 Z-0.1000
G1 X0.0750 Y1.7610 Z-0.1000
G1 X0.0749 Y1.7645 Z-0.1000
G1 X0.0747 Y1.7680 Z-0.1000
G1 X0.0746 Y1.7715 Z-0.1000
G1 X0.0745 Y1.7750 Z-0.1000
G1 X0.0743 Y1.7785 Z-0.1000
G1 X0.0742 Y1.7820 Z-0.1000
G1 X0.0740 Y1.7856 Z-0.1000
G1 X0.0739 Y1.7891 Z-0.1000
G1 X0.0738 Y1.7926 Z-0.1000
G1 X0.0737 Y1.7961 Z-0.1000
G1 X0.0735 Y1.7996 Z-0.1000
G1 X0.0734 Y1.8031 Z-0.1000
G1 X0.0733 Y1.8066 Z-0.1000
G1 X0.0732 Y1.8101 Z-0.1000
G1 X0.0731 Y1.8136 Z-0.1000
G1 X0.0730 Y1.8171 Z-0.1000
G1 X0.0729 Y1.8206 Z-0.1000
G1 X0.0727 Y1.8241 Z-0.1000
G1 X0.0726 Y1.8276 Z-0.1000
G1 X0.0725 Y1.8311 Z-0.1000
G1 X0.0725 Y1.8346 Z-0.1000
G1 X0.0724 Y1.8381 Z-0.1000
G1 X0.0723 Y1.8417 Z-0.1000
G1 X0.0722 Y1.8452 Z-0.1000
G1 X0.0721 Y1.8487 Z-0.1000
G1 X0.0720 Y1.8522 Z-0.1000
G1 X0.0719 Y1.8557 Z-0.1000
G1 X0.0719 Y1.8592 Z-0.1000
G1 X0.0718 Y1.8627 Z-0.1000
G1 X0.0717 Y1.8662 Z-0.1000
G1 X0.0716 Y1.8697 Z-0.1000
G1 X0.0716 Y1.8732 Z-0.1000
G1 X0.0715 Y1.8767 Z-0.1000
G1 X0.0714 Y1.8802 Z-0.1000
G1 X0.0714 Y1.8837 Z-0.1000
G1 X0.0713 Y1.8872 Z-0.1000
G1 X0.0713 Y1.8907 Z-0.1000
G1 X0.0712 Y1.8943 Z-0.1000
G1 X0.0712 Y1.8978 Z-0.1000
G1 X0.0711 Y1.9013 Z-0.1000
G1 X0.0711 Y1.9048 Z-0.1000
G1 X0.0711 Y1.9083 Z-0.1000
G1 X0.0710 Y1.9118 Z-0.1000
G1 X0.0710 Y1.9153 Z-0.1000
G1 X0.0710 Y1.9188 Z-0.1000
G1 X0.0709 Y1.9223 Z-0.1000
G1 X0.0709 Y1.9258 Z-0.1000
G1 X0.0709 Y1.9293 Z-0.1000
G1 X0.0709 Y1.9328 Z-0.1000
G1 X0.0708 Y1.9363 Z-0.1000
G1 X0.0708 Y1.9399 Z-0.1000
G1 X0.0708 Y1.9434 Z-0.1000
G1 X0.0708 Y1.9469 Z-0.1000
G1 X0.0708 Y1.9504 Z-0.1000
G1 X0.0708 Y1.9539 Z-0.1000
G1 X0.0708 Y1.9574 Z-0.1000
G1 X0.0708 Y1.9609 Z-0.1000
G1 X0.0708 Y1.9644 Z-0.1000
G1 X0.0708 Y1.9679 Z-0.1000
G1 X0.0708 Y1.9714 Z-0.1000
G1 X0.0708 Y1.9749 Z-0.1000
G1 X0.0708 Y1.9784 Z-0.1000
G1 X0.0709 Y1.9819 Z-0.1000
G1 X0.0709 Y1.9855 Z-0.1000
G1 X0.0709 Y1.9890 Z-0.1000
G1 X0.0709 Y1.9925 Z-0.1000
G1 X0.0710 Y1.9960 Z-0.1000
G1 X0.0710 Y1.9995 Z-0.1000
G1 X0.0710 Y2.0030 Z-0.1000
G1 X0.0711 Y2.0065 Z-0.1000
G1 X0.0711 Y2.0100 Z-0.1000
G1 X0.0711 Y2.0135 Z-0.1000
G1 X0.0712 Y2.0170 Z-0.1000
G1 X0.0712 Y2.0205 Z-0.1000
G1 X0.0713 Y2.0240 Z-0.1000
G1 X0.0713 Y2.0275 Z-0.1000
G1 X0.0714 Y2.0311 Z-0.1000
G1 X0.0715 Y2.0346 Z-0.1000
G1 X0.0715 Y2.0381 Z-0.1000
G1 X0.0716 Y2.0416 Z-0.1000
G1 X0.0717 Y2.0451 Z-0.1000
G1 X0.0717 Y2.0486 Z-0.1000
G1 X0.0718 Y2.0521 Z-0.1000
G1 X0.0719 Y2.0556 Z-0.1000
G1 X0.0719 Y2.0591 Z-0.1000
G1 X0.0720 Y2.0626 Z-0.1000
G1 X0.0721 Y2.0661 Z-0.1000
G1 X0.0722 Y2.0696 Z-0.1000
G1 X0.0723 Y2.0731 Z-0.1000
G1 X0.0724 Y2.0766 Z-0.1000
G1 X0.0725 Y2.0802 Z-0.1000
G1 X0.0726 Y2.0837 Z-0.1000
G1 X0.0727 Y2.0872 Z-0.1000
G1 X0.0728 Y2.0907 Z-0.1000
G1 X0.0729 Y2.0942 Z-0.1000
G1 X0.0730 Y2.0977 Z-0.1000
G1 X0.0731 Y2.1012 Z-0.1000
G1 X0.0732 Y2.1047 Z-0.1000
G1 X0.0733 Y2.1082 Z-0.1000
G1 X0.0734 Y2.1117 Z-0.1000
G1 X0.0736 Y2.1152 Z-0.1000
G1 X0.0737 Y2.1187 Z-0.1000
G1 X0.0738 Y2.1222 Z-0.1000
G1 X0.0739 Y2.1257 Z-0.1000
G1 X0.0741 Y2.1292 Z-0.1000
G1 X0.0742 Y2.1327 Z-0.1000
G1 X0.0744 Y2.1362 Z-0.1000
G1 X0.0745 Y2.1398 Z-0.1000
G1 X0.0746 Y2.1433 Z-0.1000
G1 X0.0748 Y2.1468 Z-0.1000
G1 X0.0749 Y2.1503 Z-0.1000
G1 X0.0751 Y2.1538 Z-0.1000
G1 X0.0752 Y2.1573 Z-0.1000
G1 X0.0754 Y2.1608 Z-0.1000
G1 X0.0756 Y2.1643 Z-0.1000
G1 X0.0757 Y2.1678 Z-0.1000
G1 X0.0759 Y2.1713 Z-0.1000
G1 X0.0761 Y2.1748 Z-0.1000
G1 X0.0762 Y2.1783 Z-0.1000
G1 X0.0764 Y2.1818 Z-0.1000
G1 X0.0766 Y2.1853 Z-0.1000
G1 X0.0768 Y2.1888 Z-0.1000
G1 X0.0769 Y2.1923 Z-0.1000
G1 X0.0771 Y2.1958 Z-0.1000
G1 X0.0773 Y2.1993 Z-0.1000
G1 X0.0775 Y2.2028 Z-0.1000
G1 X0.0777 Y2.2063 Z-0.1000
G1 X0.0779 Y2.2098 Z-0.1000
G1 X0.0781 Y2.2133 Z-0.1000
G1 X0.0783 Y2.2168 Z-0.1000
G1 X0.0785 Y2.2203 Z-0.1000
G1 X0.0787 Y2.2238 Z-0.1000
G1 X0.0789 Y2.2273 Z-0.1000
G1 X0.0791 Y2.2308 Z-0.1000
G1 X0.0793 Y2.2343 Z-0.1000
G1 X0.0796 Y2.2378 Z-0.1000
G1 X0.0798 Y2.2413 Z-0.1000
G1 X0.0800 Y2.2448 Z-0.1000
G1 X0.0802 Y2.2483 Z-0.1000
G1 X0.0805 Y2.2518 Z-0.1000
G1 X0.0807 Y2.2553 Z-0.1000
G1 X0.0809 Y2.2588 Z-0.1000
G1 X0.0812 Y2.2623 Z-0.1000
G1 X0.0814 Y2.2658 Z-0.1000
G1 X0.0817 Y2.2693 Z-0.1000
G1 X0.0819 Y2.2728 Z-0.1000
G1 X0.0822 Y2.2763 Z-0.1000
G1 X0.0824 Y2.2798 Z-0.1000
G1 X0.0827 Y2.2833 Z-0.1000
G1 X0.0829 Y2.2868 Z-0.1000
G1 X0.0832 Y2.2903 Z-0.1000
G1 X0.0834 Y2.2938 Z-0.1000
G1 X0.0837 Y2.2973 Z-0.1000
G1 X0.0840 Y2.3008 Z-0.1000
G1 X0.0842 Y2.3043 Z-0.1000
G1 X0.0845 Y2.3078 Z-0.1000
G1 X0.0848 Y2.3113 Z-0.1000
G1 X0.0851 Y2.3148 Z-0.1000
G1 X0.0854 Y2.3183 Z-0.1000
G1 X0.0856 Y2.3218 Z-0.1000
G1 X0.0859 Y2.3253 Z-0.1000
G1 X0.0862 Y2.3288 Z-0.1000
G1 X0.0865 Y2.3323 Z-0.1000
G1 X0.0868 Y2.3358 Z-0.1000
G1 X0.0871 Y2.3393 Z-0.1000
G1 X0.0874 Y2.3428 Z-0.1000
G1 X0.0877 Y2.3463 Z-0.1000
G1 X0.0880 Y2.3498 Z-0.1000
G1 X0.0883 Y2.3533 Z-0.1000
G1 X0.0887 Y2.3568 Z-0.1000
G1 X0.0890 Y2.3602 Z-0.1000
G1 X0.0893 Y2.3637 Z-0.1000
G1 X0.0896 Y2.3672 Z-0.1000
G1 X0.0899 Y2.3707 Z-0.1000
G1 X0.0903 Y2.3742 Z-0.1000
G1 X0.0906 Y2.3777 Z-0.1000
G1 X0.0909 Y2.3812 Z-0.1000
G1 X0.0913 Y2.3847 Z-0.1000
G1 X0.0916 Y2.3882 Z-0.1000
G1 X0.0920 Y2.3917 Z-0.1000
G1 X0.0923 Y2.3952 Z-0.1000
G1 X0.0926 Y2.3987 Z-0.1000
G1 X0.0930 Y2.4021 Z-0.1000
G1 X0.0934 Y2.4056 Z-0.1000
G1 X0.0937 Y2.4091 Z-0.1000
G1 X0.0941 Y2.4126 Z-0.1000
G1 X0.0944 Y2.4161 Z-0.1000
G1 X0.0948 Y2.4196 Z-0.1000
G1 X0.0952 Y2.4231 Z-0.1000
G1 X0.0955 Y2.4266 Z-0.1000
G1 X0.0959 Y2.4301 Z-0.1000
G1 X0.0963 Y2.4335 Z-0.1000
G1 X0.0967 Y2.4370 Z-0.1000
G1 X0.0971 Y2.4405 Z-0.1000
G1 X0.0974 Y2.4440 Z-0.1000
G1 X0.0978 Y2.4475 Z-0.1000
G1 X0.0982 Y2.4510 Z-0.1000
G1 X0.0986 Y2.4545 Z-0.1000
G1 X0.0990 Y2.4579 Z-0.1000
G1 X0.0994 Y2.4614 Z-0.1000
G1 X0.0998 Y2.4649 Z-0.1000
G1 X0.1002 Y2.4684 Z-0.1000
G1 X0.1006 Y2.4719 Z-0.1000
G1 X0.1010 Y2.4754 Z-0.1000
G1 X0.1015 Y2.4789 Z-0.1000
G1 X0.1019 Y2.4823 Z-0.1000
G1 X0.1023 Y2.4858 Z-0.1000
G1 X0.1027 Y2.4893 Z-0.1000
G1 X0.1031 Y2.4928 Z-0.1000
G1 X0.1036 Y2.4963 Z-0.1000
G1 X0.1040 Y2.4997 Z-0.1000
G1 X0.1044 Y2.5032 Z-0.1000
G1 X0.1049 Y2.5067 Z-0.1000
G1 X0.1053 Y2.5102 Z-0.1000
G1 X0.1058 Y2.5137 Z-0.1000
G1 X0.1062 Y2.5171 Z-0.1000
G1 X0.1067 Y2.5206 Z-0.1000
G1 X0.1071 Y2.5241 Z-0.1000
G1 X0.1076 Y2.5276 Z-0.1000
G1 X0.1080 Y2.5311 Z-0.1000
G1 X0.1085 Y2.5345 Z-0.1000
G1 X0.1089 Y2.5380 Z-0.1000
G1 X0.1094 Y2.5415 Z-0.1000
G1 X0.1099 Y2.5450 Z-0.1000
G1 X0.1104 Y2.5484 Z-0.1000
G1 X0.1108 Y2.5519 Z-0.1000
G1 X0.1113 Y2.5554 Z-0.1000
G1 X0.1118 Y2.5589 Z-0.1000
G1 X0.1123 Y2.5623 Z-0.1000
G1 X0.1128 Y2.5658 Z-0.1000
G1 X0.1133 Y2.5693 Z-0.1000
G1 X0.1137 Y2.5728 Z-0.1000
G1 X0.1142 Y2.5762 Z-0.1000
G1 X0.1147 Y2.5797 Z-0.1000
G1 X0.1152 Y2.5832 Z-0.1000
G1 X0.1158 Y2.5866 Z-0.1000
G1 X0.1163 Y2.5901 Z-0.1000
G1 X0.1168 Y2.5936 Z-0.1000
G1 X0.1173 Y2.5971 Z-0.1000
G1 X0.1178 Y2.6005 Z-0.1000
G1 X0.1183 Y2.6040 Z-0.1000
G1 X0.1189 Y2.6075 Z-0.1000
G1 X0.1194 Y2.6109 Z-0.1000
G1 X0.1199 Y2.6144 Z-0.1000
G1 X0.1204 Y2.6179 Z-0.1000
G1 X0.1210 Y2.6213 Z-0.1000
G1 X0.1215 Y2.6248 Z-0.1000
G1 X0.1221 Y2.6283 Z-0.1000
G1 X0.1226 Y2.6317 Z-0.1000
G1 X0.1232 Y2.6352 Z-0.1000
G1 X0.1237 Y2.6387 Z-0.1000
G1 X0.1243 Y2.6421 Z-0.1000
G1 X0.1248 Y2.6456 Z-0.1000
G1 X0.1254 Y2.6491 Z-0.1000
G1 X0.1259 Y2.6525 Z-0.1000
G1 X0.1265 Y2.6560 Z-0.1000
G1 X0.1271 Y2.6594 Z-0.1000
G1 X0.1271 Y2.6594 Z-0.1000
G1 X0.1276 Y2.6629 Z-0.1000
G1 X0.1282 Y2.6664 Z-0.1000
G1 X0.1288 Y2.6698 Z-0.1000
G1 X0.1294 Y2.6733 Z-0.1000
G1 X0.1300 Y2.6767 Z-0.1000
G1 X0.1306 Y2.6802 Z-0.1000
G1 X0.1312 Y2.6837 Z-0.1000
G1 X0.1317 Y2.6871 Z-0.1000
G1 X0.1323 Y2.6906 Z-0.1000
G1 X0.1329 Y2.6940 Z-0.1000
G1 X0.1336 Y2.6975 Z-0.1000
G1 X0.1342 Y2.7010 Z-0.1000
G1 X0.1348 Y2.7044 Z-0.1000
G1 X0.1354 Y2.7079 Z-0.1000
G1 X0.1360 Y2.7113 Z-0.1000
G1 X0.1366 Y2.7148 Z-0.1000
G1 X0.1373 Y2.7182 Z-0.1000
G1 X0.1379 Y2.7217 Z-0.1000
G1 X0.1385 Y2.7251 Z-0.1000
G1 X0.1391 Y2.7286 Z-0.1000
G1 X0.1398 Y2.7320 Z-0.1000
G1 X0.1404 Y2.7355 Z-0.1000
G1 X0.1411 Y2.7389 Z-0.1000
G1 X0.1417 Y2.7424 Z-0.1000
G1 X0.1424 Y2.7458 Z-0.1000
G1 X0.1430 Y2.7493 Z-0.1000
G1 X0.1437 Y2.7527 Z-0.1000
G1 X0.1443 Y2.7562 Z-0.1000
G1 X0.1450 Y2.7596 Z-0.1000
G1 X0.1457 Y2.7631 Z-0.1000
G1 X0.1464 Y2.7665 Z-0.1000
G1 X0.1470 Y2.7700 Z-0.1000
G1 X0.1477 Y2.7734 Z-0.1000
G1 X0.1484 Y2.7768 Z-0.1000
G1 X0.1491 Y2.7803 Z-0.1000
G1 X0.1498 Y2.7837 Z-0.1000
G1 X0.1505 Y2.7872 Z-0.1000
G1 X0.1512 Y2.7906 Z-0.1000
G1 X0.1518 Y2.7941 Z-0.1000
G1 X0.1526 Y2.7975 Z-0.1000
G1 X0.1533 Y2.8009 Z-0.1000
G1 X0.1540 Y2.8044 Z-0.1000
G1 X0.1547 Y2.8078 Z-0.1000
G1 X0.1554 Y2.8112 Z-0.1000
G1 X0.1561 Y2.8147 Z-0.1000
G1 X0.1568 Y2.8181 Z-0.1000
G1 X0.1576 Y2.8215 Z-0.1000
G1 X0.1583 Y2.8250 Z-0.1000
G1 X0.1590 Y2.8284 Z-0.1000
G1 X0.1598 Y2.8318 Z-0.1000
G1 X0.1605 Y2.8353 Z-0.1000
G1 X0.1612 Y2.8387 Z-0.1000
G1 X0.1620 Y2.8421 Z-0.1000
G1 X0.1627 Y2.8456 Z-0.1000
G1 X0.1635 Y2.8490 Z-0.1000
G1 X0.1643 Y2.8524 Z-0.1000
G1 X0.1650 Y2.8558 Z-0.1000
G1 X0.1658 Y2.8593 Z-0.1000
G1 X0.1666 Y2.8627 Z-0.1000
G1 X0.1673 Y2.8661 Z-0.1000
G1 X0.1681 Y2.8695 Z-0.1000
G1 X0.1689 Y2.8730 Z-0.1000
G1 X0.1697 Y2.8764 Z-0.1000
G1 X0.1705 Y2.8798 Z-0.1000
G1 X0.1712 Y2.8832 Z-0.1000
G1 X0.1720 Y2.8866 Z-0.1000
G1 X0.1728 Y2.8901 Z-0.1000
G1 X0.1736 Y2.8935 Z-0.1000
G1 X0.1744 Y2.8969 Z-0.1000
G1 X0.1752 Y2.9003 Z-0.1000
G1 X0.1761 Y2.9037 Z-0.1000
G1 X0.1769 Y2.9071 Z-0.1000
G1 X0.1777 Y2.9105 Z-0.1000
G1 X0.1785 Y2.9140 Z-0.1000
G1 X0.1793 Y2.9174 Z-0.1000
G1 X0.1802 Y2.9208 Z-0.1000
G1 X0.1810 Y2.9242 Z-0.1000
G1 X0.1818 Y2.9276 Z-0.1000
G1 X0.1827 Y2.9310 Z-0.1000
G1 X0.1835 Y2.9344 Z-0.1000
G1 X0.1844 Y2.9378 Z-0.1000
G1 X0.1852 Y2.9412 Z-0.1000
G1 X0.1861 Y2.9446 Z-0.1000
G1 X0.1869 Y2.9480 Z-0.1000
G1 X0.1878 Y2.9514 Z-0.1000
G1 X0.1887 Y2.9548 Z-0.1000
G1 X0.1895 Y2.9582 Z-0.1000
G1 X0.1904 Y2.9616 Z-0.1000
G1 X0.1913 Y2.9650 Z-0.1000
G1 X0.1922 Y2.9684 Z-0.1000
G1 X0.1931 Y2.9718 Z-0.1000
G1 X0.1939 Y2.9752 Z-0.1000
G1 X0.1948 Y2.9786 Z-0.1000
G1 X0.1957 Y2.9820 Z-0.1000
G1 X0.1966 Y2.9854 Z-0.1000
G1 X0.1975 Y2.9888 Z-0.1000
G1 X0.1984 Y2.9922 Z-0.1000
G1 X0.1994 Y2.9956 Z-0.1000
G1 X0.2003 Y2.9990 Z-0.1000
G1 X0.2012 Y3.0023 Z-0.1000
G1 X0.2021 Y3.0057 Z-0.1000
G1 X0.2030 Y3.0091 Z-0.1000
G1 X0.2040 Y3.0125 Z-0.1000
G1 X0.2049 Y3.0159 Z-0.1000
G1 X0.2058 Y3.0193 Z-0.1000
G1 X0.2068 Y3.0227 Z-0.1000
G1 X0.2077 Y3.0260 Z-0.1000
G1 X0.2087 Y3.0294 Z-0.1000
G1 X0.2096 Y3.0328 Z-0.1000
G1 X0.2106 Y3.0362 Z-0.1000
G1 X0.2116 Y3.0395 Z-0.1000
G1 X0.2125 Y3.0429 Z-0.1000
G1 X0.2135 Y3.0463 Z-0.1000
G1 X0.2145 Y3.0497 Z-0.1000
G1 X0.2155 Y3.0530 Z-0.1000
G1 X0.2164 Y3.0564 Z-0.1000
G1 X0.2174 Y3.0598 Z-0.1000
G1 X0.2184 Y3.0631 Z-0.1000
G1 X0.2194 Y3.0665 Z-0.1000
G1 X0.2204 Y3.0699 Z-0.1000
G1 X0.2214 Y3.0732 Z-0.1000
G1 X0.2224 Y3.0766 Z-0.1000
G1 X0.2234 Y3.0800 Z-0.1000
G1 X0.2244 Y3.0833 Z-0.1000
G1 X0.2255 Y3.0867 Z-0.1000
G1 X0.2265 Y3.0900 Z-0.1000
G1 X0.2275 Y3.0934 Z-0.1000
G1 X0.2285 Y3.0967 Z-0.1000
G1 X0.2296 Y3.1001 Z-0.1000
G1 X0.2306 Y3.1035 Z-0.1000
G1 X0.2316 Y3.1068 Z-0.1000
G1 X0.2327 Y3.1101 Z-0.1000
G1 X0.2337 Y3.1135 Z-0.1000
G1 X0.2348 Y3.1169 Z-0.1000
G1 X0.2359 Y3.1202 Z-0.1000
G1 X0.2369 Y3.1235 Z-0.1000
G1 X0.2380 Y3.1269 Z-0.1000
G1 X0.2391 Y3.1302 Z-0.1000
G1 X0.2401 Y3.1336 Z-0.1000
G1 X0.2412 Y3.1369 Z-0.1000
G1 X0.2423 Y3.1402 Z-0.1000
G1 X0.2434 Y3.1436 Z-0.1000
G1 X0.2445 Y3.1469 Z-0.1000
G1 X0.2456 Y3.1503 Z-0.1000
G1 X0.2467 Y3.1536 Z-0.1000
G1 X0.2478 Y3.1569 Z-0.1000
G1 X0.2489 Y3.1602 Z-0.1000
G1 X0.2500 Y3.1636 Z-0.1000
G1 X0.2511 Y3.1669 Z-0.1000
G1 X0.2523 Y3.1702 Z-0.1000
G1 X0.2534 Y3.1735 Z-0.1000
G1 X0.2545 Y3.1769 Z-0.1000
G1 X0.2557 Y3.1802 Z-0.1000
G1 X0.2568 Y3.1835 Z-0.1000
G1 X0.2579 Y3.1868 Z-0.1000
G1 X0.2591 Y3.1901 Z-0.1000
G1 X0.2602 Y3.1935 Z-0.1000
G1 X0.2614 Y3.1968 Z-0.1000
G1 X0.2626 Y3.2001 Z-0.1000
G1 X0.2637 Y3.2034 Z-0.1000
G1 X0.2649 Y3.2067 Z-0.1000
G1 X0.2661 Y3.2100 Z-0.1000
G1 X0.2673 Y3.2133 Z-0.1000
G1 X0.2685 Y3.2166 Z-0.1000
G1 X0.2696 Y3.2199 Z-0.1000
G1 X0.2708 Y3.2232 Z-0.1000
G1 X0.2720 Y3.2265 Z-0.1000
G1 X0.2732 Y3.2298 Z-0.1000
G1 X0.2744 Y3.2331 Z-0.1000
G1 X0.2757 Y3.2364 Z-0.1000
G1 X0.2769 Y3.2397 Z-0.1000
G1 X0.2781 Y3.2430 Z-0.1000
G1 X0.2793 Y3.2463 Z-0.1000
G1 X0.2806 Y3.2496 Z-0.1000
G1 X0.2818 Y3.2528 Z-0.1000
G1 X0.2830 Y3.2561 Z-0.1000
G1 X0.2843 Y3.2594 Z-0.1000
G1 X0.2855 Y3.2627 Z-0.1000
G1 X0.2868 Y3.2660 Z-0.1000
G1 X0.2880 Y3.2692 Z-0.1000
G1 X0.2893 Y3.2725 Z-0.1000
G1 X0.2906 Y3.2758 Z-0.1000
G1 X0.2918 Y3.2791 Z-0.1000
G1 X0.2931 Y3.2823 Z-0.1000
G1 X0.2944 Y3.2856 Z-0.1000
G1 X0.2957 Y3.2889 Z-0.1000
G1 X0.2970 Y3.2921 Z-0.1000
G1 X0.2983 Y3.2954 Z-0.1000
G1 X0.2996 Y3.2987 Z-0.1000
G1 X0.3009 Y3.3019 Z-0.1000
G1 X0.3022 Y3.3052 Z-0.1000
G1 X0.3035 Y3.3084 Z-0.1000
G1 X0.3048 Y3.3117 Z-0.1000
G1 X0.3062 Y3.3149 Z-0.1000
G1 X0.3075 Y3.3182 Z-0.1000
G1 X0.3088 Y3.3214 Z-0.1000
G1 X0.3102 Y3.3247 Z-0.1000
G1 X0.3115 Y3.3279 Z-0.1000
G1 X0.3129 Y3.3311 Z-0.1000
G1 X0.3142 Y3.3344 Z-0.1000
G1 X0.3156 Y3.3376 Z-0.1000
G1 X0.3170 Y3.3408 Z-0.1000
G1 X0.3183 Y3.3441 Z-0.1000
G1 X0.3197 Y3.3473 Z-0.1000
G1 X0.3211 Y3.3505 Z-0.1000
G1 X0.3225 Y3.3537 Z-0.1000
G1 X0.3239 Y3.3570 Z-0.1000
G1 X0.3253 Y3.3602 Z-0.1000
G1 X0.3267 Y3.3634 Z-0.1000
G1 X0.3281 Y3.3666 Z-0.1000
G1 X0.3295 Y3.3698 Z-0.1000
G1 X0.3309 Y3.3730 Z-0.1000
G1 X0.3324 Y3.3762 Z-0.1000
G1 X0.3338 Y3.3794 Z-0.1000
G1 X0.3352 Y3.3827 Z-0.1000
G1 X0.3367 Y3.3859 Z-0.1000
G1 X0.3381 Y3.3891 Z-0.1000
G1 X0.3396 Y3.3922 Z-0.1000
G1 X0.3410 Y3.3954 Z-0.1000
G1 X0.3425 Y3.3986 Z-0.1000
G1 X0.3439 Y3.4018 Z-0.1000
G1 X0.3454 Y3.4050 Z-0.1000
G1 X0.3469 Y3.4082 Z-0.1000
G1 X0.3484 Y3.4114 Z-0.1000
G1 X0.3499 Y3.4146 Z-0.1000
G1 X0.3514 Y3.4177 Z-0.1000
G1 X0.3529 Y3.4209 Z-0.1000
G1 X0.3544 Y3.4241 Z-0.1000
G1 X0.3559 Y3.4272 Z-0.1000
G1 X0.3574 Y3.4304 Z-0.1000
G1 X0.3589 Y3.4336 Z-0.1000
G1 X0.3604 Y3.4367 Z-0.1000
G1 X0.3620 Y3.4399 Z-0.1000
G1 X0.3635 Y3.4430 Z-0.1000
G1 X0.3651 Y3.4462 Z-0.1000
G1 X0.3666 Y3.4493 Z-0.1000
G1 X0.3682 Y3.4525 Z-0.1000
G1 X0.3697 Y3.4556 Z-0.1000
G1 X0.3713 Y3.4588 Z-0.1000
G1 X0.3729 Y3.4619 Z-0.1000
G1 X0.3745 Y3.4650 Z-0.1000
G1 X0.3760 Y3.4682 Z-0.1000
G1 X0.3776 Y3.4713 Z-0.1000
G1 X0.3792 Y3.4744 Z-0.1000
G1 X0.3808 Y3.4775 Z-0.1000
G1 X0.3824 Y3.4807 Z-0.1000
G1 X0.3841 Y3.4838 Z-0.1000
G1 X0.3857 Y3.4869 Z-0.1000
G1 X0.3873 Y3.4900 Z-0.1000
G1 X0.3890 Y3.4931 Z-0.1000
G1 X0.3906 Y3.4962 Z-0.1000
G1 X0.3922 Y3.4993 Z-0.1000
G1 X0.3939 Y3.5024 Z-0.1000
G1 X0.3956 Y3.5055 Z-0.1000
G1 X0.3972 Y3.5086 Z-0.1000
G1 X0.3989 Y3.5117 Z-0.1000
G1 X0.4006 Y3.5148 Z-0.1000
G1 X0.4023 Y3.5178 Z-0.1000
G1 X0.4039 Y3.5209 Z-0.1000
G1 X0.4056 Y3.5240 Z-0.1000
G1 X0.4073 Y3.5271 Z-0.1000
G1 X0.4091 Y3.5301 Z-0.1000
G1 X0.4108 Y3.5332 Z-0.1000
G1 X0.4125 Y3.5362 Z-0.1000
G1 X0.4142 Y3.5393 Z-0.1000
G1 X0.4160 Y3.5423 Z-0.1000
G1 X0.4177 Y3.5454 Z-0.1000
G1 X0.4194 Y3.5484 Z-0.1000
G1 X0.4212 Y3.5515 Z-0.1000
G1 X0.4230 Y3.5545 Z-0.1000
G1 X0.4247 Y3.5575 Z-0.1000
G1 X0.4265 Y3.5606 Z-0.1000
G1 X0.4283 Y3.5636 Z-0.1000
G1 X0.4301 Y3.5666 Z-0.1000
G1 X0.4319 Y3.5696 Z-0.1000
G1 X0.4337 Y3.5726 Z-0.1000
G1 X0.4355 Y3.5756 Z-0.1000
G1 X0.4373 Y3.5786 Z-0.1000
G1 X0.4391 Y3.5816 Z-0.1000
G1 X0.4410 Y3.5846 Z-0.1000
G1 X0.4428 Y3.5876 Z-0.1000
G1 X0.4446 Y3.5906 Z-0.1000
G1 X0.4465 Y3.5936 Z-0.1000
G1 X0.4483 Y3.5966 Z-0.1000
G1 X0.4502 Y3.5996 Z-0.1000
G1 X0.4521 Y3.6025 Z-0.1000
G1 X0.4540 Y3.6055 Z-0.1000
G1 X0.4558 Y3.6084 Z-0.1000
G1 X0.4577 Y3.6114 Z-0.1000
G1 X0.4597 Y3.6144 Z-0.1000
G1 X0.4616 Y3.6173 Z-0.1000
G1 X0.4635 Y3.6202 Z-0.1000
G1 X0.4654 Y3.6232 Z-0.1000
G1 X0.4673 Y3.6261 Z-0.1000
G1 X0.4693 Y3.6290 Z-0.1000
G1 X0.4712 Y3.6319 Z-0.1000
G1 X0.4732 Y3.6349 Z-0.1000
G1 X0.4751 Y3.6378 Z-0.1000
G1 X0.4771 Y3.6407 Z-0.1000
G1 X0.4791 Y3.6436 Z-0.1000
G1 X0.4811 Y3.6465 Z-0.1000
G1 X0.4830 Y3.6494 Z-0.1000
G1 X0.4850 Y3.6523 Z-0.1000
G1 X0.4870 Y3.6551 Z-0.1000
G1 X0.4891 Y3.6580 Z-0.1000
G1 X0.4911 Y3.6609 Z-0.1000
G1 X0.4931 Y3.6637 Z-0.1000
G1 X0.4952 Y3.6666 Z-0.1000
G1 X0.4972 Y3.6695 Z-0.1000
G1 X0.4993 Y3.6723 Z-0.1000
G1 X0.5013 Y3.6751 Z-0.1000
G1 X0.5034 Y3.6780 Z-0.1000
G1 X0.5055 Y3.6808 Z-0.1000
G1 X0.5076 Y3.6836 Z-0.1000
G1 X0.5096 Y3.6864 Z-0.1000
G1 X0.5118 Y3.6892 Z-0.1000
G1 X0.5139 Y3.6921 Z-0.1000
G1 X0.5160 Y3.6949 Z-0.1000
G1 X0.5181 Y3.6976 Z-0.1000
G1 X0.5202 Y3.7004 Z-0.1000
G1 X0.5224 Y3.7032 Z-0.1000
G1 X0.5246 Y3.7060 Z-0.1000
G1 X0.5267 Y3.7087 Z-0.1000
G1 X0.5289 Y3.7115 Z-0.1000
G1 X0.5311 Y3.7143 Z-0.1000
G1 X0.5333 Y3.7170 Z-0.1000
G1 X0.5354 Y3.7197 Z-0.1000
G1 X0.5377 Y3.7225 Z-0.1000
G1 X0.5399 Y3.7252 Z-0.1000
G1 X0.5421 Y3.7279 Z-0.1000
G1 X0.5443 Y3.7306 Z-0.1000
G1 X0.5466 Y3.7333 Z-0.1000
G1 X0.5488 Y3.7360 Z-0.1000
G1 X0.5511 Y3.7387 Z-0.1000
G1 X0.5533 Y3.7414 Z-0.1000
G1 X0.5556 Y3.7440 Z-0.1000
G1 X0.5579 Y3.7467 Z-0.1000
G1 X0.5602 Y3.7494 Z-0.1000
G1 X0.5625 Y3.7520 Z-0.1000
G1 X0.5648 Y3.7546 Z-0.1000
G1 X0.5671 Y3.7573 Z-0.1000
G1 X0.5695 Y3.7599 Z-0.1000
G1 X0.5718 Y3.7625 Z-0.1000
G1 X0.5742 Y3.7651 Z-0.1000
G1 X0.5765 Y3.7677 Z-0.1000
G1 X0.5789 Y3.7703 Z-0.1000
G1 X0.5813 Y3.7729 Z-0.1000
G1 X0.5837 Y3.7755 Z-0.1000
G1 X0.5861 Y3.7780 Z-0.1000
G1 X0.5885 Y3.7806 Z-0.1000
G1 X0.5909 Y3.7831 Z-0.1000
G1 X0.5933 Y3.7856 Z-0.1000
G1 X0.5958 Y3.7882 Z-0.1000
G1 X0.5982 Y3.7907 Z-0.1000
G1 X0.6007 Y3.7932 Z-0.1000
G1 X0.6031 Y3.7957 Z-0.1000
G1 X0.6056 Y3.7982 Z-0.1000
G1 X0.6081 Y3.8007 Z-0.1000
G1 X0.6106 Y3.8031 Z-0.1000
G1 X0.6131 Y3.8056 Z-0.1000
G1 X0.6156 Y3.8080 Z-0.1000
G1 X0.6182 Y3.8104 Z-0.1000
G1 X0.6207 Y3.8129 Z-0.1000
G1 X0.6233 Y3.8153 Z-0.1000
G1 X0.6258 Y3.8177 Z-0.1000
G1 X0.6284 Y3.8201 Z-0.1000
G1 X0.6310 Y3.8225 Z-0.1000
G1 X0.6336 Y3.8248 Z-0.1000
G1 X0.6362 Y3.8272 Z-0.1000
G1 X0.6388 Y3.8295 Z-0.1000
G1 X0.6414 Y3.8319 Z-0.1000
G1 X0.6440 Y3.8342 Z-0.1000
G1 X0.6467 Y3.8365 Z-0.1000
G1 X0.6493 Y3.8388 Z-0.1000
G1 X0.6520 Y3.8411 Z-0.1000
G1 X0.6547 Y3.8433 Z-0.1000
G1 X0.6574 Y3.8456 Z-0.1000
G1 X0.6601 Y3.8478 Z-0.1000
G1 X0.6628 Y3.8501 Z-0.1000
G1 X0.6655 Y3.8523 Z-0.1000
G1 X0.6682 Y3.8545 Z-0.1000
G1 X0.6710 Y3.8567 Z-0.1000
G1 X0.6737 Y3.8588 Z-0.1000
G1 X0.6765 Y3.8610 Z-0.1000
G1 X0.6793 Y3.8632 Z-0.1000
G1 X0.6820 Y3.8653 Z-0.1000
G1 X0.6849 Y3.8674 Z-0.1000
G1 X0.6877 Y3.8695 Z-0.1000
G1 X0.6905 Y3.8716 Z-0.1000
G1 X0.6933 Y3.8737 Z-0.1000
G1 X0.6962 Y3.8757 Z-0.1000
G1 X0.6990 Y3.8778 Z-0.1000
G1 X0.7019 Y3.8798 Z-0.1000
G1 X0.7048 Y3.8818 Z-0.1000
G1 X0.7076 Y3.8838 Z-0.1000
G1 X0.7105 Y3.8858 Z-0.1000
G1 X0.7135 Y3.8878 Z-0.1000
G1 X0.7164 Y3.8897 Z-0.1000
G1 X0.7193 Y3.8916 Z-0.1000
G1 X0.7223 Y3.8935 Z-0.1000
G1 X0.7252 Y3.8954 Z-0.1000
G1 X0.7282 Y3.8973 Z-0.1000
G1 X0.7312 Y3.8992 Z-0.1000
G1 X0.7341 Y3.9010 Z-0.1000
G1 X0.7371 Y3.9028 Z-0.1000
G1 X0.7402 Y3.9046 Z-0.1000
G1 X0.7432 Y3.9064 Z-0.1000
G1 X0.7462 Y3.9082 Z-0.1000
G1 X0.7493 Y3.9099 Z-0.1000
G1 X0.7523 Y3.9116 Z-0.1000
G1 X0.7554 Y3.9134 Z-0.1000
G1 X0.7585 Y3.9150 Z-0.1000
G1 X0.7615 Y3.9167 Z-0.1000
G1 X0.7646 Y3.9184 Z-0.1000
G1 X0.7678 Y3.9200 Z-0.1000
G1 X0.7709 Y3.9216 Z-0.1000
G1 X0.7740 Y3.9232 Z-0.1000
G1 X0.7772 Y3.9247 Z-0.1000
G1 X0.7803 Y3.9263 Z-0.1000
G1 X0.7835 Y3.9278 Z-0.1000
G1 X0.7867 Y3.9293 Z-0.1000
G1 X0.7898 Y3.9307 Z-0.1000
G1 X0.7930 Y3.9322 Z-0.1000
G1 X0.7962 Y3.9336 Z-0.1000
G1 X0.7995 Y3.9350 Z-0.1000
G1 X0.8027 Y3.9364 Z-0.1000
G1 X0.8059 Y3.9378 Z-0.1000
G1 X0.8092 Y3.9391 Z-0.1000
G1 X0.8124 Y3.9404 Z-0.1000
G1 X0.8157 Y3.9417 Z-0.1000
G1 X0.8190 Y3.9429 Z-0.1000
G1 X0.8190 Y3.9429 Z-0.1000
G1 X0.8222 Y3.9442 Z-0.1000
G1 X0.8254 Y3.9454 Z-0.1000
G1 X0.8287 Y3.9466 Z-0.1000
G1 X0.8319 Y3.9478 Z-0.1000
G1 X0.8351 Y3.9490 Z-0.1000
G1 X0.8384 Y3.9502 Z-0.1000
G1 X0.8416 Y3.9513 Z-0.1000
G1 X0.8449 Y3.9524 Z-0.1000
G1 X0.8482 Y3.9534 Z-0.1000
G1 X0.8515 Y3.9543 Z-0.1000
G1 X0.8549 Y3.9550 Z-0.1000
G1 X0.8584 Y3.9553 Z-0.1000
G1 X0.8616 Y3.9544 Z-0.1000
G1 X0.8635 Y3.9515 Z-0.1000
G1 X0.8640 Y3.9481 Z-0.1000
G1 X0.8641 Y3.9447 Z-0.1000
G1 X0.8641 Y3.9447 Z-0.1000
G1 X0.8633 Y3.9413 Z-0.1000
G1 X0.8617 Y3.9383 Z-0.1000
G1 X0.8595 Y3.9355 Z-0.1000
G1 X0.8571 Y3.9330 Z-0.1000
G1 X0.8545 Y3.9307 Z-0.1000
G1 X0.8518 Y3.9285 Z-0.1000
G1 X0.8490 Y3.9264 Z-0.1000
G1 X0.8462 Y3.9244 Z-0.1000
G1 X0.8433 Y3.9225 Z-0.1000
G1 X0.8403 Y3.9206 Z-0.1000
G1 X0.8374 Y3.9188 Z-0.1000
G1 X0.8344 Y3.9170 Z-0.1000
G1 X0.8314 Y3.9152 Z-0.1000
G1 X0.8284 Y3.9135 Z-0.1000
G1 X0.8253 Y3.9118 Z-0.1000
G1 X0.8223 Y3.9101 Z-0.1000
G1 X0.8192 Y3.9085 Z-0.1000
G1 X0.8161 Y3.9068 Z-0.1000
G1 X0.8130 Y3.9052 Z-0.1000
G1 X0.8099 Y3.9036 Z-0.1000
G1 X0.8068 Y3.9021 Z-0.1000
G1 X0.8037 Y3.9005 Z-0.1000
G1 X0.8006 Y3.8990 Z-0.1000
G1 X0.7975 Y3.8974 Z-0.1000
G1 X0.7943 Y3.8959 Z-0.1000
G1 X0.7912 Y3.8944 Z-0.1000
G1 X0.7880 Y3.8929 Z-0.1000
G1 X0.7848 Y3.8913 Z-0.1000
G1 X0.7816 Y3.8898 Z-0.1000
G1 X0.7785 Y3.8882 Z-0.1000
G1 X0.7753 Y3.8866 Z-0.1000
G1 X0.7722 Y3.8850 Z-0.1000
G1 X0.7690 Y3.8833 Z-0.1000
G1 X0.7659 Y3.8817 Z-0.1000
G1 X0.7628 Y3.8800 Z-0.1000
G1 X0.7597 Y3.8783 Z-0.1000
G1 X0.7566 Y3.8766 Z-0.1000
G1 X0.7535 Y3.8748 Z-0.1000
G1 X0.7505 Y3.8731 Z-0.1000
G1 X0.7474 Y3.8713 Z-0.1000
G1 X0.7444 Y3.8694 Z-0.1000
G1 X0.7414 Y3.8676 Z-0.1000
G1 X0.7384 Y3.8657 Z-0.1000
G1 X0.7355 Y3.8637 Z-0.1000
G1 X0.7325 Y3.8618 Z-0.1000
G1 X0.7296 Y3.8598 Z-0.1000
G1 X0.7267 Y3.8578 Z-0.1000
G1 X0.7238 Y3.8557 Z-0.1000
G1 X0.7210 Y3.8536 Z-0.1000
G1 X0.7181 Y3.8515 Z-0.1000
G1 X0.7153 Y3.8494 Z-0.1000
G1 X0.7125 Y3.8472 Z-0.1000
G1 X0.7097 Y3.8451 Z-0.1000
G1 X0.7070 Y3.8428 Z-0.1000
G1 X0.7042 Y3.8406 Z-0.1000
G1 X0.7015 Y3.8384 Z-0.1000
G1 X0.6988 Y3.8361 Z-0.1000
G1 X0.6961 Y3.8338 Z-0.1000
G1 X0.6934 Y3.8315 Z-0.1000
G1 X0.6907 Y3.8292 Z-0.1000
G1 X0.6881 Y3.8269 Z-0.1000
G1 X0.6854 Y3.8245 Z-0.1000
G1 X0.6828 Y3.8221 Z-0.1000
G1 X0.6802 Y3.8198 Z-0.1000
G1 X0.6776 Y3.8174 Z-0.1000
G1 X0.6750 Y3.8150 Z-0.1000
G1 X0.6724 Y3.8126 Z-0.1000
G1 X0.6698 Y3.8102 Z-0.1000
G1 X0.6672 Y3.8077 Z-0.1000
G1 X0.6647 Y3.8053 Z-0.1000
G1 X0.6621 Y3.8029 Z-0.1000
G1 X0.6595 Y3.8004 Z-0.1000
G1 X0.6570 Y3.7980 Z-0.1000
G1 X0.6544 Y3.7955 Z-0.1000
G1 X0.6519 Y3.7931 Z-0.1000
G1 X0.6494 Y3.7906 Z-0.1000
G1 X0.6468 Y3.7881 Z-0.1000
G1 X0.6443 Y3.7857 Z-0.1000
G1 X0.6418 Y3.7832 Z-0.1000
G1 X0.6393 Y3.7807 Z-0.1000
G1 X0.6368 Y3.7782 Z-0.1000
G1 X0.6343 Y3.7757 Z-0.1000
G1 X0.6317 Y3.7732 Z-0.1000
G1 X0.6292 Y3.7707 Z-0.1000
G1 X0.6292 Y3.7707 Z-0.1000
G1 X0.6267 Y3.7682 Z-0.1000
G1 X0.6243 Y3.7658 Z-0.1000
G1 X0.6218 Y3.7633 Z-0.1000
G1 X0.6193 Y3.7608 Z-0.1000
G1 X0.6169 Y3.7583 Z-0.1000
G1 X0.6144 Y3.7558 Z-0.1000
G1 X0.6119 Y3.7532 Z-0.1000
G1 X0.6095 Y3.7507 Z-0.1000
G1 X0.6071 Y3.7482 Z-0.1000
G1 X0.6046 Y3.7457 Z-0.1000
G1 X0.6022 Y3.7431 Z-0.1000
G1 X0.5998 Y3.7406 Z-0.1000
G1 X0.5974 Y3.7380 Z-0.1000
G1 X0.5949 Y3.7355 Z-0.1000
G1 X0.5925 Y3.7329 Z-0.1000
G1 X0.5902 Y3.7303 Z-0.1000
G1 X0.5878 Y3.7278 Z-0.1000
G1 X0.5854 Y3.7252 Z-0.1000
G1 X0.5830 Y3.7226 Z-0.1000
G1 X0.5807 Y3.7200 Z-0.1000
G1 X0.5783 Y3.7174 Z-0.1000
G1 X0.5760 Y3.7148 Z-0.1000
G1 X0.5736 Y3.7122 Z-0.1000
G1 X0.5713 Y3.7095 Z-0.1000
G1 X0.5690 Y3.7069 Z-0.1000
G1 X0.5666 Y3.7042 Z-0.1000
G1 X0.5643 Y3.7016 Z-0.1000
G1 X0.5621 Y3.6989 Z-0.1000
G1 X0.5598 Y3.6963 Z-0.1000
G1 X0.5575 Y3.6936 Z-0.1000
G1 X0.5552 Y3.6909 Z-0.1000
G1 X0.5530 Y3.6882 Z-0.1000
G1 X0.5507 Y3.6855 Z-0.1000
G1 X0.5485 Y3.6828 Z-0.1000
G1 X0.5463 Y3.6801 Z-0.1000
G1 X0.5440 Y3.6774 Z-0.1000
G1 X0.5418 Y3.6746 Z-0.1000
G1 X0.5396 Y3.6719 Z-0.1000
G1 X0.5374 Y3.6691 Z-0.1000
G1 X0.5353 Y3.6664 Z-0.1000
G1 X0.5331 Y3.6636 Z-0.1000
G1 X0.5309 Y3.6609 Z-0.1000
G1 X0.5288 Y3.6581 Z-0.1000
G1 X0.5267 Y3.6553 Z-0.1000
G1 X0.5245 Y3.6525 Z-0.1000
G1 X0.5224 Y3.6497 Z-0.1000
G1 X0.5203 Y3.6469 Z-0.1000
G1 X0.5182 Y3.6440 Z-0.1000
G1 X0.5162 Y3.6412 Z-0.1000
G1 X0.5141 Y3.6384 Z-0.1000
G1 X0.5120 Y3.6355 Z-0.1000
G1 X0.5100 Y3.6327 Z-0.1000
G1 X0.5080 Y3.6298 Z-0.1000
G1 X0.5059 Y3.6269 Z-0.1000
G1 X0.5039 Y3.6241 Z-0.1000
G1 X0.5019 Y3.6212 Z-0.1000
G1 X0.4999 Y3.6183 Z-0.1000
G1 X0.4979 Y3.6154 Z-0.1000
G1 X0.4960 Y3.6125 Z-0.1000
G1 X0.4940 Y3.6096 Z-0.1000
G1 X0.4921 Y3.6066 Z-0.1000
G1 X0.4901 Y3.6037 Z-0.1000
G1 X0.4882 Y3.6008 Z-0.1000
G1 X0.4863 Y3.5978 Z-0.1000
G1 X0.4844 Y3.5949 Z-0.1000
G1 X0.4825 Y3.5919 Z-0.1000
G1 X0.4806 Y3.5890 Z-0.1000
G1 X0.4787 Y3.5860 Z-0.1000
G1 X0.4768 Y3.5830 Z-0.1000
G1 X0.4750 Y3.5801 Z-0.1000
G1 X0.4731 Y3.5771 Z-0.1000
G1 X0.4713 Y3.5741 Z-0.1000
G1 X0.4694 Y3.5711 Z-0.1000
G1 X0.4676 Y3.5681 Z-0.1000
G1 X0.4658 Y3.5651 Z-0.1000
G1 X0.4640 Y3.5621 Z-0.1000
G1 X0.4622 Y3.5590 Z-0.1000
G1 X0.4604 Y3.5560 Z-0.1000
G1 X0.4586 Y3.5530 Z-0.1000
G1 X0.4568 Y3.5500 Z-0.1000
G1 X0.4551 Y3.5469 Z-0.1000
G1 X0.4533 Y3.5439 Z-0.1000
G1 X0.4516 Y3.5408 Z-0.1000
G1 X0.4498 Y3.5378 Z-0.1000
G1 X0.4481 Y3.5347 Z-0.1000
G1 X0.4464 Y3.5317 Z-0.1000
G1 X0.4447 Y3.5286 Z-0.1000
G1 X0.4430 Y3.5255 Z-0.1000
G1 X0.4413 Y3.5225 Z-0.1000
G1 X0.4396 Y3.5194 Z-0.1000
G1 X0.4379 Y3.5163 Z-0.1000
G1 X0.4362 Y3.5132 Z-0.1000
G1 X0.4345 Y3.5101 Z-0.1000
G1 X0.4328 Y3.5071 Z-0.1000
G1 X0.4312 Y3.5040 Z-0.1000
G1 X0.4295 Y3.5009 Z-0.1000
G1 X0.4279 Y3.4978 Z-0.1000
G1 X0.4262 Y3.4947 Z-0.1000
G1 X0.4246 Y3.4916 Z-0.1000
G1 X0.4229 Y3.4884 Z-0.1000
G1 X0.4213 Y3.4853 Z-0.1000
G1 X0.4197 Y3.4822 Z-0.1000
G1 X0.4181 Y3.4791 Z-0.1000
G1 X0.4165 Y3.4760 Z-0.1000
G1 X0.4149 Y3.4729 Z-0.1000
G1 X0.4133 Y3.4697 Z-0.1000
G1 X0.4117 Y3.4666 Z-0.1000
G1 X0.4101 Y3.4635 Z-0.1000
G1 X0.4085 Y3.4603 Z-0.1000
G1 X0.4069 Y3.4572 Z-0.1000
G1 X0.4053 Y3.4541 Z-0.1000
G1 X0.4037 Y3.4509 Z-0.1000
G1 X0.4022 Y3.4478 Z-0.1000
G1 X0.4006 Y3.4446 Z-0.1000
G1 X0.3990 Y3.4415 Z-0.1000
G1 X0.3975 Y3.4384 Z-0.1000
G1 X0.3959 Y3.4352 Z-0.1000
G1 X0.3944 Y3.4321 Z-0.1000
G1 X0.3928 Y3.4289 Z-0.1000
G1 X0.3913 Y3.4258 Z-0.1000
G1 X0.3913 Y3.4258 Z-0.1000
G1 X0.3897 Y3.4226 Z-0.1000
G1 X0.3882 Y3.4195 Z-0.1000
G1 X0.3867 Y3.4163 Z-0.1000
G1 X0.3851 Y3.4132 Z-0.1000
G1 X0.3836 Y3.4100 Z-0.1000
G1 X0.3821 Y3.4068 Z-0.1000
G1 X0.3806 Y3.4037 Z-0.1000
G1 X0.3791 Y3.4005 Z-0.1000
G1 X0.3776 Y3.3973 Z-0.1000
G1 X0.3762 Y3.3942 Z-0.1000
G1 X0.3747 Y3.3910 Z-0.1000
G1 X0.3732 Y3.3878 Z-0.1000
G1 X0.3717 Y3.3846 Z-0.1000
G1 X0.3703 Y3.3814 Z-0.1000
G1 X0.3688 Y3.3783 Z-0.1000
G1 X0.3674 Y3.3751 Z-0.1000
G1 X0.3659 Y3.3719 Z-0.1000
G1 X0.3645 Y3.3687 Z-0.1000
G1 X0.3631 Y3.3655 Z-0.1000
G1 X0.3616 Y3.3623 Z-0.1000
G1 X0.3602 Y3.3591 Z-0.1000
G1 X0.3588 Y3.3559 Z-0.1000
G1 X0.3574 Y3.3527 Z-0.1000
G1 X0.3560 Y3.3495 Z-0.1000
G1 X0.3546 Y3.3463 Z-0.1000
G1 X0.3532 Y3.3430 Z-0.1000
G1 X0.3518 Y3.3398 Z-0.1000
G1 X0.3505 Y3.3366 Z-0.1000
G1 X0.3491 Y3.3334 Z-0.1000
G1 X0.3477 Y3.3302 Z-0.1000
G1 X0.3463 Y3.3269 Z-0.1000
G1 X0.3450 Y3.3237 Z-0.1000
G1 X0.3436 Y3.3205 Z-0.1000
G1 X0.3423 Y3.3172 Z-0.1000
G1 X0.3409 Y3.3140 Z-0.1000
G1 X0.3396 Y3.3108 Z-0.1000
G1 X0.3383 Y3.3075 Z-0.1000
G1 X0.3369 Y3.3043 Z-0.1000
G1 X0.3356 Y3.3010 Z-0.1000
G1 X0.3343 Y3.2978 Z-0.1000
G1 X0.3330 Y3.2946 Z-0.1000
G1 X0.3317 Y3.2913 Z-0.1000
G1 X0.3304 Y3.2881 Z-0.1000
G1 X0.3291 Y3.2848 Z-0.1000
G1 X0.3278 Y3.2815 Z-0.1000
G1 X0.3265 Y3.2783 Z-0.1000
G1 X0.3252 Y3.2750 Z-0.1000
G1 X0.3240 Y3.2718 Z-0.1000
G1 X0.3227 Y3.2685 Z-0.1000
G1 X0.3214 Y3.2652 Z-0.1000
G1 X0.3202 Y3.2620 Z-0.1000
G1 X0.3189 Y3.2587 Z-0.1000
G1 X0.3177 Y3.2554 Z-0.1000
G1 X0.3164 Y3.2522 Z-0.1000
G1 X0.3152 Y3.2489 Z-0.1000
G1 X0.3139 Y3.2456 Z-0.1000
G1 X0.3127 Y3.2423 Z-0.1000
G1 X0.3115 Y3.2390 Z-0.1000
G1 X0.3103 Y3.2358 Z-0.1000
G1 X0.3090 Y3.2325 Z-0.1000
G1 X0.3078 Y3.2292 Z-0.1000
G1 X0.3066 Y3.2259 Z-0.1000
G1 X0.3054 Y3.2226 Z-0.1000
G1 X0.3042 Y3.2193 Z-0.1000
G1 X0.3030 Y3.2160 Z-0.1000
G1 X0.3019 Y3.2127 Z-0.1000
G1 X0.3007 Y3.2094 Z-0.1000
G1 X0.2995 Y3.2061 Z-0.1000
G1 X0.2983 Y3.2028 Z-0.1000
G1 X0.2972 Y3.1995 Z-0.1000
G1 X0.2960 Y3.1962 Z-0.1000
G1 X0.2948 Y3.1929 Z-0.1000
G1 X0.2937 Y3.1896 Z-0.1000
G1 X0.2925 Y3.1863 Z-0.1000
G1 X0.2914 Y3.1830 Z-0.1000
G1 X0.2902 Y3.1797 Z-0.1000
G1 X0.2891 Y3.1764 Z-0.1000
G1 X0.2880 Y3.1731 Z-0.1000
G1 X0.2868 Y3.1698 Z-0.1000
G1 X0.2857 Y3.1664 Z-0.1000
G1 X0.2846 Y3.1631 Z-0.1000
G1 X0.2835 Y3.1598 Z-0.1000
G1 X0.2824 Y3.1565 Z-0.1000
G1 X0.2813 Y3.1532 Z-0.1000
G1 X0.2802 Y3.1498 Z-0.1000
G1 X0.2791 Y3.1465 Z-0.1000
G1 X0.2780 Y3.1432 Z-0.1000
G1 X0.2769 Y3.1399 Z-0.1000
G1 X0.2758 Y3.1365 Z-0.1000
G1 X0.2747 Y3.1332 Z-0.1000
G1 X0.2737 Y3.1299 Z-0.1000
G1 X0.2726 Y3.1265 Z-0.1000
G1 X0.2715 Y3.1232 Z-0.1000
G1 X0.2705 Y3.1199 Z-0.1000
G1 X0.2694 Y3.1165 Z-0.1000
G1 X0.2684 Y3.1132 Z-0.1000
G1 X0.2673 Y3.1098 Z-0.1000
G1 X0.2663 Y3.1065 Z-0.1000
G1 X0.2652 Y3.1031 Z-0.1000
G1 X0.2642 Y3.0998 Z-0.1000
G1 X0.2632 Y3.0965 Z-0.1000
G1 X0.2621 Y3.0931 Z-0.1000
G1 X0.2611 Y3.0898 Z-0.1000
G1 X0.2601 Y3.0864 Z-0.1000
G1 X0.2591 Y3.0831 Z-0.1000
G1 X0.2581 Y3.0797 Z-0.1000
G1 X0.2570 Y3.0763 Z-0.1000
G1 X0.2560 Y3.0730 Z-0.1000
G1 X0.2550 Y3.0696 Z-0.1000
G1 X0.2541 Y3.0663 Z-0.1000
G1 X0.2531 Y3.0629 Z-0.1000
G1 X0.2521 Y3.0596 Z-0.1000
G1 X0.2511 Y3.0562 Z-0.1000
G1 X0.2501 Y3.0528 Z-0.1000
G1 X0.2491 Y3.0495 Z-0.1000
G1 X0.2482 Y3.0461 Z-0.1000
G1 X0.2472 Y3.0427 Z-0.1000
G1 X0.2462 Y3.0394 Z-0.1000
G1 X0.2453 Y3.0360 Z-0.1000
G1 X0.2443 Y3.0326 Z-0.1000
G1 X0.2434 Y3.0293 Z-0.1000
G1 X0.2424 Y3.0259 Z-0.1000
G1 X0.2415 Y3.0225 Z-0.1000
G1 X0.2405 Y3.0192 Z-0.1000
G1 X0.2396 Y3.0158 Z-0.1000
G1 X0.2387 Y3.0124 Z-0.1000
G1 X0.2378 Y3.0090 Z-0.1000
G1 X0.2368 Y3.0056 Z-0.1000
G1 X0.2359 Y3.0023 Z-0.1000
G1 X0.2350 Y2.9989 Z-0.1000
G1 X0.2341 Y2.9955 Z-0.1000
G1 X0.2332 Y2.9921 Z-0.1000
G1 X0.2323 Y2.9887 Z-0.1000
G1 X0.2314 Y2.9854 Z-0.1000
G1 X0.2305 Y2.9820 Z-0.1000
G1 X0.2296 Y2.9786 Z-0.1000
G1 X0.2287 Y2.9752 Z-0.1000
G1 X0.2278 Y2.9718 Z-0.1000
G1 X0.2269 Y2.9684 Z-0.1000
G1 X0.2260 Y2.9650 Z-0.1000
G1 X0.2252 Y2.9616 Z-0.1000
G1 X0.2243 Y2.9583 Z-0.1000
G1 X0.2234 Y2.9549 Z-0.1000
G1 X0.2226 Y2.9515 Z-0.1000
G1 X0.2217 Y2.9481 Z-0.1000
G1 X0.2208 Y2.9447 Z-0.1000
G1 X0.2200 Y2.9413 Z-0.1000
G1 X0.2191 Y2.9379 Z-0.1000
G1 X0.2183 Y2.9345 Z-0.1000
G1 X0.2175 Y2.9311 Z-0.1000
G1 X0.2166 Y2.9277 Z-0.1000
G1 X0.2158 Y2.9243 Z-0.1000
G1 X0.2149 Y2.9209 Z-0.1000
G1 X0.2141 Y2.9175 Z-0.1000
G1 X0.2133 Y2.9141 Z-0.1000
G1 X0.2125 Y2.9107 Z-0.1000
G1 X0.2117 Y2.9073 Z-0.1000
G1 X0.2108 Y2.9039 Z-0.1000
G1 X0.2100 Y2.9005 Z-0.1000
G1 X0.2092 Y2.8970 Z-0.1000
G1 X0.2084 Y2.8936 Z-0.1000
G1 X0.2076 Y2.8902 Z-0.1000
G1 X0.2068 Y2.8868 Z-0.1000
G1 X0.2060 Y2.8834 Z-0.1000
G1 X0.2052 Y2.8800 Z-0.1000
G1 X0.2045 Y2.8766 Z-0.1000
G1 X0.2037 Y2.8732 Z-0.1000
G1 X0.2029 Y2.8698 Z-0.1000
G1 X0.2021 Y2.8663 Z-0.1000
G1 X0.2013 Y2.8629 Z-0.1000
G1 X0.2006 Y2.8595 Z-0.1000
G1 X0.1998 Y2.8561 Z-0.1000
G1 X0.1991 Y2.8527 Z-0.1000
G1 X0.1983 Y2.8493 Z-0.1000
G1 X0.1975 Y2.8458 Z-0.1000
G1 X0.1968 Y2.8424 Z-0.1000
G1 X0.1960 Y2.8390 Z-0.1000
G1 X0.1953 Y2.8356 Z-0.1000
G1 X0.1945 Y2.8322 Z-0.1000
G1 X0.1938 Y2.8287 Z-0.1000
G1 X0.1931 Y2.8253 Z-0.1000
G1 X0.1923 Y2.8219 Z-0.1000
G1 X0.1916 Y2.8185 Z-0.1000
G1 X0.1909 Y2.8150 Z-0.1000
G1 X0.1902 Y2.8116 Z-0.1000
G1 X0.1894 Y2.8082 Z-0.1000
G1 X0.1887 Y2.8047 Z-0.1000
G1 X0.1880 Y2.8013 Z-0.1000
G1 X0.1873 Y2.7979 Z-0.1000
G1 X0.1866 Y2.7945 Z-0.1000
G1 X0.1859 Y2.7910 Z-0.1000
G1 X0.1852 Y2.7876 Z-0.1000
G1 X0.1845 Y2.7842 Z-0.1000
G1 X0.1838 Y2.7807 Z-0.1000
G1 X0.1831 Y2.7773 Z-0.1000
G1 X0.1824 Y2.7739 Z-0.1000
G1 X0.1817 Y2.7704 Z-0.1000
G1 X0.1811 Y2.7670 Z-0.1000
G1 X0.1804 Y2.7636 Z-0.1000
G1 X0.1797 Y2.7601 Z-0.1000
G1 X0.1790 Y2.7567 Z-0.1000
G1 X0.1784 Y2.7532 Z-0.1000
G1 X0.1777 Y2.7498 Z-0.1000
G1 X0.1770 Y2.7464 Z-0.1000
G1 X0.1764 Y2.7429 Z-0.1000
G1 X0.1757 Y2.7395 Z-0.1000
G1 X0.1751 Y2.7361 Z-0.1000
G1 X0.1744 Y2.7326 Z-0.1000
G1 X0.1738 Y2.7292 Z-0.1000
G1 X0.1731 Y2.7257 Z-0.1000
G1 X0.1725 Y2.7223 Z-0.1000
G1 X0.1719 Y2.7188 Z-0.1000
G1 X0.1712 Y2.7154 Z-0.1000
G1 X0.1706 Y2.7120 Z-0.1000
G1 X0.1700 Y2.7085 Z-0.1000
G1 X0.1693 Y2.7051 Z-0.1000
G1 X0.1687 Y2.7016 Z-0.1000
G1 X0.1681 Y2.6982 Z-0.1000
G1 X0.1675 Y2.6947 Z-0.1000
G1 X0.1669 Y2.6913 Z-0.1000
G1 X0.1663 Y2.6878 Z-0.1000
G1 X0.1656 Y2.6844 Z-0.1000
G1 X0.1650 Y2.6809 Z-0.1000
G1 X0.1644 Y2.6775 Z-0.1000
G1 X0.1638 Y2.6740 Z-0.1000
G1 X0.1632 Y2.6706 Z-0.1000
G1 X0.1627 Y2.6671 Z-0.1000
G1 X0.1621 Y2.6637 Z-0.1000
G1 X0.1615 Y2.6602 Z-0.1000
G1 X0.1609 Y2.6568 Z-0.1000
G1 X0.1603 Y2.6533 Z-0.1000
G1 X0.1597 Y2.6499 Z-0.1000
G1 X0.1592 Y2.6464 Z-0.1000
G1 X0.1586 Y2.6430 Z-0.1000
G1 X0.1580 Y2.6395 Z-0.1000
G1 X0.1575 Y2.6360 Z-0.1000
G1 X0.1569 Y2.6326 Z-0.1000
G1 X0.1563 Y2.6291 Z-0.1000
G1 X0.1558 Y2.6257 Z-0.1000
G1 X0.1552 Y2.6222 Z-0.1000
G1 X0.1547 Y2.6188 Z-0.1000
G1 X0.1541 Y2.6153 Z-0.1000
G1 X0.1536 Y2.6118 Z-0.1000
G1 X0.1530 Y2.6084 Z-0.1000
G1 X0.1525 Y2.6049 Z-0.1000
G1 X0.1519 Y2.6015 Z-0.1000
G1 X0.1514 Y2.5980 Z-0.1000
G1 X0.1509 Y2.5945 Z-0.1000
G1 X0.1503 Y2.5911 Z-0.1000
G1 X0.1498 Y2.5876 Z-0.1000
G1 X0.1493 Y2.5842 Z-0.1000
G1 X0.1488 Y2.5807 Z-0.1000
G1 X0.1483 Y2.5772 Z-0.1000
G1 X0.1477 Y2.5738 Z-0.1000
G1 X0.1472 Y2.5703 Z-0.1000
G1 X0.1467 Y2.5668 Z-0.1000
G1 X0.1462 Y2.5634 Z-0.1000
G1 X0.1457 Y2.5599 Z-0.1000
G1 X0.1452 Y2.5564 Z-0.1000
G1 X0.1447 Y2.5530 Z-0.1000
G1 X0.1442 Y2.5495 Z-0.1000
G1 X0.1437 Y2.5460 Z-0.1000
G1 X0.1432 Y2.5426 Z-0.1000
G1 X0.1427 Y2.5391 Z-0.1000
G1 X0.1422 Y2.5356 Z-0.1000
G1 X0.1418 Y2.5322 Z-0.1000
G1 X0.1413 Y2.5287 Z-0.1000
G1 X0.1408 Y2.5252 Z-0.1000
G1 X0.1403 Y2.5218 Z-0.1000
G1 X0.1399 Y2.5183 Z-0.1000
G1 X0.1394 Y2.5148 Z-0.1000
G1 X0.1389 Y2.5113 Z-0.1000
G1 X0.1385 Y2.5079 Z-0.1000
G1 X0.1380 Y2.5044 Z-0.1000
G1 X0.1375 Y2.5009 Z-0.1000
G1 X0.1371 Y2.4975 Z-0.1000
G1 X0.1366 Y2.4940 Z-0.1000
G1 X0.1362 Y2.4905 Z-0.1000
G1 X0.1357 Y2.4870 Z-0.1000
G1 X0.1353 Y2.4836 Z-0.1000
G1 X0.1348 Y2.4801 Z-0.1000
G1 X0.1344 Y2.4766 Z-0.1000
G1 X0.1340 Y2.4731 Z-0.1000
G1 X0.1335 Y2.4697 Z-0.1000
G1 X0.1331 Y2.4662 Z-0.1000
G1 X0.1327 Y2.4627 Z-0.1000
G1 X0.1322 Y2.4592 Z-0.1000
G1 X0.1318 Y2.4558 Z-0.1000
G1 X0.1314 Y2.4523 Z-0.1000
G1 X0.1310 Y2.4488 Z-0.1000
G1 X0.1306 Y2.4453 Z-0.1000
G1 X0.1301 Y2.4419 Z-0.1000
G1 X0.1297 Y2.4384 Z-0.1000
G1 X0.1293 Y2.4349 Z-0.1000
G1 X0.1289 Y2.4314 Z-0.1000
G1 X0.1285 Y2.4280 Z-0.1000
G1 X0.1281 Y2.4245 Z-0.1000
G1 X0.1277 Y2.4210 Z-0.1000
G1 X0.1273 Y2.4175 Z-0.1000
G1 X0.1269 Y2.4140 Z-0.1000
G1 X0.1265 Y2.4106 Z-0.1000
G1 X0.1261 Y2.4071 Z-0.1000
G1 X0.1258 Y2.4036 Z-0.1000
G1 X0.1254 Y2.4001 Z-0.1000
G1 X0.1250 Y2.3966 Z-0.1000
G1 X0.1250 Y2.3966 Z-0.1000
G1 X0.1246 Y2.3932 Z-0.1000
G1 X0.1243 Y2.3897 Z-0.1000
G1 X0.1239 Y2.3862 Z-0.1000
G1 X0.1236 Y2.3827 Z-0.1000
G1 X0.1232 Y2.3792 Z-0.1000
G1 X0.1229 Y2.3757 Z-0.1000
G1 X0.1226 Y2.3722 Z-0.1000
G1 X0.1223 Y2.3687 Z-0.1000
G1 X0.1220 Y2.3652 Z-0.1000
G1 X0.1217 Y2.3617 Z-0.1000
G1 X0.1214 Y2.3582 Z-0.1000
G1 X0.1211 Y2.3547 Z-0.1000
G1 X0.1209 Y2.3512 Z-0.1000
G1 X0.1206 Y2.3477 Z-0.1000
G1 X0.1203 Y2.3442 Z-0.1000
G1 X0.1201 Y2.3407 Z-0.1000
G1 X0.1198 Y2.3372 Z-0.1000
G1 X0.1196 Y2.3337 Z-0.1000
G1 X0.1193 Y2.3302 Z-0.1000
G1 X0.1191 Y2.3267 Z-0.1000
G1 X0.1189 Y2.3232 Z-0.1000
G1 X0.1187 Y2.3197 Z-0.1000
G1 X0.1184 Y2.3162 Z-0.1000
G1 X0.1182 Y2.3127 Z-0.1000
G1 X0.1180 Y2.3092 Z-0.1000
G1 X0.1178 Y2.3057 Z-0.1000
G1 X0.1176 Y2.3022 Z-0.1000
G1 X0.1174 Y2.2987 Z-0.1000
G1 X0.1172 Y2.2952 Z-0.1000
G1 X0.1170 Y2.2917 Z-0.1000
G1 X0.1168 Y2.2882 Z-0.1000
G1 X0.1166 Y2.2847 Z-0.1000
G1 X0.1165 Y2.2812 Z-0.1000
G1 X0.1163 Y2.2777 Z-0.1000
G1 X0.1161 Y2.2742 Z-0.1000
G1 X0.1159 Y2.2707 Z-0.1000
G1 X0.1158 Y2.2672 Z-0.1000
G1 X0.1156 Y2.2637 Z-0.1000
G1 X0.1154 Y2.2602 Z-0.1000
G1 X0.1153 Y2.2567 Z-0.1000
G1 X0.1151 Y2.2532 Z-0.1000
G1 X0.1149 Y2.2497 Z-0.1000
G1 X0.1148 Y2.2462 Z-0.1000
G1 X0.1146 Y2.2427 Z-0.1000
G1 X0.1145 Y2.2392 Z-0.1000
G1 X0.1143 Y2.2357 Z-0.1000
G1 X0.1142 Y2.2322 Z-0.1000
G1 X0.1141 Y2.2287 Z-0.1000
G1 X0.1139 Y2.2252 Z-0.1000
G1 X0.1138 Y2.2217 Z-0.1000
G1 X0.1136 Y2.2182 Z-0.1000
G1 X0.1135 Y2.2146 Z-0.1000
G1 X0.1134 Y2.2111 Z-0.1000
G1 X0.1133 Y2.2076 Z-0.1000
G1 X0.1131 Y2.2041 Z-0.1000
G1 X0.1130 Y2.2006 Z-0.1000
G1 X0.1129 Y2.1971 Z-0.1000
G1 X0.1128 Y2.1936 Z-0.1000
G1 X0.1126 Y2.1901 Z-0.1000
G1 X0.1125 Y2.1866 Z-0.1000
G1 X0.1124 Y2.1831 Z-0.1000
G1 X0.1123 Y2.1796 Z-0.1000
G1 X0.1122 Y2.1761 Z-0.1000
G1 X0.1121 Y2.1726 Z-0.1000
G1 X0.1120 Y2.1691 Z-0.1000
G1 X0.1119 Y2.1656 Z-0.1000
G1 X0.1118 Y2.1621 Z-0.1000
G1 X0.1117 Y2.1586 Z-0.1000
G1 X0.1116 Y2.1550 Z-0.1000
G1 X0.1115 Y2.1515 Z-0.1000
G1 X0.1114 Y2.1480 Z-0.1000
G1 X0.1113 Y2.1445 Z-0.1000
G1 X0.1112 Y2.1410 Z-0.1000
G1 X0.1111 Y2.1375 Z-0.1000
G1 X0.1110 Y2.1340 Z-0.1000
G1 X0.1109 Y2.1305 Z-0.1000
G1 X0.1108 Y2.1270 Z-0.1000
G1 X0.1108 Y2.1235 Z-0.1000
G1 X0.1107 Y2.1200 Z-0.1000
G1 X0.1106 Y2.1165 Z-0.1000
G1 X0.1105 Y2.1130 Z-0.1000
G1 X0.1104 Y2.1095 Z-0.1000
G1 X0.1104 Y2.1060 Z-0.1000
G1 X0.1103 Y2.1025 Z-0.1000
G1 X0.1102 Y2.0989 Z-0.1000
G1 X0.1101 Y2.0954 Z-0.1000
G1 X0.1101 Y2.0919 Z-0.1000
G1 X0.1100 Y2.0884 Z-0.1000
G1 X0.1099 Y2.0849 Z-0.1000
G1 X0.1099 Y2.0814 Z-0.1000
G1 X0.1098 Y2.0779 Z-0.1000
G1 X0.1097 Y2.0744 Z-0.1000
G1 X0.1097 Y2.0709 Z-0.1000
G1 X0.1096 Y2.0674 Z-0.1000
G1 X0.1096 Y2.0639 Z-0.1000
G1 X0.1095 Y2.0604 Z-0.1000
G1 X0.1095 Y2.0569 Z-0.1000
G1 X0.1094 Y2.0534 Z-0.1000
G1 X0.1093 Y2.0498 Z-0.1000
G1 X0.1093 Y2.0463 Z-0.1000
G1 X0.1092 Y2.0428 Z-0.1000
G1 X0.1092 Y2.0393 Z-0.1000
G1 X0.1091 Y2.0358 Z-0.1000
G1 X0.1091 Y2.0323 Z-0.1000
G1 X0.1091 Y2.0288 Z-0.1000
G1 X0.1090 Y2.0253 Z-0.1000
G1 X0.1090 Y2.0218 Z-0.1000
G1 X0.1089 Y2.0183 Z-0.1000
G1 X0.1089 Y2.0148 Z-0.1000
G1 X0.1089 Y2.0113 Z-0.1000
G1 X0.1088 Y2.0078 Z-0.1000
G1 X0.1088 Y2.0043 Z-0.1000
G1 X0.1088 Y2.0007 Z-0.1000
G1 X0.1087 Y1.9972 Z-0.1000
G1 X0.1087 Y1.9937 Z-0.1000
G1 X0.1087 Y1.9902 Z-0.1000
G1 X0.1086 Y1.9867 Z-0.1000
G1 X0.1086 Y1.9832 Z-0.1000
G1 X0.1086 Y1.9797 Z-0.1000
G1 X0.1086 Y1.9762 Z-0.1000
G1 X0.1085 Y1.9727 Z-0.1000
G1 X0.1085 Y1.9692 Z-0.1000
G1 X0.1085 Y1.9657 Z-0.1000
G1 X0.1085 Y1.9622 Z-0.1000
G1 X0.1085 Y1.9587 Z-0.1000
G1 X0.1085 Y1.9551 Z-0.1000
G1 X0.1084 Y1.9516 Z-0.1000
G1 X0.1084 Y1.9481 Z-0.1000
G1 X0.1084 Y1.9446 Z-0.1000
G1 X0.1084 Y1.9411 Z-0.1000
G1 X0.1084 Y1.9376 Z-0.1000
G1 X0.1084 Y1.9341 Z-0.1000
G1 X0.1084 Y1.9306 Z-0.1000
G1 X0.1084 Y1.9271 Z-0.1000
G1 X0.1084 Y1.9236 Z-0.1000
G1 X0.1084 Y1.9201 Z-0.1000
G1 X0.1084 Y1.9166 Z-0.1000
G1 X0.1084 Y1.9131 Z-0.1000
G1 X0.1084 Y1.9095 Z-0.1000
G1 X0.1084 Y1.9060 Z-0.1000
G1 X0.1084 Y1.9025 Z-0.1000
G1 X0.1084 Y1.8990 Z-0.1000
G1 X0.1084 Y1.8955 Z-0.1000
G1 X0.1084 Y1.8920 Z-0.1000
G1 X0.1084 Y1.8885 Z-0.1000
G1 X0.1084 Y1.8850 Z-0.1000
G1 X0.1085 Y1.8815 Z-0.1000
G1 X0.1085 Y1.8780 Z-0.1000
G1 X0.1085 Y1.8745 Z-0.1000
G1 X0.1085 Y1.8710 Z-0.1000
G1 X0.1085 Y1.8675 Z-0.1000
G1 X0.1086 Y1.8639 Z-0.1000
G1 X0.1086 Y1.8604 Z-0.1000
G1 X0.1086 Y1.8569 Z-0.1000
G1 X0.1086 Y1.8534 Z-0.1000
G1 X0.1087 Y1.8499 Z-0.1000
G1 X0.1087 Y1.8464 Z-0.1000
G1 X0.1087 Y1.8429 Z-0.1000
G1 X0.1087 Y1.8394 Z-0.1000
G1 X0.1088 Y1.8359 Z-0.1000
G1 X0.1088 Y1.8324 Z-0.1000
G1 X0.1089 Y1.8289 Z-0.1000
G1 X0.1089 Y1.8254 Z-0.1000
G1 X0.1089 Y1.8219 Z-0.1000
G1 X0.1090 Y1.8184 Z-0.1000
G1 X0.1090 Y1.8148 Z-0.1000
G1 X0.1091 Y1.8113 Z-0.1000
G1 X0.1091 Y1.8078 Z-0.1000
G1 X0.1092 Y1.8043 Z-0.1000
G1 X0.1092 Y1.8008 Z-0.1000
G1 X0.1093 Y1.7973 Z-0.1000
G1 X0.1093 Y1.7938 Z-0.1000
G1 X0.1094 Y1.7903 Z-0.1000
G1 X0.1094 Y1.7868 Z-0.1000
G1 X0.1095 Y1.7833 Z-0.1000
G1 X0.1096 Y1.7798 Z-0.1000
G1 X0.1096 Y1.7763 Z-0.1000
G1 X0.1097 Y1.7728 Z-0.1000
G1 X0.1097 Y1.7693 Z-0.1000
G1 X0.1098 Y1.7657 Z-0.1000
G1 X0.1099 Y1.7622 Z-0.1000
G1 X0.1100 Y1.7587 Z-0.1000
G1 X0.1100 Y1.7552 Z-0.1000
G1 X0.1101 Y1.7517 Z-0.1000
G1 X0.1102 Y1.7482 Z-0.1000
G1 X0.1103 Y1.7447 Z-0.1000
G1 X0.1104 Y1.7412 Z-0.1000
G1 X0.1104 Y1.7377 Z-0.1000
G1 X0.1105 Y1.7342 Z-0.1000
G1 X0.1106 Y1.7307 Z-0.1000
G1 X0.1107 Y1.7272 Z-0.1000
G1 X0.1108 Y1.7237 Z-0.1000
G1 X0.1109 Y1.7202 Z-0.1000
G1 X0.1110 Y1.7167 Z-0.1000
G1 X0.1111 Y1.7131 Z-0.1000
G1 X0.1112 Y1.7096 Z-0.1000
G1 X0.1113 Y1.7061 Z-0.1000
G1 X0.1114 Y1.7026 Z-0.1000
G1 X0.1115 Y1.6991 Z-0.1000
G1 X0.1116 Y1.6956 Z-0.1000
G1 X0.1118 Y1.6921 Z-0.1000
G1 X0.1119 Y1.6886 Z-0.1000
G1 X0.1120 Y1.6851 Z-0.1000
G1 X0.1121 Y1.6816 Z-0.1000
G1 X0.1122 Y1.6781 Z-0.1000
G1 X0.1124 Y1.6746 Z-0.1000
G1 X0.1125 Y1.6711 Z-0.1000
G1 X0.1126 Y1.6676 Z-0.1000
G1 X0.1128 Y1.6641 Z-0.1000
G1 X0.1129 Y1.6606 Z-0.1000
G1 X0.1131 Y1.6571 Z-0.1000
G1 X0.1132 Y1.6536 Z-0.1000
G1 X0.1134 Y1.6501 Z-0.1000
G1 X0.1135 Y1.6466 Z-0.1000
G1 X0.1137 Y1.6430 Z-0.1000
G1 X0.1139 Y1.6395 Z-0.1000
G1 X0.1140 Y1.6360 Z-0.1000
G1 X0.1142 Y1.6325 Z-0.1000
G1 X0.1144 Y1.6290 Z-0.1000
G1 X0.1146 Y1.6255 Z-0.1000
G1 X0.1148 Y1.6220 Z-0.1000
G1 X0.1150 Y1.6185 Z-0.1000
G1 X0.1151 Y1.6150 Z-0.1000
G1 X0.1154 Y1.6115 Z-0.1000
G1 X0.1156 Y1.6080 Z-0.1000
G1 X0.1158 Y1.6045 Z-0.1000
G1 X0.1160 Y1.6010 Z-0.1000
G1 X0.1162 Y1.5975 Z-0.1000
G1 X0.1164 Y1.5940 Z-0.1000
G1 X0.1167 Y1.5905 Z-0.1000
G1 X0.1169 Y1.5870 Z-0.1000
G1 X0.1172 Y1.5835 Z-0.1000
G1 X0.1174 Y1.5800 Z-0.1000
G1 X0.1177 Y1.5765 Z-0.1000
G1 X0.1180 Y1.5730 Z-0.1000
G1 X0.1183 Y1.5695 Z-0.1000
G1 X0.1186 Y1.5660 Z-0.1000
G1 X0.1189 Y1.5625 Z-0.1000
G1 X0.1192 Y1.5591 Z-0.1000
G1 X0.1195 Y1.5556 Z-0.1000
G1 X0.1199 Y1.5521 Z-0.1000
G1 X0.1202 Y1.5486 Z-0.1000
G1 X0.1202 Y1.5486 Z-0.1000
G1 X0.1206 Y1.5451 Z-0.1000
G1 X0.1209 Y1.5416 Z-0.1000
G1 X0.1213 Y1.5381 Z-0.1000
G1 X0.1217 Y1.5346 Z-0.1000
G1 X0.1221 Y1.5312 Z-0.1000
G1 X0.1224 Y1.5277 Z-0.1000
G1 X0.1228 Y1.5242 Z-0.1000
G1 X0.1232 Y1.5207 Z-0.1000
G1 X0.1236 Y1.5172 Z-0.1000
G1 X0.1240 Y1.5138 Z-0.1000
G1 X0.1243 Y1.5103 Z-0.1000
G1 X0.1247 Y1.5068 Z-0.1000
G1 X0.1251 Y1.5033 Z-0.1000
G1 X0.1255 Y1.4998 Z-0.1000
G1 X0.1259 Y1.4963 Z-0.1000
G1 X0.1263 Y1.4929 Z-0.1000
G1 X0.1267 Y1.4894 Z-0.1000
G1 X0.1271 Y1.4859 Z-0.1000
G1 X0.1275 Y1.4824 Z-0.1000
G1 X0.1280 Y1.4790 Z-0.1000
G1 X0.1284 Y1.4755 Z-0.1000
G1 X0.1288 Y1.4720 Z-0.1000
G1 X0.1292 Y1.4685 Z-0.1000
G1 X0.1296 Y1.4650 Z-0.1000
G1 X0.1300 Y1.4616 Z-0.1000
G1 X0.1305 Y1.4581 Z-0.1000
G1 X0.1309 Y1.4546 Z-0.1000
G1 X0.1313 Y1.4511 Z-0.1000
G1 X0.1318 Y1.4477 Z-0.1000
G1 X0.1322 Y1.4442 Z-0.1000
G1 X0.1327 Y1.4407 Z-0.1000
G1 X0.1331 Y1.4372 Z-0.1000
G1 X0.1335 Y1.4338 Z-0.1000
G1 X0.1340 Y1.4303 Z-0.1000
G1 X0.1344 Y1.4268 Z-0.1000
G1 X0.1349 Y1.4233 Z-0.1000
G1 X0.1354 Y1.4199 Z-0.1000
G1 X0.1358 Y1.4164 Z-0.1000
G1 X0.1363 Y1.4129 Z-0.1000
G1 X0.1367 Y1.4094 Z-0.1000
G1 X0.1372 Y1.4060 Z-0.1000
G1 X0.1377 Y1.4025 Z-0.1000
G1 X0.1381 Y1.3990 Z-0.1000
G1 X0.1386 Y1.3956 Z-0.1000
G1 X0.1391 Y1.3921 Z-0.1000
G1 X0.1396 Y1.3886 Z-0.1000
G1 X0.1401 Y1.3851 Z-0.1000
G1 X0.1406 Y1.3817 Z-0.1000
G1 X0.1410 Y1.3782 Z-0.1000
G1 X0.1415 Y1.3747 Z-0.1000
G1 X0.1420 Y1.3713 Z-0.1000
G1 X0.1425 Y1.3678 Z-0.1000
G1 X0.1430 Y1.3643 Z-0.1000
G1 X0.1435 Y1.3609 Z-0.1000
G1 X0.1440 Y1.3574 Z-0.1000
G1 X0.1445 Y1.3539 Z-0.1000
G1 X0.1450 Y1.3505 Z-0.1000
G1 X0.1456 Y1.3470 Z-0.1000
G1 X0.1461 Y1.3435 Z-0.1000
G1 X0.1466 Y1.3401 Z-0.1000
G1 X0.1471 Y1.3366 Z-0.1000
G1 X0.1476 Y1.3331 Z-0.1000
G1 X0.1482 Y1.3297 Z-0.1000
G1 X0.1487 Y1.3262 Z-0.1000
G1 X0.1492 Y1.3228 Z-0.1000
G1 X0.1498 Y1.3193 Z-0.1000
G1 X0.1503 Y1.3158 Z-0.1000
G1 X0.1509 Y1.3124 Z-0.1000
G1 X0.1514 Y1.3089 Z-0.1000
G1 X0.1519 Y1.3055 Z-0.1000
G1 X0.1525 Y1.3020 Z-0.1000
G1 X0.1530 Y1.2985 Z-0.1000
G1 X0.1536 Y1.2951 Z-0.1000
G1 X0.1542 Y1.2916 Z-0.1000
G1 X0.1547 Y1.2882 Z-0.1000
G1 X0.1553 Y1.2847 Z-0.1000
G1 X0.1558 Y1.2812 Z-0.1000
G1 X0.1564 Y1.2778 Z-0.1000
G1 X0.1570 Y1.2743 Z-0.1000
G1 X0.1576 Y1.2709 Z-0.1000
G1 X0.1581 Y1.2674 Z-0.1000
G1 X0.1587 Y1.2640 Z-0.1000
G1 X0.1593 Y1.2605 Z-0.1000
G1 X0.1599 Y1.2571 Z-0.1000
G1 X0.1605 Y1.2536 Z-0.1000
G1 X0.1611 Y1.2502 Z-0.1000
G1 X0.1617 Y1.2467 Z-0.1000
G1 X0.1623 Y1.2432 Z-0.1000
G1 X0.1629 Y1.2398 Z-0.1000
G1 X0.1635 Y1.2364 Z-0.1000
G1 X0.1641 Y1.2329 Z-0.1000
G1 X0.1647 Y1.2294 Z-0.1000
G1 X0.1653 Y1.2260 Z-0.1000
G1 X0.1659 Y1.2225 Z-0.1000
G1 X0.1665 Y1.2191 Z-0.1000
G1 X0.1672 Y1.2157 Z-0.1000
G1 X0.1678 Y1.2122 Z-0.1000
G1 X0.1684 Y1.2088 Z-0.1000
G1 X0.1691 Y1.2053 Z-0.1000
G1 X0.1697 Y1.2019 Z-0.1000
G1 X0.1703 Y1.1984 Z-0.1000
G1 X0.1710 Y1.1950 Z-0.1000
G1 X0.1716 Y1.1915 Z-0.1000
G1 X0.1723 Y1.1881 Z-0.1000
G1 X0.1729 Y1.1846 Z-0.1000
G1 X0.1736 Y1.1812 Z-0.1000
G1 X0.1742 Y1.1778 Z-0.1000
G1 X0.1749 Y1.1743 Z-0.1000
G1 X0.1755 Y1.1709 Z-0.1000
G1 X0.1762 Y1.1674 Z-0.1000
G1 X0.1769 Y1.1640 Z-0.1000
G1 X0.1775 Y1.1606 Z-0.1000
G1 X0.1782 Y1.1571 Z-0.1000
G1 X0.1789 Y1.1537 Z-0.1000
G1 X0.1796 Y1.1503 Z-0.1000
G1 X0.1802 Y1.1468 Z-0.1000
G1 X0.1809 Y1.1434 Z-0.1000
G1 X0.1816 Y1.1399 Z-0.1000
G1 X0.1823 Y1.1365 Z-0.1000
G1 X0.1830 Y1.1331 Z-0.1000
G1 X0.1837 Y1.1297 Z-0.1000
G1 X0.1844 Y1.1262 Z-0.1000
G1 X0.1851 Y1.1228 Z-0.1000
G1 X0.1858 Y1.1194 Z-0.1000
G1 X0.1865 Y1.1159 Z-0.1000
G1 X0.1872 Y1.1125 Z-0.1000
G1 X0.1880 Y1.1091 Z-0.1000
G1 X0.1887 Y1.1056 Z-0.1000
G1 X0.1894 Y1.1022 Z-0.1000
G1 X0.1901 Y1.0988 Z-0.1000
G1 X0.1909 Y1.0954 Z-0.1000
G1 X0.1916 Y1.0919 Z-0.1000
G1 X0.1923 Y1.0885 Z-0.1000
G1 X0.1931 Y1.0851 Z-0.1000
G1 X0.1938 Y1.0817 Z-0.1000
G1 X0.1946 Y1.0782 Z-0.1000
G1 X0.1953 Y1.0748 Z-0.1000
G1 X0.1961 Y1.0714 Z-0.1000
G1 X0.1968 Y1.0680 Z-0.1000
G1 X0.1976 Y1.0646 Z-0.1000
G1 X0.1983 Y1.0611 Z-0.1000
G1 X0.1991 Y1.0577 Z-0.1000
G1 X0.1999 Y1.0543 Z-0.1000
G1 X0.2006 Y1.0509 Z-0.1000
G1 X0.2014 Y1.0475 Z-0.1000
G1 X0.2022 Y1.0440 Z-0.1000
G1 X0.2030 Y1.0406 Z-0.1000
G1 X0.2038 Y1.0372 Z-0.1000
G1 X0.2045 Y1.0338 Z-0.1000
G1 X0.2053 Y1.0304 Z-0.1000
G1 X0.2061 Y1.0270 Z-0.1000
G1 X0.2069 Y1.0236 Z-0.1000
G1 X0.2077 Y1.0202 Z-0.1000
G1 X0.2085 Y1.0167 Z-0.1000
G1 X0.2093 Y1.0133 Z-0.1000
G1 X0.2101 Y1.0099 Z-0.1000
G1 X0.2110 Y1.0065 Z-0.1000
G1 X0.2118 Y1.0031 Z-0.1000
G1 X0.2126 Y0.9997 Z-0.1000
G1 X0.2134 Y0.9963 Z-0.1000
G1 X0.2143 Y0.9929 Z-0.1000
G1 X0.2151 Y0.9895 Z-0.1000
G1 X0.2159 Y0.9861 Z-0.1000
G1 X0.2168 Y0.9827 Z-0.1000
G1 X0.2176 Y0.9793 Z-0.1000
G1 X0.2184 Y0.9759 Z-0.1000
G1 X0.2193 Y0.9725 Z-0.1000
G1 X0.2201 Y0.9691 Z-0.1000
G1 X0.2210 Y0.9657 Z-0.1000
G1 X0.2219 Y0.9623 Z-0.1000
G1 X0.2227 Y0.9589 Z-0.1000
G1 X0.2236 Y0.9555 Z-0.1000
G1 X0.2245 Y0.9521 Z-0.1000
G1 X0.2253 Y0.9487 Z-0.1000
G1 X0.2262 Y0.9453 Z-0.1000
G1 X0.2271 Y0.9419 Z-0.1000
G1 X0.2280 Y0.9386 Z-0.1000
G1 X0.2289 Y0.9352 Z-0.1000
G1 X0.2298 Y0.9318 Z-0.1000
G1 X0.2306 Y0.9284 Z-0.1000
G1 X0.2315 Y0.9250 Z-0.1000
G1 X0.2325 Y0.9216 Z-0.1000
G1 X0.2334 Y0.9182 Z-0.1000
G1 X0.2343 Y0.9149 Z-0.1000
G1 X0.2352 Y0.9115 Z-0.1000
G1 X0.2361 Y0.9081 Z-0.1000
G1 X0.2370 Y0.9047 Z-0.1000
G1 X0.2379 Y0.9013 Z-0.1000
G1 X0.2389 Y0.8979 Z-0.1000
G1 X0.2398 Y0.8946 Z-0.1000
G1 X0.2407 Y0.8912 Z-0.1000
G1 X0.2417 Y0.8878 Z-0.1000
G1 X0.2426 Y0.8844 Z-0.1000
G1 X0.2436 Y0.8811 Z-0.1000
G1 X0.2445 Y0.8777 Z-0.1000
G1 X0.2455 Y0.8743 Z-0.1000
G1 X0.2464 Y0.8710 Z-0.1000
G1 X0.2474 Y0.8676 Z-0.1000
G1 X0.2483 Y0.8642 Z-0.1000
G1 X0.2493 Y0.8609 Z-0.1000
G1 X0.2503 Y0.8575 Z-0.1000
G1 X0.2513 Y0.8541 Z-0.1000
G1 X0.2522 Y0.8508 Z-0.1000
G1 X0.2532 Y0.8474 Z-0.1000
G1 X0.2542 Y0.8440 Z-0.1000
G1 X0.2552 Y0.8407 Z-0.1000
G1 X0.2562 Y0.8373 Z-0.1000
G1 X0.2572 Y0.8340 Z-0.1000
G1 X0.2582 Y0.8306 Z-0.1000
G1 X0.2592 Y0.8273 Z-0.1000
G1 X0.2602 Y0.8239 Z-0.1000
G1 X0.2612 Y0.8205 Z-0.1000
G1 X0.2623 Y0.8172 Z-0.1000
G1 X0.2633 Y0.8139 Z-0.1000
G1 X0.2643 Y0.8105 Z-0.1000
G1 X0.2653 Y0.8071 Z-0.1000
G1 X0.2664 Y0.8038 Z-0.1000
G1 X0.2674 Y0.8005 Z-0.1000
G1 X0.2684 Y0.7971 Z-0.1000
G1 X0.2695 Y0.7938 Z-0.1000
G1 X0.2705 Y0.7904 Z-0.1000
G1 X0.2716 Y0.7871 Z-0.1000
G1 X0.2727 Y0.7837 Z-0.1000
G1 X0.2737 Y0.7804 Z-0.1000
G1 X0.2748 Y0.7771 Z-0.1000
G1 X0.2759 Y0.7737 Z-0.1000
G1 X0.2769 Y0.7704 Z-0.1000
G1 X0.2780 Y0.7671 Z-0.1000
G1 X0.2791 Y0.7637 Z-0.1000
G1 X0.2802 Y0.7604 Z-0.1000
G1 X0.2813 Y0.7571 Z-0.1000
G1 X0.2824 Y0.7537 Z-0.1000
G1 X0.2835 Y0.7504 Z-0.1000
G1 X0.2846 Y0.7471 Z-0.1000
G1 X0.2857 Y0.7438 Z-0.1000
G1 X0.2868 Y0.7405 Z-0.1000
G1 X0.2879 Y0.7371 Z-0.1000
G1 X0.2890 Y0.7338 Z-0.1000
G1 X0.2902 Y0.7305 Z-0.1000
G1 X0.2913 Y0.7272 Z-0.1000
G1 X0.2924 Y0.7239 Z-0.1000
G1 X0.2936 Y0.7206 Z-0.1000
G1 X0.2947 Y0.7172 Z-0.1000
G1 X0.2959 Y0.7139 Z-0.1000
G1 X0.2970 Y0.7106 Z-0.1000
G1 X0.2982 Y0.7073 Z-0.1000
G1 X0.2993 Y0.7040 Z-0.1000
G1 X0.3005 Y0.7007 Z-0.1000
G1 X0.3017 Y0.6974 Z-0.1000
G1 X0.3028 Y0.6941 Z-0.1000
G1 X0.3040 Y0.6908 Z-0.1000
G1 X0.3052 Y0.6875 Z-0.1000
G1 X0.3064 Y0.6842 Z-0.1000
G1 X0.3076 Y0.6809 Z-0.1000
G1 X0.3088 Y0.6776 Z-0.1000
G1 X0.3100 Y0.6743 Z-0.1000
G1 X0.3112 Y0.6710 Z-0.1000
G1 X0.3124 Y0.6678 Z-0.1000
G1 X0.3136 Y0.6645 Z-0.1000
G1 X0.3148 Y0.6612 Z-0.1000
G1 X0.3160 Y0.6579 Z-0.1000
G1 X0.3173 Y0.6546 Z-0.1000
G1 X0.3185 Y0.6513 Z-0.1000
G1 X0.3197 Y0.6481 Z-0.1000
G1 X0.3210 Y0.6448 Z-0.1000
G1 X0.3222 Y0.6415 Z-0.1000
G1 X0.3235 Y0.6383 Z-0.1000
G1 X0.3247 Y0.6350 Z-0.1000
G1 X0.3260 Y0.6317 Z-0.1000
G1 X0.3273 Y0.6284 Z-0.1000
G1 X0.3285 Y0.6252 Z-0.1000
G1 X0.3298 Y0.6219 Z-0.1000
G1 X0.3311 Y0.6187 Z-0.1000
G1 X0.3324 Y0.6154 Z-0.1000
G1 X0.3337 Y0.6121 Z-0.1000
G1 X0.3350 Y0.6089 Z-0.1000
G1 X0.3363 Y0.6056 Z-0.1000
G1 X0.3376 Y0.6024 Z-0.1000
G1 X0.3389 Y0.5991 Z-0.1000
G1 X0.3402 Y0.5959 Z-0.1000
G1 X0.3415 Y0.5926 Z-0.1000
G1 X0.3428 Y0.5894 Z-0.1000
G1 X0.3442 Y0.5862 Z-0.1000
G1 X0.3455 Y0.5829 Z-0.1000
G1 X0.3469 Y0.5797 Z-0.1000
G1 X0.3482 Y0.5764 Z-0.1000
G1 X0.3496 Y0.5732 Z-0.1000
G1 X0.3509 Y0.5700 Z-0.1000
G1 X0.3523 Y0.5667 Z-0.1000
G1 X0.3536 Y0.5635 Z-0.1000
G1 X0.3550 Y0.5603 Z-0.1000
G1 X0.3564 Y0.5571 Z-0.1000
G1 X0.3578 Y0.5539 Z-0.1000
G1 X0.3592 Y0.5506 Z-0.1000
G1 X0.3605 Y0.5474 Z-0.1000
G1 X0.3619 Y0.5442 Z-0.1000
G1 X0.3633 Y0.5410 Z-0.1000
G1 X0.3648 Y0.5378 Z-0.1000
G1 X0.3662 Y0.5346 Z-0.1000
G1 X0.3676 Y0.5314 Z-0.1000
G1 X0.3690 Y0.5282 Z-0.1000
G1 X0.3704 Y0.5250 Z-0.1000
G1 X0.3719 Y0.5218 Z-0.1000
G1 X0.3733 Y0.5186 Z-0.1000
G1 X0.3748 Y0.5154 Z-0.1000
G1 X0.3762 Y0.5122 Z-0.1000
G1 X0.3777 Y0.5090 Z-0.1000
G1 X0.3791 Y0.5059 Z-0.1000
G1 X0.3806 Y0.5027 Z-0.1000
G1 X0.3821 Y0.4995 Z-0.1000
G1 X0.3836 Y0.4963 Z-0.1000
G1 X0.3851 Y0.4932 Z-0.1000
G1 X0.3866 Y0.4900 Z-0.1000
G1 X0.3881 Y0.4868 Z-0.1000
G1 X0.3896 Y0.4837 Z-0.1000
G1 X0.3911 Y0.4805 Z-0.1000
G1 X0.3926 Y0.4773 Z-0.1000
G1 X0.3941 Y0.4742 Z-0.1000
G1 X0.3956 Y0.4710 Z-0.1000
G1 X0.3972 Y0.4679 Z-0.1000
G1 X0.3987 Y0.4647 Z-0.1000
G1 X0.4002 Y0.4616 Z-0.1000
G1 X0.4018 Y0.4584 Z-0.1000
G1 X0.4034 Y0.4553 Z-0.1000
G1 X0.4049 Y0.4522 Z-0.1000
G1 X0.4065 Y0.4490 Z-0.1000
G1 X0.4081 Y0.4459 Z-0.1000
G1 X0.4096 Y0.4428 Z-0.1000
G1 X0.4112 Y0.4397 Z-0.1000
G1 X0.4128 Y0.4366 Z-0.1000
G1 X0.4144 Y0.4334 Z-0.1000
G1 X0.4160 Y0.4303 Z-0.1000
G1 X0.4176 Y0.4272 Z-0.1000
G1 X0.4193 Y0.4241 Z-0.1000
G1 X0.4209 Y0.4210 Z-0.1000
G1 X0.4225 Y0.4179 Z-0.1000
G1 X0.4242 Y0.4148 Z-0.1000
G1 X0.4258 Y0.4117 Z-0.1000
G1 X0.4275 Y0.4086 Z-0.1000
G1 X0.4291 Y0.4055 Z-0.1000
G1 X0.4308 Y0.4024 Z-0.1000
G1 X0.4325 Y0.3994 Z-0.1000
G1 X0.4341 Y0.3963 Z-0.1000
G1 X0.4358 Y0.3932 Z-0.1000
G1 X0.4375 Y0.3901 Z-0.1000
G1 X0.4392 Y0.3871 Z-0.1000
G1 X0.4409 Y0.3840 Z-0.1000
G1 X0.4426 Y0.3810 Z-0.1000
G1 X0.4443 Y0.3779 Z-0.1000
G1 X0.4461 Y0.3749 Z-0.1000
G1 X0.4478 Y0.3718 Z-0.1000
G1 X0.4495 Y0.3688 Z-0.1000
G1 X0.4513 Y0.3657 Z-0.1000
G1 X0.4530 Y0.3627 Z-0.1000
G1 X0.4548 Y0.3597 Z-0.1000
G1 X0.4566 Y0.3567 Z-0.1000
G1 X0.4583 Y0.3536 Z-0.1000
G1 X0.4601 Y0.3506 Z-0.1000
G1 X0.4619 Y0.3476 Z-0.1000
G1 X0.4637 Y0.3446 Z-0.1000
G1 X0.4655 Y0.3416 Z-0.1000
G1 X0.4673 Y0.3386 Z-0.1000
G1 X0.4691 Y0.3356 Z-0.1000
G1 X0.4710 Y0.3326 Z-0.1000
G1 X0.4728 Y0.3296 Z-0.1000
G1 X0.4746 Y0.3266 Z-0.1000
G1 X0.4765 Y0.3237 Z-0.1000
G1 X0.4783 Y0.3207 Z-0.1000
G1 X0.4802 Y0.3177 Z-0.1000
G1 X0.4821 Y0.3148 Z-0.1000
G1 X0.4839 Y0.3118 Z-0.1000
G1 X0.4858 Y0.3089 Z-0.1000
G1 X0.4877 Y0.3059 Z-0.1000
G1 X0.4896 Y0.3030 Z-0.1000
G1 X0.4915 Y0.3000 Z-0.1000
G1 X0.4935 Y0.2971 Z-0.1000
G1 X0.4954 Y0.2942 Z-0.1000
G1 X0.4973 Y0.2913 Z-0.1000
G1 X0.4993 Y0.2883 Z-0.1000
G1 X0.5012 Y0.2854 Z-0.1000
G1 X0.5032 Y0.2825 Z-0.1000
G1 X0.5051 Y0.2796 Z-0.1000
G1 X0.5071 Y0.2767 Z-0.1000
G1 X0.5091 Y0.2738 Z-0.1000
G1 X0.5111 Y0.2709 Z-0.1000
G1 X0.5131 Y0.2681 Z-0.1000
G1 X0.5151 Y0.2652 Z-0.1000
G1 X0.5171 Y0.2623 Z-0.1000
G1 X0.5191 Y0.2595 Z-0.1000
G1 X0.5211 Y0.2566 Z-0.1000
G1 X0.5232 Y0.2538 Z-0.1000
G1 X0.5252 Y0.2509 Z-0.1000
G1 X0.5273 Y0.2481 Z-0.1000
G1 X0.5294 Y0.2453 Z-0.1000
G1 X0.5314 Y0.2424 Z-0.1000
G1 X0.5335 Y0.2396 Z-0.1000
G1 X0.5356 Y0.2368 Z-0.1000
G1 X0.5377 Y0.2340 Z-0.1000
G1 X0.5398 Y0.2312 Z-0.1000
G1 X0.5420 Y0.2284 Z-0.1000
G1 X0.5441 Y0.2257 Z-0.1000
G1 X0.5462 Y0.2229 Z-0.1000
G1 X0.5484 Y0.2201 Z-0.1000
G1 X0.5505 Y0.2173 Z-0.1000
G1 X0.5527 Y0.2146 Z-0.1000
G1 X0.5549 Y0.2119 Z-0.1000
G1 X0.5570 Y0.2091 Z-0.1000
G1 X0.5592 Y0.2064 Z-0.1000
G1 X0.5614 Y0.2037 Z-0.1000
G1 X0.5637 Y0.2009 Z-0.1000
G1 X0.5659 Y0.1982 Z-0.1000
G1 X0.5681 Y0.1955 Z-0.1000
G1 X0.5704 Y0.1928 Z-0.1000
G1 X0.5726 Y0.1902 Z-0.1000
G1 X0.5749 Y0.1875 Z-0.1000
G1 X0.5771 Y0.1848 Z-0.1000
G1 X0.5794 Y0.1822 Z-0.1000
G1 X0.5817 Y0.1795 Z-0.1000
G1 X0.5840 Y0.1769 Z-0.1000
G1 X0.5863 Y0.1742 Z-0.1000
G1 X0.5886 Y0.1716 Z-0.1000
G1 X0.5910 Y0.1690 Z-0.1000
G1 X0.5933 Y0.1664 Z-0.1000
G1 X0.5957 Y0.1638 Z-0.1000
G1 X0.5980 Y0.1612 Z-0.1000
G1 X0.6004 Y0.1586 Z-0.1000
G1 X0.6028 Y0.1561 Z-0.1000
G1 X0.6052 Y0.1535 Z-0.1000
G1 X0.6076 Y0.1510 Z-0.1000
G1 X0.6100 Y0.1484 Z-0.1000
G1 X0.6124 Y0.1459 Z-0.1000
G1 X0.6149 Y0.1434 Z-0.1000
G1 X0.6173 Y0.1409 Z-0.1000
G1 X0.6198 Y0.1384 Z-0.1000
G1 X0.6222 Y0.1359 Z-0.1000
G1 X0.6247 Y0.1334 Z-0.1000
G1 X0.6272 Y0.1309 Z-0.1000
G1 X0.6297 Y0.1285 Z-0.1000
G1 X0.6322 Y0.1260 Z-0.1000
G1 X0.6347 Y0.1236 Z-0.1000
G1 X0.6373 Y0.1212 Z-0.1000
G1 X0.6398 Y0.1188 Z-0.1000
G1 X0.6424 Y0.1164 Z-0.1000
G1 X0.6450 Y0.1140 Z-0.1000
G1 X0.6475 Y0.1116 Z-0.1000
G1 X0.6501 Y0.1093 Z-0.1000
G1 X0.6527 Y0.1069 Z-0.1000
G1 X0.6553 Y0.1046 Z-0.1000
G1 X0.6580 Y0.1023 Z-0.1000
G1 X0.6606 Y0.1000 Z-0.1000
G1 X0.6633 Y0.0977 Z-0.1000
G1 X0.6659 Y0.0954 Z-0.1000
G1 X0.6686 Y0.0931 Z-0.1000
G1 X0.6713 Y0.0909 Z-0.1000
G1 X0.6740 Y0.0886 Z-0.1000
G1 X0.6767 Y0.0864 Z-0.1000
G1 X0.6794 Y0.0842 Z-0.1000
G1 X0.6821 Y0.0820 Z-0.1000
G1 X0.6849 Y0.0798 Z-0.1000
G1 X0.6876 Y0.0777 Z-0.1000
G1 X0.6904 Y0.0755 Z-0.1000
G1 X0.6932 Y0.0734 Z-0.1000
G1 X0.6960 Y0.0713 Z-0.1000
G1 X0.6988 Y0.0692 Z-0.1000
G1 X0.7016 Y0.0671 Z-0.1000
G1 X0.7044 Y0.0650 Z-0.1000
G1 X0.7072 Y0.0630 Z-0.1000
G1 X0.7101 Y0.0609 Z-0.1000
G1 X0.7130 Y0.0589 Z-0.1000
G1 X0.7158 Y0.0569 Z-0.1000
G1 X0.7187 Y0.0549 Z-0.1000
G1 X0.7216 Y0.0530 Z-0.1000
G1 X0.7245 Y0.0510 Z-0.1000
G1 X0.7274 Y0.0491 Z-0.1000
G1 X0.7304 Y0.0472 Z-0.1000
G1 X0.7333 Y0.0453 Z-0.1000
G1 X0.7363 Y0.0434 Z-0.1000
G1 X0.7393 Y0.0415 Z-0.1000
G1 X0.7422 Y0.0397 Z-0.1000
G1 X0.7452 Y0.0379 Z-0.1000
G1 X0.7483 Y0.0361 Z-0.1000
G1 X0.7513 Y0.0343 Z-0.1000
G1 X0.7543 Y0.0326 Z-0.1000
G1 X0.7574 Y0.0308 Z-0.1000
G1 X0.7604 Y0.0291 Z-0.1000
G1 X0.7635 Y0.0274 Z-0.1000
G1 X0.7666 Y0.0258 Z-0.1000
G1 X0.7696 Y0.0241 Z-0.1000
G1 X0.7727 Y0.0225 Z-0.1000
G1 X0.7727 Y0.0225 Z-0.1000
G1 X0.7758 Y0.0209 Z-0.1000
G1 X0.7789 Y0.0193 Z-0.1000
G1 X0.7820 Y0.0177 Z-0.1000
G1 X0.7852 Y0.0161 Z-0.1000
G1 X0.7883 Y0.0146 Z-0.1000
G1 X0.7914 Y0.0130 Z-0.1000
G1 X0.7945 Y0.0115 Z-0.1000
G1 X0.7977 Y0.0099 Z-0.1000
G1 X0.8008 Y0.0084 Z-0.1000
G1 X0.8040 Y0.0069 Z-0.1000
G1 X0.8071 Y0.0054 Z-0.1000
G1 X0.8103 Y0.0039 Z-0.1000
G1 X0.8134 Y0.0025 Z-0.1000
G1 X0.8166 Y0.0010 Z-0.1000
G1 X0.8198 Y-0.0004 Z-0.1000
G1 X0.8229 Y-0.0019 Z-0.1000
G1 X0.8261 Y-0.0033 Z-0.1000
G1 X0.8293 Y-0.0047 Z-0.1000
G1 X0.8325 Y-0.0060 Z-0.1000
G1 X0.8358 Y-0.0074 Z-0.1000
G1 X0.8390 Y-0.0087 Z-0.1000
G1 X0.8422 Y-0.0100 Z-0.1000
G1 X0.8455 Y-0.0112 Z-0.1000
G1 X0.8488 Y-0.0124 Z-0.1000
G1 X0.8521 Y-0.0135 Z-0.1000
G1 X0.8554 Y-0.0144 Z-0.1000
G1 X0.8589 Y-0.0150 Z-0.1000
G1 X0.8589 Y-0.0150 Z-0.1000
G1 X0.8624 Y-0.0155 Z-0.1000
G1 X0.8657 Y-0.0169 Z-0.1000
G1 X0.8685 Y-0.0193 Z-0.1000
G1 X0.8705 Y-0.0222 Z-0.1000
G1 X0.8719 Y-0.0255 Z-0.1000
G1 X0.8727 Y-0.0290 Z-0.1000
G1 X0.8730 Y-0.0326 Z-0.1000
G1 X0.8730 Y-0.0326 Z-0.1000
G1 X0.8727 Y-0.0364 Z-0.1000
G1 X0.8719 Y-0.0401 Z-0.1000
G1 X0.8706 Y-0.0436 Z-0.1000
G1 X0.8685 Y-0.0468 Z-0.1000
G1 X0.8656 Y-0.0492 Z-0.1000
G1 X0.8619 Y-0.0501 Z-0.1000
G1 X0.8619 Y-0.0501 Z-0.1000
G1 X0.8619 Y-0.0501 Z-0.1000
G1 Z-0.2000 F50
G1 X0.8619 Y-0.0501 Z-0.2000 F100
G1 X0.8585 Y-0.0498 Z-0.2000
G1 X0.8550 Y-0.0492 Z-0.2000
G1 X0.8516 Y-0.0485 Z-0.2000
G1 X0.8483 Y-0.0476 Z-0.2000
G1 X0.8449 Y-0.0466 Z-0.2000
G1 X0.8416 Y-0.0456 Z-0.2000
G1 X0.8383 Y-0.0445 Z-0.2000
G1 X0.8350 Y-0.0433 Z-0.2000
G1 X0.8317 Y-0.0421 Z-0.2000
G1 X0.8285 Y-0.0409 Z-0.2000
G1 X0.8252 Y-0.0396 Z-0.2000
G1 X0.8220 Y-0.0383 Z-0.2000
G1 X0.8188 Y-0.0370 Z-0.2000
G1 X0.8155 Y-0.0356 Z-0.2000
G1 X0.8123 Y-0.0342 Z-0.2000
G1 X0.8091 Y-0.0328 Z-0.2000
G1 X0.8060 Y-0.0314 Z-0.2000
G1 X0.8028 Y-0.0300 Z-0.2000
G1 X0.7996 Y-0.0285 Z-0.2000
G1 X0.7965 Y-0.0270 Z-0.2000
G1 X0.7933 Y-0.0255 Z-0.2000
G1 X0.7902 Y-0.0240 Z-0.2000
G1 X0.7870 Y-0.0225 Z-0.2000
G1 X0.7839 Y-0.0210 Z-0.2000
G1 X0.7808 Y-0.0194 Z-0.2000
G1 X0.7777 Y-0.0178 Z-0.2000
G1 X0.7746 Y-0.0163 Z-0.2000
G1 X0.7715 Y-0.0147 Z-0.2000
G1 X0.7684 Y-0.0130 Z-0.2000
G1 X0.7653 Y-0.0114 Z-0.2000
G1 X0.7622 Y-0.0098 Z-0.2000
G1 X0.7591 Y-0.0081 Z-0.2000
G1 X0.7561 Y-0.0065 Z-0.2000
G1 X0.7530 Y-0.0048 Z-0.2000
G1 X0.7500 Y-0.0031 Z-0.2000
G1 X0.7469 Y-0.0014 Z-0.2000
G1 X0.7439 Y0.0003 Z-0.2000
G1 X0.7409 Y0.0021 Z-0.2000
G1 X0.7379 Y0.0038 Z-0.2000
G1 X0.7348 Y0.0056 Z-0.2000
G1 X0.7318 Y0.0073 Z-0.2000
G1 X0.7288 Y0.0091 Z-0.2000
G1 X0.7259 Y0.0109 Z-0.2000
G1 X0.7229 Y0.0127 Z-0.2000
G1 X0.7199 Y0.0146 Z-0.2000
G1 X0.7170 Y0.0164 Z-0.2000
G1 X0.7140 Y0.0183 Z-0.2000
G1 X0.7111 Y0.0202 Z-0.2000
G1 X0.7082 Y0.0221 Z-0.2000
G1 X0.7053 Y0.0240 Z-0.2000
G1 X0.7024 Y0.0260 Z-0.2000
G1 X0.6995 Y0.0279 Z-0.2000
G1 X0.6966 Y0.0299 Z-0.2000
G1 X0.6938 Y0.0319 Z-0.2000
G1 X0.6938 Y0.0319 Z-0.2000
G1 X0.6909 Y0.0340 Z-0.2000
G1 X0.6881 Y0.0360 Z-0.2000
G1 X0.6853 Y0.0381 Z-0.2000
G1 X0.6825 Y0.0402 Z-0.2000
G1 X0.6796 Y0.0423 Z-0.2000
G1 X0.6769 Y0.0444 Z-0.2000
G1 X0.6741 Y0.0465 Z-0.2000
G1 X0.6713 Y0.0487 Z-0.2000
G1 X0.6685 Y0.0509 Z-0.2000
G1 X0.6658 Y0.0530 Z-0.2000
G1 X0.6630 Y0.0552 Z-0.2000
G1 X0.6603 Y0.0574 Z-0.2000
G1 X0.6576 Y0.0597 Z-0.2000
G1 X0.6549 Y0.0619 Z-0.2000
G1 X0.6522 Y0.0641 Z-0.2000
G1 X0.6495 Y0.0664 Z-0.2000
G1 X0.6468 Y0.0687 Z-0.2000
G1 X0.6442 Y0.0709 Z-0.2000
G1 X0.6415 Y0.0732 Z-0.2000
G1 X0.6389 Y0.0755 Z-0.2000
G1 X0.6362 Y0.0779 Z-0.2000
G1 X0.6336 Y0.0802 Z-0.2000
G1 X0.6310 Y0.0825 Z-0.2000
G1 X0.6284 Y0.0849 Z-0.2000
G1 X0.6258 Y0.0873 Z-0.2000
G1 X0.6232 Y0.0897 Z-0.2000
G1 X0.6207 Y0.0920 Z-0.2000
G1 X0.6181 Y0.0944 Z-0.2000
G1 X0.6156 Y0.0968 Z-0.2000
G1 X0.6131 Y0.0993 Z-0.2000
G1 X0.6105 Y0.1017 Z-0.2000
G1 X0.6080 Y0.1042 Z-0.2000
G1 X0.6055 Y0.1066 Z-0.2000
G1 X0.6030 Y0.1091 Z-0.2000
G1 X0.6005 Y0.1116 Z-0.2000
G1 X0.5981 Y0.1140 Z-0.2000
G1 X0.5956 Y0.1166 Z-0.2000
G1 X0.5931 Y0.1191 Z-0.2000
G1 X0.5907 Y0.1216 Z-0.2000
G1 X0.5883 Y0.1241 Z-0.2000
G1 X0.5858 Y0.1266 Z-0.2000
G1 X0.5834 Y0.1292 Z-0.2000
G1 X0.5810 Y0.1317 Z-0.2000
G1 X0.5786 Y0.1343 Z-0.2000
G1 X0.5762 Y0.1369 Z-0.2000
G1 X0.5739 Y0.1394 Z-0.2000
G1 X0.5715 Y0.1420 Z-0.2000
G1 X0.5691 Y0.1447 Z-0.2000
G1 X0.5668 Y0.1473 Z-0.2000
G1 X0.5645 Y0.1499 Z-0.2000
G1 X0.5621 Y0.1525 Z-0.2000
G1 X0.5598 Y0.1551 Z-0.2000
G1 X0.5575 Y0.1578 Z-0.2000
G1 X0.5552 Y0.1604 Z-0.2000
G1 X0.5529 Y0.1631 Z-0.2000
G1 X0.5507 Y0.1657 Z-0.2000
G1 X0.5484 Y0.1684 Z-0.2000
G1 X0.5461 Y0.1711 Z-0.2000
G1 X0.5439 Y0.1738 Z-0.2000
G1 X0.5416 Y0.1765 Z-0.2000
G1 X0.5394 Y0.1792 Z-0.2000
G1 X0.5372 Y0.1819 Z-0.2000
G1 X0.5350 Y0.1846 Z-0.2000
G1 X0.5328 Y0.1874 Z-0.2000
G1 X0.5306 Y0.1901 Z-0.2000
G1 X0.5284 Y0.1929 Z-0.2000
G1 X0.5262 Y0.1956 Z-0.2000
G1 X0.5240 Y0.1984 Z-0.2000
G1 X0.5219 Y0.2011 Z-0.2000
G1 X0.5197 Y0.2039 Z-0.2000
G1 X0.5176 Y0.2067 Z-0.2000
G1 X0.5154 Y0.2095 Z-0.2000
G1 X0.5133 Y0.2122 Z-0.2000
G1 X0.5112 Y0.2150 Z-0.2000
G1 X0.5091 Y0.2178 Z-0.2000
G1 X0.5070 Y0.2207 Z-0.2000
G1 X0.5049 Y0.2235 Z-0.2000
G1 X0.5028 Y0.2263 Z-0.2000
G1 X0.5007 Y0.2291 Z-0.2000
G1 X0.4987 Y0.2320 Z-0.2000
G1 X0.4966 Y0.2348 Z-0.2000
G1 X0.4946 Y0.2376 Z-0.2000
G1 X0.4925 Y0.2405 Z-0.2000
G1 X0.4905 Y0.2434 Z-0.2000
G1 X0.4885 Y0.2462 Z-0.2000
G1 X0.4865 Y0.2491 Z-0.2000
G1 X0.4845 Y0.2520 Z-0.2000
G1 X0.4825 Y0.2548 Z-0.2000
G1 X0.4805 Y0.2577 Z-0.2000
G1 X0.4785 Y0.2606 Z-0.2000
G1 X0.4765 Y0.2635 Z-0.2000
G1 X0.4745 Y0.2664 Z-0.2000
G1 X0.4726 Y0.2693 Z-0.2000
G1 X0.4706 Y0.2723 Z-0.2000
G1 X0.4687 Y0.2752 Z-0.2000
G1 X0.4667 Y0.2781 Z-0.2000
G1 X0.4648 Y0.2810 Z-0.2000
G1 X0.4629 Y0.2840 Z-0.2000
G1 X0.4610 Y0.2869 Z-0.2000
G1 X0.4591 Y0.2898 Z-0.2000
G1 X0.4572 Y0.2928 Z-0.2000
G1 X0.4553 Y0.2958 Z-0.2000
G1 X0.4534 Y0.2987 Z-0.2000
G1 X0.4515 Y0.3017 Z-0.2000
G1 X0.4496 Y0.3046 Z-0.2000
G1 X0.4478 Y0.3076 Z-0.2000
G1 X0.4459 Y0.3106 Z-0.2000
G1 X0.4441 Y0.3136 Z-0.2000
G1 X0.4422 Y0.3166 Z-0.2000
G1 X0.4404 Y0.3195 Z-0.2000
G1 X0.4386 Y0.3225 Z-0.2000
G1 X0.4368 Y0.3255 Z-0.2000
G1 X0.4349 Y0.3285 Z-0.2000
G1 X0.4331 Y0.3316 Z-0.2000
G1 X0.4313 Y0.3346 Z-0.2000
G1 X0.4295 Y0.3376 Z-0.2000
G1 X0.4278 Y0.3406 Z-0.2000
G1 X0.4260 Y0.3436 Z-0.2000
G1 X0.4242 Y0.3467 Z-0.2000
G1 X0.4225 Y0.3497 Z-0.2000
G1 X0.4207 Y0.3527 Z-0.2000
G1 X0.4189 Y0.3558 Z-0.2000
G1 X0.4172 Y0.3588 Z-0.2000
G1 X0.4155 Y0.3619 Z-0.2000
G1 X0.4137 Y0.3649 Z-0.2000
G1 X0.4120 Y0.3680 Z-0.2000
G1 X0.4103 Y0.3710 Z-0.2000
G1 X0.4086 Y0.3741 Z-0.2000
G1 X0.4069 Y0.3772 Z-0.2000
G1 X0.4052 Y0.3802 Z-0.2000
G1 X0.4035 Y0.3833 Z-0.2000
G1 X0.4018 Y0.3864 Z-0.2000
G1 X0.4001 Y0.3895 Z-0.2000
G1 X0.3985 Y0.3926 Z-0.2000
G1 X0.3968 Y0.3957 Z-0.2000
G1 X0.3952 Y0.3987 Z-0.2000
G1 X0.3935 Y0.4018 Z-0.2000
G1 X0.3919 Y0.4049 Z-0.2000
G1 X0.3902 Y0.4080 Z-0.2000
G1 X0.3886 Y0.4111 Z-0.2000
G1 X0.3870 Y0.4143 Z-0.2000
G1 X0.3853 Y0.4174 Z-0.2000
G1 X0.3837 Y0.4205 Z-0.2000
G1 X0.3821 Y0.4236 Z-0.2000
G1 X0.3805 Y0.4267 Z-0.2000
G1 X0.3789 Y0.4298 Z-0.2000
G1 X0.3773 Y0.4330 Z-0.2000
G1 X0.3757 Y0.4361 Z-0.2000
G1 X0.3742 Y0.4392 Z-0.2000
G1 X0.3726 Y0.4424 Z-0.2000
G1 X0.3710 Y0.4455 Z-0.2000
G1 X0.3695 Y0.4486 Z-0.2000
G1 X0.3679 Y0.4518 Z-0.2000
G1 X0.3664 Y0.4549 Z-0.2000
G1 X0.3648 Y0.4581 Z-0.2000
G1 X0.3633 Y0.4612 Z-0.2000
G1 X0.3618 Y0.4644 Z-0.2000
G1 X0.3603 Y0.4675 Z-0.2000
G1 X0.3587 Y0.4707 Z-0.2000
G1 X0.3572 Y0.4739 Z-0.2000
G1 X0.3557 Y0.4771 Z-0.2000
G1 X0.3542 Y0.4802 Z-0.2000
G1 X0.3527 Y0.4834 Z-0.2000
G1 X0.3512 Y0.4866 Z-0.2000
G1 X0.3498 Y0.4897 Z-0.2000
G1 X0.3483 Y0.4929 Z-0.2000
G1 X0.3468 Y0.4961 Z-0.2000
G1 X0.3453 Y0.4993 Z-0.2000
G1 X0.3439 Y0.5025 Z-0.2000
G1 X0.3424 Y0.5057 Z-0.2000
G1 X0.3410 Y0.5089 Z-0.2000
G1 X0.3395 Y0.5121 Z-0.2000
G1 X0.3381 Y0.5153 Z-0.2000
G1 X0.3366 Y0.5185 Z-0.2000
G1 X0.3352 Y0.5217 Z-0.2000
G1 X0.3338 Y0.5249 Z-0.2000
G1 X0.3324 Y0.5281 Z-0.2000
G1 X0.3310 Y0.5313 Z-0.2000
G1 X0.3296 Y0.5345 Z-0.2000
G1 X0.3282 Y0.5377 Z-0.2000
G1 X0.3268 Y0.5409 Z-0.2000
G1 X0.3254 Y0.5442 Z-0.2000
G1 X0.3240 Y0.5474 Z-0.2000
G1 X0.3226 Y0.5506 Z-0.2000
G1 X0.3212 Y0.5538 Z-0.2000
G1 X0.3199 Y0.5571 Z-0.2000
G1 X0.3185 Y0.5603 Z-0.2000
G1 X0.3171 Y0.5635 Z-0.2000
G1 X0.3158 Y0.5668 Z-0.2000
G1 X0.3144 Y0.5700 Z-0.2000
G1 X0.3131 Y0.5733 Z-0.2000
G1 X0.3117 Y0.5765 Z-0.2000
G1 X0.3104 Y0.5797 Z-0.2000
G1 X0.3091 Y0.5830 Z-0.2000
G1 X0.3078 Y0.5862 Z-0.2000
G1 X0.3064 Y0.5895 Z-0.2000
G1 X0.3051 Y0.5927 Z-0.2000
G1 X0.3038 Y0.5960 Z-0.2000
G1 X0.3025 Y0.5993 Z-0.2000
G1 X0.3012 Y0.6025 Z-0.2000
G1 X0.2999 Y0.6058 Z-0.2000
G1 X0.2986 Y0.6090 Z-0.2000
G1 X0.2973 Y0.6123 Z-0.2000
G1 X0.2961 Y0.6156 Z-0.2000
G1 X0.2948 Y0.6188 Z-0.2000
G1 X0.2935 Y0.6221 Z-0.2000
G1 X0.2922 Y0.6254 Z-0.2000
G1 X0.2910 Y0.6286 Z-0.2000
G1 X0.2897 Y0.6319 Z-0.2000
G1 X0.2885 Y0.6352 Z-0.2000
G1 X0.2872 Y0.6385 Z-0.2000
G1 X0.2860 Y0.6418 Z-0.2000
G1 X0.2847 Y0.6450 Z-0.2000
G1 X0.2835 Y0.6483 Z-0.2000
G1 X0.2823 Y0.6516 Z-0.2000
G1 X0.2811 Y0.6549 Z-0.2000
G1 X0.2798 Y0.6582 Z-0.2000
G1 X0.2786 Y0.6615 Z-0.2000
G1 X0.2774 Y0.6648 Z-0.2000
G1 X0.2762 Y0.6681 Z-0.2000
G1 X0.2750 Y0.6714 Z-0.2000
G1 X0.2738 Y0.6747 Z-0.2000
G1 X0.2726 Y0.6779 Z-0.2000
G1 X0.2714 Y0.6812 Z-0.2000
G1 X0.2703 Y0.6846 Z-0.2000
G1 X0.2691 Y0.6879 Z-0.2000
G1 X0.2679 Y0.6912 Z-0.2000
G1 X0.2667 Y0.6945 Z-0.2000
G1 X0.2656 Y0.6978 Z-0.2000
G1 X0.2644 Y0.7011 Z-0.2000
G1 X0.2633 Y0.7044 Z-0.2000
G1 X0.2621 Y0.7077 Z-0.2000
G1 X0.2610 Y0.7110 Z-0.2000
G1 X0.2598 Y0.7144 Z-0.2000
G1 X0.2587 Y0.7177 Z-0.2000
G1 X0.2575 Y0.7210 Z-0.2000
G1 X0.2564 Y0.7243 Z-0.2000
G1 X0.2553 Y0.7276 Z-0.2000
G1 X0.2542 Y0.7309 Z-0.2000
G1 X0.2531 Y0.7343 Z-0.2000
G1 X0.2519 Y0.7376 Z-0.2000
G1 X0.2508 Y0.7409 Z-0.2000
G1 X0.2497 Y0.7443 Z-0.2000
G1 X0.2486 Y0.7476 Z-0.2000
G1 X0.2475 Y0.7509 Z-0.2000
G1 X0.2464 Y0.7543 Z-0.2000
G1 X0.2454 Y0.7576 Z-0.2000
G1 X0.2443 Y0.7609 Z-0.2000
G1 X0.2432 Y0.7643 Z-0.2000
G1 X0.2421 Y0.7676 Z-0.2000
G1 X0.2410 Y0.7710 Z-0.2000
G1 X0.2400 Y0.7743 Z-0.2000
G1 X0.2389 Y0.7776 Z-0.2000
G1 X0.2379 Y0.7810 Z-0.2000
G1 X0.2368 Y0.7843 Z-0.2000
G1 X0.2358 Y0.7877 Z-0.2000
G1 X0.2347 Y0.7910 Z-0.2000
G1 X0.2337 Y0.7944 Z-0.2000
G1 X0.2326 Y0.7977 Z-0.2000
G1 X0.2316 Y0.8011 Z-0.2000
G1 X0.2306 Y0.8044 Z-0.2000
G1 X0.2296 Y0.8078 Z-0.2000
G1 X0.2285 Y0.8111 Z-0.2000
G1 X0.2275 Y0.8145 Z-0.2000
G1 X0.2265 Y0.8179 Z-0.2000
G1 X0.2255 Y0.8212 Z-0.2000
G1 X0.2245 Y0.8246 Z-0.2000
G1 X0.2235 Y0.8279 Z-0.2000
G1 X0.2225 Y0.8313 Z-0.2000
G1 X0.2215 Y0.8347 Z-0.2000
G1 X0.2205 Y0.8380 Z-0.2000
G1 X0.2195 Y0.8414 Z-0.2000
G1 X0.2185 Y0.8448 Z-0.2000
G1 X0.2176 Y0.8482 Z-0.2000
G1 X0.2166 Y0.8515 Z-0.2000
G1 X0.2156 Y0.8549 Z-0.2000
G1 X0.2147 Y0.8582 Z-0.2000
G1 X0.2137 Y0.8616 Z-0.2000
G1 X0.2127 Y0.8650 Z-0.2000
G1 X0.2118 Y0.8684 Z-0.2000
G1 X0.2108 Y0.8718 Z-0.2000
G1 X0.2099 Y0.8751 Z-0.2000
G1 X0.2089 Y0.8785 Z-0.2000
G1 X0.2080 Y0.8819 Z-0.2000
G1 X0.2071 Y0.8853 Z-0.2000
G1 X0.2061 Y0.8886 Z-0.2000
G1 X0.2052 Y0.8920 Z-0.2000
G1 X0.2043 Y0.8954 Z-0.2000
G1 X0.2034 Y0.8988 Z-0.2000
G1 X0.2024 Y0.9022 Z-0.2000
G1 X0.2015 Y0.9056 Z-0.2000
G1 X0.2006 Y0.9090 Z-0.2000
G1 X0.1997 Y0.9123 Z-0.2000
G1 X0.1988 Y0.9157 Z-0.2000
G1 X0.1979 Y0.9191 Z-0.2000
G1 X0.1970 Y0.9225 Z-0.2000
G1 X0.1961 Y0.9259 Z-0.2000
G1 X0.1952 Y0.9293 Z-0.2000
G1 X0.1944 Y0.9327 Z-0.2000
G1 X0.1935 Y0.9361 Z-0.2000
G1 X0.1926 Y0.9395 Z-0.2000
G1 X0.1917 Y0.9429 Z-0.2000
G1 X0.1909 Y0.9463 Z-0.2000
G1 X0.1900 Y0.9497 Z-0.2000
G1 X0.1891 Y0.9531 Z-0.2000
G1 X0.1883 Y0.9565 Z-0.2000
G1 X0.1874 Y0.9599 Z-0.2000
G1 X0.1866 Y0.9633 Z-0.2000
G1 X0.1857 Y0.9667 Z-0.2000
G1 X0.1849 Y0.9701 Z-0.2000
G1 X0.1841 Y0.9735 Z-0.2000
G1 X0.1832 Y0.9769 Z-0.2000
G1 X0.1824 Y0.9803 Z-0.2000
G1 X0.1816 Y0.9838 Z-0.2000
G1 X0.1807 Y0.9872 Z-0.2000
G1 X0.1799 Y0.9906 Z-0.2000
G1 X0.1791 Y0.9940 Z-0.2000
G1 X0.1783 Y0.9974 Z-0.2000
G1 X0.1775 Y1.0008 Z-0.2000
G1 X0.1767 Y1.0042 Z-0.2000
G1 X0.1758 Y1.0076 Z-0.2000
G1 X0.1750 Y1.0110 Z-0.2000
G1 X0.1742 Y1.0145 Z-0.2000
G1 X0.1735 Y1.0179 Z-0.2000
G1 X0.1727 Y1.0213 Z-0.2000
G1 X0.1719 Y1.0247 Z-0.2000
G1 X0.1711 Y1.0281 Z-0.2000
G1 X0.1703 Y1.0315 Z-0.2000
G1 X0.1695 Y1.0350 Z-0.2000
G1 X0.1688 Y1.0384 Z-0.2000
G1 X0.1680 Y1.0418 Z-0.2000
G1 X0.1672 Y1.0452 Z-0.2000
G1 X0.1665 Y1.0487 Z-0.2000
G1 X0.1657 Y1.0521 Z-0.2000
G1 X0.1650 Y1.0555 Z-0.2000
G1 X0.1642 Y1.0589 Z-0.2000
G1 X0.1634 Y1.0624 Z-0.2000
G1 X0.1627 Y1.0658 Z-0.2000
G1 X0.1620 Y1.0692 Z-0.2000
G1 X0.1612 Y1.0727 Z-0.2000
G1 X0.1605 Y1.0761 Z-0.2000
G1 X0.1598 Y1.0795 Z-0.2000
G1 X0.1590 Y1.0829 Z-0.2000
G1 X0.1583 Y1.0864 Z-0.2000
G1 X0.1576 Y1.0898 Z-0.2000
G1 X0.1569 Y1.0932 Z-0.2000
G1 X0.1561 Y1.0967 Z-0.2000
G1 X0.1554 Y1.1001 Z-0.2000
G1 X0.1547 Y1.1035 Z-0.2000
G1 X0.1540 Y1.1070 Z-0.2000
G1 X0.1533 Y1.1104 Z-0.2000
G1 X0.1526 Y1.1138 Z-0.2000
G1 X0.1519 Y1.1173 Z-0.2000
G1 X0.1512 Y1.1207 Z-0.2000
G1 X0.1505 Y1.1242 Z-0.2000
G1 X0.1498 Y1.1276 Z-0.2000
G1 X0.1492 Y1.1311 Z-0.2000
G1 X0.1485 Y1.1345 Z-0.2000
G1 X0.1478 Y1.1379 Z-0.2000
G1 X0.1471 Y1.1414 Z-0.2000
G1 X0.1465 Y1.1448 Z-0.2000
G1 X0.1458 Y1.1483 Z-0.2000
G1 X0.1451 Y1.1517 Z-0.2000
G1 X0.1445 Y1.1552 Z-0.2000
G1 X0.1438 Y1.1586 Z-0.2000
G1 X0.1432 Y1.1620 Z-0.2000
G1 X0.1425 Y1.1655 Z-0.2000
G1 X0.1419 Y1.1689 Z-0.2000
G1 X0.1412 Y1.1724 Z-0.2000
G1 X0.1406 Y1.1758 Z-0.2000
G1 X0.1399 Y1.1793 Z-0.2000
G1 X0.1393 Y1.1827 Z-0.2000
G1 X0.1387 Y1.1862 Z-0.2000
G1 X0.1380 Y1.1896 Z-0.2000
G1 X0.1374 Y1.1931 Z-0.2000
G1 X0.1368 Y1.1965 Z-0.2000
G1 X0.1362 Y1.2000 Z-0.2000
G1 X0.1356 Y1.2034 Z-0.2000
G1 X0.1349 Y1.2069 Z-0.2000
G1 X0.1343 Y1.2104 Z-0.2000
G1 X0.1337 Y1.2138 Z-0.2000
G1 X0.1331 Y1.2173 Z-0.2000
G1 X0.1325 Y1.2207 Z-0.2000
G1 X0.1319 Y1.2242 Z-0.2000
G1 X0.1313 Y1.2276 Z-0.2000
G1 X0.1307 Y1.2311 Z-0.2000
G1 X0.1301 Y1.2345 Z-0.2000
G1 X0.1296 Y1.2380 Z-0.2000
G1 X0.1290 Y1.2415 Z-0.2000
G1 X0.1284 Y1.2449 Z-0.2000
G1 X0.1278 Y1.2484 Z-0.2000
G1 X0.1273 Y1.2519 Z-0.2000
G1 X0.1267 Y1.2553 Z-0.2000
G1 X0.1261 Y1.2588 Z-0.2000
G1 X0.1256 Y1.2622 Z-0.2000
G1 X0.1250 Y1.2657 Z-0.2000
G1 X0.1244 Y1.2692 Z-0.2000
G1 X0.1239 Y1.2726 Z-0.2000
G1 X0.1233 Y1.2761 Z-0.2000
G1 X0.1228 Y1.2796 Z-0.2000
G1 X0.1222 Y1.2830 Z-0.2000
G1 X0.1217 Y1.2865 Z-0.2000
G1 X0.1212 Y1.2899 Z-0.2000
G1 X0.1206 Y1.2934 Z-0.2000
G1 X0.1201 Y1.2969 Z-0.2000
G1 X0.1196 Y1.3004 Z-0.2000
G1 X0.1190 Y1.3038 Z-0.2000
G1 X0.1185 Y1.3073 Z-0.2000
G1 X0.1180 Y1.3108 Z-0.2000
G1 X0.1175 Y1.3142 Z-0.2000
G1 X0.1170 Y1.3177 Z-0.2000
G1 X0.1164 Y1.3212 Z-0.2000
G1 X0.1159 Y1.3246 Z-0.2000
G1 X0.1154 Y1.3281 Z-0.2000
G1 X0.1149 Y1.3316 Z-0.2000
G1 X0.1144 Y1.3351 Z-0.2000
G1 X0.1139 Y1.3385 Z-0.2000
G1 X0.1134 Y1.3420 Z-0.2000
G1 X0.1129 Y1.3455 Z-0.2000
G1 X0.1125 Y1.3489 Z-0.2000
G1 X0.1120 Y1.3524 Z-0.2000
G1 X0.1115 Y1.3559 Z-0.2000
G1 X0.1110 Y1.3594 Z-0.2000
G1 X0.1105 Y1.3628 Z-0.2000
G1 X0.1101 Y1.3663 Z-0.2000
G1 X0.1096 Y1.3698 Z-0.2000
G1 X0.1091 Y1.3733 Z-0.2000
G1 X0.1087 Y1.3767 Z-0.2000
G1 X0.1082 Y1.3802 Z-0.2000
G1 X0.1077 Y1.3837 Z-0.2000
G1 X0.1073 Y1.3872 Z-0.2000
G1 X0.1068 Y1.3907 Z-0.2000
G1 X0.1064 Y1.3941 Z-0.2000
G1 X0.1059 Y1.3976 Z-0.2000
G1 X0.1055 Y1.4011 Z-0.2000
G1 X0.1051 Y1.4046 Z-0.2000
G1 X0.1046 Y1.4081 Z-0.2000
G1 X0.1042 Y1.4115 Z-0.2000
G1 X0.1038 Y1.4150 Z-0.2000
G1 X0.1033 Y1.4185 Z-0.2000
G1 X0.1029 Y1.4220 Z-0.2000
G1 X0.1025 Y1.4255 Z-0.2000
G1 X0.1021 Y1.4290 Z-0.2000
G1 X0.1016 Y1.4324 Z-0.2000
G1 X0.1012 Y1.4359 Z-0.2000
G1 X0.1008 Y1.4394 Z-0.2000
G1 X0.1004 Y1.4429 Z-0.2000
G1 X0.1000 Y1.4464 Z-0.2000
G1 X0.0996 Y1.4498 Z-0.2000
G1 X0.0992 Y1.4533 Z-0.2000
G1 X0.0988 Y1.4568 Z-0.2000
G1 X0.0984 Y1.4603 Z-0.2000
G1 X0.0980 Y1.4638 Z-0.2000
G1 X0.0976 Y1.4673 Z-0.2000
G1 X0.0972 Y1.4708 Z-0.2000
G1 X0.0969 Y1.4742 Z-0.2000
G1 X0.0965 Y1.4777 Z-0.2000
G1 X0.0961 Y1.4812 Z-0.2000
G1 X0.0957 Y1.4847 Z-0.2000
G1 X0.0954 Y1.4882 Z-0.2000
G1 X0.0950 Y1.4917 Z-0.2000
G1 X0.0946 Y1.4952 Z-0.2000
G1 X0.0943 Y1.4987 Z-0.2000
G1 X0.0939 Y1.5022 Z-0.2000
G1 X0.0935 Y1.5056 Z-0.2000
G1 X0.0932 Y1.5091 Z-0.2000
G1 X0.0928 Y1.5126 Z-0.2000
G1 X0.0925 Y1.5161 Z-0.2000
G1 X0.0921 Y1.5196 Z-0.2000
G1 X0.0918 Y1.5231 Z-0.2000
G1 X0.0915 Y1.5266 Z-0.2000
G1 X0.0911 Y1.5301 Z-0.2000
G1 X0.0908 Y1.5336 Z-0.2000
G1 X0.0905 Y1.5371 Z-0.2000
G1 X0.0901 Y1.5406 Z-0.2000
G1 X0.0898 Y1.5441 Z-0.2000
G1 X0.0895 Y1.5475 Z-0.2000
G1 X0.0892 Y1.5510 Z-0.2000
G1 X0.0888 Y1.5545 Z-0.2000
G1 X0.0885 Y1.5580 Z-0.2000
G1 X0.0882 Y1.5615 Z-0.2000
G1 X0.0879 Y1.5650 Z-0.2000
G1 X0.0876 Y1.5685 Z-0.2000
G1 X0.0873 Y1.5720 Z-0.2000
G1 X0.0870 Y1.5755 Z-0.2000
G1 X0.0867 Y1.5790 Z-0.2000
G1 X0.0864 Y1.5825 Z-0.2000
G1 X0.0861 Y1.5860 Z-0.2000
G1 X0.0858 Y1.5895 Z-0.2000
G1 X0.0855 Y1.5930 Z-0.2000
G1 X0.0852 Y1.5965 Z-0.2000
G1 X0.0850 Y1.6000 Z-0.2000
G1 X0.0847 Y1.6035 Z-0.2000
G1 X0.0844 Y1.6070 Z-0.2000
G1 X0.0841 Y1.6105 Z-0.2000
G1 X0.0839 Y1.6140 Z-0.2000
G1 X0.0836 Y1.6175 Z-0.2000
G1 X0.0833 Y1.6210 Z-0.2000
G1 X0.0831 Y1.6245 Z-0.2000
G1 X0.0828 Y1.6279 Z-0.2000
G1 X0.0826 Y1.6314 Z-0.2000
G1 X0.0823 Y1.6349 Z-0.2000
G1 X0.0821 Y1.6384 Z-0.2000
G1 X0.0818 Y1.6419 Z-0.2000
G1 X0.0816 Y1.6454 Z-0.2000
G1 X0.0813 Y1.6490 Z-0.2000
G1 X0.0811 Y1.6524 Z-0.2000
G1 X0.0809 Y1.6559 Z-0.2000
G1 X0.0806 Y1.6594 Z-0.2000
G1 X0.0804 Y1.6629 Z-0.2000
G1 X0.0802 Y1.6664 Z-0.2000
G1 X0.0799 Y1.6699 Z-0.2000
G1 X0.0797 Y1.6734 Z-0.2000
G1 X0.0795 Y1.6769 Z-0.2000
G1 X0.0793 Y1.6805 Z-0.2000
G1 X0.0791 Y1.6840 Z-0.2000
G1 X0.0789 Y1.6875 Z-0.2000
G1 X0.0786 Y1.6910 Z-0.2000
G1 X0.0784 Y1.6945 Z-0.2000
G1 X0.0782 Y1.6980 Z-0.2000
G1 X0.0780 Y1.7015 Z-0.2000
G1 X0.0778 Y1.7050 Z-0.2000
G1 X0.0776 Y1.7085 Z-0.2000
G1 X0.0774 Y1.7120 Z-0.2000
G1 X0.0773 Y1.7155 Z-0.2000
G1 X0.0771 Y1.7190 Z-0.2000
G1 X0.0769 Y1.7225 Z-0.2000
G1 X0.0767 Y1.7260 Z-0.2000
G1 X0.0765 Y1.7295 Z-0.2000
G1 X0.0764 Y1.7330 Z-0.2000
G1 X0.0762 Y1.7365 Z-0.2000
G1 X0.0760 Y1.7400 Z-0.2000
G1 X0.0758 Y1.7435 Z-0.2000
G1 X0.0757 Y1.7470 Z-0.2000
G1 X0.0755 Y1.7505 Z-0.2000
G1 X0.0754 Y1.7540 Z-0.2000
G1 X0.0752 Y1.7575 Z-0.2000
G1 X0.0750 Y1.7610 Z-0.2000
G1 X0.0749 Y1.7645 Z-0.2000
G1 X0.0747 Y1.7680 Z-0.2000
G1 X0.0746 Y1.7715 Z-0.2000
G1 X0.0745 Y1.7750 Z-0.2000
G1 X0.0743 Y1.7785 Z-0.2000
G1 X0.0742 Y1.7820 Z-0.2000
G1 X0.0740 Y1.7856 Z-0.2000
G1 X0.0739 Y1.7891 Z-0.2000
G1 X0.0738 Y1.7926 Z-0.2000
G1 X0.0737 Y1.7961 Z-0.2000
G1 X0.0735 Y1.7996 Z-0.2000
G1 X0.0734 Y1.8031 Z-0.2000
G1 X0.0733 Y1.8066 Z-0.2000
G1 X0.0732 Y1.8101 Z-0.2000
G1 X0.0731 Y1.8136 Z-0.2000
G1 X0.0730 Y1.8171 Z-0.2000
G1 X0.0729 Y1.8206 Z-0.2000
G1 X0.0727 Y1.8241 Z-0.2000
G1 X0.0726 Y1.8276 Z-0.2000
G1 X0.0725 Y1.8311 Z-0.2000
G1 X0.0725 Y1.8346 Z-0.2000
G1 X0.0724 Y1.8381 Z-0.2000
G1 X0.0723 Y1.8417 Z-0.2000
G1 X0.0722 Y1.8452 Z-0.2000
G1 X0.0721 Y1.8487 Z-0.2000
G1 X0.0720 Y1.8522 Z-0.2000
G1 X0.0719 Y1.8557 Z-0.2000
G1 X0.0719 Y1.8592 Z-0.2000
G1 X0.0718 Y1.8627 Z-0.2000
G1 X0.0717 Y1.8662 Z-0.2000
G1 X0.0716 Y1.8697 Z-0.2000
G1 X0.0716 Y1.8732 Z-0.2000
G1 X0.0715 Y1.8767 Z-0.2000
G1 X0.0714 Y1.8802 Z-0.2000
G1 X0.0714 Y1.8837 Z-0.2000
G1 X0.0713 Y1.8872 Z-0.2000
G1 X0.0713 Y1.8907 Z-0.2000
G1 X0.0712 Y1.8943 Z-0.2000
G1 X0.0712 Y1.8978 Z-0.2000
G1 X0.0711 Y1.9013 Z-0.2000
G1 X0.0711 Y1.9048 Z-0.2000
G1 X0.0711 Y1.9083 Z-0.2000
G1 X0.0710 Y1.9118 Z-0.2000
G1 X0.0710 Y1.9153 Z-0.2000
G1 X0.0710 Y1.9188 Z-0.2000
G1 X0.0709 Y1.9223 Z-0.2000
G1 X0.0709 Y1.9258 Z-0.2000
G1 X0.0709 Y1.9293 Z-0.2000
G1 X0.0709 Y1.9328 Z-0.2000
G1 X0.0708 Y1.9363 Z-0.2000
G1 X0.0708 Y1.9399 Z-0.2000
G1 X0.0708 Y1.9434 Z-0.2000
G1 X0.0708 Y1.9469 Z-0.2000
G1 X0.0708 Y1.9504 Z-0.2000
G1 X0.0708 Y1.9539 Z-0.2000
G1 X0.0708 Y1.9574 Z-0.2000
G1 X0.0708 Y1.9609 Z-0.2000
G1 X0.0708 Y1.9644 Z-0.2000
G1 X0.0708 Y1.9679 Z-0.2000
G1 X0.0708 Y1.9714 Z-0.2000
G1 X0.0708 Y1.9749 Z-0.2000
G1 X0.0708 Y1.9784 Z-0.2000
G1 X0.0709 Y1.9819 Z-0.2000
G1 X0.0709 Y1.9855 Z-0.2000
G1 X0.0709 Y1.9890 Z-0.2000
G1 X0.0709 Y1.9925 Z-0.2000
G1 X0.0710 Y1.9960 Z-0.2000
G1 X0.0710 Y1.9995 Z-0.2000
G1 X0.0710 Y2.0030 Z-0.2000
G1 X0.0711 Y2.0065 Z-0.2000
G1 X0.0711 Y2.0100 Z-0.2000
G1 X0.0711 Y2.0135 Z-0.2000
G1 X0.0712 Y2.0170 Z-0.2000
G1 X0.0712 Y2.0205 Z-0.2000
G1 X0.0713 Y2.0240 Z-0.2000
G1 X0.0713 Y2.0275 Z-0.2000
G1 X0.0714 Y2.0311 Z-0.2000
G1 X0.0715 Y2.0346 Z-0.2000
G1 X0.0715 Y2.0381 Z-0.2000
G1 X0.0716 Y2.0416 Z-0.2000
G1 X0.0717 Y2.0451 Z-0.2000
G1 X0.0717 Y2.0486 Z-0.2000
G1 X0.0718 Y2.0521 Z-0.2000
G1 X0.0719 Y2.0556 Z-0.2000
G1 X0.0719 Y2.0591 Z-0.2000
G1 X0.0720 Y2.0626 Z-0.2000
G1 X0.0721 Y2.0661 Z-0.2000
G1 X0.0722 Y2.0696 Z-0.2000
G1 X0.0723 Y2.0731 Z-0.2000
G1 X0.0724 Y2.0766 Z-0.2000
G1 X0.0725 Y2.0802 Z-0.2000
G1 X0.0726 Y2.0837 Z-0.2000
G1 X0.0727 Y2.0872 Z-0.2000
G1 X0.0728 Y2.0907 Z-0.2000
G1 X0.0729 Y2.0942 Z-0.2000
G1 X0.0730 Y2.0977 Z-0.2000
G1 X0.0731 Y2.1012 Z-0.2000
G1 X0.0732 Y2.1047 Z-0.2000
G1 X0.0733 Y2.1082 Z-0.2000
G1 X0.0734 Y2.1117 Z-0.2000
G1 X0.0736 Y2.1152 Z-0.2000
G1 X0.0737 Y2.1187 Z-0.2000
G1 X0.0738 Y2.1222 Z-0.2000
G1 X0.0739 Y2.1257 Z-0.2000
G1 X0.0741 Y2.1292 Z-0.2000
G1 X0.0742 Y2.1327 Z-0.2000
G1 X0.0744 Y2.1362 Z-0.2000
G1 X0.0745 Y2.1398 Z-0.2000
G1 X0.0746 Y2.1433 Z-0.2000
G1 X0.0748 Y2.1468 Z-0.2000
G1 X0.0749 Y2.1503 Z-0.2000
G1 X0.0751 Y2.1538 Z-0.2000
G1 X0.0752 Y2.1573 Z-0.2000
G1 X0.0754 Y2.1608 Z-0.2000
G1 X0.0756 Y2.1643 Z-0.2000
G1 X0.0757 Y2.1678 Z-0.2000
G1 X0.0759 Y2.1713 Z-0.2000
G1 X0.0761 Y2.1748 Z-0.2000
G1 X0.0762 Y2.1783 Z-0.2000
G1 X0.0764 Y2.1818 Z-0.2000
G1 X0.0766 Y2.1853 Z-0.2000
G1 X0.0768 Y2.1888 Z-0.2000
G1 X0.0769 Y2.1923 Z-0.2000
G1 X0.0771 Y2.1958 Z-0.2000
G1 X0.0773 Y2.1993 Z-0.2000
G1 X0.0775 Y2.2028 Z-0.2000
G1 X0.0777 Y2.2063 Z-0.2000
G1 X0.0779 Y2.2098 Z-0.2000
G1 X0.0781 Y2.2133 Z-0.2000
G1 X0.0783 Y2.2168 Z-0.2000
G1 X0.0785 Y2.2203 Z-0.2000
G1 X0.0787 Y2.2238 Z-0.2000
G1 X0.0789 Y2.2273 Z-0.2000
G1 X0.0791 Y2.2308 Z-0.2000
G1 X0.0793 Y2.2343 Z-0.2000
G1 X0.0796 Y2.2378 Z-0.2000
G1 X0.0798 Y2.2413 Z-0.2000
G1 X0.0800 Y2.2448 Z-0.2000
G1 X0.0802 Y2.2483 Z-0.2000
G1 X0.0805 Y2.2518 Z-0.2000
G1 X0.0807 Y2.2553 Z-0.2000
G1 X0.0809 Y2.2588 Z-0.2000
G1 X0.0812 Y2.2623 Z-0.2000
G1 X0.0814 Y2.2658 Z-0.2000
G1 X0.0817 Y2.2693 Z-0.2000
G1 X0.0819 Y2.2728 Z-0.2000
G1 X0.0822 Y2.2763 Z-0.2000
G1 X0.0824 Y2.2798 Z-0.2000
G1 X0.0827 Y2.2833 Z-0.2000
G1 X0.0829 Y2.2868 Z-0.2000
G1 X0.0832 Y2.2903 Z-0.2000
G1 X0.0834 Y2.2938 Z-0.2000
G1 X0.0837 Y2.2973 Z-0.2000
G1 X0.0840 Y2.3008 Z-0.2000
G1 X0.0842 Y2.3043 Z-0.2000
G1 X0.0845 Y2.3078 Z-0.2000
G1 X0.0848 Y2.3113 Z-0.2000
G1 X0.0851 Y2.3148 Z-0.2000
G1 X0.0854 Y2.3183 Z-0.2000
G1 X0.0856 Y2.3218 Z-0.2000
G1 X0.0859 Y2.3253 Z-0.2000
G1 X0.0862 Y2.3288 Z-0.2000
G1 X0.0865 Y2.3323 Z-0.2000
G1 X0.0868 Y2.3358 Z-0.2000
G1 X0.0871 Y2.3393 Z-0.2000
G1 X0.0874 Y2.3428 Z-0.2000
G1 X0.0877 Y2.3463 Z-0.2000
G1 X0.0880 Y2.3498 Z-0.2000
G1 X0.0883 Y2.3533 Z-0.2000
G1 X0.0887 Y2.3568 Z-0.2000
G1 X0.0890 Y2.3602 Z-0.2000
G1 X0.0893 Y2.3637 Z-0.2000
G1 X0.0896 Y2.3672 Z-0.2000
G1 X0.0899 Y2.3707 Z-0.2000
G1 X0.0903 Y2.3742 Z-0.2000
G1 X0.0906 Y2.3777 Z-0.2000
G1 X0.0909 Y2.3812 Z-0.2000
G1 X0.0913 Y2.3847 Z-0.2000
G1 X0.0916 Y2.3882 Z-0.2000
G1 X0.0920 Y2.3917 Z-0.2000
G1 X0.0923 Y2.3952 Z-0.2000
G1 X0.0926 Y2.3987 Z-0.2000
G1 X0.0930 Y2.4021 Z-0.2000
G1 X0.0934 Y2.4056 Z-0.2000
G1 X0.0937 Y2.4091 Z-0.2000
G1 X0.0941 Y2.4126 Z-0.2000
G1 X0.0944 Y2.4161 Z-0.2000
G1 X0.0948 Y2.4196 Z-0.2000
G1 X0.0952 Y2.4231 Z-0.2000
G1 X0.0955 Y2.4266 Z-0.2000
G1 X0.0959 Y2.4301 Z-0.2000
G1 X0.0963 Y2.4335 Z-0.2000
G1 X0.0967 Y2.4370 Z-0.2000
G1 X0.0971 Y2.4405 Z-0.2000
G1 X0.0974 Y2.4440 Z-0.2000
G1 X0.0978 Y2.4475 Z-0.2000
G1 X0.0982 Y2.4510 Z-0.2000
G1 X0.0986 Y2.4545 Z-0.2000
G1 X0.0990 Y2.4579 Z-0.2000
G1 X0.0994 Y2.4614 Z-0.2000
G1 X0.0998 Y2.4649 Z-0.2000
G1 X0.1002 Y2.4684 Z-0.2000
G1 X0.1006 Y2.4719 Z-0.2000
G1 X0.1010 Y2.4754 Z-0.2000
G1 X0.1015 Y2.4789 Z-0.2000
G1 X0.1019 Y2.4823 Z-0.2000
G1 X0.1023 Y2.4858 Z-0.2000
G1 X0.1027 Y2.4893 Z-0.2000
G1 X0.1031 Y2.4928 Z-0.2000
G1 X0.1036 Y2.4963 Z-0.2000
G1 X0.1040 Y2.4997 Z-0.2000
G1 X0.1044 Y2.5032 Z-0.2000
G1 X0.1049 Y2.5067 Z-0.2000
G1 X0.1053 Y2.5102 Z-0.2000
G1 X0.1058 Y2.5137 Z-0.2000
G1 X0.1062 Y2.5171 Z-0.2000
G1 X0.1067 Y2.5206 Z-0.2000
G1 X0.1071 Y2.5241 Z-0.2000
G1 X0.1076 Y2.5276 Z-0.2000
G1 X0.1080 Y2.5311 Z-0.2000
G1 X0.1085 Y2.5345 Z-0.2000
G1 X0.1089 Y2.5380 Z-0.2000
G1 X0.1094 Y2.5415 Z-0.2000
G1 X0.1099 Y2.5450 Z-0.2000
G1 X0.1104 Y2.5484 Z-0.2000
G1 X0.1108 Y2.5519 Z-0.2000
G1 X0.1113 Y2.5554 Z-0.2000
G1 X0.1118 Y2.5589 Z-0.2000
G1 X0.1123 Y2.5623 Z-0.2000
G1 X0.1128 Y2.5658 Z-0.2000
G1 X0.1133 Y2.5693 Z-0.2000
G1 X0.1137 Y2.5728 Z-0.2000
G1 X0.1142 Y2.5762 Z-0.2000
G1 X0.1147 Y2.5797 Z-0.2000
G1 X0.1152 Y2.5832 Z-0.2000
G1 X0.1158 Y2.5866 Z-0.2000
G1 X0.1163 Y2.5901 Z-0.2000
G1 X0.1168 Y2.5936 Z-0.2000
G1 X0.1173 Y2.5971 Z-0.2000
G1 X0.1178 Y2.6005 Z-0.2000
G1 X0.1183 Y2.6040 Z-0.2000
G1 X0.1189 Y2.6075 Z-0.2000
G1 X0.1194 Y2.6109 Z-0.2000
G1 X0.1199 Y2.6144 Z-0.2000
G1 X0.1204 Y2.6179 Z-0.2000
G1 X0.1210 Y2.6213 Z-0.2000
G1 X0.1215 Y2.6248 Z-0.2000
G1 X0.1221 Y2.6283 Z-0.2000
G1 X0.1226 Y2.6317 Z-0.2000
G1 X0.1232 Y2.6352 Z-0.2000
G1 X0.1237 Y2.6387 Z-0.2000
G1 X0.1243 Y2.6421 Z-0.2000
G1 X0.1248 Y2.6456 Z-0.2000
G1 X0.1254 Y2.6491 Z-0.2000
G1 X0.1259 Y2.6525 Z-0.2000
G1 X0.1265 Y2.6560 Z-0.2000
G1 X0.1271 Y2.6594 Z-0.2000
G1 X0.1271 Y2.6594 Z-0.2000
G1 X0.1276 Y2.6629 Z-0.2000
G1 X0.1282 Y2.6664 Z-0.2000
G1 X0.1288 Y2.6698 Z-0.2000
G1 X0.1294 Y2.6733 Z-0.2000
G1 X0.1300 Y2.6767 Z-0.2000
G1 X0.1306 Y2.6802 Z-0.2000
G1 X0.1312 Y2.6837 Z-0.2000
G1 X0.1317 Y2.6871 Z-0.2000
G1 X0.1323 Y2.6906 Z-0.2000
G1 X0.1329 Y2.6940 Z-0.2000
G1 X0.1336 Y2.6975 Z-0.2000
G1 X0.1342 Y2.7010 Z-0.2000
G1 X0.1348 Y2.7044 Z-0.2000
G1 X0.1354 Y2.7079 Z-0.2000
G1 X0.1360 Y2.7113 Z-0.2000
G1 X0.1366 Y2.7148 Z-0.2000
G1 X0.1373 Y2.7182 Z-0.2000
G1 X0.1379 Y2.7217 Z-0.2000
G1 X0.1385 Y2.7251 Z-0.2000
G1 X0.1391 Y2.7286 Z-0.2000
G1 X0.1398 Y2.7320 Z-0.2000
G1 X0.1404 Y2.7355 Z-0.2000
G1 X0.1411 Y2.7389 Z-0.2000
G1 X0.1417 Y2.7424 Z-0.2000
G1 X0.1424 Y2.7458 Z-0.2000
G1 X0.1430 Y2.7493 Z-0.2000
G1 X0.1437 Y2.7527 Z-0.2000
G1 X0.1443 Y2.7562 Z-0.2000
G1 X0.1450 Y2.7596 Z-0.2000
G1 X0.1457 Y2.7631 Z-0.2000
G1 X0.1464 Y2.7665 Z-0.2000
G1 X0.1470 Y2.7700 Z-0.2000
G1 X0.1477 Y2.7734 Z-0.2000
G1 X0.1484 Y2.7768 Z-0.2000
G1 X0.1491 Y2.7803 Z-0.2000
G1 X0.1498 Y2.7837 Z-0.2000
G1 X0.1505 Y2.7872 Z-0.2000
G1 X0.1512 Y2.7906 Z-0.2000
G1 X0.1518 Y2.7941 Z-0.2000
G1 X0.1526 Y2.7975 Z-0.2000
G1 X0.1533 Y2.8009 Z-0.2000
G1 X0.1540 Y2.8044 Z-0.2000
G1 X0.1547 Y2.8078 Z-0.2000
G1 X0.1554 Y2.8112 Z-0.2000
G1 X0.1561 Y2.8147 Z-0.2000
G1 X0.1568 Y2.8181 Z-0.2000
G1 X0.1576 Y2.8215 Z-0.2000
G1 X0.1583 Y2.8250 Z-0.2000
G1 X0.1590 Y2.8284 Z-0.2000
G1 X0.1598 Y2.8318 Z-0.2000
G1 X0.1605 Y2.8353 Z-0.2000
G1 X0.1612 Y2.8387 Z-0.2000
G1 X0.1620 Y2.8421 Z-0.2000
G1 X0.1627 Y2.8456 Z-0.2000
G1 X0.1635 Y2.8490 Z-0.2000
G1 X0.1643 Y2.8524 Z-0.2000
G1 X0.1650 Y2.8558 Z-0.2000
G1 X0.1658 Y2.8593 Z-0.2000
G1 X0.1666 Y2.8627 Z-0.2000
G1 X0.1673 Y2.8661 Z-0.2000
G1 X0.1681 Y2.8695 Z-0.2000
G1 X0.1689 Y2.8730 Z-0.2000
G1 X0.1697 Y2.8764 Z-0.2000
G1 X0.1705 Y2.8798 Z-0.2000
G1 X0.1712 Y2.8832 Z-0.2000
G1 X0.1720 Y2.8866 Z-0.2000
G1 X0.1728 Y2.8901 Z-0.2000
G1 X0.1736 Y2.8935 Z-0.2000
G1 X0.1744 Y2.8969 Z-0.2000
G1 X0.1752 Y2.9003 Z-0.2000
G1 X0.1761 Y2.9037 Z-0.2000
G1 X0.1769 Y2.9071 Z-0.2000
G1 X0.1777 Y2.9105 Z-0.2000
G1 X0.1785 Y2.9140 Z-0.2000
G1 X0.1793 Y2.9174 Z-0.2000
G1 X0.1802 Y2.9208 Z-0.2000
G1 X0.1810 Y2.9242 Z-0.2000
G1 X0.1818 Y2.9276 Z-0.2000
G1 X0.1827 Y2.9310 Z-0.2000
G1 X0.1835 Y2.9344 Z-0.2000
G1 X0.1844 Y2.9378 Z-0.2000
G1 X0.1852 Y2.9412 Z-0.2000
G1 X0.1861 Y2.9446 Z-0.2000
G1 X0.1869 Y2.9480 Z-0.2000
G1 X0.1878 Y2.9514 Z-0.2000
G1 X0.1887 Y2.9548 Z-0.2000
G1 X0.1895 Y2.9582 Z-0.2000
G1 X0.1904 Y2.9616 Z-0.2000
G1 X0.1913 Y2.9650 Z-0.2000
G1 X0.1922 Y2.9684 Z-0.2000
G1 X0.1931 Y2.9718 Z-0.2000
G1 X0.1939 Y2.9752 Z-0.2000
G1 X0.1948 Y2.9786 Z-0.2000
G1 X0.1957 Y2.9820 Z-0.2000
G1 X0.1966 Y2.9854 Z-0.2000
G1 X0.1975 Y2.9888 Z-0.2000
G1 X0.1984 Y2.9922 Z-0.2000
G1 X0.1994 Y2.9956 Z-0.2000
G1 X0.2003 Y2.9990 Z-0.2000
G1 X0.2012 Y3.0023 Z-0.2000
G1 X0.2021 Y3.0057 Z-0.2000
G1 X0.2030 Y3.0091 Z-0.2000
G1 X0.2040 Y3.0125 Z-0.2000
G1 X0.2049 Y3.0159 Z-0.2000
G1 X0.2058 Y3.0193 Z-0.2000
G1 X0.2068 Y3.0227 Z-0.2000
G1 X0.2077 Y3.0260 Z-0.2000
G1 X0.2087 Y3.0294 Z-0.2000
G1 X0.2096 Y3.0328 Z-0.2000
G1 X0.2106 Y3.0362 Z-0.2000
G1 X0.2116 Y3.0395 Z-0.2000
G1 X0.2125 Y3.0429 Z-0.2000
G1 X0.2135 Y3.0463 Z-0.2000
G1 X0.2145 Y3.0497 Z-0.2000
G1 X0.2155 Y3.0530 Z-0.2000
G1 X0.2164 Y3.0564 Z-0.2000
G1 X0.2174 Y3.0598 Z-0.2000
