; GCODE Generated by Basic CAM on 2024-07-17
G20 ;inch-mode

; Operation 0: CNC: Vector (path inside)
; Bit Diameter: 0.125

G0 Z0.5 ; move to z-safe height
G0 X2.1340 Y0.5760
G1 Z-0.1000 F50
G1 X2.2630 Y0.6151 Z-0.1000 F100
G1 X2.3817 Y0.6786 Z-0.1000
G1 X2.4859 Y0.7641 Z-0.1000
G1 X2.5714 Y0.8683 Z-0.1000
G1 X2.6349 Y0.9870 Z-0.1000
G1 X2.6740 Y1.1160 Z-0.1000
G1 X2.6872 Y1.2500 Z-0.1000
G1 X2.6740 Y1.3840 Z-0.1000
G1 X2.6349 Y1.5130 Z-0.1000
G1 X2.5714 Y1.6317 Z-0.1000
G1 X2.4859 Y1.7359 Z-0.1000
G1 X2.3817 Y1.8214 Z-0.1000
G1 X2.2630 Y1.8849 Z-0.1000
G1 X2.1340 Y1.9240 Z-0.1000
G1 X2.0000 Y1.9372 Z-0.1000
G1 X1.8660 Y1.9240 Z-0.1000
G1 X1.7370 Y1.8849 Z-0.1000
G1 X1.6183 Y1.8214 Z-0.1000
G1 X1.5141 Y1.7359 Z-0.1000
G1 X1.4286 Y1.6317 Z-0.1000
G1 X1.3651 Y1.5130 Z-0.1000
G1 X1.3260 Y1.3840 Z-0.1000
G1 X1.3128 Y1.2500 Z-0.1000
G1 X1.3260 Y1.1160 Z-0.1000
G1 X1.3651 Y0.9870 Z-0.1000
G1 X1.4286 Y0.8683 Z-0.1000
G1 X1.5141 Y0.7641 Z-0.1000
G1 X1.6183 Y0.6786 Z-0.1000
G1 X1.7370 Y0.6151 Z-0.1000
G1 X1.8660 Y0.5760 Z-0.1000
G1 X2.0000 Y0.5628 Z-0.1000
G1 X2.1340 Y0.5760 Z-0.1000
G1 Z-0.2000 F50
G1 X2.2630 Y0.6151 Z-0.2000 F100
G1 X2.3817 Y0.6786 Z-0.2000
G1 X2.4859 Y0.7641 Z-0.2000
G1 X2.5714 Y0.8683 Z-0.2000
G1 X2.6349 Y0.9870 Z-0.2000
G1 X2.6740 Y1.1160 Z-0.2000
G1 X2.6872 Y1.2500 Z-0.2000
G1 X2.6740 Y1.3840 Z-0.2000
G1 X2.6349 Y1.5130 Z-0.2000
G1 X2.5714 Y1.6317 Z-0.2000
G1 X2.4859 Y1.7359 Z-0.2000
G1 X2.3817 Y1.8214 Z-0.2000
G1 X2.2630 Y1.8849 Z-0.2000
G1 X2.1340 Y1.9240 Z-0.2000
G1 X2.0000 Y1.9372 Z-0.2000
G1 X1.8660 Y1.9240 Z-0.2000
G1 X1.7370 Y1.8849 Z-0.2000
G1 X1.6183 Y1.8214 Z-0.2000
G1 X1.5141 Y1.7359 Z-0.2000
G1 X1.4286 Y1.6317 Z-0.2000
G1 X1.3651 Y1.5130 Z-0.2000
G1 X1.3260 Y1.3840 Z-0.2000
G1 X1.3128 Y1.2500 Z-0.2000
G1 X1.3260 Y1.1160 Z-0.2000
G1 X1.3651 Y0.9870 Z-0.2000
G1 X1.4286 Y0.8683 Z-0.2000
G1 X1.5141 Y0.7641 Z-0.2000
G1 X1.6183 Y0.6786 Z-0.2000
G1 X1.7370 Y0.6151 Z-0.2000
G1 X1.8660 Y0.5760 Z-0.2000
G1 X2.0000 Y0.5628 Z-0.2000
G1 X2.1340 Y0.5760 Z-0.2000
G1 Z-0.3000 F50
G1 X2.2630 Y0.6151 Z-0.3000 F100
G1 X2.3817 Y0.6786 Z-0.3000
G1 X2.4859 Y0.7641 Z-0.3000
G1 X2.5714 Y0.8683 Z-0.3000
G1 X2.6349 Y0.9870 Z-0.3000
G1 X2.6740 Y1.1160 Z-0.3000
G1 X2.6872 Y1.2500 Z-0.3000
G1 X2.6740 Y1.3840 Z-0.3000
G1 X2.6349 Y1.5130 Z-0.3000
G1 X2.5714 Y1.6317 Z-0.3000
G1 X2.4859 Y1.7359 Z-0.3000
G1 X2.3817 Y1.8214 Z-0.3000
G1 X2.2630 Y1.8849 Z-0.3000
G1 X2.1340 Y1.9240 Z-0.3000
G1 X2.0000 Y1.9372 Z-0.3000
G1 X1.8660 Y1.9240 Z-0.3000
G1 X1.7370 Y1.8849 Z-0.3000
G1 X1.6183 Y1.8214 Z-0.3000
G1 X1.5141 Y1.7359 Z-0.3000
G1 X1.4286 Y1.6317 Z-0.3000
G1 X1.3651 Y1.5130 Z-0.3000
G1 X1.3260 Y1.3840 Z-0.3000
G1 X1.3128 Y1.2500 Z-0.3000
G1 X1.3260 Y1.1160 Z-0.3000
G1 X1.3651 Y0.9870 Z-0.3000
G1 X1.4286 Y0.8683 Z-0.3000
G1 X1.5141 Y0.7641 Z-0.3000
G1 X1.6183 Y0.6786 Z-0.3000
G1 X1.7370 Y0.6151 Z-0.3000
G1 X1.8660 Y0.5760 Z-0.3000
G1 X2.0000 Y0.5628 Z-0.3000
G1 X2.1340 Y0.5760 Z-0.3000
G1 Z-0.4000 F50
G1 X2.2630 Y0.6151 Z-0.4000 F100
G1 X2.3817 Y0.6786 Z-0.4000
G1 X2.4859 Y0.7641 Z-0.4000
G1 X2.5714 Y0.8683 Z-0.4000
G1 X2.6349 Y0.9870 Z-0.4000
G1 X2.6740 Y1.1160 Z-0.4000
G1 X2.6872 Y1.2500 Z-0.4000
G1 X2.6740 Y1.3840 Z-0.4000
G1 X2.6349 Y1.5130 Z-0.4000
G1 X2.5714 Y1.6317 Z-0.4000
G1 X2.4859 Y1.7359 Z-0.4000
G1 X2.3817 Y1.8214 Z-0.4000
G1 X2.2630 Y1.8849 Z-0.4000
G1 X2.1340 Y1.9240 Z-0.4000
G1 X2.0000 Y1.9372 Z-0.4000
G1 X1.8660 Y1.9240 Z-0.4000
G1 X1.7370 Y1.8849 Z-0.4000
G1 X1.6183 Y1.8214 Z-0.4000
G1 X1.5141 Y1.7359 Z-0.4000
G1 X1.4286 Y1.6317 Z-0.4000
G1 X1.3651 Y1.5130 Z-0.4000
G1 X1.3260 Y1.3840 Z-0.4000
G1 X1.3128 Y1.2500 Z-0.4000
G1 X1.3260 Y1.1160 Z-0.4000
G1 X1.3651 Y0.9870 Z-0.4000
G1 X1.4286 Y0.8683 Z-0.4000
G1 X1.5141 Y0.7641 Z-0.4000
G1 X1.6183 Y0.6786 Z-0.4000
G1 X1.7370 Y0.6151 Z-0.4000
G1 X1.8660 Y0.5760 Z-0.4000
G1 X2.0000 Y0.5628 Z-0.4000
G1 X2.1340 Y0.5760 Z-0.4000
G1 Z-0.5000 F50
G1 X2.2630 Y0.6151 Z-0.5000 F100
G1 X2.3817 Y0.6786 Z-0.5000
G1 X2.4859 Y0.7641 Z-0.5000
G1 X2.5714 Y0.8683 Z-0.5000
G1 X2.6349 Y0.9870 Z-0.5000
G1 X2.6740 Y1.1160 Z-0.5000
G1 X2.6872 Y1.2500 Z-0.5000
G1 X2.6740 Y1.3840 Z-0.5000
G1 X2.6349 Y1.5130 Z-0.5000
G1 X2.5714 Y1.6317 Z-0.5000
G1 X2.4859 Y1.7359 Z-0.5000
G1 X2.3817 Y1.8214 Z-0.5000
G1 X2.2630 Y1.8849 Z-0.5000
G1 X2.1340 Y1.9240 Z-0.5000
G1 X2.0000 Y1.9372 Z-0.5000
G1 X1.8660 Y1.9240 Z-0.5000
G1 X1.7370 Y1.8849 Z-0.5000
G1 X1.6183 Y1.8214 Z-0.5000
G1 X1.5141 Y1.7359 Z-0.5000
G1 X1.4286 Y1.6317 Z-0.5000
G1 X1.3651 Y1.5130 Z-0.5000
G1 X1.3260 Y1.3840 Z-0.5000
G1 X1.3128 Y1.2500 Z-0.5000
G1 X1.3260 Y1.1160 Z-0.5000
G1 X1.3651 Y0.9870 Z-0.5000
G1 X1.4286 Y0.8683 Z-0.5000
G1 X1.5141 Y0.7641 Z-0.5000
G1 X1.6183 Y0.6786 Z-0.5000
G1 X1.7370 Y0.6151 Z-0.5000
G1 X1.8660 Y0.5760 Z-0.5000
G1 X2.0000 Y0.5628 Z-0.5000
G1 X2.1340 Y0.5760 Z-0.5000
G1 Z-0.6000 F50
G1 X2.2630 Y0.6151 Z-0.6000 F100
G1 X2.3817 Y0.6786 Z-0.6000
G1 X2.4859 Y0.7641 Z-0.6000
G1 X2.5714 Y0.8683 Z-0.6000
G1 X2.6349 Y0.9870 Z-0.6000
G1 X2.6740 Y1.1160 Z-0.6000
G1 X2.6872 Y1.2500 Z-0.6000
G1 X2.6740 Y1.3840 Z-0.6000
G1 X2.6349 Y1.5130 Z-0.6000
G1 X2.5714 Y1.6317 Z-0.6000
G1 X2.4859 Y1.7359 Z-0.6000
G1 X2.3817 Y1.8214 Z-0.6000
G1 X2.2630 Y1.8849 Z-0.6000
G1 X2.1340 Y1.9240 Z-0.6000
G1 X2.0000 Y1.9372 Z-0.6000
G1 X1.8660 Y1.9240 Z-0.6000
G1 X1.7370 Y1.8849 Z-0.6000
G1 X1.6183 Y1.8214 Z-0.6000
G1 X1.5141 Y1.7359 Z-0.6000
G1 X1.4286 Y1.6317 Z-0.6000
G1 X1.3651 Y1.5130 Z-0.6000
G1 X1.3260 Y1.3840 Z-0.6000
G1 X1.3128 Y1.2500 Z-0.6000
G1 X1.3260 Y1.1160 Z-0.6000
G1 X1.3651 Y0.9870 Z-0.6000
G1 X1.4286 Y0.8683 Z-0.6000
G1 X1.5141 Y0.7641 Z-0.6000
G1 X1.6183 Y0.6786 Z-0.6000
G1 X1.7370 Y0.6151 Z-0.6000
G1 X1.8660 Y0.5760 Z-0.6000
G1 X2.0000 Y0.5628 Z-0.6000
G1 X2.1340 Y0.5760 Z-0.6000
G1 Z-0.7000 F50
G1 X2.2630 Y0.6151 Z-0.7000 F100
G1 X2.3817 Y0.6786 Z-0.7000
G1 X2.4859 Y0.7641 Z-0.7000
G1 X2.5714 Y0.8683 Z-0.7000
G1 X2.6349 Y0.9870 Z-0.7000
G1 X2.6740 Y1.1160 Z-0.7000
G1 X2.6872 Y1.2500 Z-0.7000
G1 X2.6740 Y1.3840 Z-0.7000
G1 X2.6349 Y1.5130 Z-0.7000
G1 X2.5714 Y1.6317 Z-0.7000
G1 X2.4859 Y1.7359 Z-0.7000
G1 X2.3817 Y1.8214 Z-0.7000
G1 X2.2630 Y1.8849 Z-0.7000
G1 X2.1340 Y1.9240 Z-0.7000
G1 X2.0000 Y1.9372 Z-0.7000
G1 X1.8660 Y1.9240 Z-0.7000
G1 X1.7370 Y1.8849 Z-0.7000
G1 X1.6183 Y1.8214 Z-0.7000
G1 X1.5141 Y1.7359 Z-0.7000
G1 X1.4286 Y1.6317 Z-0.7000
G1 X1.3651 Y1.5130 Z-0.7000
G1 X1.3260 Y1.3840 Z-0.7000
G1 X1.3128 Y1.2500 Z-0.7000
G1 X1.3260 Y1.1160 Z-0.7000
G1 X1.3651 Y0.9870 Z-0.7000
G1 X1.4286 Y0.8683 Z-0.7000
G1 X1.5141 Y0.7641 Z-0.7000
G1 X1.6183 Y0.6786 Z-0.7000
G1 X1.7370 Y0.6151 Z-0.7000
G1 X1.8660 Y0.5760 Z-0.7000
G1 X2.0000 Y0.5628 Z-0.7000
G1 X2.1340 Y0.5760 Z-0.7000
G1 Z-0.8000 F50
G1 X2.2630 Y0.6151 Z-0.8000 F100
G1 X2.3817 Y0.6786 Z-0.8000
G1 X2.4859 Y0.7641 Z-0.8000
G1 X2.5714 Y0.8683 Z-0.8000
G1 X2.6349 Y0.9870 Z-0.8000
G1 X2.6740 Y1.1160 Z-0.8000
G1 X2.6872 Y1.2500 Z-0.8000
G1 X2.6740 Y1.3840 Z-0.8000
G1 X2.6349 Y1.5130 Z-0.8000
G1 X2.5714 Y1.6317 Z-0.8000
G1 X2.4859 Y1.7359 Z-0.8000
G1 X2.3817 Y1.8214 Z-0.8000
G1 X2.2630 Y1.8849 Z-0.8000
G1 X2.1340 Y1.9240 Z-0.8000
G1 X2.0000 Y1.9372 Z-0.8000
G1 X1.8660 Y1.9240 Z-0.8000
G1 X1.7370 Y1.8849 Z-0.8000
G1 X1.6183 Y1.8214 Z-0.8000
G1 X1.5141 Y1.7359 Z-0.8000
G1 X1.4286 Y1.6317 Z-0.8000
G1 X1.3651 Y1.5130 Z-0.8000
G1 X1.3260 Y1.3840 Z-0.8000
G1 X1.3128 Y1.2500 Z-0.8000
G1 X1.3260 Y1.1160 Z-0.8000
G1 X1.3651 Y0.9870 Z-0.8000
G1 X1.4286 Y0.8683 Z-0.8000
G1 X1.5141 Y0.7641 Z-0.8000
G1 X1.6183 Y0.6786 Z-0.8000
G1 X1.7370 Y0.6151 Z-0.8000
G1 X1.8660 Y0.5760 Z-0.8000
G1 X2.0000 Y0.5628 Z-0.8000
G1 X2.1340 Y0.5760 Z-0.8000
G1 Z-0.9000 F50
G1 X2.2630 Y0.6151 Z-0.9000 F100
G1 X2.3817 Y0.6786 Z-0.9000
G1 X2.4859 Y0.7641 Z-0.9000
G1 X2.5714 Y0.8683 Z-0.9000
G1 X2.6349 Y0.9870 Z-0.9000
G1 X2.6740 Y1.1160 Z-0.9000
G1 X2.6872 Y1.2500 Z-0.9000
G1 X2.6740 Y1.3840 Z-0.9000
G1 X2.6349 Y1.5130 Z-0.9000
G1 X2.5714 Y1.6317 Z-0.9000
G1 X2.4859 Y1.7359 Z-0.9000
G1 X2.3817 Y1.8214 Z-0.9000
G1 X2.2630 Y1.8849 Z-0.9000
G1 X2.1340 Y1.9240 Z-0.9000
G1 X2.0000 Y1.9372 Z-0.9000
G1 X1.8660 Y1.9240 Z-0.9000
G1 X1.7370 Y1.8849 Z-0.9000
G1 X1.6183 Y1.8214 Z-0.9000
G1 X1.5141 Y1.7359 Z-0.9000
G1 X1.4286 Y1.6317 Z-0.9000
G1 X1.3651 Y1.5130 Z-0.9000
G1 X1.3260 Y1.3840 Z-0.9000
G1 X1.3128 Y1.2500 Z-0.9000
G1 X1.3260 Y1.1160 Z-0.9000
G1 X1.3651 Y0.9870 Z-0.9000
G1 X1.4286 Y0.8683 Z-0.9000
G1 X1.5141 Y0.7641 Z-0.9000
G1 X1.6183 Y0.6786 Z-0.9000
G1 X1.7370 Y0.6151 Z-0.9000
G1 X1.8660 Y0.5760 Z-0.9000
G1 X2.0000 Y0.5628 Z-0.9000
G1 X2.1340 Y0.5760 Z-0.9000
G1 Z-1.0000 F50
G1 X2.2630 Y0.6151 Z-1.0000 F100
G1 X2.3817 Y0.6786 Z-1.0000
G1 X2.4859 Y0.7641 Z-1.0000
G1 X2.5714 Y0.8683 Z-1.0000
G1 X2.6349 Y0.9870 Z-1.0000
G1 X2.6740 Y1.1160 Z-1.0000
G1 X2.6872 Y1.2500 Z-1.0000
G1 X2.6740 Y1.3840 Z-1.0000
G1 X2.6349 Y1.5130 Z-1.0000
G1 X2.5714 Y1.6317 Z-1.0000
G1 X2.4859 Y1.7359 Z-1.0000
G1 X2.3817 Y1.8214 Z-1.0000
G1 X2.2630 Y1.8849 Z-1.0000
G1 X2.1340 Y1.9240 Z-1.0000
G1 X2.0000 Y1.9372 Z-1.0000
G1 X1.8660 Y1.9240 Z-1.0000
G1 X1.7370 Y1.8849 Z-1.0000
G1 X1.6183 Y1.8214 Z-1.0000
G1 X1.5141 Y1.7359 Z-1.0000
G1 X1.4286 Y1.6317 Z-1.0000
G1 X1.3651 Y1.5130 Z-1.0000
G1 X1.3260 Y1.3840 Z-1.0000
G1 X1.3128 Y1.2500 Z-1.0000
G1 X1.3260 Y1.1160 Z-1.0000
G1 X1.3651 Y0.9870 Z-1.0000
G1 X1.4286 Y0.8683 Z-1.0000
G1 X1.5141 Y0.7641 Z-1.0000
G1 X1.6183 Y0.6786 Z-1.0000
G1 X1.7370 Y0.6151 Z-1.0000
G1 X1.8660 Y0.5760 Z-1.0000
G1 X2.0000 Y0.5628 Z-1.0000
G1 X2.1340 Y0.5760 Z-1.0000
G1 Z-1.1000 F50
G1 X2.2630 Y0.6151 Z-1.1000 F100
G1 X2.3817 Y0.6786 Z-1.1000
G1 X2.4859 Y0.7641 Z-1.1000
G1 X2.5714 Y0.8683 Z-1.1000
G1 X2.6349 Y0.9870 Z-1.1000
G1 X2.6740 Y1.1160 Z-1.1000
G1 X2.6872 Y1.2500 Z-1.1000
G1 X2.6740 Y1.3840 Z-1.1000
G1 X2.6349 Y1.5130 Z-1.1000
G1 X2.5714 Y1.6317 Z-1.1000
G1 X2.4859 Y1.7359 Z-1.1000
G1 X2.3817 Y1.8214 Z-1.1000
G1 X2.2630 Y1.8849 Z-1.1000
G1 X2.1340 Y1.9240 Z-1.1000
G1 X2.0000 Y1.9372 Z-1.1000
G1 X1.8660 Y1.9240 Z-1.1000
G1 X1.7370 Y1.8849 Z-1.1000
G1 X1.6183 Y1.8214 Z-1.1000
G1 X1.5141 Y1.7359 Z-1.1000
G1 X1.4286 Y1.6317 Z-1.1000
G1 X1.3651 Y1.5130 Z-1.1000
G1 X1.3260 Y1.3840 Z-1.1000
G1 X1.3128 Y1.2500 Z-1.1000
G1 X1.3260 Y1.1160 Z-1.1000
G1 X1.3651 Y0.9870 Z-1.1000
G1 X1.4286 Y0.8683 Z-1.1000
G1 X1.5141 Y0.7641 Z-1.1000
G1 X1.6183 Y0.6786 Z-1.1000
G1 X1.7370 Y0.6151 Z-1.1000
G1 X1.8660 Y0.5760 Z-1.1000
G1 X2.0000 Y0.5628 Z-1.1000
G1 X2.1340 Y0.5760 Z-1.1000
G1 Z-1.2000 F50
G1 X2.2630 Y0.6151 Z-1.2000 F100
G1 X2.3817 Y0.6786 Z-1.2000
G1 X2.4859 Y0.7641 Z-1.2000
G1 X2.5714 Y0.8683 Z-1.2000
G1 X2.6349 Y0.9870 Z-1.2000
G1 X2.6740 Y1.1160 Z-1.2000
G1 X2.6872 Y1.2500 Z-1.2000
G1 X2.6740 Y1.3840 Z-1.2000
G1 X2.6349 Y1.5130 Z-1.2000
G1 X2.5714 Y1.6317 Z-1.2000
G1 X2.4859 Y1.7359 Z-1.2000
G1 X2.3817 Y1.8214 Z-1.2000
G1 X2.2630 Y1.8849 Z-1.2000
G1 X2.1340 Y1.9240 Z-1.2000
G1 X2.0000 Y1.9372 Z-1.2000
G1 X1.8660 Y1.9240 Z-1.2000
G1 X1.7370 Y1.8849 Z-1.2000
G1 X1.6183 Y1.8214 Z-1.2000
G1 X1.5141 Y1.7359 Z-1.2000
G1 X1.4286 Y1.6317 Z-1.2000
G1 X1.3651 Y1.5130 Z-1.2000
G1 X1.3260 Y1.3840 Z-1.2000
G1 X1.3128 Y1.2500 Z-1.2000
G1 X1.3260 Y1.1160 Z-1.2000
G1 X1.3651 Y0.9870 Z-1.2000
G1 X1.4286 Y0.8683 Z-1.2000
G1 X1.5141 Y0.7641 Z-1.2000
G1 X1.6183 Y0.6786 Z-1.2000
G1 X1.7370 Y0.6151 Z-1.2000
G1 X1.8660 Y0.5760 Z-1.2000
G1 X2.0000 Y0.5628 Z-1.2000
G1 X2.1340 Y0.5760 Z-1.2000
G1 Z-1.3000 F50
G1 X2.2630 Y0.6151 Z-1.3000 F100
G1 X2.3817 Y0.6786 Z-1.3000
G1 X2.4859 Y0.7641 Z-1.3000
G1 X2.5714 Y0.8683 Z-1.3000
G1 X2.6349 Y0.9870 Z-1.3000
G1 X2.6740 Y1.1160 Z-1.3000
G1 X2.6872 Y1.2500 Z-1.3000
G1 X2.6740 Y1.3840 Z-1.3000
G1 X2.6349 Y1.5130 Z-1.3000
G1 X2.5714 Y1.6317 Z-1.3000
G1 X2.4859 Y1.7359 Z-1.3000
G1 X2.3817 Y1.8214 Z-1.3000
G1 X2.2630 Y1.8849 Z-1.3000
G1 X2.1340 Y1.9240 Z-1.3000
G1 X2.0000 Y1.9372 Z-1.3000
G1 X1.8660 Y1.9240 Z-1.3000
G1 X1.7370 Y1.8849 Z-1.3000
G1 X1.6183 Y1.8214 Z-1.3000
G1 X1.5141 Y1.7359 Z-1.3000
G1 X1.4286 Y1.6317 Z-1.3000
G1 X1.3651 Y1.5130 Z-1.3000
G1 X1.3260 Y1.3840 Z-1.3000
G1 X1.3128 Y1.2500 Z-1.3000
G1 X1.3260 Y1.1160 Z-1.3000
G1 X1.3651 Y0.9870 Z-1.3000
G1 X1.4286 Y0.8683 Z-1.3000
G1 X1.5141 Y0.7641 Z-1.3000
G1 X1.6183 Y0.6786 Z-1.3000
G1 X1.7370 Y0.6151 Z-1.3000
G1 X1.8660 Y0.5760 Z-1.3000
G1 X2.0000 Y0.5628 Z-1.3000
G1 X2.1340 Y0.5760 Z-1.3000
G1 Z-1.4000 F50
G1 X2.2630 Y0.6151 Z-1.4000 F100
G1 X2.3817 Y0.6786 Z-1.4000
G1 X2.4859 Y0.7641 Z-1.4000
G1 X2.5714 Y0.8683 Z-1.4000
G1 X2.6349 Y0.9870 Z-1.4000
G1 X2.6740 Y1.1160 Z-1.4000
G1 X2.6872 Y1.2500 Z-1.4000
G1 X2.6740 Y1.3840 Z-1.4000
G1 X2.6349 Y1.5130 Z-1.4000
G1 X2.5714 Y1.6317 Z-1.4000
G1 X2.4859 Y1.7359 Z-1.4000
G1 X2.3817 Y1.8214 Z-1.4000
G1 X2.2630 Y1.8849 Z-1.4000
G1 X2.1340 Y1.9240 Z-1.4000
G1 X2.0000 Y1.9372 Z-1.4000
G1 X1.8660 Y1.9240 Z-1.4000
G1 X1.7370 Y1.8849 Z-1.4000
G1 X1.6183 Y1.8214 Z-1.4000
G1 X1.5141 Y1.7359 Z-1.4000
G1 X1.4286 Y1.6317 Z-1.4000
G1 X1.3651 Y1.5130 Z-1.4000
G1 X1.3260 Y1.3840 Z-1.4000
G1 X1.3128 Y1.2500 Z-1.4000
G1 X1.3260 Y1.1160 Z-1.4000
G1 X1.3651 Y0.9870 Z-1.4000
G1 X1.4286 Y0.8683 Z-1.4000
G1 X1.5141 Y0.7641 Z-1.4000
G1 X1.6183 Y0.6786 Z-1.4000
G1 X1.7370 Y0.6151 Z-1.4000
G1 X1.8660 Y0.5760 Z-1.4000
G1 X2.0000 Y0.5628 Z-1.4000
G1 X2.1340 Y0.5760 Z-1.4000
G1 Z-1.5000 F50
G1 X2.2630 Y0.6151 Z-1.5000 F100
G1 X2.3817 Y0.6786 Z-1.5000
G1 X2.4859 Y0.7641 Z-1.5000
G1 X2.5714 Y0.8683 Z-1.5000
G1 X2.6349 Y0.9870 Z-1.5000
G1 X2.6740 Y1.1160 Z-1.5000
G1 X2.6872 Y1.2500 Z-1.5000
G1 X2.6740 Y1.3840 Z-1.5000
G1 X2.6349 Y1.5130 Z-1.5000
G1 X2.5714 Y1.6317 Z-1.5000
G1 X2.4859 Y1.7359 Z-1.5000
G1 X2.3817 Y1.8214 Z-1.5000
G1 X2.2630 Y1.8849 Z-1.5000
G1 X2.1340 Y1.9240 Z-1.5000
G1 X2.0000 Y1.9372 Z-1.5000
G1 X1.8660 Y1.9240 Z-1.5000
G1 X1.7370 Y1.8849 Z-1.5000
G1 X1.6183 Y1.8214 Z-1.5000
G1 X1.5141 Y1.7359 Z-1.5000
G1 X1.4286 Y1.6317 Z-1.5000
G1 X1.3651 Y1.5130 Z-1.5000
G1 X1.3260 Y1.3840 Z-1.5000
G1 X1.3128 Y1.2500 Z-1.5000
G1 X1.3260 Y1.1160 Z-1.5000
G1 X1.3651 Y0.9870 Z-1.5000
G1 X1.4286 Y0.8683 Z-1.5000
G1 X1.5141 Y0.7641 Z-1.5000
G1 X1.6183 Y0.6786 Z-1.5000
G1 X1.7370 Y0.6151 Z-1.5000
G1 X1.8660 Y0.5760 Z-1.5000
G1 X2.0000 Y0.5628 Z-1.5000
G1 X2.1340 Y0.5760 Z-1.5000
G1 Z-1.6000 F50
G1 X2.2630 Y0.6151 Z-1.6000 F100
G1 X2.3817 Y0.6786 Z-1.6000
G1 X2.4859 Y0.7641 Z-1.6000
G1 X2.5714 Y0.8683 Z-1.6000
G1 X2.6349 Y0.9870 Z-1.6000
G1 X2.6740 Y1.1160 Z-1.6000
G1 X2.6872 Y1.2500 Z-1.6000
G1 X2.6740 Y1.3840 Z-1.6000
G1 X2.6349 Y1.5130 Z-1.6000
G1 X2.5714 Y1.6317 Z-1.6000
G1 X2.4859 Y1.7359 Z-1.6000
G1 X2.3817 Y1.8214 Z-1.6000
G1 X2.2630 Y1.8849 Z-1.6000
G1 X2.1340 Y1.9240 Z-1.6000
G1 X2.0000 Y1.9372 Z-1.6000
G1 X1.8660 Y1.9240 Z-1.6000
G1 X1.7370 Y1.8849 Z-1.6000
G1 X1.6183 Y1.8214 Z-1.6000
G1 X1.5141 Y1.7359 Z-1.6000
G1 X1.4286 Y1.6317 Z-1.6000
G1 X1.3651 Y1.5130 Z-1.6000
G1 X1.3260 Y1.3840 Z-1.6000
G1 X1.3128 Y1.2500 Z-1.6000
G1 X1.3260 Y1.1160 Z-1.6000
G1 X1.3651 Y0.9870 Z-1.6000
G1 X1.4286 Y0.8683 Z-1.6000
G1 X1.5141 Y0.7641 Z-1.6000
G1 X1.6183 Y0.6786 Z-1.6000
G1 X1.7370 Y0.6151 Z-1.6000
G1 X1.8660 Y0.5760 Z-1.6000
G1 X2.0000 Y0.5628 Z-1.6000
G1 X2.1340 Y0.5760 Z-1.6000

G0 Z0.5 ; move to z-safe height
G0 X4.3840 Y0.5760
G1 Z-0.1000 F50
G1 X4.5130 Y0.6151 Z-0.1000 F100
G1 X4.6317 Y0.6786 Z-0.1000
G1 X4.7359 Y0.7641 Z-0.1000
G1 X4.8214 Y0.8683 Z-0.1000
G1 X4.8849 Y0.9870 Z-0.1000
G1 X4.9240 Y1.1160 Z-0.1000
G1 X4.9372 Y1.2500 Z-0.1000
G1 X4.9240 Y1.3840 Z-0.1000
G1 X4.8849 Y1.5130 Z-0.1000
G1 X4.8214 Y1.6317 Z-0.1000
G1 X4.7359 Y1.7359 Z-0.1000
G1 X4.6317 Y1.8214 Z-0.1000
G1 X4.5130 Y1.8849 Z-0.1000
G1 X4.3840 Y1.9240 Z-0.1000
G1 X4.2500 Y1.9372 Z-0.1000
G1 X4.1160 Y1.9240 Z-0.1000
G1 X3.9870 Y1.8849 Z-0.1000
G1 X3.8683 Y1.8214 Z-0.1000
G1 X3.7641 Y1.7359 Z-0.1000
G1 X3.6786 Y1.6317 Z-0.1000
G1 X3.6151 Y1.5130 Z-0.1000
G1 X3.5760 Y1.3840 Z-0.1000
G1 X3.5628 Y1.2500 Z-0.1000
G1 X3.5760 Y1.1160 Z-0.1000
G1 X3.6151 Y0.9870 Z-0.1000
G1 X3.6786 Y0.8683 Z-0.1000
G1 X3.7641 Y0.7641 Z-0.1000
G1 X3.8683 Y0.6786 Z-0.1000
G1 X3.9870 Y0.6151 Z-0.1000
G1 X4.1160 Y0.5760 Z-0.1000
G1 X4.2500 Y0.5628 Z-0.1000
G1 X4.3840 Y0.5760 Z-0.1000
G1 Z-0.2000 F50
G1 X4.5130 Y0.6151 Z-0.2000 F100
G1 X4.6317 Y0.6786 Z-0.2000
G1 X4.7359 Y0.7641 Z-0.2000
G1 X4.8214 Y0.8683 Z-0.2000
G1 X4.8849 Y0.9870 Z-0.2000
G1 X4.9240 Y1.1160 Z-0.2000
G1 X4.9372 Y1.2500 Z-0.2000
G1 X4.9240 Y1.3840 Z-0.2000
G1 X4.8849 Y1.5130 Z-0.2000
G1 X4.8214 Y1.6317 Z-0.2000
G1 X4.7359 Y1.7359 Z-0.2000
G1 X4.6317 Y1.8214 Z-0.2000
G1 X4.5130 Y1.8849 Z-0.2000
G1 X4.3840 Y1.9240 Z-0.2000
G1 X4.2500 Y1.9372 Z-0.2000
G1 X4.1160 Y1.9240 Z-0.2000
G1 X3.9870 Y1.8849 Z-0.2000
G1 X3.8683 Y1.8214 Z-0.2000
G1 X3.7641 Y1.7359 Z-0.2000
G1 X3.6786 Y1.6317 Z-0.2000
G1 X3.6151 Y1.5130 Z-0.2000
G1 X3.5760 Y1.3840 Z-0.2000
G1 X3.5628 Y1.2500 Z-0.2000
G1 X3.5760 Y1.1160 Z-0.2000
G1 X3.6151 Y0.9870 Z-0.2000
G1 X3.6786 Y0.8683 Z-0.2000
G1 X3.7641 Y0.7641 Z-0.2000
G1 X3.8683 Y0.6786 Z-0.2000
G1 X3.9870 Y0.6151 Z-0.2000
G1 X4.1160 Y0.5760 Z-0.2000
G1 X4.2500 Y0.5628 Z-0.2000
G1 X4.3840 Y0.5760 Z-0.2000
G1 Z-0.3000 F50
G1 X4.5130 Y0.6151 Z-0.3000 F100
G1 X4.6317 Y0.6786 Z-0.3000
G1 X4.7359 Y0.7641 Z-0.3000
G1 X4.8214 Y0.8683 Z-0.3000
G1 X4.8849 Y0.9870 Z-0.3000
G1 X4.9240 Y1.1160 Z-0.3000
G1 X4.9372 Y1.2500 Z-0.3000
G1 X4.9240 Y1.3840 Z-0.3000
G1 X4.8849 Y1.5130 Z-0.3000
G1 X4.8214 Y1.6317 Z-0.3000
G1 X4.7359 Y1.7359 Z-0.3000
G1 X4.6317 Y1.8214 Z-0.3000
G1 X4.5130 Y1.8849 Z-0.3000
G1 X4.3840 Y1.9240 Z-0.3000
G1 X4.2500 Y1.9372 Z-0.3000
G1 X4.1160 Y1.9240 Z-0.3000
G1 X3.9870 Y1.8849 Z-0.3000
G1 X3.8683 Y1.8214 Z-0.3000
G1 X3.7641 Y1.7359 Z-0.3000
G1 X3.6786 Y1.6317 Z-0.3000
G1 X3.6151 Y1.5130 Z-0.3000
G1 X3.5760 Y1.3840 Z-0.3000
G1 X3.5628 Y1.2500 Z-0.3000
G1 X3.5760 Y1.1160 Z-0.3000
G1 X3.6151 Y0.9870 Z-0.3000
G1 X3.6786 Y0.8683 Z-0.3000
G1 X3.7641 Y0.7641 Z-0.3000
G1 X3.8683 Y0.6786 Z-0.3000
G1 X3.9870 Y0.6151 Z-0.3000
G1 X4.1160 Y0.5760 Z-0.3000
G1 X4.2500 Y0.5628 Z-0.3000
G1 X4.3840 Y0.5760 Z-0.3000
G1 Z-0.4000 F50
G1 X4.5130 Y0.6151 Z-0.4000 F100
G1 X4.6317 Y0.6786 Z-0.4000
G1 X4.7359 Y0.7641 Z-0.4000
G1 X4.8214 Y0.8683 Z-0.4000
G1 X4.8849 Y0.9870 Z-0.4000
G1 X4.9240 Y1.1160 Z-0.4000
G1 X4.9372 Y1.2500 Z-0.4000
G1 X4.9240 Y1.3840 Z-0.4000
G1 X4.8849 Y1.5130 Z-0.4000
G1 X4.8214 Y1.6317 Z-0.4000
G1 X4.7359 Y1.7359 Z-0.4000
G1 X4.6317 Y1.8214 Z-0.4000
G1 X4.5130 Y1.8849 Z-0.4000
G1 X4.3840 Y1.9240 Z-0.4000
G1 X4.2500 Y1.9372 Z-0.4000
G1 X4.1160 Y1.9240 Z-0.4000
G1 X3.9870 Y1.8849 Z-0.4000
G1 X3.8683 Y1.8214 Z-0.4000
G1 X3.7641 Y1.7359 Z-0.4000
G1 X3.6786 Y1.6317 Z-0.4000
G1 X3.6151 Y1.5130 Z-0.4000
G1 X3.5760 Y1.3840 Z-0.4000
G1 X3.5628 Y1.2500 Z-0.4000
G1 X3.5760 Y1.1160 Z-0.4000
G1 X3.6151 Y0.9870 Z-0.4000
G1 X3.6786 Y0.8683 Z-0.4000
G1 X3.7641 Y0.7641 Z-0.4000
G1 X3.8683 Y0.6786 Z-0.4000
G1 X3.9870 Y0.6151 Z-0.4000
G1 X4.1160 Y0.5760 Z-0.4000
G1 X4.2500 Y0.5628 Z-0.4000
G1 X4.3840 Y0.5760 Z-0.4000
G1 Z-0.5000 F50
G1 X4.5130 Y0.6151 Z-0.5000 F100
G1 X4.6317 Y0.6786 Z-0.5000
G1 X4.7359 Y0.7641 Z-0.5000
G1 X4.8214 Y0.8683 Z-0.5000
G1 X4.8849 Y0.9870 Z-0.5000
G1 X4.9240 Y1.1160 Z-0.5000
G1 X4.9372 Y1.2500 Z-0.5000
G1 X4.9240 Y1.3840 Z-0.5000
G1 X4.8849 Y1.5130 Z-0.5000
G1 X4.8214 Y1.6317 Z-0.5000
G1 X4.7359 Y1.7359 Z-0.5000
G1 X4.6317 Y1.8214 Z-0.5000
G1 X4.5130 Y1.8849 Z-0.5000
G1 X4.3840 Y1.9240 Z-0.5000
G1 X4.2500 Y1.9372 Z-0.5000
G1 X4.1160 Y1.9240 Z-0.5000
G1 X3.9870 Y1.8849 Z-0.5000
G1 X3.8683 Y1.8214 Z-0.5000
G1 X3.7641 Y1.7359 Z-0.5000
G1 X3.6786 Y1.6317 Z-0.5000
G1 X3.6151 Y1.5130 Z-0.5000
G1 X3.5760 Y1.3840 Z-0.5000
G1 X3.5628 Y1.2500 Z-0.5000
G1 X3.5760 Y1.1160 Z-0.5000
G1 X3.6151 Y0.9870 Z-0.5000
G1 X3.6786 Y0.8683 Z-0.5000
G1 X3.7641 Y0.7641 Z-0.5000
G1 X3.8683 Y0.6786 Z-0.5000
G1 X3.9870 Y0.6151 Z-0.5000
G1 X4.1160 Y0.5760 Z-0.5000
G1 X4.2500 Y0.5628 Z-0.5000
G1 X4.3840 Y0.5760 Z-0.5000
G1 Z-0.6000 F50
G1 X4.5130 Y0.6151 Z-0.6000 F100
G1 X4.6317 Y0.6786 Z-0.6000
G1 X4.7359 Y0.7641 Z-0.6000
G1 X4.8214 Y0.8683 Z-0.6000
G1 X4.8849 Y0.9870 Z-0.6000
G1 X4.9240 Y1.1160 Z-0.6000
G1 X4.9372 Y1.2500 Z-0.6000
G1 X4.9240 Y1.3840 Z-0.6000
G1 X4.8849 Y1.5130 Z-0.6000
G1 X4.8214 Y1.6317 Z-0.6000
G1 X4.7359 Y1.7359 Z-0.6000
G1 X4.6317 Y1.8214 Z-0.6000
G1 X4.5130 Y1.8849 Z-0.6000
G1 X4.3840 Y1.9240 Z-0.6000
G1 X4.2500 Y1.9372 Z-0.6000
G1 X4.1160 Y1.9240 Z-0.6000
G1 X3.9870 Y1.8849 Z-0.6000
G1 X3.8683 Y1.8214 Z-0.6000
G1 X3.7641 Y1.7359 Z-0.6000
G1 X3.6786 Y1.6317 Z-0.6000
G1 X3.6151 Y1.5130 Z-0.6000
G1 X3.5760 Y1.3840 Z-0.6000
G1 X3.5628 Y1.2500 Z-0.6000
G1 X3.5760 Y1.1160 Z-0.6000
G1 X3.6151 Y0.9870 Z-0.6000
G1 X3.6786 Y0.8683 Z-0.6000
G1 X3.7641 Y0.7641 Z-0.6000
G1 X3.8683 Y0.6786 Z-0.6000
G1 X3.9870 Y0.6151 Z-0.6000
G1 X4.1160 Y0.5760 Z-0.6000
G1 X4.2500 Y0.5628 Z-0.6000
G1 X4.3840 Y0.5760 Z-0.6000
G1 Z-0.7000 F50
G1 X4.5130 Y0.6151 Z-0.7000 F100
G1 X4.6317 Y0.6786 Z-0.7000
G1 X4.7359 Y0.7641 Z-0.7000
G1 X4.8214 Y0.8683 Z-0.7000
G1 X4.8849 Y0.9870 Z-0.7000
G1 X4.9240 Y1.1160 Z-0.7000
G1 X4.9372 Y1.2500 Z-0.7000
G1 X4.9240 Y1.3840 Z-0.7000
G1 X4.8849 Y1.5130 Z-0.7000
G1 X4.8214 Y1.6317 Z-0.7000
G1 X4.7359 Y1.7359 Z-0.7000
G1 X4.6317 Y1.8214 Z-0.7000
G1 X4.5130 Y1.8849 Z-0.7000
G1 X4.3840 Y1.9240 Z-0.7000
G1 X4.2500 Y1.9372 Z-0.7000
G1 X4.1160 Y1.9240 Z-0.7000
G1 X3.9870 Y1.8849 Z-0.7000
G1 X3.8683 Y1.8214 Z-0.7000
G1 X3.7641 Y1.7359 Z-0.7000
G1 X3.6786 Y1.6317 Z-0.7000
G1 X3.6151 Y1.5130 Z-0.7000
G1 X3.5760 Y1.3840 Z-0.7000
G1 X3.5628 Y1.2500 Z-0.7000
G1 X3.5760 Y1.1160 Z-0.7000
G1 X3.6151 Y0.9870 Z-0.7000
G1 X3.6786 Y0.8683 Z-0.7000
G1 X3.7641 Y0.7641 Z-0.7000
G1 X3.8683 Y0.6786 Z-0.7000
G1 X3.9870 Y0.6151 Z-0.7000
G1 X4.1160 Y0.5760 Z-0.7000
G1 X4.2500 Y0.5628 Z-0.7000
G1 X4.3840 Y0.5760 Z-0.7000
G1 Z-0.8000 F50
G1 X4.5130 Y0.6151 Z-0.8000 F100
G1 X4.6317 Y0.6786 Z-0.8000
G1 X4.7359 Y0.7641 Z-0.8000
G1 X4.8214 Y0.8683 Z-0.8000
G1 X4.8849 Y0.9870 Z-0.8000
G1 X4.9240 Y1.1160 Z-0.8000
G1 X4.9372 Y1.2500 Z-0.8000
G1 X4.9240 Y1.3840 Z-0.8000
G1 X4.8849 Y1.5130 Z-0.8000
G1 X4.8214 Y1.6317 Z-0.8000
G1 X4.7359 Y1.7359 Z-0.8000
G1 X4.6317 Y1.8214 Z-0.8000
G1 X4.5130 Y1.8849 Z-0.8000
G1 X4.3840 Y1.9240 Z-0.8000
G1 X4.2500 Y1.9372 Z-0.8000
G1 X4.1160 Y1.9240 Z-0.8000
G1 X3.9870 Y1.8849 Z-0.8000
G1 X3.8683 Y1.8214 Z-0.8000
G1 X3.7641 Y1.7359 Z-0.8000
G1 X3.6786 Y1.6317 Z-0.8000
G1 X3.6151 Y1.5130 Z-0.8000
G1 X3.5760 Y1.3840 Z-0.8000
G1 X3.5628 Y1.2500 Z-0.8000
G1 X3.5760 Y1.1160 Z-0.8000
G1 X3.6151 Y0.9870 Z-0.8000
G1 X3.6786 Y0.8683 Z-0.8000
G1 X3.7641 Y0.7641 Z-0.8000
G1 X3.8683 Y0.6786 Z-0.8000
G1 X3.9870 Y0.6151 Z-0.8000
G1 X4.1160 Y0.5760 Z-0.8000
G1 X4.2500 Y0.5628 Z-0.8000
G1 X4.3840 Y0.5760 Z-0.8000
G1 Z-0.9000 F50
G1 X4.5130 Y0.6151 Z-0.9000 F100
G1 X4.6317 Y0.6786 Z-0.9000
G1 X4.7359 Y0.7641 Z-0.9000
G1 X4.8214 Y0.8683 Z-0.9000
G1 X4.8849 Y0.9870 Z-0.9000
G1 X4.9240 Y1.1160 Z-0.9000
G1 X4.9372 Y1.2500 Z-0.9000
G1 X4.9240 Y1.3840 Z-0.9000
G1 X4.8849 Y1.5130 Z-0.9000
G1 X4.8214 Y1.6317 Z-0.9000
G1 X4.7359 Y1.7359 Z-0.9000
G1 X4.6317 Y1.8214 Z-0.9000
G1 X4.5130 Y1.8849 Z-0.9000
G1 X4.3840 Y1.9240 Z-0.9000
G1 X4.2500 Y1.9372 Z-0.9000
G1 X4.1160 Y1.9240 Z-0.9000
G1 X3.9870 Y1.8849 Z-0.9000
G1 X3.8683 Y1.8214 Z-0.9000
G1 X3.7641 Y1.7359 Z-0.9000
G1 X3.6786 Y1.6317 Z-0.9000
G1 X3.6151 Y1.5130 Z-0.9000
G1 X3.5760 Y1.3840 Z-0.9000
G1 X3.5628 Y1.2500 Z-0.9000
G1 X3.5760 Y1.1160 Z-0.9000
G1 X3.6151 Y0.9870 Z-0.9000
G1 X3.6786 Y0.8683 Z-0.9000
G1 X3.7641 Y0.7641 Z-0.9000
G1 X3.8683 Y0.6786 Z-0.9000
G1 X3.9870 Y0.6151 Z-0.9000
G1 X4.1160 Y0.5760 Z-0.9000
G1 X4.2500 Y0.5628 Z-0.9000
G1 X4.3840 Y0.5760 Z-0.9000
G1 Z-1.0000 F50
G1 X4.5130 Y0.6151 Z-1.0000 F100
G1 X4.6317 Y0.6786 Z-1.0000
G1 X4.7359 Y0.7641 Z-1.0000
G1 X4.8214 Y0.8683 Z-1.0000
G1 X4.8849 Y0.9870 Z-1.0000
G1 X4.9240 Y1.1160 Z-1.0000
G1 X4.9372 Y1.2500 Z-1.0000
G1 X4.9240 Y1.3840 Z-1.0000
G1 X4.8849 Y1.5130 Z-1.0000
G1 X4.8214 Y1.6317 Z-1.0000
G1 X4.7359 Y1.7359 Z-1.0000
G1 X4.6317 Y1.8214 Z-1.0000
G1 X4.5130 Y1.8849 Z-1.0000
G1 X4.3840 Y1.9240 Z-1.0000
G1 X4.2500 Y1.9372 Z-1.0000
G1 X4.1160 Y1.9240 Z-1.0000
G1 X3.9870 Y1.8849 Z-1.0000
G1 X3.8683 Y1.8214 Z-1.0000
G1 X3.7641 Y1.7359 Z-1.0000
G1 X3.6786 Y1.6317 Z-1.0000
G1 X3.6151 Y1.5130 Z-1.0000
G1 X3.5760 Y1.3840 Z-1.0000
G1 X3.5628 Y1.2500 Z-1.0000
G1 X3.5760 Y1.1160 Z-1.0000
G1 X3.6151 Y0.9870 Z-1.0000
G1 X3.6786 Y0.8683 Z-1.0000
G1 X3.7641 Y0.7641 Z-1.0000
G1 X3.8683 Y0.6786 Z-1.0000
G1 X3.9870 Y0.6151 Z-1.0000
G1 X4.1160 Y0.5760 Z-1.0000
G1 X4.2500 Y0.5628 Z-1.0000
G1 X4.3840 Y0.5760 Z-1.0000
G1 Z-1.1000 F50
G1 X4.5130 Y0.6151 Z-1.1000 F100
G1 X4.6317 Y0.6786 Z-1.1000
G1 X4.7359 Y0.7641 Z-1.1000
G1 X4.8214 Y0.8683 Z-1.1000
G1 X4.8849 Y0.9870 Z-1.1000
G1 X4.9240 Y1.1160 Z-1.1000
G1 X4.9372 Y1.2500 Z-1.1000
G1 X4.9240 Y1.3840 Z-1.1000
G1 X4.8849 Y1.5130 Z-1.1000
G1 X4.8214 Y1.6317 Z-1.1000
G1 X4.7359 Y1.7359 Z-1.1000
G1 X4.6317 Y1.8214 Z-1.1000
G1 X4.5130 Y1.8849 Z-1.1000
G1 X4.3840 Y1.9240 Z-1.1000
G1 X4.2500 Y1.9372 Z-1.1000
G1 X4.1160 Y1.9240 Z-1.1000
G1 X3.9870 Y1.8849 Z-1.1000
G1 X3.8683 Y1.8214 Z-1.1000
G1 X3.7641 Y1.7359 Z-1.1000
G1 X3.6786 Y1.6317 Z-1.1000
G1 X3.6151 Y1.5130 Z-1.1000
G1 X3.5760 Y1.3840 Z-1.1000
G1 X3.5628 Y1.2500 Z-1.1000
G1 X3.5760 Y1.1160 Z-1.1000
G1 X3.6151 Y0.9870 Z-1.1000
G1 X3.6786 Y0.8683 Z-1.1000
G1 X3.7641 Y0.7641 Z-1.1000
G1 X3.8683 Y0.6786 Z-1.1000
G1 X3.9870 Y0.6151 Z-1.1000
G1 X4.1160 Y0.5760 Z-1.1000
G1 X4.2500 Y0.5628 Z-1.1000
G1 X4.3840 Y0.5760 Z-1.1000
G1 Z-1.2000 F50
G1 X4.5130 Y0.6151 Z-1.2000 F100
G1 X4.6317 Y0.6786 Z-1.2000
G1 X4.7359 Y0.7641 Z-1.2000
G1 X4.8214 Y0.8683 Z-1.2000
G1 X4.8849 Y0.9870 Z-1.2000
G1 X4.9240 Y1.1160 Z-1.2000
G1 X4.9372 Y1.2500 Z-1.2000
G1 X4.9240 Y1.3840 Z-1.2000
G1 X4.8849 Y1.5130 Z-1.2000
G1 X4.8214 Y1.6317 Z-1.2000
G1 X4.7359 Y1.7359 Z-1.2000
G1 X4.6317 Y1.8214 Z-1.2000
G1 X4.5130 Y1.8849 Z-1.2000
G1 X4.3840 Y1.9240 Z-1.2000
G1 X4.2500 Y1.9372 Z-1.2000
G1 X4.1160 Y1.9240 Z-1.2000
G1 X3.9870 Y1.8849 Z-1.2000
G1 X3.8683 Y1.8214 Z-1.2000
G1 X3.7641 Y1.7359 Z-1.2000
G1 X3.6786 Y1.6317 Z-1.2000
G1 X3.6151 Y1.5130 Z-1.2000
G1 X3.5760 Y1.3840 Z-1.2000
G1 X3.5628 Y1.2500 Z-1.2000
G1 X3.5760 Y1.1160 Z-1.2000
G1 X3.6151 Y0.9870 Z-1.2000
G1 X3.6786 Y0.8683 Z-1.2000
G1 X3.7641 Y0.7641 Z-1.2000
G1 X3.8683 Y0.6786 Z-1.2000
G1 X3.9870 Y0.6151 Z-1.2000
G1 X4.1160 Y0.5760 Z-1.2000
G1 X4.2500 Y0.5628 Z-1.2000
G1 X4.3840 Y0.5760 Z-1.2000
G1 Z-1.3000 F50
G1 X4.5130 Y0.6151 Z-1.3000 F100
G1 X4.6317 Y0.6786 Z-1.3000
G1 X4.7359 Y0.7641 Z-1.3000
G1 X4.8214 Y0.8683 Z-1.3000
G1 X4.8849 Y0.9870 Z-1.3000
G1 X4.9240 Y1.1160 Z-1.3000
G1 X4.9372 Y1.2500 Z-1.3000
G1 X4.9240 Y1.3840 Z-1.3000
G1 X4.8849 Y1.5130 Z-1.3000
G1 X4.8214 Y1.6317 Z-1.3000
G1 X4.7359 Y1.7359 Z-1.3000
G1 X4.6317 Y1.8214 Z-1.3000
G1 X4.5130 Y1.8849 Z-1.3000
G1 X4.3840 Y1.9240 Z-1.3000
G1 X4.2500 Y1.9372 Z-1.3000
G1 X4.1160 Y1.9240 Z-1.3000
G1 X3.9870 Y1.8849 Z-1.3000
G1 X3.8683 Y1.8214 Z-1.3000
G1 X3.7641 Y1.7359 Z-1.3000
G1 X3.6786 Y1.6317 Z-1.3000
G1 X3.6151 Y1.5130 Z-1.3000
G1 X3.5760 Y1.3840 Z-1.3000
G1 X3.5628 Y1.2500 Z-1.3000
G1 X3.5760 Y1.1160 Z-1.3000
G1 X3.6151 Y0.9870 Z-1.3000
G1 X3.6786 Y0.8683 Z-1.3000
G1 X3.7641 Y0.7641 Z-1.3000
G1 X3.8683 Y0.6786 Z-1.3000
G1 X3.9870 Y0.6151 Z-1.3000
G1 X4.1160 Y0.5760 Z-1.3000
G1 X4.2500 Y0.5628 Z-1.3000
G1 X4.3840 Y0.5760 Z-1.3000
G1 Z-1.4000 F50
G1 X4.5130 Y0.6151 Z-1.4000 F100
G1 X4.6317 Y0.6786 Z-1.4000
G1 X4.7359 Y0.7641 Z-1.4000
G1 X4.8214 Y0.8683 Z-1.4000
G1 X4.8849 Y0.9870 Z-1.4000
G1 X4.9240 Y1.1160 Z-1.4000
G1 X4.9372 Y1.2500 Z-1.4000
G1 X4.9240 Y1.3840 Z-1.4000
G1 X4.8849 Y1.5130 Z-1.4000
G1 X4.8214 Y1.6317 Z-1.4000
G1 X4.7359 Y1.7359 Z-1.4000
G1 X4.6317 Y1.8214 Z-1.4000
G1 X4.5130 Y1.8849 Z-1.4000
G1 X4.3840 Y1.9240 Z-1.4000
G1 X4.2500 Y1.9372 Z-1.4000
G1 X4.1160 Y1.9240 Z-1.4000
G1 X3.9870 Y1.8849 Z-1.4000
G1 X3.8683 Y1.8214 Z-1.4000
G1 X3.7641 Y1.7359 Z-1.4000
G1 X3.6786 Y1.6317 Z-1.4000
G1 X3.6151 Y1.5130 Z-1.4000
G1 X3.5760 Y1.3840 Z-1.4000
G1 X3.5628 Y1.2500 Z-1.4000
G1 X3.5760 Y1.1160 Z-1.4000
G1 X3.6151 Y0.9870 Z-1.4000
G1 X3.6786 Y0.8683 Z-1.4000
G1 X3.7641 Y0.7641 Z-1.4000
G1 X3.8683 Y0.6786 Z-1.4000
G1 X3.9870 Y0.6151 Z-1.4000
G1 X4.1160 Y0.5760 Z-1.4000
G1 X4.2500 Y0.5628 Z-1.4000
G1 X4.3840 Y0.5760 Z-1.4000
G1 Z-1.5000 F50
G1 X4.5130 Y0.6151 Z-1.5000 F100
G1 X4.6317 Y0.6786 Z-1.5000
G1 X4.7359 Y0.7641 Z-1.5000
G1 X4.8214 Y0.8683 Z-1.5000
G1 X4.8849 Y0.9870 Z-1.5000
G1 X4.9240 Y1.1160 Z-1.5000
G1 X4.9372 Y1.2500 Z-1.5000
G1 X4.9240 Y1.3840 Z-1.5000
G1 X4.8849 Y1.5130 Z-1.5000
G1 X4.8214 Y1.6317 Z-1.5000
G1 X4.7359 Y1.7359 Z-1.5000
G1 X4.6317 Y1.8214 Z-1.5000
G1 X4.5130 Y1.8849 Z-1.5000
G1 X4.3840 Y1.9240 Z-1.5000
G1 X4.2500 Y1.9372 Z-1.5000
G1 X4.1160 Y1.9240 Z-1.5000
G1 X3.9870 Y1.8849 Z-1.5000
G1 X3.8683 Y1.8214 Z-1.5000
G1 X3.7641 Y1.7359 Z-1.5000
G1 X3.6786 Y1.6317 Z-1.5000
G1 X3.6151 Y1.5130 Z-1.5000
G1 X3.5760 Y1.3840 Z-1.5000
G1 X3.5628 Y1.2500 Z-1.5000
G1 X3.5760 Y1.1160 Z-1.5000
G1 X3.6151 Y0.9870 Z-1.5000
G1 X3.6786 Y0.8683 Z-1.5000
G1 X3.7641 Y0.7641 Z-1.5000
G1 X3.8683 Y0.6786 Z-1.5000
G1 X3.9870 Y0.6151 Z-1.5000
G1 X4.1160 Y0.5760 Z-1.5000
G1 X4.2500 Y0.5628 Z-1.5000
G1 X4.3840 Y0.5760 Z-1.5000
G1 Z-1.6000 F50
G1 X4.5130 Y0.6151 Z-1.6000 F100
G1 X4.6317 Y0.6786 Z-1.6000
G1 X4.7359 Y0.7641 Z-1.6000
G1 X4.8214 Y0.8683 Z-1.6000
G1 X4.8849 Y0.9870 Z-1.6000
G1 X4.9240 Y1.1160 Z-1.6000
G1 X4.9372 Y1.2500 Z-1.6000
G1 X4.9240 Y1.3840 Z-1.6000
G1 X4.8849 Y1.5130 Z-1.6000
G1 X4.8214 Y1.6317 Z-1.6000
G1 X4.7359 Y1.7359 Z-1.6000
G1 X4.6317 Y1.8214 Z-1.6000
G1 X4.5130 Y1.8849 Z-1.6000
G1 X4.3840 Y1.9240 Z-1.6000
G1 X4.2500 Y1.9372 Z-1.6000
G1 X4.1160 Y1.9240 Z-1.6000
G1 X3.9870 Y1.8849 Z-1.6000
G1 X3.8683 Y1.8214 Z-1.6000
G1 X3.7641 Y1.7359 Z-1.6000
G1 X3.6786 Y1.6317 Z-1.6000
G1 X3.6151 Y1.5130 Z-1.6000
G1 X3.5760 Y1.3840 Z-1.6000
G1 X3.5628 Y1.2500 Z-1.6000
G1 X3.5760 Y1.1160 Z-1.6000
G1 X3.6151 Y0.9870 Z-1.6000
G1 X3.6786 Y0.8683 Z-1.6000
G1 X3.7641 Y0.7641 Z-1.6000
G1 X3.8683 Y0.6786 Z-1.6000
G1 X3.9870 Y0.6151 Z-1.6000
G1 X4.1160 Y0.5760 Z-1.6000
G1 X4.2500 Y0.5628 Z-1.6000
G1 X4.3840 Y0.5760 Z-1.6000

G0 Z0.5 ; move to z-safe height
G0 X6.6340 Y0.5760
G1 Z-0.1000 F50
G1 X6.7630 Y0.6151 Z-0.1000 F100
G1 X6.8817 Y0.6786 Z-0.1000
G1 X6.9859 Y0.7641 Z-0.1000
G1 X7.0714 Y0.8683 Z-0.1000
G1 X7.1349 Y0.9870 Z-0.1000
G1 X7.1740 Y1.1160 Z-0.1000
G1 X7.1872 Y1.2500 Z-0.1000
G1 X7.1740 Y1.3840 Z-0.1000
G1 X7.1349 Y1.5130 Z-0.1000
G1 X7.0714 Y1.6317 Z-0.1000
G1 X6.9859 Y1.7359 Z-0.1000
G1 X6.8817 Y1.8214 Z-0.1000
G1 X6.7630 Y1.8849 Z-0.1000
G1 X6.6340 Y1.9240 Z-0.1000
G1 X6.5000 Y1.9372 Z-0.1000
G1 X6.3660 Y1.9240 Z-0.1000
G1 X6.2370 Y1.8849 Z-0.1000
G1 X6.1183 Y1.8214 Z-0.1000
G1 X6.0141 Y1.7359 Z-0.1000
G1 X5.9286 Y1.6317 Z-0.1000
G1 X5.8651 Y1.5130 Z-0.1000
G1 X5.8260 Y1.3840 Z-0.1000
G1 X5.8128 Y1.2500 Z-0.1000
G1 X5.8260 Y1.1160 Z-0.1000
G1 X5.8651 Y0.9870 Z-0.1000
G1 X5.9286 Y0.8683 Z-0.1000
G1 X6.0141 Y0.7641 Z-0.1000
G1 X6.1183 Y0.6786 Z-0.1000
G1 X6.2370 Y0.6151 Z-0.1000
G1 X6.3660 Y0.5760 Z-0.1000
G1 X6.5000 Y0.5628 Z-0.1000
G1 X6.6340 Y0.5760 Z-0.1000
G1 Z-0.2000 F50
G1 X6.7630 Y0.6151 Z-0.2000 F100
G1 X6.8817 Y0.6786 Z-0.2000
G1 X6.9859 Y0.7641 Z-0.2000
G1 X7.0714 Y0.8683 Z-0.2000
G1 X7.1349 Y0.9870 Z-0.2000
G1 X7.1740 Y1.1160 Z-0.2000
G1 X7.1872 Y1.2500 Z-0.2000
G1 X7.1740 Y1.3840 Z-0.2000
G1 X7.1349 Y1.5130 Z-0.2000
G1 X7.0714 Y1.6317 Z-0.2000
G1 X6.9859 Y1.7359 Z-0.2000
G1 X6.8817 Y1.8214 Z-0.2000
G1 X6.7630 Y1.8849 Z-0.2000
G1 X6.6340 Y1.9240 Z-0.2000
G1 X6.5000 Y1.9372 Z-0.2000
G1 X6.3660 Y1.9240 Z-0.2000
G1 X6.2370 Y1.8849 Z-0.2000
G1 X6.1183 Y1.8214 Z-0.2000
G1 X6.0141 Y1.7359 Z-0.2000
G1 X5.9286 Y1.6317 Z-0.2000
G1 X5.8651 Y1.5130 Z-0.2000
G1 X5.8260 Y1.3840 Z-0.2000
G1 X5.8128 Y1.2500 Z-0.2000
G1 X5.8260 Y1.1160 Z-0.2000
G1 X5.8651 Y0.9870 Z-0.2000
G1 X5.9286 Y0.8683 Z-0.2000
G1 X6.0141 Y0.7641 Z-0.2000
G1 X6.1183 Y0.6786 Z-0.2000
G1 X6.2370 Y0.6151 Z-0.2000
G1 X6.3660 Y0.5760 Z-0.2000
G1 X6.5000 Y0.5628 Z-0.2000
G1 X6.6340 Y0.5760 Z-0.2000
G1 Z-0.3000 F50
G1 X6.7630 Y0.6151 Z-0.3000 F100
G1 X6.8817 Y0.6786 Z-0.3000
G1 X6.9859 Y0.7641 Z-0.3000
G1 X7.0714 Y0.8683 Z-0.3000
G1 X7.1349 Y0.9870 Z-0.3000
G1 X7.1740 Y1.1160 Z-0.3000
G1 X7.1872 Y1.2500 Z-0.3000
G1 X7.1740 Y1.3840 Z-0.3000
G1 X7.1349 Y1.5130 Z-0.3000
G1 X7.0714 Y1.6317 Z-0.3000
G1 X6.9859 Y1.7359 Z-0.3000
G1 X6.8817 Y1.8214 Z-0.3000
G1 X6.7630 Y1.8849 Z-0.3000
G1 X6.6340 Y1.9240 Z-0.3000
G1 X6.5000 Y1.9372 Z-0.3000
G1 X6.3660 Y1.9240 Z-0.3000
G1 X6.2370 Y1.8849 Z-0.3000
G1 X6.1183 Y1.8214 Z-0.3000
G1 X6.0141 Y1.7359 Z-0.3000
G1 X5.9286 Y1.6317 Z-0.3000
G1 X5.8651 Y1.5130 Z-0.3000
G1 X5.8260 Y1.3840 Z-0.3000
G1 X5.8128 Y1.2500 Z-0.3000
G1 X5.8260 Y1.1160 Z-0.3000
G1 X5.8651 Y0.9870 Z-0.3000
G1 X5.9286 Y0.8683 Z-0.3000
G1 X6.0141 Y0.7641 Z-0.3000
G1 X6.1183 Y0.6786 Z-0.3000
G1 X6.2370 Y0.6151 Z-0.3000
G1 X6.3660 Y0.5760 Z-0.3000
G1 X6.5000 Y0.5628 Z-0.3000
G1 X6.6340 Y0.5760 Z-0.3000
G1 Z-0.4000 F50
G1 X6.7630 Y0.6151 Z-0.4000 F100
G1 X6.8817 Y0.6786 Z-0.4000
G1 X6.9859 Y0.7641 Z-0.4000
G1 X7.0714 Y0.8683 Z-0.4000
G1 X7.1349 Y0.9870 Z-0.4000
G1 X7.1740 Y1.1160 Z-0.4000
G1 X7.1872 Y1.2500 Z-0.4000
G1 X7.1740 Y1.3840 Z-0.4000
G1 X7.1349 Y1.5130 Z-0.4000
G1 X7.0714 Y1.6317 Z-0.4000
G1 X6.9859 Y1.7359 Z-0.4000
G1 X6.8817 Y1.8214 Z-0.4000
G1 X6.7630 Y1.8849 Z-0.4000
G1 X6.6340 Y1.9240 Z-0.4000
G1 X6.5000 Y1.9372 Z-0.4000
G1 X6.3660 Y1.9240 Z-0.4000
G1 X6.2370 Y1.8849 Z-0.4000
G1 X6.1183 Y1.8214 Z-0.4000
G1 X6.0141 Y1.7359 Z-0.4000
G1 X5.9286 Y1.6317 Z-0.4000
G1 X5.8651 Y1.5130 Z-0.4000
G1 X5.8260 Y1.3840 Z-0.4000
G1 X5.8128 Y1.2500 Z-0.4000
G1 X5.8260 Y1.1160 Z-0.4000
G1 X5.8651 Y0.9870 Z-0.4000
G1 X5.9286 Y0.8683 Z-0.4000
G1 X6.0141 Y0.7641 Z-0.4000
G1 X6.1183 Y0.6786 Z-0.4000
G1 X6.2370 Y0.6151 Z-0.4000
G1 X6.3660 Y0.5760 Z-0.4000
G1 X6.5000 Y0.5628 Z-0.4000
G1 X6.6340 Y0.5760 Z-0.4000
G1 Z-0.5000 F50
G1 X6.7630 Y0.6151 Z-0.5000 F100
G1 X6.8817 Y0.6786 Z-0.5000
G1 X6.9859 Y0.7641 Z-0.5000
G1 X7.0714 Y0.8683 Z-0.5000
G1 X7.1349 Y0.9870 Z-0.5000
G1 X7.1740 Y1.1160 Z-0.5000
G1 X7.1872 Y1.2500 Z-0.5000
G1 X7.1740 Y1.3840 Z-0.5000
G1 X7.1349 Y1.5130 Z-0.5000
G1 X7.0714 Y1.6317 Z-0.5000
G1 X6.9859 Y1.7359 Z-0.5000
G1 X6.8817 Y1.8214 Z-0.5000
G1 X6.7630 Y1.8849 Z-0.5000
G1 X6.6340 Y1.9240 Z-0.5000
G1 X6.5000 Y1.9372 Z-0.5000
G1 X6.3660 Y1.9240 Z-0.5000
G1 X6.2370 Y1.8849 Z-0.5000
G1 X6.1183 Y1.8214 Z-0.5000
G1 X6.0141 Y1.7359 Z-0.5000
G1 X5.9286 Y1.6317 Z-0.5000
G1 X5.8651 Y1.5130 Z-0.5000
G1 X5.8260 Y1.3840 Z-0.5000
G1 X5.8128 Y1.2500 Z-0.5000
G1 X5.8260 Y1.1160 Z-0.5000
G1 X5.8651 Y0.9870 Z-0.5000
G1 X5.9286 Y0.8683 Z-0.5000
G1 X6.0141 Y0.7641 Z-0.5000
G1 X6.1183 Y0.6786 Z-0.5000
G1 X6.2370 Y0.6151 Z-0.5000
G1 X6.3660 Y0.5760 Z-0.5000
G1 X6.5000 Y0.5628 Z-0.5000
G1 X6.6340 Y0.5760 Z-0.5000
G1 Z-0.6000 F50
G1 X6.7630 Y0.6151 Z-0.6000 F100
G1 X6.8817 Y0.6786 Z-0.6000
G1 X6.9859 Y0.7641 Z-0.6000
G1 X7.0714 Y0.8683 Z-0.6000
G1 X7.1349 Y0.9870 Z-0.6000
G1 X7.1740 Y1.1160 Z-0.6000
G1 X7.1872 Y1.2500 Z-0.6000
G1 X7.1740 Y1.3840 Z-0.6000
G1 X7.1349 Y1.5130 Z-0.6000
G1 X7.0714 Y1.6317 Z-0.6000
G1 X6.9859 Y1.7359 Z-0.6000
G1 X6.8817 Y1.8214 Z-0.6000
G1 X6.7630 Y1.8849 Z-0.6000
G1 X6.6340 Y1.9240 Z-0.6000
G1 X6.5000 Y1.9372 Z-0.6000
G1 X6.3660 Y1.9240 Z-0.6000
G1 X6.2370 Y1.8849 Z-0.6000
G1 X6.1183 Y1.8214 Z-0.6000
G1 X6.0141 Y1.7359 Z-0.6000
G1 X5.9286 Y1.6317 Z-0.6000
G1 X5.8651 Y1.5130 Z-0.6000
G1 X5.8260 Y1.3840 Z-0.6000
G1 X5.8128 Y1.2500 Z-0.6000
G1 X5.8260 Y1.1160 Z-0.6000
G1 X5.8651 Y0.9870 Z-0.6000
G1 X5.9286 Y0.8683 Z-0.6000
G1 X6.0141 Y0.7641 Z-0.6000
G1 X6.1183 Y0.6786 Z-0.6000
G1 X6.2370 Y0.6151 Z-0.6000
G1 X6.3660 Y0.5760 Z-0.6000
G1 X6.5000 Y0.5628 Z-0.6000
G1 X6.6340 Y0.5760 Z-0.6000
G1 Z-0.7000 F50
G1 X6.7630 Y0.6151 Z-0.7000 F100
G1 X6.8817 Y0.6786 Z-0.7000
G1 X6.9859 Y0.7641 Z-0.7000
G1 X7.0714 Y0.8683 Z-0.7000
G1 X7.1349 Y0.9870 Z-0.7000
G1 X7.1740 Y1.1160 Z-0.7000
G1 X7.1872 Y1.2500 Z-0.7000
G1 X7.1740 Y1.3840 Z-0.7000
G1 X7.1349 Y1.5130 Z-0.7000
G1 X7.0714 Y1.6317 Z-0.7000
G1 X6.9859 Y1.7359 Z-0.7000
G1 X6.8817 Y1.8214 Z-0.7000
G1 X6.7630 Y1.8849 Z-0.7000
G1 X6.6340 Y1.9240 Z-0.7000
G1 X6.5000 Y1.9372 Z-0.7000
G1 X6.3660 Y1.9240 Z-0.7000
G1 X6.2370 Y1.8849 Z-0.7000
G1 X6.1183 Y1.8214 Z-0.7000
G1 X6.0141 Y1.7359 Z-0.7000
G1 X5.9286 Y1.6317 Z-0.7000
G1 X5.8651 Y1.5130 Z-0.7000
G1 X5.8260 Y1.3840 Z-0.7000
G1 X5.8128 Y1.2500 Z-0.7000
G1 X5.8260 Y1.1160 Z-0.7000
G1 X5.8651 Y0.9870 Z-0.7000
G1 X5.9286 Y0.8683 Z-0.7000
G1 X6.0141 Y0.7641 Z-0.7000
G1 X6.1183 Y0.6786 Z-0.7000
G1 X6.2370 Y0.6151 Z-0.7000
G1 X6.3660 Y0.5760 Z-0.7000
G1 X6.5000 Y0.5628 Z-0.7000
G1 X6.6340 Y0.5760 Z-0.7000
G1 Z-0.8000 F50
G1 X6.7630 Y0.6151 Z-0.8000 F100
G1 X6.8817 Y0.6786 Z-0.8000
G1 X6.9859 Y0.7641 Z-0.8000
G1 X7.0714 Y0.8683 Z-0.8000
G1 X7.1349 Y0.9870 Z-0.8000
G1 X7.1740 Y1.1160 Z-0.8000
G1 X7.1872 Y1.2500 Z-0.8000
G1 X7.1740 Y1.3840 Z-0.8000
G1 X7.1349 Y1.5130 Z-0.8000
G1 X7.0714 Y1.6317 Z-0.8000
G1 X6.9859 Y1.7359 Z-0.8000
G1 X6.8817 Y1.8214 Z-0.8000
G1 X6.7630 Y1.8849 Z-0.8000
G1 X6.6340 Y1.9240 Z-0.8000
G1 X6.5000 Y1.9372 Z-0.8000
G1 X6.3660 Y1.9240 Z-0.8000
G1 X6.2370 Y1.8849 Z-0.8000
G1 X6.1183 Y1.8214 Z-0.8000
G1 X6.0141 Y1.7359 Z-0.8000
G1 X5.9286 Y1.6317 Z-0.8000
G1 X5.8651 Y1.5130 Z-0.8000
G1 X5.8260 Y1.3840 Z-0.8000
G1 X5.8128 Y1.2500 Z-0.8000
G1 X5.8260 Y1.1160 Z-0.8000
G1 X5.8651 Y0.9870 Z-0.8000
G1 X5.9286 Y0.8683 Z-0.8000
G1 X6.0141 Y0.7641 Z-0.8000
G1 X6.1183 Y0.6786 Z-0.8000
G1 X6.2370 Y0.6151 Z-0.8000
G1 X6.3660 Y0.5760 Z-0.8000
G1 X6.5000 Y0.5628 Z-0.8000
G1 X6.6340 Y0.5760 Z-0.8000
G1 Z-0.9000 F50
G1 X6.7630 Y0.6151 Z-0.9000 F100
G1 X6.8817 Y0.6786 Z-0.9000
G1 X6.9859 Y0.7641 Z-0.9000
G1 X7.0714 Y0.8683 Z-0.9000
G1 X7.1349 Y0.9870 Z-0.9000
G1 X7.1740 Y1.1160 Z-0.9000
G1 X7.1872 Y1.2500 Z-0.9000
G1 X7.1740 Y1.3840 Z-0.9000
G1 X7.1349 Y1.5130 Z-0.9000
G1 X7.0714 Y1.6317 Z-0.9000
G1 X6.9859 Y1.7359 Z-0.9000
G1 X6.8817 Y1.8214 Z-0.9000
G1 X6.7630 Y1.8849 Z-0.9000
G1 X6.6340 Y1.9240 Z-0.9000
G1 X6.5000 Y1.9372 Z-0.9000
G1 X6.3660 Y1.9240 Z-0.9000
G1 X6.2370 Y1.8849 Z-0.9000
G1 X6.1183 Y1.8214 Z-0.9000
G1 X6.0141 Y1.7359 Z-0.9000
G1 X5.9286 Y1.6317 Z-0.9000
G1 X5.8651 Y1.5130 Z-0.9000
G1 X5.8260 Y1.3840 Z-0.9000
G1 X5.8128 Y1.2500 Z-0.9000
G1 X5.8260 Y1.1160 Z-0.9000
G1 X5.8651 Y0.9870 Z-0.9000
G1 X5.9286 Y0.8683 Z-0.9000
G1 X6.0141 Y0.7641 Z-0.9000
G1 X6.1183 Y0.6786 Z-0.9000
G1 X6.2370 Y0.6151 Z-0.9000
G1 X6.3660 Y0.5760 Z-0.9000
G1 X6.5000 Y0.5628 Z-0.9000
G1 X6.6340 Y0.5760 Z-0.9000
G1 Z-1.0000 F50
G1 X6.7630 Y0.6151 Z-1.0000 F100
G1 X6.8817 Y0.6786 Z-1.0000
G1 X6.9859 Y0.7641 Z-1.0000
G1 X7.0714 Y0.8683 Z-1.0000
G1 X7.1349 Y0.9870 Z-1.0000
G1 X7.1740 Y1.1160 Z-1.0000
G1 X7.1872 Y1.2500 Z-1.0000
G1 X7.1740 Y1.3840 Z-1.0000
G1 X7.1349 Y1.5130 Z-1.0000
G1 X7.0714 Y1.6317 Z-1.0000
G1 X6.9859 Y1.7359 Z-1.0000
G1 X6.8817 Y1.8214 Z-1.0000
G1 X6.7630 Y1.8849 Z-1.0000
G1 X6.6340 Y1.9240 Z-1.0000
G1 X6.5000 Y1.9372 Z-1.0000
G1 X6.3660 Y1.9240 Z-1.0000
G1 X6.2370 Y1.8849 Z-1.0000
G1 X6.1183 Y1.8214 Z-1.0000
G1 X6.0141 Y1.7359 Z-1.0000
G1 X5.9286 Y1.6317 Z-1.0000
G1 X5.8651 Y1.5130 Z-1.0000
G1 X5.8260 Y1.3840 Z-1.0000
G1 X5.8128 Y1.2500 Z-1.0000
G1 X5.8260 Y1.1160 Z-1.0000
G1 X5.8651 Y0.9870 Z-1.0000
G1 X5.9286 Y0.8683 Z-1.0000
G1 X6.0141 Y0.7641 Z-1.0000
G1 X6.1183 Y0.6786 Z-1.0000
G1 X6.2370 Y0.6151 Z-1.0000
G1 X6.3660 Y0.5760 Z-1.0000
G1 X6.5000 Y0.5628 Z-1.0000
G1 X6.6340 Y0.5760 Z-1.0000
G1 Z-1.1000 F50
G1 X6.7630 Y0.6151 Z-1.1000 F100
G1 X6.8817 Y0.6786 Z-1.1000
G1 X6.9859 Y0.7641 Z-1.1000
G1 X7.0714 Y0.8683 Z-1.1000
G1 X7.1349 Y0.9870 Z-1.1000
G1 X7.1740 Y1.1160 Z-1.1000
G1 X7.1872 Y1.2500 Z-1.1000
G1 X7.1740 Y1.3840 Z-1.1000
G1 X7.1349 Y1.5130 Z-1.1000
G1 X7.0714 Y1.6317 Z-1.1000
G1 X6.9859 Y1.7359 Z-1.1000
G1 X6.8817 Y1.8214 Z-1.1000
G1 X6.7630 Y1.8849 Z-1.1000
G1 X6.6340 Y1.9240 Z-1.1000
G1 X6.5000 Y1.9372 Z-1.1000
G1 X6.3660 Y1.9240 Z-1.1000
G1 X6.2370 Y1.8849 Z-1.1000
G1 X6.1183 Y1.8214 Z-1.1000
G1 X6.0141 Y1.7359 Z-1.1000
G1 X5.9286 Y1.6317 Z-1.1000
G1 X5.8651 Y1.5130 Z-1.1000
G1 X5.8260 Y1.3840 Z-1.1000
G1 X5.8128 Y1.2500 Z-1.1000
G1 X5.8260 Y1.1160 Z-1.1000
G1 X5.8651 Y0.9870 Z-1.1000
G1 X5.9286 Y0.8683 Z-1.1000
G1 X6.0141 Y0.7641 Z-1.1000
G1 X6.1183 Y0.6786 Z-1.1000
G1 X6.2370 Y0.6151 Z-1.1000
G1 X6.3660 Y0.5760 Z-1.1000
G1 X6.5000 Y0.5628 Z-1.1000
G1 X6.6340 Y0.5760 Z-1.1000
G1 Z-1.2000 F50
G1 X6.7630 Y0.6151 Z-1.2000 F100
G1 X6.8817 Y0.6786 Z-1.2000
G1 X6.9859 Y0.7641 Z-1.2000
G1 X7.0714 Y0.8683 Z-1.2000
G1 X7.1349 Y0.9870 Z-1.2000
G1 X7.1740 Y1.1160 Z-1.2000
G1 X7.1872 Y1.2500 Z-1.2000
G1 X7.1740 Y1.3840 Z-1.2000
G1 X7.1349 Y1.5130 Z-1.2000
G1 X7.0714 Y1.6317 Z-1.2000
G1 X6.9859 Y1.7359 Z-1.2000
G1 X6.8817 Y1.8214 Z-1.2000
G1 X6.7630 Y1.8849 Z-1.2000
G1 X6.6340 Y1.9240 Z-1.2000
G1 X6.5000 Y1.9372 Z-1.2000
G1 X6.3660 Y1.9240 Z-1.2000
G1 X6.2370 Y1.8849 Z-1.2000
G1 X6.1183 Y1.8214 Z-1.2000
G1 X6.0141 Y1.7359 Z-1.2000
G1 X5.9286 Y1.6317 Z-1.2000
G1 X5.8651 Y1.5130 Z-1.2000
G1 X5.8260 Y1.3840 Z-1.2000
G1 X5.8128 Y1.2500 Z-1.2000
G1 X5.8260 Y1.1160 Z-1.2000
G1 X5.8651 Y0.9870 Z-1.2000
G1 X5.9286 Y0.8683 Z-1.2000
G1 X6.0141 Y0.7641 Z-1.2000
G1 X6.1183 Y0.6786 Z-1.2000
G1 X6.2370 Y0.6151 Z-1.2000
G1 X6.3660 Y0.5760 Z-1.2000
G1 X6.5000 Y0.5628 Z-1.2000
G1 X6.6340 Y0.5760 Z-1.2000
G1 Z-1.3000 F50
G1 X6.7630 Y0.6151 Z-1.3000 F100
G1 X6.8817 Y0.6786 Z-1.3000
G1 X6.9859 Y0.7641 Z-1.3000
G1 X7.0714 Y0.8683 Z-1.3000
G1 X7.1349 Y0.9870 Z-1.3000
G1 X7.1740 Y1.1160 Z-1.3000
G1 X7.1872 Y1.2500 Z-1.3000
G1 X7.1740 Y1.3840 Z-1.3000
G1 X7.1349 Y1.5130 Z-1.3000
G1 X7.0714 Y1.6317 Z-1.3000
G1 X6.9859 Y1.7359 Z-1.3000
G1 X6.8817 Y1.8214 Z-1.3000
G1 X6.7630 Y1.8849 Z-1.3000
G1 X6.6340 Y1.9240 Z-1.3000
G1 X6.5000 Y1.9372 Z-1.3000
G1 X6.3660 Y1.9240 Z-1.3000
G1 X6.2370 Y1.8849 Z-1.3000
G1 X6.1183 Y1.8214 Z-1.3000
G1 X6.0141 Y1.7359 Z-1.3000
G1 X5.9286 Y1.6317 Z-1.3000
G1 X5.8651 Y1.5130 Z-1.3000
G1 X5.8260 Y1.3840 Z-1.3000
G1 X5.8128 Y1.2500 Z-1.3000
G1 X5.8260 Y1.1160 Z-1.3000
G1 X5.8651 Y0.9870 Z-1.3000
G1 X5.9286 Y0.8683 Z-1.3000
G1 X6.0141 Y0.7641 Z-1.3000
G1 X6.1183 Y0.6786 Z-1.3000
G1 X6.2370 Y0.6151 Z-1.3000
G1 X6.3660 Y0.5760 Z-1.3000
G1 X6.5000 Y0.5628 Z-1.3000
G1 X6.6340 Y0.5760 Z-1.3000
G1 Z-1.4000 F50
G1 X6.7630 Y0.6151 Z-1.4000 F100
G1 X6.8817 Y0.6786 Z-1.4000
G1 X6.9859 Y0.7641 Z-1.4000
G1 X7.0714 Y0.8683 Z-1.4000
G1 X7.1349 Y0.9870 Z-1.4000
G1 X7.1740 Y1.1160 Z-1.4000
G1 X7.1872 Y1.2500 Z-1.4000
G1 X7.1740 Y1.3840 Z-1.4000
G1 X7.1349 Y1.5130 Z-1.4000
G1 X7.0714 Y1.6317 Z-1.4000
G1 X6.9859 Y1.7359 Z-1.4000
G1 X6.8817 Y1.8214 Z-1.4000
G1 X6.7630 Y1.8849 Z-1.4000
G1 X6.6340 Y1.9240 Z-1.4000
G1 X6.5000 Y1.9372 Z-1.4000
G1 X6.3660 Y1.9240 Z-1.4000
G1 X6.2370 Y1.8849 Z-1.4000
G1 X6.1183 Y1.8214 Z-1.4000
G1 X6.0141 Y1.7359 Z-1.4000
G1 X5.9286 Y1.6317 Z-1.4000
G1 X5.8651 Y1.5130 Z-1.4000
G1 X5.8260 Y1.3840 Z-1.4000
G1 X5.8128 Y1.2500 Z-1.4000
G1 X5.8260 Y1.1160 Z-1.4000
G1 X5.8651 Y0.9870 Z-1.4000
G1 X5.9286 Y0.8683 Z-1.4000
G1 X6.0141 Y0.7641 Z-1.4000
G1 X6.1183 Y0.6786 Z-1.4000
G1 X6.2370 Y0.6151 Z-1.4000
G1 X6.3660 Y0.5760 Z-1.4000
G1 X6.5000 Y0.5628 Z-1.4000
G1 X6.6340 Y0.5760 Z-1.4000
G1 Z-1.5000 F50
G1 X6.7630 Y0.6151 Z-1.5000 F100
G1 X6.8817 Y0.6786 Z-1.5000
G1 X6.9859 Y0.7641 Z-1.5000
G1 X7.0714 Y0.8683 Z-1.5000
G1 X7.1349 Y0.9870 Z-1.5000
G1 X7.1740 Y1.1160 Z-1.5000
G1 X7.1872 Y1.2500 Z-1.5000
G1 X7.1740 Y1.3840 Z-1.5000
G1 X7.1349 Y1.5130 Z-1.5000
G1 X7.0714 Y1.6317 Z-1.5000
G1 X6.9859 Y1.7359 Z-1.5000
G1 X6.8817 Y1.8214 Z-1.5000
G1 X6.7630 Y1.8849 Z-1.5000
G1 X6.6340 Y1.9240 Z-1.5000
G1 X6.5000 Y1.9372 Z-1.5000
G1 X6.3660 Y1.9240 Z-1.5000
G1 X6.2370 Y1.8849 Z-1.5000
G1 X6.1183 Y1.8214 Z-1.5000
G1 X6.0141 Y1.7359 Z-1.5000
G1 X5.9286 Y1.6317 Z-1.5000
G1 X5.8651 Y1.5130 Z-1.5000
G1 X5.8260 Y1.3840 Z-1.5000
G1 X5.8128 Y1.2500 Z-1.5000
G1 X5.8260 Y1.1160 Z-1.5000
G1 X5.8651 Y0.9870 Z-1.5000
G1 X5.9286 Y0.8683 Z-1.5000
G1 X6.0141 Y0.7641 Z-1.5000
G1 X6.1183 Y0.6786 Z-1.5000
G1 X6.2370 Y0.6151 Z-1.5000
G1 X6.3660 Y0.5760 Z-1.5000
G1 X6.5000 Y0.5628 Z-1.5000
G1 X6.6340 Y0.5760 Z-1.5000
G1 Z-1.6000 F50
G1 X6.7630 Y0.6151 Z-1.6000 F100
G1 X6.8817 Y0.6786 Z-1.6000
G1 X6.9859 Y0.7641 Z-1.6000
G1 X7.0714 Y0.8683 Z-1.6000
G1 X7.1349 Y0.9870 Z-1.6000
G1 X7.1740 Y1.1160 Z-1.6000
G1 X7.1872 Y1.2500 Z-1.6000
G1 X7.1740 Y1.3840 Z-1.6000
G1 X7.1349 Y1.5130 Z-1.6000
G1 X7.0714 Y1.6317 Z-1.6000
G1 X6.9859 Y1.7359 Z-1.6000
G1 X6.8817 Y1.8214 Z-1.6000
G1 X6.7630 Y1.8849 Z-1.6000
G1 X6.6340 Y1.9240 Z-1.6000
G1 X6.5000 Y1.9372 Z-1.6000
G1 X6.3660 Y1.9240 Z-1.6000
G1 X6.2370 Y1.8849 Z-1.6000
G1 X6.1183 Y1.8214 Z-1.6000
G1 X6.0141 Y1.7359 Z-1.6000
G1 X5.9286 Y1.6317 Z-1.6000
G1 X5.8651 Y1.5130 Z-1.6000
G1 X5.8260 Y1.3840 Z-1.6000
G1 X5.8128 Y1.2500 Z-1.6000
G1 X5.8260 Y1.1160 Z-1.6000
G1 X5.8651 Y0.9870 Z-1.6000
G1 X5.9286 Y0.8683 Z-1.6000
G1 X6.0141 Y0.7641 Z-1.6000
G1 X6.1183 Y0.6786 Z-1.6000
G1 X6.2370 Y0.6151 Z-1.6000
G1 X6.3660 Y0.5760 Z-1.6000
G1 X6.5000 Y0.5628 Z-1.6000
G1 X6.6340 Y0.5760 Z-1.6000

G0 Z0.5 ; move to z-safe height
G0 X8.8840 Y0.5760
G1 Z-0.1000 F50
G1 X9.0130 Y0.6151 Z-0.1000 F100
G1 X9.1317 Y0.6786 Z-0.1000
G1 X9.2359 Y0.7641 Z-0.1000
G1 X9.3214 Y0.8683 Z-0.1000
G1 X9.3849 Y0.9870 Z-0.1000
G1 X9.4240 Y1.1160 Z-0.1000
G1 X9.4372 Y1.2500 Z-0.1000
G1 X9.4240 Y1.3840 Z-0.1000
G1 X9.3849 Y1.5130 Z-0.1000
G1 X9.3214 Y1.6317 Z-0.1000
G1 X9.2359 Y1.7359 Z-0.1000
G1 X9.1317 Y1.8214 Z-0.1000
G1 X9.0130 Y1.8849 Z-0.1000
G1 X8.8840 Y1.9240 Z-0.1000
G1 X8.7500 Y1.9372 Z-0.1000
G1 X8.6160 Y1.9240 Z-0.1000
G1 X8.4870 Y1.8849 Z-0.1000
G1 X8.3683 Y1.8214 Z-0.1000
G1 X8.2641 Y1.7359 Z-0.1000
G1 X8.1786 Y1.6317 Z-0.1000
G1 X8.1151 Y1.5130 Z-0.1000
G1 X8.0760 Y1.3840 Z-0.1000
G1 X8.0628 Y1.2500 Z-0.1000
G1 X8.0760 Y1.1160 Z-0.1000
G1 X8.1151 Y0.9870 Z-0.1000
G1 X8.1786 Y0.8683 Z-0.1000
G1 X8.2641 Y0.7641 Z-0.1000
G1 X8.3683 Y0.6786 Z-0.1000
G1 X8.4870 Y0.6151 Z-0.1000
G1 X8.6160 Y0.5760 Z-0.1000
G1 X8.7500 Y0.5628 Z-0.1000
G1 X8.8840 Y0.5760 Z-0.1000
G1 Z-0.2000 F50
G1 X9.0130 Y0.6151 Z-0.2000 F100
G1 X9.1317 Y0.6786 Z-0.2000
G1 X9.2359 Y0.7641 Z-0.2000
G1 X9.3214 Y0.8683 Z-0.2000
G1 X9.3849 Y0.9870 Z-0.2000
G1 X9.4240 Y1.1160 Z-0.2000
G1 X9.4372 Y1.2500 Z-0.2000
G1 X9.4240 Y1.3840 Z-0.2000
G1 X9.3849 Y1.5130 Z-0.2000
G1 X9.3214 Y1.6317 Z-0.2000
G1 X9.2359 Y1.7359 Z-0.2000
G1 X9.1317 Y1.8214 Z-0.2000
G1 X9.0130 Y1.8849 Z-0.2000
G1 X8.8840 Y1.9240 Z-0.2000
G1 X8.7500 Y1.9372 Z-0.2000
G1 X8.6160 Y1.9240 Z-0.2000
G1 X8.4870 Y1.8849 Z-0.2000
G1 X8.3683 Y1.8214 Z-0.2000
G1 X8.2641 Y1.7359 Z-0.2000
G1 X8.1786 Y1.6317 Z-0.2000
G1 X8.1151 Y1.5130 Z-0.2000
G1 X8.0760 Y1.3840 Z-0.2000
G1 X8.0628 Y1.2500 Z-0.2000
G1 X8.0760 Y1.1160 Z-0.2000
G1 X8.1151 Y0.9870 Z-0.2000
G1 X8.1786 Y0.8683 Z-0.2000
G1 X8.2641 Y0.7641 Z-0.2000
G1 X8.3683 Y0.6786 Z-0.2000
G1 X8.4870 Y0.6151 Z-0.2000
G1 X8.6160 Y0.5760 Z-0.2000
G1 X8.7500 Y0.5628 Z-0.2000
G1 X8.8840 Y0.5760 Z-0.2000
G1 Z-0.3000 F50
G1 X9.0130 Y0.6151 Z-0.3000 F100
G1 X9.1317 Y0.6786 Z-0.3000
G1 X9.2359 Y0.7641 Z-0.3000
G1 X9.3214 Y0.8683 Z-0.3000
G1 X9.3849 Y0.9870 Z-0.3000
G1 X9.4240 Y1.1160 Z-0.3000
G1 X9.4372 Y1.2500 Z-0.3000
G1 X9.4240 Y1.3840 Z-0.3000
G1 X9.3849 Y1.5130 Z-0.3000
G1 X9.3214 Y1.6317 Z-0.3000
G1 X9.2359 Y1.7359 Z-0.3000
G1 X9.1317 Y1.8214 Z-0.3000
G1 X9.0130 Y1.8849 Z-0.3000
G1 X8.8840 Y1.9240 Z-0.3000
G1 X8.7500 Y1.9372 Z-0.3000
G1 X8.6160 Y1.9240 Z-0.3000
G1 X8.4870 Y1.8849 Z-0.3000
G1 X8.3683 Y1.8214 Z-0.3000
G1 X8.2641 Y1.7359 Z-0.3000
G1 X8.1786 Y1.6317 Z-0.3000
G1 X8.1151 Y1.5130 Z-0.3000
G1 X8.0760 Y1.3840 Z-0.3000
G1 X8.0628 Y1.2500 Z-0.3000
G1 X8.0760 Y1.1160 Z-0.3000
G1 X8.1151 Y0.9870 Z-0.3000
G1 X8.1786 Y0.8683 Z-0.3000
G1 X8.2641 Y0.7641 Z-0.3000
G1 X8.3683 Y0.6786 Z-0.3000
G1 X8.4870 Y0.6151 Z-0.3000
G1 X8.6160 Y0.5760 Z-0.3000
G1 X8.7500 Y0.5628 Z-0.3000
G1 X8.8840 Y0.5760 Z-0.3000
G1 Z-0.4000 F50
G1 X9.0130 Y0.6151 Z-0.4000 F100
G1 X9.1317 Y0.6786 Z-0.4000
G1 X9.2359 Y0.7641 Z-0.4000
G1 X9.3214 Y0.8683 Z-0.4000
G1 X9.3849 Y0.9870 Z-0.4000
G1 X9.4240 Y1.1160 Z-0.4000
G1 X9.4372 Y1.2500 Z-0.4000
G1 X9.4240 Y1.3840 Z-0.4000
G1 X9.3849 Y1.5130 Z-0.4000
G1 X9.3214 Y1.6317 Z-0.4000
G1 X9.2359 Y1.7359 Z-0.4000
G1 X9.1317 Y1.8214 Z-0.4000
G1 X9.0130 Y1.8849 Z-0.4000
G1 X8.8840 Y1.9240 Z-0.4000
G1 X8.7500 Y1.9372 Z-0.4000
G1 X8.6160 Y1.9240 Z-0.4000
G1 X8.4870 Y1.8849 Z-0.4000
G1 X8.3683 Y1.8214 Z-0.4000
G1 X8.2641 Y1.7359 Z-0.4000
G1 X8.1786 Y1.6317 Z-0.4000
G1 X8.1151 Y1.5130 Z-0.4000
G1 X8.0760 Y1.3840 Z-0.4000
G1 X8.0628 Y1.2500 Z-0.4000
G1 X8.0760 Y1.1160 Z-0.4000
G1 X8.1151 Y0.9870 Z-0.4000
G1 X8.1786 Y0.8683 Z-0.4000
G1 X8.2641 Y0.7641 Z-0.4000
G1 X8.3683 Y0.6786 Z-0.4000
G1 X8.4870 Y0.6151 Z-0.4000
G1 X8.6160 Y0.5760 Z-0.4000
G1 X8.7500 Y0.5628 Z-0.4000
G1 X8.8840 Y0.5760 Z-0.4000
G1 Z-0.5000 F50
G1 X9.0130 Y0.6151 Z-0.5000 F100
G1 X9.1317 Y0.6786 Z-0.5000
G1 X9.2359 Y0.7641 Z-0.5000
G1 X9.3214 Y0.8683 Z-0.5000
G1 X9.3849 Y0.9870 Z-0.5000
G1 X9.4240 Y1.1160 Z-0.5000
G1 X9.4372 Y1.2500 Z-0.5000
G1 X9.4240 Y1.3840 Z-0.5000
G1 X9.3849 Y1.5130 Z-0.5000
G1 X9.3214 Y1.6317 Z-0.5000
G1 X9.2359 Y1.7359 Z-0.5000
G1 X9.1317 Y1.8214 Z-0.5000
G1 X9.0130 Y1.8849 Z-0.5000
G1 X8.8840 Y1.9240 Z-0.5000
G1 X8.7500 Y1.9372 Z-0.5000
G1 X8.6160 Y1.9240 Z-0.5000
G1 X8.4870 Y1.8849 Z-0.5000
G1 X8.3683 Y1.8214 Z-0.5000
G1 X8.2641 Y1.7359 Z-0.5000
G1 X8.1786 Y1.6317 Z-0.5000
G1 X8.1151 Y1.5130 Z-0.5000
G1 X8.0760 Y1.3840 Z-0.5000
G1 X8.0628 Y1.2500 Z-0.5000
G1 X8.0760 Y1.1160 Z-0.5000
G1 X8.1151 Y0.9870 Z-0.5000
G1 X8.1786 Y0.8683 Z-0.5000
G1 X8.2641 Y0.7641 Z-0.5000
G1 X8.3683 Y0.6786 Z-0.5000
G1 X8.4870 Y0.6151 Z-0.5000
G1 X8.6160 Y0.5760 Z-0.5000
G1 X8.7500 Y0.5628 Z-0.5000
G1 X8.8840 Y0.5760 Z-0.5000
G1 Z-0.6000 F50
G1 X9.0130 Y0.6151 Z-0.6000 F100
G1 X9.1317 Y0.6786 Z-0.6000
G1 X9.2359 Y0.7641 Z-0.6000
G1 X9.3214 Y0.8683 Z-0.6000
G1 X9.3849 Y0.9870 Z-0.6000
G1 X9.4240 Y1.1160 Z-0.6000
G1 X9.4372 Y1.2500 Z-0.6000
G1 X9.4240 Y1.3840 Z-0.6000
G1 X9.3849 Y1.5130 Z-0.6000
G1 X9.3214 Y1.6317 Z-0.6000
G1 X9.2359 Y1.7359 Z-0.6000
G1 X9.1317 Y1.8214 Z-0.6000
G1 X9.0130 Y1.8849 Z-0.6000
G1 X8.8840 Y1.9240 Z-0.6000
G1 X8.7500 Y1.9372 Z-0.6000
G1 X8.6160 Y1.9240 Z-0.6000
G1 X8.4870 Y1.8849 Z-0.6000
G1 X8.3683 Y1.8214 Z-0.6000
G1 X8.2641 Y1.7359 Z-0.6000
G1 X8.1786 Y1.6317 Z-0.6000
G1 X8.1151 Y1.5130 Z-0.6000
G1 X8.0760 Y1.3840 Z-0.6000
G1 X8.0628 Y1.2500 Z-0.6000
G1 X8.0760 Y1.1160 Z-0.6000
G1 X8.1151 Y0.9870 Z-0.6000
G1 X8.1786 Y0.8683 Z-0.6000
G1 X8.2641 Y0.7641 Z-0.6000
G1 X8.3683 Y0.6786 Z-0.6000
G1 X8.4870 Y0.6151 Z-0.6000
G1 X8.6160 Y0.5760 Z-0.6000
G1 X8.7500 Y0.5628 Z-0.6000
G1 X8.8840 Y0.5760 Z-0.6000
G1 Z-0.7000 F50
G1 X9.0130 Y0.6151 Z-0.7000 F100
G1 X9.1317 Y0.6786 Z-0.7000
G1 X9.2359 Y0.7641 Z-0.7000
G1 X9.3214 Y0.8683 Z-0.7000
G1 X9.3849 Y0.9870 Z-0.7000
G1 X9.4240 Y1.1160 Z-0.7000
G1 X9.4372 Y1.2500 Z-0.7000
G1 X9.4240 Y1.3840 Z-0.7000
G1 X9.3849 Y1.5130 Z-0.7000
G1 X9.3214 Y1.6317 Z-0.7000
G1 X9.2359 Y1.7359 Z-0.7000
G1 X9.1317 Y1.8214 Z-0.7000
G1 X9.0130 Y1.8849 Z-0.7000
G1 X8.8840 Y1.9240 Z-0.7000
G1 X8.7500 Y1.9372 Z-0.7000
G1 X8.6160 Y1.9240 Z-0.7000
G1 X8.4870 Y1.8849 Z-0.7000
G1 X8.3683 Y1.8214 Z-0.7000
G1 X8.2641 Y1.7359 Z-0.7000
G1 X8.1786 Y1.6317 Z-0.7000
G1 X8.1151 Y1.5130 Z-0.7000
G1 X8.0760 Y1.3840 Z-0.7000
G1 X8.0628 Y1.2500 Z-0.7000
G1 X8.0760 Y1.1160 Z-0.7000
G1 X8.1151 Y0.9870 Z-0.7000
G1 X8.1786 Y0.8683 Z-0.7000
G1 X8.2641 Y0.7641 Z-0.7000
G1 X8.3683 Y0.6786 Z-0.7000
G1 X8.4870 Y0.6151 Z-0.7000
G1 X8.6160 Y0.5760 Z-0.7000
G1 X8.7500 Y0.5628 Z-0.7000
G1 X8.8840 Y0.5760 Z-0.7000
G1 Z-0.8000 F50
G1 X9.0130 Y0.6151 Z-0.8000 F100
G1 X9.1317 Y0.6786 Z-0.8000
G1 X9.2359 Y0.7641 Z-0.8000
G1 X9.3214 Y0.8683 Z-0.8000
G1 X9.3849 Y0.9870 Z-0.8000
G1 X9.4240 Y1.1160 Z-0.8000
G1 X9.4372 Y1.2500 Z-0.8000
G1 X9.4240 Y1.3840 Z-0.8000
G1 X9.3849 Y1.5130 Z-0.8000
G1 X9.3214 Y1.6317 Z-0.8000
G1 X9.2359 Y1.7359 Z-0.8000
G1 X9.1317 Y1.8214 Z-0.8000
G1 X9.0130 Y1.8849 Z-0.8000
G1 X8.8840 Y1.9240 Z-0.8000
G1 X8.7500 Y1.9372 Z-0.8000
G1 X8.6160 Y1.9240 Z-0.8000
G1 X8.4870 Y1.8849 Z-0.8000
G1 X8.3683 Y1.8214 Z-0.8000
G1 X8.2641 Y1.7359 Z-0.8000
G1 X8.1786 Y1.6317 Z-0.8000
G1 X8.1151 Y1.5130 Z-0.8000
G1 X8.0760 Y1.3840 Z-0.8000
G1 X8.0628 Y1.2500 Z-0.8000
G1 X8.0760 Y1.1160 Z-0.8000
G1 X8.1151 Y0.9870 Z-0.8000
G1 X8.1786 Y0.8683 Z-0.8000
G1 X8.2641 Y0.7641 Z-0.8000
G1 X8.3683 Y0.6786 Z-0.8000
G1 X8.4870 Y0.6151 Z-0.8000
G1 X8.6160 Y0.5760 Z-0.8000
G1 X8.7500 Y0.5628 Z-0.8000
G1 X8.8840 Y0.5760 Z-0.8000
G1 Z-0.9000 F50
G1 X9.0130 Y0.6151 Z-0.9000 F100
G1 X9.1317 Y0.6786 Z-0.9000
G1 X9.2359 Y0.7641 Z-0.9000
G1 X9.3214 Y0.8683 Z-0.9000
G1 X9.3849 Y0.9870 Z-0.9000
G1 X9.4240 Y1.1160 Z-0.9000
G1 X9.4372 Y1.2500 Z-0.9000
G1 X9.4240 Y1.3840 Z-0.9000
G1 X9.3849 Y1.5130 Z-0.9000
G1 X9.3214 Y1.6317 Z-0.9000
G1 X9.2359 Y1.7359 Z-0.9000
G1 X9.1317 Y1.8214 Z-0.9000
G1 X9.0130 Y1.8849 Z-0.9000
G1 X8.8840 Y1.9240 Z-0.9000
G1 X8.7500 Y1.9372 Z-0.9000
G1 X8.6160 Y1.9240 Z-0.9000
G1 X8.4870 Y1.8849 Z-0.9000
G1 X8.3683 Y1.8214 Z-0.9000
G1 X8.2641 Y1.7359 Z-0.9000
G1 X8.1786 Y1.6317 Z-0.9000
G1 X8.1151 Y1.5130 Z-0.9000
G1 X8.0760 Y1.3840 Z-0.9000
G1 X8.0628 Y1.2500 Z-0.9000
G1 X8.0760 Y1.1160 Z-0.9000
G1 X8.1151 Y0.9870 Z-0.9000
G1 X8.1786 Y0.8683 Z-0.9000
G1 X8.2641 Y0.7641 Z-0.9000
G1 X8.3683 Y0.6786 Z-0.9000
G1 X8.4870 Y0.6151 Z-0.9000
G1 X8.6160 Y0.5760 Z-0.9000
G1 X8.7500 Y0.5628 Z-0.9000
G1 X8.8840 Y0.5760 Z-0.9000
G1 Z-1.0000 F50
G1 X9.0130 Y0.6151 Z-1.0000 F100
G1 X9.1317 Y0.6786 Z-1.0000
G1 X9.2359 Y0.7641 Z-1.0000
G1 X9.3214 Y0.8683 Z-1.0000
G1 X9.3849 Y0.9870 Z-1.0000
G1 X9.4240 Y1.1160 Z-1.0000
G1 X9.4372 Y1.2500 Z-1.0000
G1 X9.4240 Y1.3840 Z-1.0000
G1 X9.3849 Y1.5130 Z-1.0000
G1 X9.3214 Y1.6317 Z-1.0000
G1 X9.2359 Y1.7359 Z-1.0000
G1 X9.1317 Y1.8214 Z-1.0000
G1 X9.0130 Y1.8849 Z-1.0000
G1 X8.8840 Y1.9240 Z-1.0000
G1 X8.7500 Y1.9372 Z-1.0000
G1 X8.6160 Y1.9240 Z-1.0000
G1 X8.4870 Y1.8849 Z-1.0000
G1 X8.3683 Y1.8214 Z-1.0000
G1 X8.2641 Y1.7359 Z-1.0000
G1 X8.1786 Y1.6317 Z-1.0000
G1 X8.1151 Y1.5130 Z-1.0000
G1 X8.0760 Y1.3840 Z-1.0000
G1 X8.0628 Y1.2500 Z-1.0000
G1 X8.0760 Y1.1160 Z-1.0000
G1 X8.1151 Y0.9870 Z-1.0000
G1 X8.1786 Y0.8683 Z-1.0000
G1 X8.2641 Y0.7641 Z-1.0000
G1 X8.3683 Y0.6786 Z-1.0000
G1 X8.4870 Y0.6151 Z-1.0000
G1 X8.6160 Y0.5760 Z-1.0000
G1 X8.7500 Y0.5628 Z-1.0000
G1 X8.8840 Y0.5760 Z-1.0000
G1 Z-1.1000 F50
G1 X9.0130 Y0.6151 Z-1.1000 F100
G1 X9.1317 Y0.6786 Z-1.1000
G1 X9.2359 Y0.7641 Z-1.1000
G1 X9.3214 Y0.8683 Z-1.1000
G1 X9.3849 Y0.9870 Z-1.1000
G1 X9.4240 Y1.1160 Z-1.1000
G1 X9.4372 Y1.2500 Z-1.1000
G1 X9.4240 Y1.3840 Z-1.1000
G1 X9.3849 Y1.5130 Z-1.1000
G1 X9.3214 Y1.6317 Z-1.1000
G1 X9.2359 Y1.7359 Z-1.1000
G1 X9.1317 Y1.8214 Z-1.1000
G1 X9.0130 Y1.8849 Z-1.1000
G1 X8.8840 Y1.9240 Z-1.1000
G1 X8.7500 Y1.9372 Z-1.1000
G1 X8.6160 Y1.9240 Z-1.1000
G1 X8.4870 Y1.8849 Z-1.1000
G1 X8.3683 Y1.8214 Z-1.1000
G1 X8.2641 Y1.7359 Z-1.1000
G1 X8.1786 Y1.6317 Z-1.1000
G1 X8.1151 Y1.5130 Z-1.1000
G1 X8.0760 Y1.3840 Z-1.1000
G1 X8.0628 Y1.2500 Z-1.1000
G1 X8.0760 Y1.1160 Z-1.1000
G1 X8.1151 Y0.9870 Z-1.1000
G1 X8.1786 Y0.8683 Z-1.1000
G1 X8.2641 Y0.7641 Z-1.1000
G1 X8.3683 Y0.6786 Z-1.1000
G1 X8.4870 Y0.6151 Z-1.1000
G1 X8.6160 Y0.5760 Z-1.1000
G1 X8.7500 Y0.5628 Z-1.1000
G1 X8.8840 Y0.5760 Z-1.1000
G1 Z-1.2000 F50
G1 X9.0130 Y0.6151 Z-1.2000 F100
G1 X9.1317 Y0.6786 Z-1.2000
G1 X9.2359 Y0.7641 Z-1.2000
G1 X9.3214 Y0.8683 Z-1.2000
G1 X9.3849 Y0.9870 Z-1.2000
G1 X9.4240 Y1.1160 Z-1.2000
G1 X9.4372 Y1.2500 Z-1.2000
G1 X9.4240 Y1.3840 Z-1.2000
G1 X9.3849 Y1.5130 Z-1.2000
G1 X9.3214 Y1.6317 Z-1.2000
G1 X9.2359 Y1.7359 Z-1.2000
G1 X9.1317 Y1.8214 Z-1.2000
G1 X9.0130 Y1.8849 Z-1.2000
G1 X8.8840 Y1.9240 Z-1.2000
G1 X8.7500 Y1.9372 Z-1.2000
G1 X8.6160 Y1.9240 Z-1.2000
G1 X8.4870 Y1.8849 Z-1.2000
G1 X8.3683 Y1.8214 Z-1.2000
G1 X8.2641 Y1.7359 Z-1.2000
G1 X8.1786 Y1.6317 Z-1.2000
G1 X8.1151 Y1.5130 Z-1.2000
G1 X8.0760 Y1.3840 Z-1.2000
G1 X8.0628 Y1.2500 Z-1.2000
G1 X8.0760 Y1.1160 Z-1.2000
G1 X8.1151 Y0.9870 Z-1.2000
G1 X8.1786 Y0.8683 Z-1.2000
G1 X8.2641 Y0.7641 Z-1.2000
G1 X8.3683 Y0.6786 Z-1.2000
G1 X8.4870 Y0.6151 Z-1.2000
G1 X8.6160 Y0.5760 Z-1.2000
G1 X8.7500 Y0.5628 Z-1.2000
G1 X8.8840 Y0.5760 Z-1.2000
G1 Z-1.3000 F50
G1 X9.0130 Y0.6151 Z-1.3000 F100
G1 X9.1317 Y0.6786 Z-1.3000
G1 X9.2359 Y0.7641 Z-1.3000
G1 X9.3214 Y0.8683 Z-1.3000
G1 X9.3849 Y0.9870 Z-1.3000
G1 X9.4240 Y1.1160 Z-1.3000
G1 X9.4372 Y1.2500 Z-1.3000
G1 X9.4240 Y1.3840 Z-1.3000
G1 X9.3849 Y1.5130 Z-1.3000
G1 X9.3214 Y1.6317 Z-1.3000
G1 X9.2359 Y1.7359 Z-1.3000
G1 X9.1317 Y1.8214 Z-1.3000
G1 X9.0130 Y1.8849 Z-1.3000
G1 X8.8840 Y1.9240 Z-1.3000
G1 X8.7500 Y1.9372 Z-1.3000
G1 X8.6160 Y1.9240 Z-1.3000
G1 X8.4870 Y1.8849 Z-1.3000
G1 X8.3683 Y1.8214 Z-1.3000
G1 X8.2641 Y1.7359 Z-1.3000
G1 X8.1786 Y1.6317 Z-1.3000
G1 X8.1151 Y1.5130 Z-1.3000
G1 X8.0760 Y1.3840 Z-1.3000
G1 X8.0628 Y1.2500 Z-1.3000
G1 X8.0760 Y1.1160 Z-1.3000
G1 X8.1151 Y0.9870 Z-1.3000
G1 X8.1786 Y0.8683 Z-1.3000
G1 X8.2641 Y0.7641 Z-1.3000
G1 X8.3683 Y0.6786 Z-1.3000
G1 X8.4870 Y0.6151 Z-1.3000
G1 X8.6160 Y0.5760 Z-1.3000
G1 X8.7500 Y0.5628 Z-1.3000
G1 X8.8840 Y0.5760 Z-1.3000
G1 Z-1.4000 F50
G1 X9.0130 Y0.6151 Z-1.4000 F100
G1 X9.1317 Y0.6786 Z-1.4000
G1 X9.2359 Y0.7641 Z-1.4000
G1 X9.3214 Y0.8683 Z-1.4000
G1 X9.3849 Y0.9870 Z-1.4000
G1 X9.4240 Y1.1160 Z-1.4000
G1 X9.4372 Y1.2500 Z-1.4000
G1 X9.4240 Y1.3840 Z-1.4000
G1 X9.3849 Y1.5130 Z-1.4000
G1 X9.3214 Y1.6317 Z-1.4000
G1 X9.2359 Y1.7359 Z-1.4000
G1 X9.1317 Y1.8214 Z-1.4000
G1 X9.0130 Y1.8849 Z-1.4000
G1 X8.8840 Y1.9240 Z-1.4000
G1 X8.7500 Y1.9372 Z-1.4000
G1 X8.6160 Y1.9240 Z-1.4000
G1 X8.4870 Y1.8849 Z-1.4000
G1 X8.3683 Y1.8214 Z-1.4000
G1 X8.2641 Y1.7359 Z-1.4000
G1 X8.1786 Y1.6317 Z-1.4000
G1 X8.1151 Y1.5130 Z-1.4000
G1 X8.0760 Y1.3840 Z-1.4000
G1 X8.0628 Y1.2500 Z-1.4000
G1 X8.0760 Y1.1160 Z-1.4000
G1 X8.1151 Y0.9870 Z-1.4000
G1 X8.1786 Y0.8683 Z-1.4000
G1 X8.2641 Y0.7641 Z-1.4000
G1 X8.3683 Y0.6786 Z-1.4000
G1 X8.4870 Y0.6151 Z-1.4000
G1 X8.6160 Y0.5760 Z-1.4000
G1 X8.7500 Y0.5628 Z-1.4000
G1 X8.8840 Y0.5760 Z-1.4000
G1 Z-1.5000 F50
G1 X9.0130 Y0.6151 Z-1.5000 F100
G1 X9.1317 Y0.6786 Z-1.5000
G1 X9.2359 Y0.7641 Z-1.5000
G1 X9.3214 Y0.8683 Z-1.5000
G1 X9.3849 Y0.9870 Z-1.5000
G1 X9.4240 Y1.1160 Z-1.5000
G1 X9.4372 Y1.2500 Z-1.5000
G1 X9.4240 Y1.3840 Z-1.5000
G1 X9.3849 Y1.5130 Z-1.5000
G1 X9.3214 Y1.6317 Z-1.5000
G1 X9.2359 Y1.7359 Z-1.5000
G1 X9.1317 Y1.8214 Z-1.5000
G1 X9.0130 Y1.8849 Z-1.5000
G1 X8.8840 Y1.9240 Z-1.5000
G1 X8.7500 Y1.9372 Z-1.5000
G1 X8.6160 Y1.9240 Z-1.5000
G1 X8.4870 Y1.8849 Z-1.5000
G1 X8.3683 Y1.8214 Z-1.5000
G1 X8.2641 Y1.7359 Z-1.5000
G1 X8.1786 Y1.6317 Z-1.5000
G1 X8.1151 Y1.5130 Z-1.5000
G1 X8.0760 Y1.3840 Z-1.5000
G1 X8.0628 Y1.2500 Z-1.5000
G1 X8.0760 Y1.1160 Z-1.5000
G1 X8.1151 Y0.9870 Z-1.5000
G1 X8.1786 Y0.8683 Z-1.5000
G1 X8.2641 Y0.7641 Z-1.5000
G1 X8.3683 Y0.6786 Z-1.5000
G1 X8.4870 Y0.6151 Z-1.5000
G1 X8.6160 Y0.5760 Z-1.5000
G1 X8.7500 Y0.5628 Z-1.5000
G1 X8.8840 Y0.5760 Z-1.5000
G1 Z-1.6000 F50
G1 X9.0130 Y0.6151 Z-1.6000 F100
G1 X9.1317 Y0.6786 Z-1.6000
G1 X9.2359 Y0.7641 Z-1.6000
G1 X9.3214 Y0.8683 Z-1.6000
G1 X9.3849 Y0.9870 Z-1.6000
G1 X9.4240 Y1.1160 Z-1.6000
G1 X9.4372 Y1.2500 Z-1.6000
G1 X9.4240 Y1.3840 Z-1.6000
G1 X9.3849 Y1.5130 Z-1.6000
G1 X9.3214 Y1.6317 Z-1.6000
G1 X9.2359 Y1.7359 Z-1.6000
G1 X9.1317 Y1.8214 Z-1.6000
G1 X9.0130 Y1.8849 Z-1.6000
G1 X8.8840 Y1.9240 Z-1.6000
G1 X8.7500 Y1.9372 Z-1.6000
G1 X8.6160 Y1.9240 Z-1.6000
G1 X8.4870 Y1.8849 Z-1.6000
G1 X8.3683 Y1.8214 Z-1.6000
G1 X8.2641 Y1.7359 Z-1.6000
G1 X8.1786 Y1.6317 Z-1.6000
G1 X8.1151 Y1.5130 Z-1.6000
G1 X8.0760 Y1.3840 Z-1.6000
G1 X8.0628 Y1.2500 Z-1.6000
G1 X8.0760 Y1.1160 Z-1.6000
G1 X8.1151 Y0.9870 Z-1.6000
G1 X8.1786 Y0.8683 Z-1.6000
G1 X8.2641 Y0.7641 Z-1.6000
G1 X8.3683 Y0.6786 Z-1.6000
G1 X8.4870 Y0.6151 Z-1.6000
G1 X8.6160 Y0.5760 Z-1.6000
G1 X8.7500 Y0.5628 Z-1.6000
G1 X8.8840 Y0.5760 Z-1.6000
; retracting back to z-safe
G0 Z0.5


M2