(Project griff)
(Created by Estlcam version 11 build 11.244)
(Machining time about 00:01:31 hours)

(Required tools:)
(Thin ball nose)
G21
G90
G94
M03 S24000
G00 Z20.0000


(No. 1: Engraving 1)
G00 X6.8566 Y34.8785
G00 Z0.5000
G01 Z0.0000 F1270 S24000
G01 Z-38.0000
G03 X4.2901 Y26.5844 I15.8678 J-9.4542 F1000
G03 X4.1996 Y22.4787 I32.4412 J-2.7691
G03 X6.0005 Y17.8770 I9.1526 J0.9287
G03 X11.7877 Y14.9782 I6.0202 J4.7928
G03 X16.4602 Y15.1867 I1.5028 J18.7874
G03 X17.3277 Y15.5378 I-0.1690 J1.6651
G03 X17.4613 Y16.2303 I-3.6262 J1.0586
G02 X19.0571 Y24.8364 I423.5314 J-74.0844
G01 X19.1829 Y25.3683
G03 X14.9653 Y25.1533 I0.4018 J-49.3746
G03 X11.6063 Y24.2018 I0.5543 J-8.3611
G03 X9.9110 Y22.9987 I6.5307 J-10.9986
G02 X10.8362 Y24.8376 I2.9820 J-0.3481
G02 X14.4167 Y27.3568 I7.2009 J-6.4305
G02 X16.5212 Y27.6680 I2.0884 J-6.8532
G02 X22.7908 Y27.7208 I3.8915 J-89.7876
G02 X23.2976 Y27.6296 I0.0024 J-1.4408
G01 X23.3384 Y27.6038
G01 X23.3621 Y27.5752
G01 X23.3700 Y27.5439
G03 X21.4752 Y19.1194 I158.6438 J-40.1064
G02 X19.9737 Y13.0887 I-40.4541 J6.8699
G02 X18.2031 Y9.4035 I-15.1252 J4.9990
G02 X11.9247 Y5.1791 I-8.2014 J5.4114
G02 X6.6552 Y4.9106 I-3.5224 J17.2820
G02 X3.5821 Y5.9132 I2.1909 J11.9259
G02 X2.5535 Y6.5030 I1.5667 J3.9243
G01 X2.4826 Y6.5767
G01 X2.4487 Y6.6397
G01 X2.4550 Y6.6905
G02 X3.9420 Y7.7023 I5.9362 J-7.1261
G01 X5.3059 Y8.5148
G03 X6.9616 Y7.3860 I5.4124 J6.1606
G03 X12.2175 Y6.5301 I4.0644 J8.3929
G03 X14.4872 Y7.7979 I-0.5486 J3.6479
G03 X16.2219 Y10.8968 I-5.2971 J5.0002
G03 X16.8992 Y13.6666 I-14.0820 J4.9110
G01 X16.8951 Y13.7422
G01 X16.8789 Y13.7830
G03 X15.5157 Y13.6017 I0.0415 J-5.5261
G02 X9.1196 Y13.1558 I-4.8235 J23.0961
G02 X6.5525 Y13.5324 I0.2385 J10.5637
G02 X0.9638 Y18.7300 I2.7240 J8.5325
G02 X0.0000 Y24.3294 I12.8839 J5.1002
G02 X6.9826 Y39.0829 I19.9827 J-0.4284
G02 X14.0341 Y42.5229 I10.1710 J-11.9016
G02 X18.5300 Y42.7407 I3.5235 J-26.2231
G02 X23.6913 Y42.2161 I-0.1498 J-27.1292
G02 X25.0520 Y41.8417 I-1.5115 J-8.1518
G02 X25.3276 Y41.4648 I-0.0560 J-0.3301
G02 X24.1274 Y37.3490 I-72.3695 J18.8706
G02 X23.7372 Y36.6675 I-1.5652 J0.4436
G02 X23.0754 Y36.6024 I-0.3790 J0.4566
G02 X22.9676 Y37.2856 I1.0695 J0.5189
G03 X21.0343 Y40.6066 I-3.6457 J0.1009
G03 X11.5020 Y40.0437 I-4.3046 J-8.0969
G03 X7.4991 Y35.8910 I8.3176 J-12.0232
G01 X7.1682 Y35.3848
G01 X6.8566 Y34.8785
G00 Z20.0000


(No. 2: Engraving 2)
G00 X37.1194 Y26.6410 Z20.0000
G00 Z0.5000
G01 Z0.0000 F1270
G01 Z-38.0000
G02 X41.4325 Y32.3442 I22.1355 J-12.2574 F1000
G02 X44.1426 Y34.2842 I7.3765 J-7.4419
G02 X46.6800 Y34.8174 I2.2204 J-4.2622
G02 X48.3038 Y34.3311 I-0.2768 J-3.8777
G01 X48.3173 Y34.3087
G02 X48.0601 Y33.6108 I-1.5978 J0.1924
G02 X46.1471 Y30.7638 I-23.6969 J13.8565
G03 X44.6266 Y31.3768 I-3.6973 J-6.9777
G03 X42.7013 Y30.9704 I-0.5202 J-2.2992
G03 X40.4789 Y28.9687 I8.2940 J-11.4432
G03 X36.7065 Y23.6712 I22.6142 J-20.0953
G03 X35.0748 Y20.6991 I31.2372 J-19.0847
G03 X34.2719 Y17.8324 I10.8587 J-4.5869
G03 X33.4063 Y12.9946 I428.6581 J-79.1915
G03 X29.9644 Y12.7876 I-0.0369 J-28.0967
G02 X29.5712 Y12.8496 I-0.1090 J0.5867
G02 X29.5550 Y13.0187 I0.1354 J0.0983
G03 X30.9657 Y19.5294 I-124.8726 J30.4634
G03 X32.5847 Y28.5729 I-155.1996 J32.4511
G03 X32.7405 Y31.6502 I-13.2699 J2.2147
G03 X32.4359 Y32.4750 I-1.3253 J-0.0208
G03 X31.2973 Y32.6250 I-0.6987 J-0.9069
G03 X29.3138 Y31.3896 I2.2841 J-5.8771
G03 X27.1679 Y29.3623 I52.4090 J-57.6241
G02 X26.5056 Y28.8324 I-1.8055 J1.5778
G01 X26.4672 Y28.8274
G01 X26.4400 Y28.8381
G01 X26.4230 Y28.8639
G02 X26.9012 Y30.2229 I2.5104 J-0.1197
G02 X29.0852 Y32.5023 I8.8932 J-6.3353
G02 X32.1756 Y34.4798 I7.9280 J-8.9864
G02 X34.4168 Y34.8345 I1.7534 J-3.8210
G02 X36.4142 Y32.9513 I-0.3027 J-2.3220
G02 X36.4884 Y30.3618 I-8.2429 J-1.5319
G02 X35.7763 Y25.8361 I-73.1604 J9.1918
G03 X35.5826 Y24.3439 I10.5698 J-2.1308
G01 X35.5900 Y24.2245
G01 X35.6135 Y24.1600
G01 X35.6536 Y24.1485
G03 X36.1130 Y24.8164 I-1.7093 J1.6677
G02 X37.1194 Y26.6410 I191.1896 J-104.2713
G00 Z20.0000


(No. 3: Engraving 3)
G00 X56.5993 Y23.7222 Z20.0000
G00 Z0.5000
G01 Z0.0000 F1270
G01 Z-38.0000
G03 X55.2881 Y16.2987 I177.9504 J-35.2586 F1000
G03 X55.3763 Y15.3663 I1.4419 J-0.3341
G03 X56.1973 Y14.6949 I1.3302 J0.7891
G03 X57.5011 Y14.9934 I0.2690 J1.8222
G03 X59.8496 Y16.8682 I-7.1511 J11.3661
G01 X60.2283 Y17.2276
G01 X61.7679 Y18.7055
G01 X61.6304 Y17.9217
G02 X61.0712 Y16.9033 I-2.9140 J0.9374
G02 X57.2583 Y13.4667 I-11.9779 J9.4560
G02 X53.5009 Y12.6369 I-3.2886 J5.9687
G02 X52.4968 Y13.1484 I0.3332 J1.8954
G02 X51.8287 Y14.3731 I1.0322 J1.3577
G02 X51.9219 Y17.5583 I12.6083 J1.2250
G02 X53.0450 Y24.2243 I104.7138 J-14.2155
G03 X53.7714 Y28.6872 I-62.6197 J12.4825
G03 X53.7618 Y30.0913 I-3.9169 J0.6753
G03 X53.0967 Y31.0611 I-1.4729 J-0.2972
G03 X52.0019 Y31.0602 I-0.5454 J-2.5397
G03 X50.0896 Y30.7272 I1.5811 J-14.7353
G02 X49.8489 Y30.9904 I-0.0302 J0.2141
G02 X50.2256 Y31.6962 I0.5767 J0.1456
G02 X52.6485 Y32.6746 I8.1430 J-16.6763
G02 X58.5557 Y34.6414 I30.9271 J-83.0335
G02 X58.7090 Y34.6609 I0.1054 J-0.2168
G02 X58.3996 Y32.7296 I-11.6820 J0.8808
G02 X57.9200 Y30.4792 I-390.1781 J81.9780
G03 X56.5993 Y23.7222 I421.5897 J-85.9090
G00 Z20.0000


(No. 4: Engraving 4)
G00 X60.2267 Y41.7909 Z20.0000
G00 Z0.5000
G01 Z0.0000 F1270
G01 Z-38.0000
G02 X59.6829 Y40.9540 I-2.7795 J1.2110 F1000
G02 X55.8337 Y38.7439 I-23.5323 J36.5270
G02 X55.3358 Y38.5257 I-1.2625 J2.2039
G01 X55.3249 Y38.5412
G02 X56.1692 Y40.4997 I6.7186 J-1.7351
G02 X57.5944 Y41.8134 I5.1866 J-4.1969
G02 X61.1183 Y44.2236 I25.8884 J-34.0703
G01 X61.1637 Y44.2450
G01 X61.1942 Y44.2555
G01 X61.2089 Y44.2546
G01 X61.2238 Y44.2101
G02 X60.7674 Y42.8998 I-4.8229 J0.9453
G02 X60.2267 Y41.7909 I-15.9157 J7.0743
G00 Z20.0000


(No. 5: Engraving 11)
G00 X77.1948 Y32.7289 Z20.0000
G00 Z0.5000
G01 Z0.0000 F1270
G01 Z-38.0000
G03 X72.4566 Y32.9276 I-6.7051 J-103.3014 F1000
G03 X71.6301 Y32.7983 I-0.1870 J-1.5108
G03 X71.4535 Y32.3842 I0.4434 J-0.4338
G03 X69.4145 Y19.8600 I1131.9004 J-190.7122
G02 X68.0841 Y12.5941 I-137.8149 J21.4786
G02 X65.1945 Y5.7981 I-21.6316 J5.1853
G02 X60.7482 Y1.4469 I-11.5337 J7.3383
G02 X57.8340 Y0.2678 I-5.3204 J8.9588
G02 X52.5562 Y0.0866 I-3.4420 J23.3054
G02 X52.2126 Y0.1989 I-0.0368 J0.4694
G01 X52.2068 Y0.2190
G02 X52.7420 Y1.0703 I2.4524 J-0.9478
G02 X54.4409 Y2.9763 I24.7606 J-20.3612
G03 X57.2988 Y2.3867 I5.5500 J19.6812
G03 X59.7859 Y2.5439 I0.8756 J5.9004
G03 X62.2939 Y4.4897 I-1.3943 J4.3864
G03 X63.5183 Y7.2017 I-9.1275 J5.7532
G03 X64.0827 Y9.7812 I-16.5263 J4.9678
G03 X67.6558 Y31.7578 I-973.1474 J169.4978
G01 X67.7323 Y32.3412
G01 X67.7590 Y32.6331
G03 X67.4803 Y32.8319 I-0.2617 J-0.0721
G03 X65.6994 Y32.9268 I-1.4019 J-9.5565
G01 X63.6399
G02 X64.8566 Y34.1464 I8.5924 J-7.3553
G02 X65.9504 Y34.4843 I1.0018 J-1.3040
G02 X68.1697 Y34.4945 I1.3779 J-58.2389
G02 X69.0668 Y37.8669 I19.5749 J-3.4013
G02 X75.5986 Y45.7952 I14.4688 J-5.2654
G02 X80.4543 Y47.3538 I5.7947 J-9.7099
G02 X83.9307 Y47.3351 I1.6766 J-11.4516
G01 X84.7615 Y47.1480
G01 X83.4650 Y45.7043
G01 X82.1684 Y44.2606
G03 X80.0235 Y45.0787 I-4.6356 J-8.9327
G03 X75.4468 Y44.4356 I-1.4954 J-5.9640
G03 X73.8859 Y42.4873 I2.5182 J-3.6168
G03 X72.6490 Y38.6195 I20.4547 J-8.6730
G03 X71.7546 Y34.4945 I107.8471 J-25.5440
G02 X77.5149 Y34.4451 I2.0797 J-93.4767
G02 X78.4916 Y34.3402 I0.0774 J-3.8788
G01 X78.5023 Y34.3265
G02 X77.8453 Y33.4437 I-3.1160 J1.6333
G01 X77.1948 Y32.7289
G00 Z20.0000


(No. 6: Engraving 12)
G00 X89.7357 Y32.8624 Z20.0000
G00 Z0.5000
G01 Z0.0000 F1270
G01 Z-38.0000
G01 X86.9073 Y32.9869 F1000
G02 X84.5252 Y18.0389 I-842.6609 J126.6186
G02 X83.2547 Y11.8128 I-66.3351 J10.2936
G02 X79.6183 Y4.4628 I-19.0564 J4.8536
G02 X73.5972 Y0.3624 I-9.6141 J7.6468
G02 X70.5970 Y0.0203 I-3.2954 J15.5741
G02 X68.0114 Y0.0855 I-0.9057 J15.4026
G02 X67.6561 Y0.2143 I-0.0262 J0.4821
G02 X67.8613 Y0.6609 I0.8004 J-0.0973
G02 X68.7243 Y1.7099 I8.0508 J-5.7436
G01 X69.9217 Y2.9963
G03 X72.0641 Y2.4611 I3.8549 J10.8751
G03 X75.6071 Y2.7148 I1.2348 J7.6217
G03 X77.7986 Y4.5929 I-1.8049 J4.3237
G03 X79.3626 Y8.7332 I-10.1511 J6.2002
G03 X83.1855 Y32.5093 I-1462.6391 J247.3672
G01 X83.2120 Y32.7451
G01 X83.2051 Y32.7599
G03 X82.0968 Y32.9064 I-1.0206 J-3.4554
G03 X79.0929 Y32.9268 I-1.8606 J-52.8950
G02 X80.3087 Y34.1454 I8.5812 J-7.3460
G02 X81.3919 Y34.4840 I0.9980 J-1.2906
G02 X83.5733 Y34.4945 I1.3543 J-54.9521
G02 X84.4100 Y37.6272 I21.5610 J-4.0804
G02 X90.8483 Y45.7200 I15.0192 J-5.3412
G02 X97.2672 Y47.4564 I6.2567 J-10.3963
G02 X99.7780 Y47.2354 I0.3853 J-9.9948
G02 X99.9870 Y47.1203 I-0.0605 J-0.3571
G01 X100.0000 Y47.0783
G02 X98.7974 Y45.5962 I-8.8484 J5.9504
G01 X97.6036 Y44.2683
G03 X95.6377 Y45.0408 I-4.7587 J-9.2228
G03 X92.0966 Y44.9802 I-1.6567 J-6.6865
G03 X89.2892 Y42.4659 I1.5811 J-4.5899
G03 X88.2362 Y39.3958 I12.7371 J-6.0840
G03 X87.2502 Y34.8014 I50.2714 J-13.1917
G01 X87.2432 Y34.6938
G01 X87.2544 Y34.6775
G03 X88.8364 Y34.5245 I1.4364 J6.5942
G02 X92.9751 Y34.4483 I-1.6468 J-201.9367
G02 X93.9507 Y34.3500 I0.0753 J-4.1456
G01 X93.9619 Y34.3372
G02 X93.2631 Y33.4589 I-3.0675 J1.7235
G01 X92.5642 Y32.7379
G01 X89.7357 Y32.8624
G00 Z20.0000
G00 X0.0000 Y0.0000

M05
M30
