(Project jack)
(Created by Estlcam version 11 build 11.244)
(Machining time about 00:01:30 hours)

(Required tools:)
(End mill 1/8)
G21
G90
G94
M03 S24000
G00 Z10.0000


(No. 1: Engraving 1)
G00 X18.3822 Y19.4357
G00 Z0.5000
G01 Z0.0000 F635 S24000
G01 Z-33.0000
G03 X22.4933 Y41.7301 I-1369.9835 J264.1525 F800
G01 X22.4830 Y41.7483
G03 X21.2224 Y41.9409 I-1.3476 J-4.5983
G03 X16.2998 Y42.1143 I-5.2053 J-77.8519
G01 X17.8745 Y43.9146
G01 X19.4492 Y45.7149
G01 X27.1236 Y45.7266
G01 X34.7980 Y45.7382
G01 X32.9303 Y43.8538
G01 X31.0626 Y41.9693
G01 X27.5511
G02 X23.3852 Y19.7498 I-1261.8244 J225.0759
G02 X22.0207 Y13.3489 I-123.1378 J22.9048
G02 X18.6376 Y5.9643 I-23.7504 J6.4134
G02 X14.2993 Y1.7193 I-12.4439 J8.3782
G02 X8.7563 Y0.0274 I-6.0549 J9.9111
G02 X4.1425 Y0.6180 I-0.9334 J11.0262
G02 X0.4552 Y2.6879 I5.6603 J14.4021
G02 X0.0049 Y3.1525 I1.3227 J1.7328
G01 X0.0000 Y3.2166
G02 X0.5110 Y4.0245 I3.0436 J-1.3596
G02 X2.7558 Y6.4066 I13.4632 J-10.4383
G02 X3.0963 Y6.5994 I0.4675 J-0.4285
G02 X3.4918 Y6.0718 I-0.6672 J-0.9122
G03 X4.6454 Y4.3358 I4.6341 J1.8282
G03 X7.3426 Y2.3319 I6.5598 J6.0119
G03 X10.8867 Y2.1366 I2.1224 J6.2621
G03 X13.0995 Y3.0698 I-0.9210 J5.2744
G03 X14.7359 Y5.1732 I-4.8988 J5.4992
G03 X16.7804 Y11.0897 I-16.6516 J9.0657
G03 X18.3822 Y19.4357 I-1235.7604 J241.4963
G00 Z10.0000


(No. 2: Engraving 2)
G00 X34.1008 Y20.8240 Z10.0000
G00 Z0.5000
G01 Z0.0000 F635
G01 Z-33.0000
G02 X37.4647 Y27.2823 I23.8331 J-8.3089 F800
G02 X42.1911 Y32.4639 I21.6289 J-14.9821
G02 X50.5667 Y35.8536 I9.5800 J-11.6289
G02 X56.5552 Y35.9120 I3.4545 J-47.1582
G02 X58.7575 Y35.7353 I-0.2286 J-16.6589
G02 X59.2610 Y35.5361 I-0.0197 J-0.7859
G02 X59.2753 Y35.0994 I-0.5081 J-0.2351
G02 X58.2185 Y30.0593 I-124.9251 J23.5613
G03 X55.1223 Y13.2430 I419.3612 J-85.9055
G03 X54.9686 Y11.8047 I7.1120 J-1.4877
G03 X55.8413 Y10.1817 I2.0114 J0.0355
G03 X56.5592 Y10.1311 I0.4210 J0.8553
G03 X58.6886 Y11.2270 I-2.1270 J6.7497
G03 X61.2599 Y13.4290 I-11.0858 J15.5473
G01 X63.4014 Y15.6055
G02 X63.1312 Y14.1270 I-8.3299 J0.7586
G02 X62.1217 Y12.5845 I-4.0567 J1.5535
G02 X58.4555 Y9.3261 I-17.5576 J16.0628
G02 X54.7574 Y7.6131 I-6.2541 J8.6536
G02 X51.7048 Y7.9327 I-1.1059 J4.1763
G02 X50.5612 Y9.5442 I1.2037 J2.0658
G02 X50.4119 Y12.2964 I9.3041 J1.8847
G02 X51.2364 Y18.5263 I61.3452 J-4.9490
G02 X53.3750 Y29.5924 I541.0462 J-98.8206
G03 X53.6906 Y31.9688 I-13.4630 J2.9971
G03 X53.3151 Y32.3278 I-0.6468 J-0.3005
G03 X50.2102 Y33.2905 I-4.9479 J-10.4704
G03 X47.1043 Y33.4420 I-2.0281 J-9.6616
G03 X43.5158 Y31.5339 I0.9003 J-6.0217
G03 X41.3895 Y28.4003 I9.8940 J-9.0016
G03 X38.1187 Y17.8034 I30.8857 J-15.3362
G03 X37.9458 Y14.3428 I16.3043 J-2.5491
G03 X38.8689 Y11.8859 I4.4693 J0.2772
G03 X40.0687 Y11.2381 I1.2830 J0.9413
G03 X42.3619 Y12.1385 I-0.3895 J4.3621
G03 X43.0883 Y12.8413 I-10.3746 J11.4501
G02 X43.4225 Y12.9453 I0.2426 J-0.1906
G02 X43.5431 Y12.5282 I-0.3014 J-0.3132
G02 X42.9382 Y10.0175 I-18.8984 J3.2249
G02 X41.7171 Y8.7253 I-2.0541 J0.7180
G02 X39.1828 Y7.6682 I-5.4475 J9.4942
G02 X35.7666 Y7.8907 I-1.4027 J4.8023
G02 X33.7731 Y9.9519 I1.8579 J3.7914
G02 X32.9811 Y13.1545 I8.4497 J3.7888
G02 X33.8104 Y19.9057 I19.0165 J1.0906
G01 X34.1008 Y20.8240
G00 Z10.0000


(No. 3: Engraving 3)
G00 X66.6586 Y21.8256 Z10.0000
G00 Z0.5000
G01 Z0.0000 F635
G01 Z-33.0000
G02 X71.8122 Y30.7142 I20.4592 J-5.9240 F800
G02 X76.6072 Y34.7121 I16.2868 J-14.6594
G02 X84.1928 Y36.1880 I5.8082 J-9.6208
G02 X87.4731 Y35.3366 I-1.9831 J-14.3856
G02 X87.9577 Y34.4705 I-0.2741 J-0.7220
G02 X87.5622 Y32.5888 I-12.8447 J1.7173
G02 X86.6560 Y29.2325 I-42.3954 J9.6454
G02 X86.3554 Y28.7127 I-0.9926 J0.2272
G02 X85.7080 Y28.6372 I-0.4544 J1.0827
G02 X85.2939 Y29.0037 I-0.0503 J0.3604
G02 X85.3386 Y30.5594 I14.8237 J0.3526
G03 X85.0512 Y32.4020 I-4.3279 J0.2687
G03 X83.3251 Y33.7550 I-2.6861 J-1.6494
G03 X76.6500 Y32.5772 I-2.2833 J-6.5638
G03 X73.8274 Y29.1316 I7.2505 J-8.8182
G03 X71.7186 Y22.8879 I18.7511 J-9.8113
G03 X71.2523 Y16.0709 I32.2748 J-5.6323
G03 X72.1524 Y12.7648 I7.7668 J0.3391
G03 X74.8866 Y10.5451 I3.9712 J2.0978
G03 X77.1127 Y10.5306 I1.1510 J5.8225
G03 X82.3665 Y12.3252 I-3.6476 J19.2668
G03 X85.5677 Y14.2414 I-12.2003 J24.0138
G02 X86.2986 Y14.5803 I1.1101 J-1.4364
G02 X86.4755 Y14.5354 I0.0457 J-0.1906
G02 X86.5336 Y14.1383 I-0.4558 J-0.2695
G02 X86.0042 Y13.0462 I-1.5340 J0.0693
G02 X83.1699 Y10.9806 I-10.2223 J11.0486
G02 X76.9267 Y8.0714 I-17.3994 J29.1862
G02 X73.2047 Y7.4757 I-3.5159 J10.0423
G02 X69.0617 Y8.9928 I0.4990 J7.7782
G02 X66.7937 Y11.9629 I4.5393 J5.8173
G02 X66.1664 Y14.7255 I5.6315 J2.7312
G02 X66.2625 Y19.8945 I45.4172 J1.7410
G02 X66.6586 Y21.8256 I10.6996 J-1.1884
G00 Z10.0000


(No. 4: Engraving 4)
G00 X100.0078 Y19.5967 Z10.0000
G00 Z0.5000
G01 Z0.0000 F635
G01 Z-33.0000
G03 X99.6031 Y20.0856 I-2.5421 J-1.6924 F800
G01 X99.5822 Y20.0800
G03 X99.1747 Y18.7124 I6.1956 J-2.5905
G03 X97.6728 Y11.0751 I224.0997 J-48.0380
G02 X97.1223 Y8.1939 I-349.0421 J65.1884
G02 X92.7280 Y7.8099 I-7.7466 J63.3045
G02 X92.2016 Y7.8242 I-0.2136 J1.8337
G02 X92.5407 Y9.7733 I12.2940 J-1.1347
G03 X95.0278 Y22.0644 I-341.9595 J75.5927
G02 X98.0763 Y37.0126 I322.9574 J-58.0795
G02 X102.4916 Y46.1436 I25.4017 J-6.6500
G02 X108.6098 Y51.2432 I13.8934 J-10.4485
G02 X112.5192 Y52.4838 I6.1299 J-12.5366
G02 X118.3534 Y52.4347 I2.7060 J-25.1491
G02 X119.0371 Y52.2192 I-0.1016 J-1.5150
G01 X119.0513 Y52.1934
G02 X118.7484 Y51.5465 I-1.3456 J0.2357
G02 X117.7226 Y50.2770 I-9.9353 J6.9786
G01 X116.1720 Y48.5825
G01 X114.5489 Y49.1898
G03 X110.9100 Y49.8291 I-3.3399 J-8.3349
G03 X105.8519 Y47.0392 I0.3374 J-6.5918
G03 X104.0659 Y43.4211 I9.9416 J-7.1575
G03 X103.0862 Y39.4561 I64.7873 J-18.1107
G03 X100.0743 Y25.0928 I427.1527 J-97.0708
G01 X100.0255 Y24.7718
G01 X100.0207 Y24.6480
G01 X100.0343 Y24.6460
G03 X100.7719 Y25.7857 I-4.4414 J3.6830
G02 X101.9574 Y27.9451 I438.3003 J-239.2095
G02 X108.3071 Y34.6585 I17.5342 J-10.2247
G02 X111.7220 Y36.1611 I6.2384 J-9.5463
G02 X114.7545 Y36.1364 I1.4715 J-5.5006
G02 X116.7505 Y34.7364 I-1.4766 J-4.2282
G02 X117.2895 Y33.2430 I-1.3944 J-1.3472
G02 X116.9701 Y29.5447 I-19.2808 J-0.1974
G02 X114.8685 Y25.8177 I-7.8127 J1.9493
G02 X109.4569 Y22.2741 I-10.9298 J10.7875
G02 X106.3314 Y21.3051 I-9.0620 J23.7045
G03 X104.8735 Y20.9051 I5.5712 J-23.1659
G01 X104.8803 Y20.8517
G03 X106.6040 Y18.3778 I21.8741 J13.4037
G03 X110.1424 Y13.9154 I59.8647 J43.8348
G03 X113.5857 Y11.2716 I8.6025 J7.6396
G03 X115.1143 Y10.9682 I1.2477 J2.2844
G03 X117.6577 Y12.0607 I-1.0164 J5.8732
G03 X120.0000 Y13.9734 I-14.8548 J20.5818
G01 X119.8031 Y13.1131
G02 X119.1552 Y12.0152 I-3.2267 J1.1640
G02 X114.8395 Y8.3873 I-12.8489 J10.9040
G02 X112.5361 Y7.5462 I-3.5378 J6.1137
G02 X109.8271 Y8.0814 I-0.5432 J4.3742
G02 X107.5277 Y9.9119 I4.5386 J8.0606
G02 X103.0364 Y15.4503 I37.5946 J35.0772
G03 X100.0078 Y19.5967 I-128.5908 J-90.7448
G00 Z10.0000
G00 X0.0000 Y0.0000

M05
M30
