(Project jsl-2)
(Created by Estlcam version 11 build 11.244)
(Machining time about 00:27:48 hours)

(Required tools:)
(Thin ball nose)
G21
G90
G94
M03 S24000
G00 Z20.0000


(No. 1: Engraving 9)
G00 X75.8678 Y117.1421
G00 Z0.5000
G01 Z0.0000 F1270 S24000
G01 Z-35.0000
G03 X75.0115 Y115.5023 I1.3270 J-1.7363 F1000
G03 X75.1552 Y114.4579 I4.5823 J0.0983
G02 X75.1446 Y113.5142 I-2.0395 J-0.4490
G02 X74.5916 Y113.2109 I-0.4172 J0.1049
G02 X73.5308 Y113.8614 I0.9414 J2.7252
G02 X70.8320 Y117.1764 I11.2127 J11.8847
G02 X70.5865 Y117.8318 I1.3951 J0.8963
G01 X70.5969 Y117.9318
G01 X70.6360 Y118.0060
G01 X70.7038 Y118.0542
G02 X71.4742 Y117.8997 I0.1441 J-1.2800
G03 X72.4978 Y117.3870 I79.2309 J156.8903
G03 X73.7147 Y117.4893 I0.5125 J1.1935
G03 X76.4310 Y119.3206 I-12.0672 J20.8293
G03 X80.8934 Y122.7243 I-51.3700 J71.9747
G03 X82.5326 Y124.3531 I-6.1356 J7.8137
G03 X82.9948 Y125.3393 I-1.4747 J1.2926
G03 X82.7651 Y126.1166 I-1.2017 J0.0675
G02 X82.7105 Y126.5439 I0.4437 J0.2737
G02 X83.1024 Y126.7270 I0.3396 J-0.2158
G02 X84.5357 Y125.9399 I-0.3157 J-2.2731
G02 X85.1796 Y125.0861 I-2.0750 J-2.2346
G02 X85.0395 Y124.3822 I-0.6887 J-0.2289
G02 X82.2145 Y121.8839 I-7.3239 J5.4356
G03 X81.5346 Y121.5846 I1.7400 J-4.8742
G03 X80.9039 Y120.6798 I0.4861 J-1.0111
G02 X80.1847 Y119.7793 I-1.7273 J0.6420
G02 X78.8291 Y118.9885 I-3.8902 J5.1120
G03 X76.1086 Y117.3467 I6.9253 J-14.5499
G01 X75.8678 Y117.1421
G00 Z20.0000


(No. 2: Engraving 10)
G00 X84.1890 Y114.6565 Z20.0000
G00 Z0.5000
G01 Z0.0000 F1270
G01 Z-35.0000
G03 X82.9030 Y114.0745 I0.1788 J-2.1066 F1000
G03 X80.6950 Y111.6514 I13.4271 J-14.4527
G03 X79.4457 Y109.9565 I8.4276 J-7.5199
G03 X79.3404 Y109.5143 I0.5078 J-0.3545
G01 X79.3770 Y109.4478
G03 X79.9055 Y109.3021 I0.4677 J0.6649
G02 X80.6031 Y109.1445 I0.1431 J-0.9886
G02 X80.8027 Y108.1360 I-0.5511 J-0.6331
G02 X79.8630 Y107.3508 I-1.2872 J0.5856
G02 X78.9747 Y107.1260 I-0.9457 J1.8695
G02 X78.2804 Y107.5686 I0.3028 J1.2408
G02 X77.2864 Y108.7386 I3.0977 J3.6388
G02 X77.3374 Y110.4609 I1.6157 J0.8141
G02 X78.8896 Y112.5840 I8.9323 J-4.9018
G03 X80.7670 Y114.9488 I-9.4253 J9.4100
G03 X81.1534 Y116.0350 I-1.8853 J1.2825
G03 X81.0519 Y116.5312 I-9.1515 J-1.6132
G02 X81.8526 Y117.4437 I0.9649 J-0.0392
G02 X83.3844 Y117.0932 I0.4221 J-1.6776
G03 X85.4179 Y116.6462 I1.5308 J2.1152
G03 X87.3265 Y117.9354 I-0.2862 J2.4812
G03 X87.3054 Y119.5206 I-1.6978 J0.7702
G02 X86.7616 Y120.7000 I34.4919 J16.6173
G02 X86.6128 Y121.8448 I1.9291 J0.8330
G02 X87.0425 Y122.3421 I0.5461 J-0.0376
G02 X87.8383 Y122.0034 I0.0163 J-1.0661
G02 X88.9292 Y118.5192 I-2.6524 J-2.7434
G02 X86.6800 Y114.9578 I-5.0878 J0.7222
G02 X84.4554 Y114.6349 I-1.4721 J2.3175
G01 X84.3218 Y114.6518
G01 X84.1890 Y114.6565
G00 Z20.0000


(No. 3: Engraving 11)
G00 X89.1342 Y103.8489 Z20.0000
G00 Z0.5000
G01 Z0.0000 F1270
G01 Z-35.0000
G03 X92.6347 Y106.1574 I-76.0541 J119.1339 F1000
G02 X96.7108 Y108.5554 I21.2026 J-31.3763
G02 X98.2411 Y109.1078 I2.8139 J-5.3992
G02 X99.6886 Y108.6156 I0.3220 J-1.4275
G02 X99.5809 Y108.0156 I-0.5031 J-0.2193
G02 X98.3664 Y107.0582 I-3.7103 J3.4577
G02 X95.7848 Y105.6723 I-41.6792 J74.5387
G03 X89.2814 Y101.7967 I39.5065 J-73.6869
G03 X87.7686 Y100.4805 I3.5007 J-5.5514
G03 X87.4689 Y99.3898 I1.0700 J-0.8805
G02 X87.4600 Y98.4754 I-1.8180 J-0.4396
G01 X87.4098 Y98.3794
G01 X87.3428 Y98.3126
G02 X86.8999 Y98.3385 I-0.1985 J0.4047
G02 X85.4042 Y99.5266 I3.4084 J5.8266
G02 X83.6177 Y101.4611 I12.6662 J13.4894
G02 X83.4391 Y101.9240 I0.4996 J0.4587
G01 X83.4724 Y101.9968
G02 X83.9244 Y102.1481 I0.4095 J-0.4729
G02 X85.3437 Y102.1003 I-0.0164 J-21.6184
G03 X86.9921 Y102.6703 I-0.9300 J5.3586
G03 X89.1342 Y103.8489 I-10.5762 J21.7568
G00 Z20.0000


(No. 4: Engraving 12)
G00 X92.2784 Y100.1204 Z20.0000
G00 Z0.5000
G01 Z0.0000 F1270
G01 Z-35.0000
G02 X93.1655 Y100.8143 I1.8925 J-1.5054 F1000
G03 X96.0775 Y102.6189 I-70.5939 J117.1718
G02 X96.9349 Y102.9546 I1.1575 J-1.6933
G01 X96.9685 Y102.9481
G01 X96.9931 Y102.9347
G01 X97.0081 Y102.9142
G01 X97.0132 Y102.8865
G02 X96.3857 Y101.7478 I-5.0948 J2.0652
G02 X92.6728 Y96.7328 I-43.7206 J28.4867
G03 X92.2973 Y96.3711 I11.0895 J-11.8879
G03 X92.1275 Y95.2333 I1.6806 J-0.8323
G03 X92.3291 Y94.1396 I10.9802 J1.4581
G02 X92.2990 Y93.4671 I-1.3607 J-0.2760
G02 X91.8484 Y93.2537 I-0.3364 J0.1278
G02 X90.7445 Y93.9178 I1.1143 J3.1020
G02 X89.1843 Y95.5975 I4.6615 J5.8940
G02 X89.0216 Y96.3222 I0.7687 J0.5532
G02 X89.4994 Y96.8367 I0.8306 J-0.2923
G02 X90.8379 Y97.2289 I2.5061 J-6.0719
G03 X91.7216 Y98.3336 I-0.3687 J1.2008
G02 X91.8097 Y99.1563 I4.5083 J-0.0667
G02 X92.2784 Y100.1204 I2.5713 J-0.6541
G00 Z20.0000


(No. 5: Engraving 13)
G00 X110.1541 Y93.5013 Z20.0000
G00 Z0.5000
G01 Z0.0000 F1270
G01 Z-35.0000
G03 X106.7811 Y90.2169 I15.9028 J-19.7058 F1000
G03 X103.3090 Y85.9515 I32.2550 J-29.8017
G03 X103.1216 Y85.5644 I0.8550 J-0.6528
G03 X103.6174 Y84.7808 I1.4269 J0.3540
G03 X104.6522 Y83.9575 I5.6648 J6.0588
G02 X105.2576 Y82.8296 I-0.8063 J-1.1592
G02 X104.7754 Y81.7694 I-1.9272 J0.2368
G02 X104.0959 Y81.7742 I-0.3357 J0.5738
G02 X102.4311 Y82.9162 I4.9897 J9.0588
G02 X98.2934 Y86.5098 I32.2175 J41.2737
G02 X97.1118 Y87.8586 I5.0998 J5.6598
G02 X97.7521 Y88.9028 I0.7223 J0.2755
G02 X99.6268 Y88.0721 I0.1847 J-2.1139
G03 X100.8742 Y87.1007 I2.9188 J2.4616
G03 X101.1966 Y87.1719 I0.0976 J0.3238
G03 X102.8705 Y88.6591 I-5.9752 J8.4108
G03 X107.1250 Y93.6513 I-48.5553 J45.6896
G01 X109.4265 Y96.6064
G02 X107.4660 Y98.1959 I13.8555 J19.0928
G02 X106.6300 Y99.4132 I1.6915 J2.0575
G02 X106.7791 Y99.9216 I0.5293 J0.1208
G02 X107.9067 Y100.2887 I0.7827 J-0.4889
G02 X109.6663 Y99.1958 I-2.4057 J-5.8362
G02 X112.0656 Y97.1217 I-93.7263 J-110.8436
G03 X114.1815 Y95.4891 I11.6954 J12.9703
G03 X114.4310 Y95.4018 I0.3807 J0.6877
G02 X114.7501 Y94.7370 I-0.6057 J-0.6997
G02 X114.4776 Y93.4941 I-1.3622 J-0.3526
G02 X112.8397 Y93.7504 I-0.7243 J0.7333
G03 X111.5822 Y94.2656 I-0.9372 J-0.4953
G03 X110.1541 Y93.5013 I1.3207 J-4.1840
G00 Z20.0000


(No. 6: Engraving 14)
G00 X123.6771 Y88.4513 Z20.0000
G00 Z0.5000
G01 Z0.0000 F1270
G01 Z-35.0000
G02 X125.3823 Y86.9484 I-5.6454 J-8.1244 F1000
G02 X125.6047 Y86.0292 I-0.7032 J-0.6566
G02 X124.7959 Y85.6237 I-0.6892 J0.3653
G02 X123.6162 Y85.9999 I0.2105 J2.6976
G03 X122.3042 Y85.8396 I-0.5461 J-0.9790
G03 X120.7048 Y84.1414 I7.6114 J-8.7708
G03 X116.5547 Y77.6049 I28.9698 J-22.9793
G03 X115.9771 Y76.3151 I5.0960 J-3.0565
G03 X116.0338 Y75.7137 I0.5660 J-0.2500
G03 X116.5218 Y75.4543 I1.3501 J1.9514
G02 X118.7243 Y73.9970 I-11.1751 J-19.2825
G01 X120.6087 Y72.6067
G02 X122.5770 Y74.9717 I21.9185 J-16.2407
G02 X123.4817 Y75.6489 I1.8325 J-1.5053
G02 X123.9650 Y75.3345 I0.1312 J-0.3270
G02 X123.8521 Y74.2604 I-2.0077 J-0.3319
G02 X121.5170 Y70.8512 I-7.6509 J2.7361
G02 X120.5706 Y70.4271 I-1.1242 J1.2408
G02 X119.5327 Y70.8672 I0.7270 J3.1585
G02 X116.8264 Y72.7240 I12.8265 J21.5949
G03 X112.3190 Y75.7862 I-48.6358 J-66.7400
G02 X111.3248 Y76.7303 I2.1845 J3.2963
G02 X111.1407 Y77.3199 I0.6437 J0.5245
G02 X111.6822 Y77.7645 I0.6266 J-0.2113
G02 X112.9124 Y77.8151 I0.7958 J-4.3653
G03 X114.5010 Y78.5231 I0.0002 J2.1356
G03 X116.4260 Y81.0093 I-12.9404 J12.0081
G03 X118.6050 Y84.4897 I-29.1585 J20.6773
G02 X118.7453 Y84.9063 I4.2044 J-1.1838
G02 X119.8309 Y86.3483 I6.3533 J-3.6536
G03 X120.2613 Y87.2540 I-1.0059 J1.0331
G03 X119.8765 Y88.2509 I-1.9895 J-0.1952
G02 X119.4828 Y89.6245 I1.8048 J1.2606
G02 X120.6564 Y90.3407 I0.8197 J-0.0235
G02 X123.0096 Y88.9367 I-5.8084 J-12.4091
G01 X123.3468 Y88.6955
G01 X123.6771 Y88.4513
G00 Z20.0000


(No. 7: Engraving 15)
G00 X132.5189 Y67.9389 Z20.0000
G00 Z0.5000
G01 Z0.0000 F1270
G01 Z-35.0000
G03 X132.0452 Y66.6926 I3.1247 J-1.9009 F1000
G03 X132.4713 Y65.3574 I2.0162 J-0.0921
G02 X133.1088 Y64.0485 I-4.0189 J-2.7668
G01 X133.0894 Y63.9570
G01 X133.0331 Y63.8835
G02 X132.2931 Y63.7653 I-0.5508 J1.0726
G02 X127.4394 Y66.0233 I1.0058 J8.5079
G02 X127.0313 Y66.6714 I0.7889 J0.9493
G01 X127.0345 Y66.7615
G01 X127.0670 Y66.8356
G02 X127.4984 Y66.9480 I0.3205 J-0.3463
G02 X128.3213 Y66.7656 I-0.6809 J-5.0189
G03 X129.9932 Y67.1703 I0.1741 J2.9363
G03 X131.3050 Y68.3119 I-1.4434 J2.9831
G03 X131.4505 Y68.8194 I-0.9116 J0.5361
G02 X133.0335 Y71.8967 I26.8092 J-11.8448
G03 X135.2269 Y75.8825 I-55.5513 J33.1666
G03 X135.6846 Y77.3897 I-3.3637 J1.8446
G03 X135.3284 Y78.4238 I-1.7326 J-0.0184
G02 X135.1151 Y79.1970 I1.0882 J0.7163
G02 X135.7245 Y79.6364 I0.5375 J-0.1031
G02 X137.3591 Y79.1700 I-0.2314 J-3.9082
G02 X138.2358 Y78.4655 I-0.6310 J-1.6829
G02 X138.1380 Y77.9140 I-0.4219 J-0.2096
G03 X134.9046 Y72.2161 I87.5586 J-53.4531
G02 X132.5189 Y67.9389 I-297.4257 J163.0923
G00 Z20.0000


(No. 8: Engraving 16)
G00 X137.6072 Y68.6487 Z20.0000
G00 Z0.5000
G01 Z0.0000 F1270
G01 Z-35.0000
G02 X137.2093 Y70.0938 I2.0372 J1.3384 F1000
G02 X138.1458 Y70.8364 I0.8853 J-0.1547
G02 X139.2375 Y70.6914 I0.0141 J-4.0774
G03 X142.2203 Y71.8450 I0.4762 J3.2017
G03 X142.3234 Y73.5838 I-1.2238 J0.9450
G03 X141.1515 Y75.1670 I-4.8772 J-2.3848
G02 X140.6017 Y76.0454 I1.3696 J1.4686
G02 X141.5018 Y76.8391 I0.6868 J0.1284
G02 X142.8385 Y75.9829 I-1.1165 J-3.2144
G02 X144.1966 Y73.6169 I-3.0343 J-3.3145
G02 X143.7317 Y71.1892 I-5.2539 J-0.2523
G02 X142.1724 Y69.0335 I-4.9268 J1.9220
G02 X141.1924 Y68.6319 I-1.1763 J1.4743
G03 X140.1116 Y67.8136 I0.3204 J-1.5460
G03 X138.9845 Y65.0726 I12.1649 J-6.6043
G03 X138.2772 Y62.8411 I29.4600 J-10.5655
G03 X138.2414 Y62.3154 I0.6942 J-0.3114
G03 X138.5794 Y62.2098 I0.2478 J0.1993
G03 X139.7274 Y62.5097 I-22.7580 J89.4599
G02 X140.1686 Y62.4541 I0.1699 J-0.4301
G02 X140.2827 Y61.8915 I-0.6087 J-0.4164
G02 X139.7811 Y60.4657 I-2.1741 J-0.0362
G02 X137.8609 Y60.1344 I-1.2092 J1.2783
G02 X136.5086 Y61.2237 I1.4020 J3.1245
G02 X135.9904 Y62.0887 I1.2390 J1.3300
G02 X136.1485 Y63.1810 I2.2292 J0.2349
G02 X137.3556 Y65.9804 I100.5954 J-41.7182
G03 X137.8078 Y67.6932 I-4.5085 J2.1065
G03 X137.6072 Y68.6487 I-2.0289 J0.0730
G00 Z20.0000


(No. 9: Engraving 17)
G00 X149.6983 Y64.9755 Z20.0000
G00 Z0.5000
G01 Z0.0000 F1270
G01 Z-35.0000
G02 X151.7611 Y68.0237 I9.4486 J-4.1721 F1000
G02 X153.7468 Y69.3417 I5.0321 J-5.4265
G02 X154.9608 Y69.7066 I1.4513 J-2.6268
G02 X155.7077 Y69.0517 I-0.1629 J-0.9392
G02 X155.3861 Y68.1127 I-1.1908 J-0.1167
G02 X154.3546 Y67.2806 I-2.9040 J2.5444
G03 X151.2753 Y63.8927 I4.4826 J-7.1675
G03 X150.1487 Y59.5305 I7.9122 J-4.3702
G03 X150.7426 Y57.3681 I4.4749 J0.0663
G02 X151.4027 Y54.9439 I-5.3134 J-2.7489
G02 X151.2097 Y54.0865 I-1.5129 J-0.1097
G02 X150.1378 Y53.9654 I-0.5860 J0.3822
G02 X148.4572 Y56.7021 I3.1096 J3.7939
G02 X148.3428 Y60.3305 I10.2112 J2.1381
G02 X149.6983 Y64.9755 I15.8136 J-2.0945
G00 Z20.0000


(No. 10: Engraving 18)
G00 X160.6924 Y60.2015 Z20.0000
G00 Z0.5000
G01 Z0.0000 F1270
G01 Z-35.0000
G02 X159.4354 Y57.0753 I-12.2788 J3.1214 F1000
G02 X155.6345 Y53.2282 I-10.4708 J6.5440
G02 X154.4057 Y52.7558 I-1.5689 J2.2468
G01 X154.2049 Y52.7881
G01 X154.0594 Y52.8893
G01 X153.9757 Y53.0638
G02 X154.4804 Y54.4252 I1.7302 J0.1328
G02 X155.4894 Y55.1778 I2.3058 J-2.0390
G03 X157.0453 Y56.5571 I-1.9534 J3.7704
G03 X159.2239 Y61.5628 I-11.3230 J7.9052
G03 X159.4671 Y64.0194 I-8.8876 J2.1203
G03 X159.1237 Y65.3618 I-2.8899 J-0.0242
G01 X158.8932 Y65.6654
G02 X158.5516 Y68.0794 I1.5708 J1.4534
G02 X159.4639 Y68.4153 I0.6311 J-0.3072
G02 X160.5394 Y67.3603 I-0.8614 J-1.9539
G02 X161.1690 Y64.8436 I-6.1326 J-2.8714
G02 X160.6924 Y60.2015 I-14.4095 J-0.8660
G00 Z20.0000


(No. 11: Engraving 19)
G00 X167.8738 Y52.8354 Z20.0000
G00 Z0.5000
G01 Z0.0000 F1270
G01 Z-35.0000
G03 X170.8565 Y58.4825 I-111.0950 J62.2886 F1000
G02 X172.8812 Y61.9223 I24.5643 J-12.1432
G02 X173.8820 Y63.0220 I4.1616 J-2.7823
G02 X174.9141 Y63.2446 I0.7016 J-0.7488
G02 X175.4906 Y62.8451 I-0.6805 J-1.5979
G01 X175.5298 Y62.7656
G02 X175.2826 Y61.8032 I-2.3611 J0.0935
G02 X173.1368 Y58.2976 I-14.0583 J6.1954
G03 X172.6623 Y57.8105 I12.5455 J-12.6968
G03 X171.2743 Y55.1267 I10.5214 J-7.1421
G02 X169.1558 Y51.0809 I-17.1664 J6.4112
G03 X168.4451 Y49.7947 I2.3504 J-2.1384
G03 X168.6331 Y49.1189 I0.6845 J-0.1736
G02 X169.2113 Y48.2941 I-1.2780 J-1.5111
G02 X168.8486 Y47.7672 I-0.3415 J-0.1532
G02 X167.7062 Y47.9664 I-0.0834 J2.8958
G03 X165.2280 Y48.5876 I-18.2759 J-67.6615
G02 X164.4249 Y48.9905 I0.4960 J1.9905
G02 X164.4227 Y49.6151 I0.2127 J0.3130
G02 X165.6274 Y50.1273 I1.8587 J-2.6991
G03 X166.7846 Y51.1669 I-1.4786 J2.8096
G03 X167.8738 Y52.8354 I-13.9380 J10.2896
G00 Z20.0000


(No. 12: Engraving 20)
G00 X173.5495 Y52.0799 Z20.0000
G00 Z0.5000
G01 Z0.0000 F1270
G01 Z-35.0000
G02 X175.1913 Y55.5106 I12.9568 J-4.0925 F1000
G02 X175.5309 Y55.9351 I1.4450 J-0.8080
G01 X175.5736 Y55.9592
G01 X175.6081 Y55.9631
G01 X175.6344 Y55.9470
G02 X175.6243 Y55.4336 I-1.0914 J-0.2354
G03 X175.0071 Y50.1599 I36.8493 J-6.9854
G03 X175.2230 Y47.7534 I7.3619 J-0.5524
G03 X175.8836 Y46.8450 I1.7406 J0.5713
G02 X176.1617 Y46.3678 I-0.4024 J-0.5542
G02 X175.7558 Y45.9119 I-0.7012 J0.2156
G02 X174.9584 Y45.5262 I-1.3574 J1.7893
G02 X173.8867 Y45.7524 I-0.0841 J2.2529
G02 X172.2424 Y46.5416 I2.2433 J6.7813
G02 X171.7417 Y47.2273 I0.4878 J0.8819
G02 X172.2112 Y48.0118 I0.9110 J-0.0124
G03 X172.9078 Y48.4418 I-6.1406 J10.7267
G03 X173.4936 Y49.8679 I-0.7934 J1.1592
G02 X173.3736 Y50.8018 I6.1122 J1.2599
G02 X173.5495 Y52.0799 I4.6211 J0.0152
G00 Z20.0000


(No. 13: Engraving 21)
G00 X188.1740 Y49.2474 Z20.0000
G00 Z0.5000
G01 Z0.0000 F1270
G01 Z-35.0000
G03 X187.7084 Y45.4682 I26.5307 J-5.1867 F1000
G03 X187.8081 Y44.8987 I2.9866 J0.2291
G02 X187.3787 Y42.8322 I-2.8012 J-0.4959
G02 X186.5303 Y42.5970 I-0.6303 J0.6256
G02 X184.4575 Y43.2583 I0.9882 J6.6769
G02 X183.7118 Y44.0130 I0.6045 J1.3429
G02 X184.0549 Y44.8535 I0.6747 J0.2148
G02 X184.7401 Y45.1636 I1.5013 J-2.4047
G03 X185.4728 Y46.0933 I-0.7991 J1.3833
G03 X186.1450 Y48.8281 I-13.8404 J4.8522
G03 X186.9177 Y54.7904 I-54.7308 J10.1238
G03 X186.8465 Y56.4610 I-6.5124 J0.5593
G03 X186.4157 Y57.2966 I-1.3272 J-0.1555
G03 X185.8331 Y57.5949 I-1.8957 J-2.9836
G02 X185.3495 Y58.1941 I0.2521 J0.6982
G02 X185.7840 Y58.9040 I0.9939 J-0.1204
G02 X188.2635 Y59.6573 I2.0794 J-2.3869
G02 X189.6373 Y58.7030 I-0.1755 J-1.7186
G02 X189.7174 Y57.7134 I-1.8524 J-0.6479
G02 X188.4154 Y50.5604 I-108.5690 J16.0663
G03 X188.1740 Y49.2474 I67.1707 J-13.0305
G00 Z20.0000


(No. 14: Engraving 22)
G00 X196.7923 Y51.1253 Z20.0000
G00 Z0.5000
G01 Z0.0000 F1270
G01 Z-35.0000
G02 X195.3145 Y45.4581 I-16.1439 J1.1832 F1000
G02 X193.1423 Y43.0292 I-5.0877 J2.3643
G02 X191.3892 Y42.3528 I-4.4697 J8.9750
G02 X190.5544 Y42.1665 I-0.8583 J1.8821
G02 X190.3181 Y42.4538 I0.0390 J0.2729
G02 X190.3789 Y43.2322 I1.5085 J0.2736
G02 X191.7231 Y44.6746 I3.3372 J-1.7624
G03 X194.4033 Y48.5108 I-3.6589 J5.4107
G03 X194.8392 Y52.6137 I-14.5356 J3.6191
G03 X194.6065 Y54.3023 I-5.0833 J0.1595
G03 X193.7134 Y55.3370 I-1.9657 J-0.7937
G02 X192.6899 Y56.8679 I1.8915 J2.3723
G02 X192.5315 Y58.3353 I2.5767 J1.0204
G02 X192.9862 Y58.7655 I0.4629 J-0.0339
G02 X193.6630 Y58.3976 I-0.3517 J-1.4537
G02 X196.4117 Y54.9299 I-8.7136 J-9.7300
G02 X196.8227 Y53.1069 I-4.6847 J-2.0141
G02 X196.7923 Y51.1253 I-13.1843 J-0.7885
G00 Z20.0000


(No. 15: Engraving 23)
G00 X225.3846 Y46.0229 Z20.0000
G00 Z0.5000
G01 Z0.0000 F1270
G01 Z-35.0000
G02 X217.2667 Y46.3023 I-1.4348 J76.3714 F1000
G02 X216.7120 Y46.4279 I0.0021 J1.2970
G02 X216.4060 Y47.6129 I1.7524 J1.0845
G02 X216.8052 Y48.1806 I0.5443 J0.0415
G02 X218.4984 Y48.3756 I1.5033 J-5.6062
G02 X226.0241 Y48.0951 I-0.3166 J-109.5847
G02 X227.4868 Y47.8024 I-0.2438 J-5.0194
G02 X228.0631 Y46.9901 I-0.2539 J-0.7906
G02 X227.9435 Y46.4480 I-0.6135 J-0.1489
G02 X227.2853 Y46.1599 I-0.8069 J0.9476
G02 X225.3846 Y46.0229 I-1.9110 J13.2563
G00 Z20.0000


(No. 16: Engraving 24)
G00 X253.5901 Y50.7219 Z20.0000
G00 Z0.5000
G01 Z0.0000 F1270
G01 Z-35.0000
G02 X255.0431 Y50.8249 I1.1051 J-5.2902 F1000
G02 X255.6209 Y50.2577 I-0.0433 J-0.6220
G02 X255.6757 Y48.6884 I-3.9937 J-0.9253
G02 X254.9854 Y48.2652 I-0.6032 J0.2094
G03 X252.9514 Y48.3163 I-1.4789 J-18.3412
G03 X251.9179 Y48.0326 I0.0777 J-2.3070
G03 X251.3669 Y47.0967 I0.6790 J-1.0299
G03 X251.5247 Y45.3576 I5.6677 J-0.3626
G03 X251.9086 Y43.9170 I9.7664 J1.8316
G03 X252.8282 Y43.2736 I0.8748 J0.2714
G03 X255.2219 Y43.4404 I0.2018 J14.3550
G03 X258.4651 Y44.2701 I-0.9853 J10.6062
G03 X259.0900 Y44.7931 I-0.5446 J1.2856
G02 X260.0381 Y45.4121 I1.2741 J-0.9159
G02 X260.7131 Y44.8972 I0.0798 J-0.5952
G02 X260.4696 Y43.4993 I-1.7598 J-0.4136
G02 X259.2574 Y42.7370 I-2.0489 J1.9130
G02 X255.0193 Y41.5344 I-13.5568 J39.7062
G02 X250.6887 Y40.5907 I-11.4995 J42.3636
G02 X249.5397 Y40.5975 I-0.5591 J2.5926
G02 X249.1776 Y41.2862 I0.1860 J0.5373
G02 X249.8066 Y42.5340 I2.2889 J-0.3715
G03 X250.0306 Y43.6351 I-2.2700 J1.0351
G03 X249.6933 Y48.2663 I-32.2278 J-0.0194
G03 X249.0875 Y52.1589 I-37.8636 J-3.8988
G03 X248.2812 Y54.0450 I-4.5690 J-0.8380
G03 X247.2184 Y55.0699 I-8.8275 J-8.0898
G02 X246.7585 Y55.7076 I0.9932 J1.2010
G02 X246.9779 Y56.2043 I0.4424 J0.1014
G02 X248.3915 Y56.7673 I2.5139 J-4.2553
G02 X254.9557 Y58.0451 I13.0811 J-49.7004
G02 X257.3921 Y58.0515 I1.2419 J-9.0373
G02 X258.5552 Y57.6053 I-0.2995 J-2.5203
G02 X259.1497 Y56.4636 I-1.0082 J-1.2505
G02 X259.0741 Y55.8133 I-0.8775 J-0.2275
G02 X258.0150 Y55.4882 I-0.7663 J0.6088
G02 X257.3564 Y56.1163 I0.2154 J0.8851
G03 X256.7275 Y56.3477 I-0.5576 J-0.5451
G03 X253.9661 Y55.9576 I0.4486 J-13.1420
G01 X253.5910 Y55.8756
G01 X250.0029 Y55.0782
G03 X250.3252 Y52.1201 I52.9483 J4.2714
G03 X250.6562 Y51.0142 I2.8357 J0.2463
G03 X251.7453 Y50.5223 I0.9592 J0.6719
G03 X253.5901 Y50.7219 I-0.7589 J15.6389
G00 Z20.0000


(No. 17: Engraving 25)
G00 X273.4838 Y53.4813 Z20.0000
G00 Z0.5000
G01 Z0.0000 F1270
G01 Z-35.0000
G02 X270.2410 Y53.5851 I-0.6358 J30.8423 F1000
G02 X268.6858 Y54.1127 I0.1773 J3.0786
G02 X266.9541 Y56.9114 I3.3972 J4.0371
G02 X267.6246 Y58.9251 I3.0275 J0.1104
G02 X271.5811 Y61.3209 I4.8859 J-3.6039
G03 X273.9344 Y62.1483 I-1.4398 J7.8552
G02 X274.6938 Y62.5206 I0.8989 J-0.8731
G02 X275.5545 Y61.9769 I-0.0645 J-1.0552
G02 X276.4542 Y59.8492 I-6.5273 J-4.0139
G02 X276.8415 Y57.9592 I-6.8675 J-2.3920
G02 X276.7236 Y57.3714 I-0.8967 J-0.1259
G01 X276.6496 Y57.3114
G01 X276.5583 Y57.2868
G02 X276.0254 Y57.5489 I0.0895 J0.8546
G02 X275.1386 Y58.5234 I5.1444 J5.5725
G03 X273.0674 Y59.8567 I-3.1091 J-2.5544
G03 X271.0751 Y59.3992 I-0.2071 J-3.6644
G03 X269.3856 Y57.8954 I1.7563 J-3.6743
G03 X269.3259 Y56.2244 I1.6329 J-0.8949
G03 X270.4649 Y55.2704 I1.5906 J0.7421
G03 X272.8114 Y55.0789 I1.7224 J6.6334
G02 X275.0451 Y55.2669 I5.5288 J-52.3215
G02 X277.0098 Y55.0426 I0.4831 J-4.4848
G02 X279.0205 Y53.5862 I-2.7727 J-5.9441
G02 X279.6388 Y51.8309 I-1.8309 J-1.6315
G02 X279.3421 Y49.5562 I-7.0974 J-0.2311
G02 X276.8045 Y46.5438 I-5.3912 J1.9667
G02 X272.6583 Y45.2061 I-5.1963 J9.0113
G01 X269.7690 Y44.8512
G02 X268.6042 Y48.8841 I49.6169 J16.5151
G02 X268.3238 Y50.7845 I7.1667 J2.0286
G02 X268.3757 Y50.9458 I0.2440 J0.0104
G01 X268.4428 Y50.9876
G02 X268.9593 Y50.7535 I-0.0075 J-0.7032
G02 X270.2296 Y48.7532 I-3.2673 J-3.4785
G03 X270.3224 Y48.2399 I2.7374 J0.2299
G03 X271.1927 Y47.5934 I1.3943 J0.9678
G03 X274.4369 Y47.1435 I2.6633 J7.2839
G03 X276.2718 Y48.1511 I-0.8214 J3.6703
G03 X277.9776 Y51.2097 I-3.9132 J4.1874
G03 X277.7969 Y52.5713 I-2.0550 J0.4201
G03 X276.7831 Y53.2120 I-1.1188 J-0.6480
G03 X273.4838 Y53.4813 I-3.4680 J-22.1419
G00 Z20.0000


(No. 18: Engraving 26)
G00 X291.7006 Y55.9960 Z20.0000
G00 Z0.5000
G01 Z0.0000 F1270
G01 Z-35.0000
G03 X289.0646 Y62.5578 I-90.3399 J-32.4818 F1000
G03 X287.7714 Y64.7378 I-8.8881 J-3.7986
G03 X286.8299 Y65.4152 I-1.5345 J-1.1399
G03 X285.6142 Y65.0758 I-0.2454 J-1.4680
G03 X284.6294 Y64.0192 I1.7942 J-2.6595
G03 X284.6236 Y62.6266 I1.5979 J-0.7030
G02 X285.1712 Y60.8022 I-8.4241 J-3.5229
G02 X285.1148 Y60.0792 I-0.9891 J-0.2866
G01 X285.0380 Y60.0208
G01 X284.9399 Y60.0107
G02 X284.3751 Y60.4494 I0.3574 J1.0429
G02 X283.0742 Y62.9007 I7.8081 J5.7146
G02 X282.7457 Y64.4717 I3.3712 J1.5247
G02 X283.1789 Y65.1887 I0.8644 J-0.0330
G02 X285.5756 Y66.3532 I9.4851 J-16.4730
G02 X292.4114 Y68.8109 I24.4906 J-57.3810
G02 X293.5050 Y69.0284 I1.4150 J-4.2576
G01 X293.6527 Y69.0034
G02 X294.4968 Y67.9805 I-2.4110 J-2.8494
G02 X295.6941 Y65.0702 I-8.2715 J-5.1045
G02 X295.6570 Y64.3842 I-1.0773 J-0.2857
G02 X295.0205 Y64.1800 I-0.4379 J0.2709
G02 X293.5682 Y65.2823 I1.0820 J2.9334
G02 X293.0271 Y66.7569 I1.6705 J1.4496
G03 X291.8617 Y67.6478 I-1.0687 J-0.1901
G03 X289.9590 Y66.2433 I0.0972 J-2.1226
G03 X290.0743 Y64.6702 I2.9363 J-0.5756
G03 X291.7257 Y60.7440 I27.8465 J9.4022
G02 X293.0227 Y57.4841 I-16.4124 J-8.4179
G03 X293.7082 Y56.1591 I1.8103 J0.0967
G03 X296.2942 Y55.1473 I2.5150 J2.6174
G02 X297.0779 Y54.9514 I0.0130 J-1.6130
G01 X297.1733 Y54.8651
G01 X297.2293 Y54.7651
G02 X297.0650 Y54.2404 I-0.5790 J-0.1068
G02 X295.6918 Y53.1471 I-4.2680 J3.9517
G02 X291.6604 Y51.2156 I-13.3497 J22.6898
G02 X290.7101 Y51.0308 I-0.9456 J2.3272
G02 X290.2780 Y51.6246 I0.0013 J0.4551
G02 X291.2814 Y53.0050 I3.7068 J-1.6394
G03 X291.9760 Y53.7758 I-1.7101 J2.2394
G03 X292.0656 Y54.6906 I-1.3280 J0.5919
G03 X291.7006 Y55.9960 I-8.1869 J-1.5852
G00 Z20.0000


(No. 19: Engraving 27)
G00 X317.7540 Y64.4578 Z20.0000
G00 Z0.5000
G01 Z0.0000 F1270
G01 Z-35.0000
G02 X316.6492 Y67.3400 I3.2696 J2.9062 F1000
G02 X318.1765 Y72.3608 I8.4403 J0.1752
G03 X319.6418 Y75.7510 I-6.7508 J4.9297
G03 X319.4928 Y77.8481 I-3.9473 J0.7734
G03 X317.5166 Y79.2326 I-1.9454 J-0.6742
G03 X315.3101 Y78.5234 I0.1572 J-4.2763
G03 X313.5306 Y77.0657 I3.4325 J-6.0049
G03 X313.1054 Y76.1898 I1.1389 J-1.0942
G03 X313.7166 Y75.2101 I1.0959 J0.0033
G03 X314.6575 Y74.7692 I4.5305 J8.4439
G02 X315.4990 Y73.9935 I-0.4674 J-1.3514
G02 X315.3301 Y73.2212 I-0.8972 J-0.2084
G02 X314.3149 Y72.4054 I-1.3038 J0.5830
G02 X312.9153 Y72.9208 I-0.1582 J1.7282
G02 X312.0076 Y76.1195 I2.5722 J2.4581
G02 X313.6352 Y78.7473 I6.1530 J-1.9931
G02 X315.7242 Y80.1746 I3.8789 J-3.4350
G02 X316.6592 Y80.1864 I0.4888 J-1.6795
G03 X317.3973 Y80.2884 I0.2564 J0.8658
G03 X317.4862 Y80.5424 I-0.2651 J0.2354
G01 X317.5219 Y80.6097
G02 X317.9972 Y80.6994 I0.3289 J-0.4390
G02 X320.1992 Y79.5765 I-1.3111 J-5.2917
G02 X321.3056 Y77.5113 I-1.7844 J-2.2849
G02 X320.6123 Y73.6590 I-7.2393 J-0.6856
G02 X319.7309 Y72.1574 I-12.9541 J6.5943
G03 X318.2260 Y68.7732 I10.2039 J-6.5640
G01 X317.8901 Y67.0938
G02 X320.5986 Y68.1903 I10.7088 J-22.5591
G02 X324.0398 Y68.7813 I3.5033 J-10.0843
G03 X325.0121 Y69.1424 I0.0220 J1.4303
G03 X325.3486 Y69.9671 I-1.0949 J0.9277
G02 X325.9028 Y71.2218 I2.0397 J-0.1513
G02 X326.7759 Y71.0461 I0.3902 J-0.3184
G02 X326.7544 Y69.2565 I-2.6017 J-0.8635
G02 X325.1374 Y67.7138 I-2.5222 J1.0249
G02 X322.2109 Y67.0739 I-3.6632 J9.7410
G03 X320.4904 Y66.6960 I0.3003 J-5.4732
G03 X319.9782 Y65.8521 I0.4465 J-0.8485
G02 X319.8765 Y64.2862 I-19.7410 J0.4954
G02 X319.6114 Y63.5960 I-1.1499 J0.0458
G02 X319.0878 Y63.5271 I-0.3159 J0.3771
G02 X317.7540 Y64.4578 I1.9512 J4.2172
G00 Z20.0000


(No. 20: Engraving 28)
G00 X331.4102 Y80.1213 Z20.0000
G00 Z0.5000
G01 Z0.0000 F1270
G01 Z-35.0000
G03 X333.5592 Y78.1500 I10.6025 J9.4013 F1000
G03 X335.4957 Y77.7883 I1.3998 J2.1301
G02 X337.1576 Y77.9851 I1.7685 J-7.8196
G02 X338.4436 Y77.5219 I0.1000 J-1.7393
G02 X338.8454 Y76.8637 I-0.9179 J-1.0122
G02 X338.5376 Y76.4430 I-0.4430 J0.0011
G02 X334.1078 Y76.4668 I-2.1883 J4.9525
G02 X331.8050 Y77.9538 I3.3387 J7.6974
G02 X327.5648 Y83.9975 I9.8821 J11.4425
G02 X327.0821 Y86.6237 I6.5340 J2.5585
G02 X327.6447 Y88.4768 I3.9758 J-0.1950
G02 X328.1283 Y89.1440 I2.0326 J-0.9645
G01 X328.2301 Y89.2058
G01 X328.3243 Y89.2255
G01 X328.4111 Y89.2029
G02 X328.6846 Y88.6893 I-0.5094 J-0.6009
G02 X328.8940 Y85.8657 I-13.8253 J-2.4447
G03 X329.2129 Y83.3236 I9.5951 J-0.0874
G03 X329.5237 Y82.8015 I0.8619 J0.1595
G02 X330.2526 Y81.8123 I-0.3247 J-1.0023
G03 X331.0272 Y80.5703 I3.7726 J1.4904
G03 X331.4102 Y80.1213 I10.0451 J8.1818
G00 Z20.0000


(No. 21: Engraving 29)
G00 X338.4400 Y84.8913 Z20.0000
G00 Z0.5000
G01 Z0.0000 F1270
G01 Z-35.0000
G03 X336.3398 Y88.2386 I-15.7836 J-7.5704 F1000
G03 X334.8601 Y89.3250 I-2.9790 J-2.5065
G03 X332.0262 Y90.2564 I-5.5177 J-12.0109
G02 X331.0909 Y90.6593 I0.6815 J2.8690
G02 X330.8586 Y91.0037 I0.2242 J0.4018
G02 X331.2246 Y91.4276 I0.5877 J-0.1375
G02 X333.5404 Y91.6563 I1.4205 J-2.5439
G02 X335.8119 Y90.3899 I-2.3739 J-6.9283
G02 X340.6046 Y83.9482 I-10.0355 J-12.4704
G02 X341.2118 Y81.2102 I-9.4576 J-3.5336
G02 X341.2749 Y79.3817 I-8.3227 J-1.2026
G01 X341.2636 Y79.3608
G01 X341.2502 Y79.3560
G02 X340.2685 Y79.7415 I2.6370 J8.1586
G02 X339.6957 Y80.9900 I1.2121 J1.3118
G03 X339.2542 Y83.0216 I-5.5657 J-0.1459
G03 X338.4400 Y84.8913 I-17.6758 J-6.5854
G00 Z20.0000


(No. 22: Engraving 30)
G00 X350.5072 Y95.4382 Z20.0000
G00 Z0.5000
G01 Z0.0000 F1270
G01 Z-35.0000
G03 X349.6231 Y92.5146 I37.8977 J-13.0562 F1000
G03 X349.3824 Y90.8561 I5.5801 J-1.6566
G03 X349.6200 Y90.2577 I0.7153 J-0.0623
G03 X350.2442 Y90.2850 I0.2860 J0.6104
G03 X351.1917 Y90.8492 I-4.9759 J9.4334
G02 X354.7383 Y92.2561 I7.0732 J-12.6571
G03 X355.9474 Y92.8454 I-0.7026 J2.9767
G03 X356.3432 Y93.9273 I-1.0686 J1.0043
G02 X356.4963 Y95.0076 I2.3719 J0.2149
G02 X357.0402 Y95.2778 I0.3975 J-0.1175
G02 X357.8242 Y93.9081 I-0.3571 J-1.1136
G02 X357.0459 Y92.2424 I-3.7848 J0.7539
G02 X354.6906 Y90.5350 I-3.8391 J2.8177
G02 X353.6563 Y90.4075 I-1.1470 J5.0451
G03 X351.7375 Y88.7724 I0.0863 J-2.0447
G03 X352.0395 Y87.3766 I2.0494 J-0.2871
G02 X352.1999 Y86.6949 I-1.0897 J-0.6161
G02 X351.6855 Y86.2960 I-0.4733 J0.0792
G02 X349.7190 Y86.9397 I0.1250 J3.7076
G02 X348.3931 Y88.9654 I2.6846 J3.2041
G02 X348.3353 Y93.6157 I8.6519 J2.4331
G02 X349.0194 Y95.6518 I12.8167 J-3.1731
G03 X349.2338 Y99.9761 I-7.1886 J2.5240
G03 X348.6144 Y101.1118 I-2.3255 J-0.5316
G03 X347.5645 Y101.4948 I-1.1430 J-1.5030
G03 X344.6568 Y100.3658 I-0.1244 J-3.9885
G03 X343.0662 Y98.1253 I5.1461 J-5.3384
G03 X342.8301 Y97.2187 I1.5641 J-0.8914
G03 X343.3350 Y96.6541 I0.6614 J0.0834
G03 X344.6485 Y96.5195 I1.2118 J5.3480
G02 X345.6225 Y96.0987 I0.0321 J-1.2635
G02 X345.6155 Y95.0556 I-0.7890 J-0.5163
G02 X344.3277 Y93.8351 I-2.5548 J1.4060
G02 X343.3426 Y94.1151 I-0.2411 J1.0247
G02 X342.1940 Y95.5555 I1.9834 J2.7598
G02 X342.1119 Y98.4092 I4.6943 J1.5631
G02 X344.6961 Y101.9039 I5.2309 J-1.1653
G02 X347.4188 Y102.5214 I2.8342 J-6.1859
G02 X349.4007 Y102.2602 I0.3747 J-4.8079
G02 X350.9819 Y100.4700 I-0.9383 J-2.4221
G02 X351.0299 Y97.6821 I-6.7509 J-1.5107
G02 X350.5072 Y95.4382 I-17.8185 J2.9680
G00 Z20.0000


(No. 23: Engraving 31)
G00 X368.2346 Y103.4303 Z20.0000
G00 Z0.5000
G01 Z0.0000 F1270
G01 Z-35.0000
G03 X365.3733 Y100.0945 I19.9317 J-19.9913 F1000
G03 X365.1885 Y99.6378 I1.2510 J-0.7720
G02 X364.1357 Y99.3536 I-0.7373 J0.6391
G02 X363.6897 Y100.8064 I0.4772 J0.9413
G02 X364.9279 Y102.1193 I2.5981 J-1.2100
G03 X365.6485 Y103.0162 I-0.7914 J1.3738
G03 X365.3901 Y104.1899 I-1.6545 J0.2511
G03 X364.0439 Y105.8882 I-8.4422 J-5.3093
G03 X358.7986 Y110.8002 I-64.1686 J-63.2654
G03 X357.5230 Y111.6526 I-3.8695 J-4.4101
G03 X356.2183 Y111.5427 I-0.5636 J-1.1092
G03 X355.0730 Y110.5381 I7.5917 J-9.8086
G02 X353.3221 Y109.3801 I-3.8720 J3.9520
G02 X352.6940 Y109.3296 I-0.3806 J0.8011
G02 X352.4847 Y109.8995 I0.2316 J0.4085
G02 X353.2431 Y111.2097 I5.7775 J-2.4697
G02 X356.1987 Y114.5888 I16.5557 J-11.4985
G02 X356.6706 Y114.8525 I0.6200 J-0.5556
G02 X357.2871 Y114.5038 I-0.6905 J-1.9401
G02 X362.3489 Y110.0723 I-36.4332 J-46.7225
G03 X366.7371 Y106.3487 I30.2190 J31.1651
G03 X367.4120 Y105.9909 I1.0974 J1.2545
G03 X368.2818 Y106.4006 I-0.3255 J1.8193
G03 X369.9349 Y108.0259 I-5.7384 J7.4899
G02 X371.3315 Y109.0937 I2.9630 J-2.4282
G02 X371.9288 Y108.9897 I0.2237 J-0.4829
G02 X372.2683 Y107.4017 I-0.7209 J-0.9844
G02 X371.4827 Y107.0716 I-0.6784 J0.5146
G03 X370.7953 Y106.6689 I-0.0199 J-0.7541
G02 X370.5653 Y106.1708 I-0.9028 J0.1148
G02 X368.2346 Y103.4303 I-23.4349 J17.5685
G00 Z20.0000


(No. 24: Engraving 32)
G00 X204.7851 Y139.1866 Z20.0000
G00 Z0.5000
G01 Z0.0000 F1270
G01 Z-35.0000
G02 X205.0556 Y140.1305 I1.6722 J0.0315 F1000
G02 X205.8553 Y140.3971 I0.6646 J-0.6611
G02 X206.6549 Y140.1305 I0.1350 J-0.9276
G02 X206.9254 Y139.1866 I-1.5921 J-0.9669
G02 X206.9659 Y135.3992 I-48.0167 J-2.4073
G01 X211.4084
G02 X211.4331 Y138.9754 I48.0430 J1.4566
G02 X211.6604 Y140.0456 I2.3304 J0.0643
G02 X212.3829 Y140.3941 I0.6525 J-0.4296
G02 X213.2517 Y140.2015 I0.1948 J-1.1770
G02 X213.5686 Y139.3766 I-1.0389 J-0.8725
G02 X213.6373 Y136.9435 I-27.6829 J-1.9992
G03 X213.7564 Y135.9518 I3.2966 J-0.1073
G03 X214.4317 Y135.4424 I0.6999 J0.2256
G03 X216.5263 Y135.5103 I0.8210 J7.0194
G03 X217.8054 Y136.8033 I-0.4209 J1.6956
G03 X218.0678 Y139.2564 I-8.7261 J2.1740
G02 X218.5078 Y140.2665 I1.2917 J0.0382
G02 X219.5762 Y139.8622 I0.4026 J-0.5500
G02 X219.7534 Y138.2280 I-4.8535 J-1.3529
G03 X220.1080 Y136.3537 I4.4845 J-0.1222
G03 X221.5316 Y135.4678 I1.4106 J0.6799
G03 X223.2946 Y135.7114 I0.2798 J4.4763
G03 X223.8972 Y136.5742 I-0.4961 J0.9884
G03 X224.1446 Y138.8007 I-25.1760 J3.9237
G02 X224.4819 Y140.0309 I2.9085 J-0.1362
G02 X225.3233 Y140.3971 I0.7367 J-0.5431
G02 X226.0953 Y140.1234 I0.1241 J-0.8758
G02 X226.3612 Y139.1762 I-1.6676 J-0.9789
G02 X226.4185 Y136.6837 I-68.0071 J-2.8119
G03 X226.5825 Y135.8203 I2.0122 J-0.0650
G03 X227.4010 Y135.4205 I0.7549 J0.5075
G03 X229.6180 Y135.4691 I0.8706 J10.8575
G03 X230.2034 Y136.0913 I-0.1274 J0.7064
G03 X230.2905 Y138.2044 I-12.2238 J1.5622
G02 X230.4454 Y139.8301 I5.9293 J0.2554
G02 X231.2637 Y140.3941 I0.7471 J-0.2084
G02 X232.1325 Y140.2015 I0.1948 J-1.1770
G02 X232.4494 Y139.3766 I-1.0389 J-0.8725
G02 X232.5105 Y137.8981 I-13.9660 J-1.3175
G01 Y135.3992
G01 X236.9530
G02 X236.9777 Y138.9754 I48.0430 J1.4566
G02 X237.2050 Y140.0456 I2.3304 J0.0643
G02 X237.9275 Y140.3941 I0.6525 J-0.4296
G02 X238.7963 Y140.2015 I0.1948 J-1.1770
G02 X239.1132 Y139.3766 I-1.0389 J-0.8725
G02 X239.1814 Y136.9381 I-27.4916 J-1.9895
G03 X239.3016 Y135.9447 I3.2187 J-0.1146
G03 X239.9986 Y135.4401 I0.7080 J0.2444
G03 X242.2372 I1.1194 J14.5121
G03 X242.9757 Y136.0913 I-0.0024 J0.7471
G03 X243.0628 Y138.2044 I-12.2238 J1.5622
G02 X243.2177 Y139.8301 I5.9293 J0.2554
G02 X244.0360 Y140.3941 I0.7471 J-0.2084
G02 X244.9047 Y140.2015 I0.1948 J-1.1770
G02 X245.2217 Y139.3766 I-1.0389 J-0.8725
G02 X245.2827 Y137.8981 I-13.9660 J-1.3175
G01 Y135.3992
G01 X249.7253
G02 X249.7500 Y138.9754 I48.0430 J1.4566
G02 X249.9773 Y140.0456 I2.3304 J0.0643
G02 X250.6998 Y140.3941 I0.6525 J-0.4296
G02 X251.5685 Y140.2015 I0.1948 J-1.1770
G02 X251.8855 Y139.3766 I-1.0389 J-0.8725
G02 X251.9542 Y136.9435 I-27.6829 J-1.9992
G03 X252.0732 Y135.9518 I3.2966 J-0.1073
G03 X252.7486 Y135.4424 I0.6999 J0.2256
G03 X254.8431 Y135.5103 I0.8210 J7.0194
G03 X256.1223 Y136.8033 I-0.4209 J1.6956
G03 X256.3847 Y139.2564 I-8.7261 J2.1740
G02 X256.8246 Y140.2665 I1.2916 J0.0382
G02 X257.8846 Y139.9027 I0.4028 J-0.5524
G02 X258.0550 Y138.7765 I-2.8981 J-1.0145
G03 X258.2872 Y136.6269 I6.7722 J-0.3560
G03 X259.7929 Y135.4494 I1.5857 J0.4762
G03 X261.8419 Y135.4720 I0.9390 J7.7703
G03 X262.4117 Y136.0980 I-0.1460 J0.7052
G03 X262.4989 Y138.2044 I-12.2693 J1.5628
G02 X262.6537 Y139.8301 I5.9292 J0.2554
G02 X263.4721 Y140.3941 I0.7471 J-0.2084
G02 X264.3418 Y140.2000 I0.1953 J-1.1708
G02 X264.6582 Y139.3651 I-1.0621 J-0.8798
G02 X264.7188 Y137.8646 I-14.4599 J-1.3361
G01 Y135.3321
G03 X267.7959 Y135.6122 I-1.5400 J33.9655
G03 X268.5295 Y135.8843 I-0.1215 J1.4525
G03 X268.9167 Y136.6983 I-0.9973 J0.9735
G03 X269.1252 Y138.8007 I-42.5189 J5.2780
G02 X269.4626 Y140.0309 I2.9085 J-0.1362
G02 X270.3039 Y140.3971 I0.7367 J-0.5431
G02 X271.0760 Y140.1234 I0.1241 J-0.8758
G02 X271.3418 Y139.1762 I-1.6676 J-0.9789
G02 X271.3992 Y136.6837 I-68.0379 J-2.8129
G03 X271.5632 Y135.8203 I2.0121 J-0.0650
G03 X272.3818 Y135.4205 I0.7549 J0.5076
G03 X274.5828 Y135.4692 I0.8610 J10.8498
G03 X275.2086 Y136.1844 I-0.1173 J0.7341
G03 X275.2760 Y138.1325 I-16.1906 J1.5348
G02 X275.4781 Y139.4252 I3.2961 J0.1468
G02 X276.2471 Y139.8388 I0.7001 J-0.3800
G02 X277.1040 Y139.6581 I0.1883 J-1.2287
G02 X277.4477 Y138.7484 I-0.9648 J-0.8844
G02 X277.4911 Y135.3992 I-34.7991 J-2.1257
G01 X281.9337
G02 X281.9583 Y138.9754 I48.0449 J1.4566
G02 X282.1856 Y140.0456 I2.3304 J0.0643
G02 X282.9082 Y140.3941 I0.6525 J-0.4296
G02 X283.7769 Y140.2015 I0.1948 J-1.1770
G02 X284.0938 Y139.3766 I-1.0389 J-0.8725
G02 X284.1621 Y136.9381 I-27.4931 J-1.9896
G03 X284.2823 Y135.9447 I3.2185 J-0.1145
G03 X284.9793 Y135.4401 I0.7081 J0.2444
G03 X287.2178 I1.1194 J14.5116
G03 X287.9564 Y136.0913 I-0.0024 J0.7471
G03 X288.0435 Y138.2044 I-12.2235 J1.5622
G02 X288.1983 Y139.8301 I5.9294 J0.2554
G02 X289.0167 Y140.3941 I0.7471 J-0.2084
G02 X289.8854 Y140.2015 I0.1948 J-1.1770
G02 X290.2023 Y139.3766 I-1.0389 J-0.8725
G02 X290.2706 Y136.9381 I-27.4931 J-1.9896
G03 X290.3908 Y135.9447 I3.2185 J-0.1145
G03 X291.0878 Y135.4401 I0.7081 J0.2444
G03 X293.3263 I1.1194 J14.5116
G03 X294.0648 Y136.0913 I-0.0024 J0.7471
G03 X294.1519 Y138.2044 I-12.2243 J1.5622
G02 X294.3068 Y139.8301 I5.9292 J0.2554
G02 X295.1251 Y140.3941 I0.7471 J-0.2084
G02 X295.9939 Y140.2015 I0.1948 J-1.1770
G02 X296.3108 Y139.3766 I-1.0389 J-0.8725
G02 X296.3719 Y137.8981 I-13.9664 J-1.3175
G01 Y135.3992
G01 X300.8144
G02 X300.8391 Y138.9754 I48.0402 J1.4566
G02 X301.0664 Y140.0456 I2.3304 J0.0643
G02 X301.7889 Y140.3941 I0.6525 J-0.4296
G02 X302.6577 Y140.2015 I0.1948 J-1.1770
G02 X302.9746 Y139.3766 I-1.0389 J-0.8725
G02 X303.0431 Y136.9409 I-27.5949 J-1.9947
G03 X303.1627 Y135.9483 I3.2590 J-0.1108
G03 X303.8483 Y135.4413 I0.7037 J0.2344
G03 X306.0267 Y135.4515 I1.0343 J11.7025
G03 X306.9245 Y136.2979 I-0.1102 J1.0162
G03 X307.3018 Y138.3121 I-19.9327 J4.7763
G02 X307.9600 Y140.0577 I4.2620 J-0.6103
G02 X308.4738 Y140.4538 I0.7358 J-0.4231
G01 X308.5942 Y140.4489
G02 X308.9864 Y139.9873 I-0.2269 J-0.5902
G02 X309.1482 Y138.3864 I-5.0423 J-1.3181
G03 X309.3763 Y136.6269 I5.5854 J-0.1702
G03 X310.8820 Y135.4494 I1.5857 J0.4762
G03 X312.9310 Y135.4720 I0.9390 J7.7703
G03 X313.5008 Y136.0980 I-0.1460 J0.7052
G03 X313.5880 Y138.2044 I-12.2685 J1.5628
G02 X313.7429 Y139.8301 I5.9294 J0.2554
G02 X314.5612 Y140.3941 I0.7471 J-0.2084
G02 X315.4300 Y140.2015 I0.1948 J-1.1770
G02 X315.7469 Y139.3766 I-1.0389 J-0.8725
G02 X315.8156 Y136.9430 I-27.6657 J-1.9984
G03 X315.9347 Y135.9512 I3.2900 J-0.1079
G03 X316.6119 Y135.4422 I0.7006 J0.2271
G03 X318.9549 Y135.5471 I0.8729 J6.7207
G03 X320.0846 Y136.8561 I-0.4775 J1.5540
G03 X320.2613 Y139.1525 I-11.0156 J2.0030
G02 X320.4891 Y140.1707 I2.5199 J-0.0292
G02 X320.8005 Y140.4489 I0.4381 J-0.1770
G02 X321.3052 Y140.2173 I0.0517 J-0.5530
G02 X322.0069 Y138.6925 I-3.1628 J-2.3793
G02 X322.3157 Y136.9645 I-48.3720 J-9.5361
G03 X322.5958 Y135.9797 I3.4463 J0.4479
G03 X323.3680 Y135.4515 I0.8534 J0.4190
G03 X325.5464 Y135.4413 I1.1465 J12.2463
G03 X326.2732 Y136.0951 I-0.0118 J0.7440
G03 X326.3603 Y138.2044 I-12.2494 J1.5625
G02 X326.5152 Y139.8301 I5.9292 J0.2554
G02 X327.3335 Y140.3941 I0.7471 J-0.2084
G02 X328.2023 Y140.2015 I0.1948 J-1.1770
G02 X328.5192 Y139.3766 I-1.0389 J-0.8725
G02 X328.5803 Y137.8981 I-13.9664 J-1.3175
G01 Y135.3992
G01 X333.0228
G02 X333.0475 Y138.9754 I48.0402 J1.4566
G02 X333.2748 Y140.0456 I2.3304 J0.0643
G02 X333.9973 Y140.3941 I0.6525 J-0.4296
G02 X334.8661 Y140.2015 I0.1948 J-1.1770
G02 X335.1830 Y139.3766 I-1.0389 J-0.8725
G02 X335.2512 Y136.9381 I-27.4957 J-1.9896
G03 X335.3714 Y135.9447 I3.2185 J-0.1145
G03 X336.0684 Y135.4401 I0.7081 J0.2444
G03 X338.3070 I1.1194 J14.5116
G03 X339.0455 Y136.0913 I-0.0024 J0.7471
G03 X339.1326 Y138.2044 I-12.2237 J1.5622
G02 X339.2875 Y139.8301 I5.9294 J0.2554
G02 X340.1058 Y140.3941 I0.7471 J-0.2084
G02 X340.9745 Y140.2015 I0.1948 J-1.1770
G02 X341.2915 Y139.3766 I-1.0389 J-0.8725
G02 X341.3526 Y137.8981 I-13.9654 J-1.3175
G01 Y135.3992
G01 X345.7951
G02 X345.8198 Y138.9754 I48.0449 J1.4566
G02 X346.0471 Y140.0456 I2.3304 J0.0643
G02 X346.7696 Y140.3941 I0.6525 J-0.4296
G02 X347.6384 Y140.2015 I0.1948 J-1.1770
G02 X347.9553 Y139.3766 I-1.0389 J-0.8725
G02 X348.0235 Y136.9381 I-27.4931 J-1.9896
G03 X348.1437 Y135.9447 I3.2185 J-0.1145
G03 X348.8407 Y135.4401 I0.7081 J0.2444
G03 X350.5194 Y135.3820 I1.9208 J31.2011
G02 X351.6104 Y135.1107 I0.0222 J-2.2405
G02 X351.3959 Y133.9013 I-0.3817 J-0.5561
G02 X349.9300 Y133.7231 I-1.2514 J4.1758
G03 X348.4706 Y133.2358 I0.0508 J-2.5816
G03 X348.1480 Y132.7656 I0.8062 J-0.8988
G02 X346.7877 Y132.0782 I-1.4654 J1.2103
G02 X345.5339 Y132.3384 I-0.2716 J1.8423
G02 X345.2356 Y132.9815 I0.4177 J0.5845
G03 X344.6400 Y133.6000 I-0.7476 J-0.1239
G03 X342.4118 Y133.5646 I-1.0505 J-4.0194
G03 X341.9040 Y132.8241 I0.1976 J-0.6799
G02 X341.2004 Y132.1493 I-0.8289 J0.1600
G02 X339.5015 Y132.2894 I-0.6562 J2.4129
G02 X339.1269 Y132.9851 I0.3395 J0.6316
G03 X338.5685 Y133.5734 I-0.7187 J-0.1229
G03 X336.4643 Y133.7025 I-1.4225 J-5.9745
G03 X335.4674 Y133.3930 I0.0114 J-1.7972
G03 X335.2402 Y132.8241 I0.4225 J-0.4986
G02 X334.5366 Y132.1493 I-0.8289 J0.1600
G02 X332.8377 Y132.2894 I-0.6562 J2.4129
G02 X332.4633 Y132.9815 I0.3381 J0.6302
G03 X331.8677 Y133.6000 I-0.7476 J-0.1239
G03 X329.6395 Y133.5646 I-1.0505 J-4.0194
G03 X329.1317 Y132.8254 I0.1973 J-0.6796
G02 X328.4514 Y132.1511 I-0.8297 J0.1568
G02 X326.3270 Y132.6377 I-0.6293 J2.1336
G02 X326.0322 Y133.1092 I8.0359 J5.3519
G03 X324.7234 Y133.6934 I-1.4910 J-1.5822
G03 X322.8912 Y133.5257 I-0.6077 J-3.4543
G03 X322.4679 Y132.8241 I0.2594 J-0.6350
G02 X321.7643 Y132.1493 I-0.8289 J0.1600
G02 X320.0654 Y132.2894 I-0.6562 J2.4129
G02 X319.6910 Y132.9815 I0.3381 J0.6302
G03 X319.0955 Y133.6000 I-0.7476 J-0.1239
G03 X316.8673 Y133.5646 I-1.0505 J-4.0194
G03 X316.3591 Y132.8190 I0.1986 J-0.6813
G02 X315.7636 Y132.2006 I-0.7476 J0.1239
G02 X313.5354 Y132.2360 I-1.0505 J4.0196
G02 X313.0272 Y132.9815 I0.1986 J0.6812
G03 X312.4317 Y133.6000 I-0.7476 J-0.1239
G03 X310.2035 Y133.5646 I-1.0505 J-4.0194
G03 X309.6956 Y132.8241 I0.1976 J-0.6799
G02 X308.9920 Y132.1493 I-0.8289 J0.1600
G02 X307.2931 Y132.2894 I-0.6562 J2.4129
G02 X306.9187 Y132.9817 I0.3382 J0.6303
G03 X306.3186 Y133.6005 I-0.7478 J-0.1249
G03 X303.7389 Y133.4038 I-1.0180 J-3.6636
G03 X303.1674 Y132.7656 I0.4959 J-1.0191
G02 X301.8070 Y132.0782 I-1.4654 J1.2103
G02 X300.5532 Y132.3384 I-0.2716 J1.8424
G02 X300.2549 Y132.9815 I0.4177 J0.5845
G03 X299.6594 Y133.6000 I-0.7476 J-0.1239
G03 X297.4312 Y133.5646 I-1.0505 J-4.0194
G03 X296.9233 Y132.8241 I0.1976 J-0.6799
G02 X296.2197 Y132.1493 I-0.8289 J0.1600
G02 X294.5208 Y132.2894 I-0.6562 J2.4129
G02 X294.1462 Y132.9851 I0.3395 J0.6316
G03 X293.5879 Y133.5734 I-0.7187 J-0.1229
G03 X291.4836 Y133.7025 I-1.4225 J-5.9745
G03 X290.4868 Y133.3930 I0.0114 J-1.7972
G03 X290.2595 Y132.8241 I0.4225 J-0.4986
G02 X289.5559 Y132.1493 I-0.8289 J0.1600
G02 X287.8570 Y132.2894 I-0.6562 J2.4129
G02 X287.4829 Y132.9768 I0.3365 J0.6287
G03 X286.7725 Y133.6518 I-0.8290 J-0.1612
G03 X284.5285 Y133.1628 I-0.6657 J-2.3387
G03 X284.2404 Y132.7007 I3.8581 J-2.7261
G02 X282.4729 Y132.0769 I-1.5191 J1.4884
G02 X281.5121 Y132.4961 I-0.0001 J1.3104
G02 X281.3617 Y133.0585 I0.7536 J0.5029
G03 X280.6745 Y133.6312 I-0.8024 J-0.2642
G03 X278.5504 Y133.5646 I-0.9336 J-4.1274
G03 X278.0426 Y132.8254 I0.1973 J-0.6796
G02 X277.3623 Y132.1511 I-0.8297 J0.1568
G02 X275.2378 Y132.6377 I-0.6293 J2.1336
G02 X274.9431 Y133.1092 I8.0469 J5.3589
G03 X273.6343 Y133.6934 I-1.4910 J-1.5822
G03 X271.8020 Y133.5257 I-0.6077 J-3.4543
G03 X271.3787 Y132.8241 I0.2594 J-0.6350
G02 X270.6752 Y132.1493 I-0.8289 J0.1600
G02 X268.9763 Y132.2894 I-0.6562 J2.4129
G02 X268.6019 Y132.9815 I0.3381 J0.6302
G03 X268.0063 Y133.6000 I-0.7476 J-0.1239
G03 X265.7781 Y133.5646 I-1.0505 J-4.0194
G03 X265.2703 Y132.8254 I0.1973 J-0.6796
G02 X264.5900 Y132.1511 I-0.8297 J0.1568
G02 X262.4655 Y132.6377 I-0.6293 J2.1336
G02 X262.1708 Y133.1092 I8.0359 J5.3519
G03 X260.8620 Y133.6934 I-1.4910 J-1.5822
G03 X259.0297 Y133.5257 I-0.6077 J-3.4543
G03 X258.6065 Y132.8241 I0.2594 J-0.6350
G02 X257.9029 Y132.1493 I-0.8289 J0.1600
G02 X256.2040 Y132.2894 I-0.6562 J2.4129
G02 X255.8296 Y132.9817 I0.3382 J0.6303
G03 X255.2294 Y133.6005 I-0.7478 J-0.1249
G03 X252.6497 Y133.4038 I-1.0180 J-3.6636
G03 X252.0782 Y132.7656 I0.4959 J-1.0191
G02 X250.7179 Y132.0782 I-1.4654 J1.2103
G02 X249.4641 Y132.3384 I-0.2716 J1.8423
G02 X249.1658 Y132.9815 I0.4177 J0.5845
G03 X248.5702 Y133.6000 I-0.7476 J-0.1239
G03 X246.3420 Y133.5646 I-1.0505 J-4.0194
G03 X245.8342 Y132.8241 I0.1976 J-0.6799
G02 X245.1306 Y132.1493 I-0.8289 J0.1600
G02 X243.4317 Y132.2894 I-0.6562 J2.4129
G02 X243.0571 Y132.9851 I0.3395 J0.6316
G03 X242.4987 Y133.5734 I-0.7187 J-0.1229
G03 X240.3945 Y133.7025 I-1.4225 J-5.9746
G03 X239.3976 Y133.3930 I0.0114 J-1.7972
G03 X239.1704 Y132.8241 I0.4225 J-0.4986
G02 X238.4668 Y132.1493 I-0.8289 J0.1600
G02 X236.7679 Y132.2894 I-0.6562 J2.4129
G02 X236.3935 Y132.9815 I0.3381 J0.6302
G03 X235.7979 Y133.6000 I-0.7476 J-0.1239
G03 X233.5697 Y133.5646 I-1.0505 J-4.0193
G03 X233.0619 Y132.8254 I0.1973 J-0.6796
G02 X232.3816 Y132.1511 I-0.8297 J0.1568
G02 X230.2572 Y132.6377 I-0.6293 J2.1336
G02 X229.9624 Y133.1092 I8.0430 J5.3564
G03 X228.6536 Y133.6934 I-1.4910 J-1.5822
G03 X226.8214 Y133.5257 I-0.6077 J-3.4543
G03 X226.3981 Y132.8241 I0.2594 J-0.6350
G02 X225.6945 Y132.1493 I-0.8289 J0.1600
G02 X223.9956 Y132.2894 I-0.6562 J2.4129
G02 X223.6212 Y132.9815 I0.3381 J0.6302
G03 X223.0257 Y133.6000 I-0.7476 J-0.1239
G03 X220.7974 Y133.5646 I-1.0505 J-4.0193
G03 X220.2896 Y132.8241 I0.1976 J-0.6799
G02 X219.5860 Y132.1493 I-0.8289 J0.1600
G02 X217.8871 Y132.2894 I-0.6562 J2.4129
G02 X217.5127 Y132.9817 I0.3382 J0.6303
G03 X216.9126 Y133.6005 I-0.7478 J-0.1249
G03 X214.3329 Y133.4038 I-1.0180 J-3.6636
G03 X213.7614 Y132.7656 I0.4959 J-1.0191
G02 X212.4010 Y132.0782 I-1.4654 J1.2103
G02 X211.1472 Y132.3384 I-0.2716 J1.8423
G02 X210.8489 Y132.9815 I0.4177 J0.5845
G03 X210.2534 Y133.6000 I-0.7476 J-0.1239
G03 X208.0252 Y133.5646 I-1.0505 J-4.0193
G03 X207.5173 Y132.8241 I0.1976 J-0.6799
G02 X206.8137 Y132.1493 I-0.8289 J0.1600
G02 X205.1148 Y132.2894 I-0.6562 J2.4129
G02 X204.7402 Y132.9851 I0.3395 J0.6316
G03 X204.1819 Y133.5734 I-0.7187 J-0.1229
G03 X202.0776 Y133.7025 I-1.4225 J-5.9746
G03 X201.0808 Y133.3930 I0.0114 J-1.7972
G03 X200.8535 Y132.8241 I0.4225 J-0.4986
G02 X200.1499 Y132.1493 I-0.8289 J0.1600
G02 X198.4510 Y132.2894 I-0.6562 J2.4129
G02 X198.0767 Y132.9815 I0.3381 J0.6302
G03 X197.4811 Y133.6000 I-0.7476 J-0.1239
G03 X195.2529 Y133.5646 I-1.0505 J-4.0193
G03 X194.7451 Y132.8254 I0.1973 J-0.6796
G02 X194.0647 Y132.1511 I-0.8297 J0.1568
G02 X191.9403 Y132.6377 I-0.6293 J2.1336
G02 X191.6455 Y133.1092 I8.0432 J5.3565
G03 X190.3368 Y133.6934 I-1.4910 J-1.5822
G03 X188.5045 Y133.5257 I-0.6077 J-3.4543
G03 X188.0812 Y132.8241 I0.2594 J-0.6350
G02 X187.3776 Y132.1493 I-0.8289 J0.1600
G02 X185.6787 Y132.2894 I-0.6562 J2.4129
G02 X185.3044 Y132.9815 I0.3381 J0.6302
G03 X184.7088 Y133.6000 I-0.7476 J-0.1239
G03 X182.4806 Y133.5646 I-1.0505 J-4.0193
G03 X181.9725 Y132.8190 I0.1986 J-0.6813
G02 X181.3769 Y132.2006 I-0.7476 J0.1239
G02 X179.1487 Y132.2360 I-1.0505 J4.0196
G02 X178.6406 Y132.9815 I0.1986 J0.6812
G03 X178.0450 Y133.6000 I-0.7476 J-0.1239
G03 X175.8168 Y133.5646 I-1.0505 J-4.0193
G03 X175.3089 Y132.8241 I0.1976 J-0.6799
G02 X174.6054 Y132.1493 I-0.8289 J0.1600
G02 X172.9065 Y132.2894 I-0.6562 J2.4129
G02 X172.5321 Y132.9817 I0.3382 J0.6303
G03 X171.9319 Y133.6005 I-0.7478 J-0.1249
G03 X169.3522 Y133.4038 I-1.0180 J-3.6636
G03 X168.7807 Y132.7656 I0.4959 J-1.0191
G02 X167.4203 Y132.0782 I-1.4654 J1.2103
G02 X166.1666 Y132.3384 I-0.2716 J1.8423
G02 X165.8683 Y132.9815 I0.4177 J0.5845
G03 X165.2727 Y133.6000 I-0.7476 J-0.1239
G03 X163.0445 Y133.5646 I-1.0505 J-4.0193
G03 X162.5367 Y132.8254 I0.1973 J-0.6796
G02 X161.8564 Y132.1511 I-0.8297 J0.1568
G02 X159.7319 Y132.6377 I-0.6293 J2.1336
G02 X159.4455 Y133.0998 I5.8082 J3.9197
G03 X157.8378 Y133.7332 I-1.5463 J-1.5678
G03 X156.6736 Y133.4186 I-0.1388 J-1.7972
G03 X156.4165 Y132.7510 I0.5688 J-0.6024
G02 X155.6251 Y132.1246 I-0.8788 J0.2971
G02 X154.0257 Y132.2894 I-0.5648 J2.3617
G02 X153.6513 Y132.9817 I0.3382 J0.6303
G03 X153.0511 Y133.6005 I-0.7478 J-0.1249
G03 X150.4715 Y133.4038 I-1.0180 J-3.6636
G03 X149.8999 Y132.7656 I0.4959 J-1.0191
G02 X148.5396 Y132.0782 I-1.4654 J1.2103
G02 X147.2858 Y132.3384 I-0.2716 J1.8423
G02 X146.9875 Y132.9815 I0.4177 J0.5845
G03 X146.3919 Y133.6000 I-0.7476 J-0.1239
G03 X144.1637 Y133.5646 I-1.0505 J-4.0193
G03 X143.6559 Y132.8241 I0.1976 J-0.6799
G02 X142.9523 Y132.1493 I-0.8289 J0.1600
G02 X141.2534 Y132.2894 I-0.6562 J2.4129
G02 X140.8788 Y132.9851 I0.3395 J0.6316
G03 X140.3204 Y133.5734 I-0.7187 J-0.1229
G03 X138.2162 Y133.7025 I-1.4225 J-5.9746
G03 X137.2193 Y133.3930 I0.0114 J-1.7972
G03 X136.9921 Y132.8241 I0.4225 J-0.4986
G02 X136.2885 Y132.1493 I-0.8289 J0.1600
G02 X134.5896 Y132.2894 I-0.6562 J2.4129
G02 X134.2152 Y132.9815 I0.3381 J0.6302
G03 X133.6196 Y133.6000 I-0.7476 J-0.1239
G03 X131.3914 Y133.5646 I-1.0505 J-4.0193
G03 X130.8836 Y132.8254 I0.1973 J-0.6796
G02 X130.2033 Y132.1511 I-0.8297 J0.1568
G02 X128.0789 Y132.6377 I-0.6293 J2.1336
G02 X127.7841 Y133.1092 I8.0432 J5.3565
G03 X126.4753 Y133.6934 I-1.4910 J-1.5822
G03 X124.6431 Y133.5257 I-0.6077 J-3.4543
G03 X124.2198 Y132.8241 I0.2594 J-0.6350
G02 X123.5162 Y132.1493 I-0.8289 J0.1600
G02 X121.8173 Y132.2894 I-0.6562 J2.4129
G02 X121.4429 Y132.9815 I0.3381 J0.6302
G03 X120.8474 Y133.6000 I-0.7476 J-0.1239
G03 X118.6192 Y133.5646 I-1.0505 J-4.0193
G03 X118.1113 Y132.8254 I0.1973 J-0.6796
G02 X117.4310 Y132.1511 I-0.8297 J0.1568
G02 X115.3066 Y132.6377 I-0.6293 J2.1336
G02 X115.0118 Y133.1092 I8.0432 J5.3565
G03 X113.7030 Y133.6934 I-1.4910 J-1.5822
G03 X111.8708 Y133.5257 I-0.6077 J-3.4543
G03 X111.4475 Y132.8241 I0.2594 J-0.6350
G02 X110.7439 Y132.1493 I-0.8289 J0.1600
G02 X109.0450 Y132.2894 I-0.6562 J2.4129
G02 X108.6706 Y132.9817 I0.3382 J0.6303
G03 X108.0705 Y133.6005 I-0.7478 J-0.1249
G03 X105.4908 Y133.4038 I-1.0180 J-3.6636
G03 X104.9193 Y132.7656 I0.4959 J-1.0191
G02 X103.5589 Y132.0782 I-1.4654 J1.2103
G02 X102.3051 Y132.3384 I-0.2716 J1.8423
G02 X102.0069 Y132.9815 I0.4177 J0.5845
G03 X101.4113 Y133.6000 I-0.7476 J-0.1239
G03 X99.1831 Y133.5646 I-1.0505 J-4.0193
G03 X98.6752 Y132.8241 I0.1976 J-0.6799
G02 X97.9716 Y132.1493 I-0.8289 J0.1600
G02 X96.2727 Y132.2894 I-0.6562 J2.4129
G02 X95.8984 Y132.9815 I0.3381 J0.6302
G03 X95.3028 Y133.6000 I-0.7476 J-0.1239
G03 X93.9200 Y133.7416 I-1.1980 J-4.8766
G02 X92.8372 Y134.0331 I-0.0677 J1.9054
G02 X93.0746 Y135.2305 I0.4134 J0.5403
G02 X94.4658 Y135.4002 I1.1550 J-3.6823
G03 X95.4176 Y135.5284 I0.2073 J2.0574
G03 X95.8459 Y136.2971 I-0.4699 J0.7654
G03 X95.9157 Y138.7420 I-37.1476 J2.2845
G02 X96.1545 Y140.0456 I2.9287 J0.1372
G02 X96.8770 Y140.3941 I0.6525 J-0.4296
G02 X97.7458 Y140.2015 I0.1948 J-1.1770
G02 X98.0627 Y139.3766 I-1.0389 J-0.8725
G02 X98.1238 Y137.8981 I-13.9660 J-1.3175
G01 Y135.3992
G01 X102.5663
G02 X102.5910 Y138.9754 I48.0430 J1.4566
G02 X102.8183 Y140.0456 I2.3304 J0.0643
G02 X103.5408 Y140.3941 I0.6525 J-0.4296
G02 X104.4096 Y140.2015 I0.1948 J-1.1770
G02 X104.7265 Y139.3766 I-1.0389 J-0.8725
G02 X104.7950 Y136.9409 I-27.5921 J-1.9946
G03 X104.9146 Y135.9483 I3.2591 J-0.1108
G03 X105.6002 Y135.4413 I0.7037 J0.2344
G03 X107.7786 Y135.4515 I1.0343 J11.7026
G03 X108.6764 Y136.2979 I-0.1102 J1.0162
G03 X109.0537 Y138.3121 I-19.9335 J4.7764
G02 X109.7119 Y140.0577 I4.2620 J-0.6103
G02 X110.2257 Y140.4538 I0.7358 J-0.4231
G01 X110.3461 Y140.4489
G02 X110.7383 Y139.9873 I-0.2269 J-0.5902
G02 X110.9001 Y138.3864 I-5.0423 J-1.3181
G03 X111.1282 Y136.6269 I5.5855 J-0.1702
G03 X112.6339 Y135.4494 I1.5857 J0.4762
G03 X114.6830 Y135.4720 I0.9390 J7.7703
G03 X115.2528 Y136.0980 I-0.1460 J0.7052
G03 X115.3399 Y138.2044 I-12.2689 J1.5628
G02 X115.4948 Y139.8301 I5.9293 J0.2554
G02 X116.3131 Y140.3941 I0.7471 J-0.2084
G02 X117.1829 Y140.2000 I0.1953 J-1.1708
G02 X117.4992 Y139.3651 I-1.0621 J-0.8798
G02 X117.5599 Y137.8646 I-14.4594 J-1.3361
G01 Y135.3321
G03 X120.6370 Y135.6122 I-1.5401 J33.9665
G03 X121.3706 Y135.8843 I-0.1215 J1.4525
G03 X121.7578 Y136.6983 I-0.9973 J0.9735
G03 X121.9663 Y138.8007 I-42.5230 J5.2784
G02 X122.3036 Y140.0309 I2.9085 J-0.1362
G02 X123.1450 Y140.3971 I0.7367 J-0.5431
G02 X123.9171 Y140.1234 I0.1241 J-0.8758
G02 X124.1829 Y139.1762 I-1.6676 J-0.9789
G02 X124.2402 Y136.6837 I-68.0059 J-2.8119
G03 X124.4042 Y135.8203 I2.0122 J-0.0650
G03 X125.2228 Y135.4205 I0.7549 J0.5075
G03 X127.4397 Y135.4691 I0.8706 J10.8575
G03 X128.0251 Y136.0913 I-0.1274 J0.7064
G03 X128.1122 Y138.2044 I-12.2238 J1.5622
G02 X128.2671 Y139.8301 I5.9293 J0.2554
G02 X129.0854 Y140.3941 I0.7471 J-0.2084
G02 X129.9542 Y140.2015 I0.1948 J-1.1770
G02 X130.2711 Y139.3766 I-1.0389 J-0.8725
G02 X130.3322 Y137.8981 I-13.9660 J-1.3175
G01 Y135.3992
G01 X134.7747
G02 X134.7994 Y138.9754 I48.0430 J1.4566
G02 X135.0267 Y140.0456 I2.3304 J0.0643
G02 X135.7492 Y140.3941 I0.6525 J-0.4296
G02 X136.6180 Y140.2015 I0.1948 J-1.1770
G02 X136.9349 Y139.3766 I-1.0389 J-0.8725
G02 X137.0031 Y136.9381 I-27.4913 J-1.9895
G03 X137.1233 Y135.9447 I3.2187 J-0.1146
G03 X137.8203 Y135.4401 I0.7080 J0.2444
G03 X140.0589 I1.1194 J14.5121
G03 X140.7974 Y136.0913 I-0.0024 J0.7471
G03 X140.8845 Y138.2044 I-12.2238 J1.5622
G02 X141.0394 Y139.8301 I5.9293 J0.2554
G02 X141.8577 Y140.3941 I0.7471 J-0.2084
G02 X142.7265 Y140.2015 I0.1948 J-1.1770
G02 X143.0434 Y139.3766 I-1.0389 J-0.8725
G02 X143.1045 Y137.8981 I-13.9660 J-1.3175
G01 Y135.3992
G01 X147.5470
G02 X147.5717 Y138.9754 I48.0430 J1.4566
G02 X147.7990 Y140.0456 I2.3304 J0.0643
G02 X148.5215 Y140.3941 I0.6525 J-0.4296
G02 X149.3903 Y140.2015 I0.1948 J-1.1770
G02 X149.7072 Y139.3766 I-1.0389 J-0.8725
G02 X149.7759 Y136.9435 I-27.6829 J-1.9992
G03 X149.8949 Y135.9518 I3.2966 J-0.1073
G03 X150.5703 Y135.4424 I0.6999 J0.2256
G03 X152.6648 Y135.5103 I0.8210 J7.0194
G03 X153.9440 Y136.8033 I-0.4209 J1.6956
G03 X154.2064 Y139.2564 I-8.7261 J2.1740
G02 X154.6464 Y140.2665 I1.2917 J0.0382
G02 X155.7280 Y139.9058 I0.4032 J-0.5930
G02 X155.8843 Y139.1476 I-1.6290 J-0.7310
G03 X156.2151 Y136.6356 I7.4564 J-0.2958
G03 X157.9215 Y135.4067 I1.6804 J0.5342
G03 X159.1823 Y135.4884 I0.3828 J3.8609
G03 X159.6777 Y136.1365 I-0.2570 J0.7099
G03 X159.7653 Y138.2044 I-12.4363 J1.5624
G02 X159.9201 Y139.8301 I5.9293 J0.2554
G02 X160.7385 Y140.3941 I0.7471 J-0.2084
G02 X161.6072 Y140.2015 I0.1948 J-1.1770
G02 X161.9241 Y139.3766 I-1.0389 J-0.8725
G02 X161.9852 Y137.8981 I-13.9660 J-1.3175
G01 Y135.3992
G01 X166.4278
G02 X166.4524 Y138.9754 I48.0430 J1.4566
G02 X166.6797 Y140.0456 I2.3304 J0.0643
G02 X167.4023 Y140.3941 I0.6525 J-0.4296
G02 X168.2710 Y140.2015 I0.1948 J-1.1770
G02 X168.5879 Y139.3766 I-1.0389 J-0.8725
G02 X168.6564 Y136.9409 I-27.5924 J-1.9946
G03 X168.7760 Y135.9483 I3.2591 J-0.1108
G03 X169.4616 Y135.4413 I0.7037 J0.2344
G03 X171.6400 Y135.4515 I1.0343 J11.7026
G03 X172.5378 Y136.2979 I-0.1102 J1.0162
G03 X172.9151 Y138.3121 I-19.9335 J4.7764
G02 X173.5733 Y140.0577 I4.2620 J-0.6103
G02 X174.0872 Y140.4538 I0.7358 J-0.4231
G01 X174.2076 Y140.4489
G02 X174.5997 Y139.9873 I-0.2269 J-0.5902
G02 X174.7615 Y138.3864 I-5.0423 J-1.3181
G03 X174.9897 Y136.6269 I5.5854 J-0.1702
G03 X176.4953 Y135.4494 I1.5857 J0.4762
G03 X178.5444 Y135.4720 I0.9390 J7.7703
G03 X179.1142 Y136.0980 I-0.1460 J0.7052
G03 X179.2014 Y138.2044 I-12.2689 J1.5628
G02 X179.3562 Y139.8301 I5.9293 J0.2554
G02 X180.1746 Y140.3941 I0.7471 J-0.2084
G02 X181.0443 Y140.2000 I0.1953 J-1.1708
G02 X181.3606 Y139.3651 I-1.0621 J-0.8798
G02 X181.4213 Y137.8646 I-14.4594 J-1.3361
G01 Y135.3321
G03 X184.4984 Y135.6122 I-1.5401 J33.9665
G03 X185.2320 Y135.8843 I-0.1215 J1.4525
G03 X185.6192 Y136.6983 I-0.9973 J0.9735
G03 X185.8277 Y138.8007 I-42.5230 J5.2784
G02 X186.1651 Y140.0309 I2.9085 J-0.1362
G02 X187.0064 Y140.3971 I0.7367 J-0.5431
G02 X187.7785 Y140.1234 I0.1241 J-0.8758
G02 X188.0443 Y139.1762 I-1.6676 J-0.9789
G02 X188.1017 Y136.6837 I-68.0071 J-2.8119
G03 X188.2657 Y135.8203 I2.0122 J-0.0650
G03 X189.0842 Y135.4205 I0.7549 J0.5075
G03 X191.3011 Y135.4691 I0.8706 J10.8575
G03 X191.8865 Y136.0913 I-0.1274 J0.7064
G03 X191.9736 Y138.2044 I-12.2238 J1.5622
G02 X192.1285 Y139.8301 I5.9293 J0.2554
G02 X192.9468 Y140.3941 I0.7471 J-0.2084
G02 X193.8156 Y140.2015 I0.1948 J-1.1770
G02 X194.1325 Y139.3766 I-1.0389 J-0.8725
G02 X194.1936 Y137.8981 I-13.9660 J-1.3175
G01 Y135.3992
G01 X198.6361
G02 X198.6608 Y138.9754 I48.0430 J1.4566
G02 X198.8881 Y140.0456 I2.3304 J0.0643
G02 X199.6106 Y140.3941 I0.6525 J-0.4296
G02 X200.4794 Y140.2015 I0.1948 J-1.1770
G02 X200.7963 Y139.3766 I-1.0389 J-0.8725
G02 X200.8646 Y136.9381 I-27.4916 J-1.9895
G03 X200.9848 Y135.9447 I3.2187 J-0.1146
G03 X201.6817 Y135.4401 I0.7080 J0.2444
G03 X203.9203 I1.1194 J14.5121
G03 X204.6588 Y136.0913 I-0.0024 J0.7471
G03 X204.7459 Y138.2044 I-12.2238 J1.5622
G02 X204.7851 Y139.1866 I12.5275 J-0.0078
G00 Z20.0000


(No. 25: Engraving 33)
G00 X141.6065 Y176.0526 Z20.0000
G00 Z0.5000
G01 Z0.0000 F1270
G01 Z-35.0000
G03 X141.8286 Y187.0294 I-328.4164 J12.1346 F1000
G01 X141.8535 Y190.1243
G01 X141.8792 Y193.5686
G01 X142.0422 Y215.3648
G01 X172.5362
G01 Y166.5557
G01 X170.4929 Y162.3106
G02 X164.9544 Y154.2641 I-27.9810 J13.3302
G02 X162.2719 Y152.0998 I-8.9736 J8.3779
G03 X157.7486 Y149.3312 I14.0467 J-28.0286
G02 X150.0384 Y146.4606 I-12.1131 J20.7446
G02 X144.9215 Y146.0531 I-5.7299 J39.6181
G02 X126.5079 Y145.9760 I-11.9673 J659.2186
G02 X117.2914 Y146.2292 I0.3858 J181.8515
G02 X114.3170 Y146.5560 I0.5732 J18.9170
G03 X112.4747 Y147.0028 I-3.8217 J-11.7362
G03 X111.7387 Y146.8763 I-0.2263 J-0.8874
G03 X111.5257 Y146.5076 I0.8455 J-0.7343
G02 X110.8365 Y146.0920 I-0.9944 J0.8698
G02 X108.9515 Y146.1350 I-0.8815 J2.6954
G02 X108.6683 Y146.5509 I0.1476 J0.4048
G03 X108.2055 Y146.8664 I-0.5772 J-0.3495
G03 X105.1639 Y146.8329 I-1.4618 J-5.3757
G03 X104.7876 Y146.5055 I0.0785 J-0.4702
G02 X104.3318 Y146.0577 I-0.5635 J0.1176
G02 X102.7333 Y146.2136 I-0.6373 J1.7384
G02 X102.5589 Y146.5509 I0.2344 J0.3349
G03 X102.0299 Y146.8664 I-0.6275 J-0.4508
G03 X98.5538 Y146.8329 I-1.6704 J-7.0479
G03 X98.1312 Y146.5509 I0.0921 J-0.5957
G02 X97.6680 Y146.0577 I-0.5706 J0.0718
G02 X96.0695 Y146.2136 I-0.6373 J1.7384
G02 X95.8806 Y146.5953 I0.3055 J0.3888
G03 X95.2188 Y146.9533 I-0.8256 J-0.7354
G03 X93.9200 Y147.0692 I-1.1599 J-5.6666
G02 X92.8372 Y147.3607 I-0.0677 J1.9054
G02 X93.0746 Y148.5581 I0.4134 J0.5403
G02 X94.5531 Y148.7351 I1.2359 J-4.0602
G03 X95.6360 Y149.0267 I0.0677 J1.9054
G03 X95.9064 Y149.6360 I-0.4029 J0.5435
G02 X96.6100 Y150.3108 I0.8289 J-0.1600
G02 X98.3089 Y150.1706 I0.6562 J-2.4129
G02 X98.6833 Y149.4786 I-0.3381 J-0.6302
G03 X99.2789 Y148.8601 I0.7476 J0.1239
G03 X101.5071 Y148.8955 I1.0505 J4.0194
G03 X102.0138 Y149.6278 I-0.1949 J0.6763
G02 X102.9786 Y150.4000 I0.8605 J-0.0863
G03 X103.6660 Y150.8583 I-0.0046 J0.7515
G03 X103.0993 Y151.5137 I-0.5466 J0.1001
G02 X101.7958 Y152.4177 I3.4083 J6.3063
G02 X98.2172 Y155.6667 I25.7009 J31.9044
G02 X92.4253 Y165.0760 I21.8321 J19.9259
G02 X91.7118 Y167.6656 I14.3674 J5.3521
G01 X91.3667 Y169.6672
G02 X112.9640 Y175.0164 I340.2028 J-1327.2886
G02 X117.0573 Y175.9269 I19.1508 J-76.4436
G02 X117.4959 Y175.7302 I0.0474 J-0.4816
G02 X118.4637 Y173.7373 I-4.8187 J-3.5716
G03 X121.1783 Y168.8947 I10.4689 J2.6863
G03 X126.6146 Y165.4166 I9.0465 J8.1520
G03 X131.3431 Y164.8972 I4.5391 J19.5429
G03 X135.3708 Y165.3837 I0.2053 J15.2165
G03 X137.9593 Y166.8598 I-2.4096 J7.2330
G03 X139.8156 Y168.4958 I-8.8024 J11.8591
G03 X141.1249 Y171.3944 I-4.6760 J3.8572
G03 X141.6065 Y176.0526 I-31.0750 J5.5670
G00 Z20.0000


(No. 26: Engraving 34)
G00 X263.8848 Y181.3813 Z20.0000
G00 Z0.5000
G01 Z0.0000 F1270
G01 Z-35.0000
G02 X268.2344 Y173.3063 I-10.2919 J-10.7527 F1000
G02 X268.1445 Y164.5501 I-22.5153 J-4.1475
G02 X264.5236 Y157.4963 I-15.6359 J3.5701
G02 X258.8227 Y152.4592 I-21.1941 J18.2424
G02 X249.8807 Y147.5707 I-26.6413 J38.1093
G02 X247.7817 Y146.8733 I-6.7674 J16.8622
G01 X247.0283 Y146.7611
G02 X238.9250 Y146.3860 I-10.4321 J137.6427
G02 X203.3992 Y146.1800 I-23.0476 J911.2347
G01 X201.2975 Y146.2370
G01 X199.6670 Y146.3089
G01 X198.5730 Y146.3960
G02 X197.8214 Y146.6296 I0.2555 J2.1473
G03 X194.8627 Y147.0604 I-2.7255 J-8.3441
G02 X193.0365 Y147.4114 I-0.0140 J4.8528
G02 X192.7033 Y147.7066 I0.9245 J1.3790
G03 X190.7165 Y148.4426 I-2.9193 J-4.8311
G02 X186.0630 Y149.9397 I10.6194 J40.9895
G02 X180.3107 Y152.1835 I82.2726 J219.4110
G02 X180.3596 Y169.4574 I752.3086 J6.5082
G02 X180.5579 Y174.4962 I64.6680 J-0.0217
G01 X180.5832 Y174.6778
G01 X180.6092 Y174.7890
G01 X180.6357 Y174.8267
G02 X186.0854 Y172.6029 I-42.9969 J-113.1598
G03 X196.0676 Y168.4226 I141.4385 J323.7307
G03 X203.4352 Y165.7844 I34.2410 J84.0175
G03 X223.2674 Y162.8148 I24.7802 J97.7841
G03 X232.3901 Y163.2294 I2.4919 J45.7439
G03 X236.3330 Y164.1628 I-2.5677 J19.6401
G03 X237.9060 Y165.0447 I-1.4714 J4.4688
G03 X237.9432 Y167.6348 I-1.0491 J1.3104
G03 X236.0280 Y168.6833 I-3.8405 J-4.7419
G03 X231.0413 Y169.8438 I-8.8267 J-26.6338
G03 X223.6212 Y170.6974 I-18.7395 J-130.2225
G02 X208.3117 Y172.4805 I39.3533 J404.4951
G02 X200.2121 Y173.8893 I12.5290 J96.0214
G02 X187.8039 Y178.9216 I8.3270 J38.3463
G02 X182.2356 Y184.9026 I8.2773 J13.2884
G02 X181.0148 Y187.5694 I11.3982 J6.8309
G02 X180.6033 Y191.0802 I13.0444 J3.3084
G02 X180.6684 Y196.0342 I61.7589 J1.6655
G02 X181.7686 Y200.2532 I10.8171 J-0.5678
G02 X186.9162 Y207.1725 I18.3557 J-8.2812
G02 X194.4827 Y212.0278 I20.4562 J-23.5558
G02 X211.5599 Y216.4978 I21.5272 J-47.3862
G02 X224.1577 Y217.0198 I12.0806 J-139.2753
G02 X237.9856 Y216.7248 I2.5270 J-205.7787
G02 X255.1588 Y213.7949 I-4.6075 J-78.8012
G03 X261.3869 Y212.2767 I23.9906 J84.8847
G02 X265.5518 Y211.0013 I-5.4868 J-25.3541
G01 X268.3284 Y209.9240
G02 X268.5217 Y193.5042 I-729.2521 J-16.7940
G02 X268.4419 Y189.5665 I-65.5210 J-0.6428
G01 X268.4255 Y189.4008
G01 X268.4076 Y189.2993
G01 X268.3883 Y189.2649
G02 X262.2265 Y191.5215 I43.4116 J128.0804
G03 X256.7690 Y193.4243 I-26.8616 J-68.2632
G02 X249.9989 Y195.6266 I37.3069 J126.1940
G03 X230.1292 Y199.3447 I-21.7879 J-61.4850
G03 X218.8714 Y199.0961 I-3.7415 J-85.6025
G03 X213.6664 Y198.1846 I2.3998 J-29.0223
G03 X211.1852 Y197.0921 I1.9375 J-7.7640
G03 X210.4101 Y196.0908 I0.9451 J-1.5322
G03 X210.8008 Y194.7364 I1.5160 J-0.2962
G03 X212.2951 Y193.7941 I2.7005 J2.6265
G03 X215.2872 Y193.0307 I5.8855 J16.8223
G03 X224.3689 Y191.9382 I17.9171 J110.6495
G02 X239.6933 Y190.3074 I-22.8166 J-287.2219
G02 X249.4553 Y188.4744 I-10.9113 J-85.0207
G02 X259.7554 Y184.4350 I-9.3911 J-39.0987
G02 X263.8848 Y181.3813 I-10.0790 J-17.9479
G00 Z20.0000


(No. 27: Engraving 35)
G00 X279.1571 Y180.9352 Z20.0000
G00 Z0.5000
G01 Z0.0000 F1270
G01 Z-35.0000
G01 Y215.9201 F1000
G01 X310.2548
G01 Y168.1629
G01 X351.9036
G01 Y145.9502
G01 X279.1571
G01 Y180.9352
G00 Z20.0000


(No. 28: Engraving 38)
G00 X205.0228 Y242.0273 Z20.0000
G00 Z0.5000
G01 Z0.0000 F1270
G01 Z-35.0000
G01 X225.3464 Y242.0365 F1000
G01 X244.9415 Y242.0453
G03 X247.5302 Y235.8859 I241.8633 J98.0272
G01 X203.1460
G01 X204.2653 Y238.5342
G01 X206.0217 Y242.6899
G00 Z20.0000


(No. 29: Engraving 39)
G00 X213.1613 Y250.4444 Z20.0000
G00 Z0.5000
G01 Z0.0000 F1270
G01 Z-35.0000
G02 X209.4235 Y250.5784 I1.5079 J94.2326 F1000
G02 X211.0692 Y253.6891 I12.8240 J-4.7939
G02 X211.4594 Y253.8845 I1.0672 J-1.6440
G03 X211.8991 Y255.7184 I-0.6921 J1.1356
G03 X209.5107 Y257.8682 I-4.4961 J-2.5935
G03 X208.1253 Y257.8836 I-0.7091 J-1.4757
G03 X207.4057 Y257.1755 I0.9897 J-1.7255
G03 X205.2983 Y253.2895 I39.8116 J-24.1047
G03 X201.3248 Y244.4148 I101.2290 J-50.6508
G03 X200.7922 Y242.8953 I206.0263 J-73.0623
G02 X197.8591 Y236.5368 I-81.9253 J33.9359
G01 X195.5771 Y231.9987
G01 X190.8486
G01 X190.9341 Y232.7315
G01 X191.1611 Y234.6751
G03 X190.0834 Y235.8859 I-1.0777 J0.1258
G02 X183.7393 Y235.9011 I-2.6060 J236.4791
G02 X182.5073 Y235.9879 I-0.0893 J7.5212
G01 X182.5066 Y236.0512
G01 X182.5067 Y236.0399
G02 X183.0856 Y237.1445 I3.0599 J-0.8994
G02 X185.1191 Y239.4647 I15.0488 J-11.1385
G01 X187.7325 Y242.0456
G01 X194.7302
G03 X195.6980 Y242.6402 I0.0000 J1.0850
G03 X198.2474 Y247.7959 I-81.0343 J43.2767
G03 X198.6001 Y248.7931 I-3.3288 J1.7385
G03 X197.6754 Y250.0779 I-1.1663 J0.1357
G03 X195.2291 Y250.3152 I-2.4057 J-12.0753
G02 X192.8126 Y250.4138 I-0.4070 J19.6880
G01 X193.0203 Y250.6521
G01 X193.0092 Y250.6393
G02 X195.9896 Y253.1456 I12.1184 J-11.3859
G02 X198.1861 Y253.7046 I2.0456 J-3.4430
G03 X200.3571 Y253.8572 I0.3858 J10.0253
G03 X202.2886 Y255.3090 I-0.6686 J2.9003
G03 X203.2334 Y257.2086 I-10.8875 J6.6004
G03 X202.8533 Y259.0113 I-1.4744 J0.6306
G03 X201.6766 Y259.6326 I-2.1177 J-2.5860
G03 X186.3935 Y265.1611 I-689.1877 J-1881.3095
G01 Y268.7009
G01 X263.6338
G02 X263.6062 Y266.0507 I-31.8953 J-0.9926
G02 X263.4298 Y265.0581 I-2.9543 J0.0130
G02 X263.2560 Y264.9409 I-0.1926 J0.0980
G02 X252.2158 Y260.8904 I-2614.5485 J7109.4139
G03 X248.1068 Y259.2108 I18.9132 J-52.1333
G03 X247.2332 Y257.5869 I0.7266 J-1.4378
G03 X248.2584 Y254.8281 I5.3652 J0.4239
G03 X250.1339 Y253.7984 I2.1796 J1.7470
G03 X252.3218 Y253.6963 I1.8994 J17.2145
G02 X255.0002 Y252.7334 I-0.0758 J-4.4172
G02 X257.7035 Y250.4043 I-11.7181 J-16.3347
G01 X257.4616 Y250.3745
G01 X257.4777 Y250.3765
G02 X255.5862 Y250.3166 I-2.2184 J40.1452
G03 X253.0478 Y249.9734 I0.0109 J-9.6401
G03 X252.0554 Y249.1342 I0.3305 J-1.3972
G03 X252.1207 Y247.9580 I1.6919 J-0.4960
G03 X253.3017 Y245.1720 I23.9504 J8.5097
G01 X254.5238 Y242.6565
G03 X255.4998 Y242.0456 I0.9759 J0.4741
G02 X259.8427 Y242.0284 I1.7689 J-101.4598
G02 X261.6845 Y241.6322 I0.0770 J-4.1205
G02 X263.6871 Y240.2125 I-6.2348 J-10.9176
G02 X266.4965 Y237.7414 I-19.3501 J-24.8314
G02 X267.4328 Y236.5120 I-3.2103 J-3.4162
G02 X267.5189 Y235.9748 I-0.9022 J-0.4199
G01 X267.4892 Y235.9693
G01 X267.5014 Y235.9715
G02 X264.4977 Y235.8859 I-2.2228 J25.2462
G01 X260.3902
G03 X259.3063 Y234.7517 I0.0000 J-1.0850
G01 X259.4186 Y232.2763
G01 X254.6383
G03 X247.5303 Y248.0390 I-898.4951 J-395.6818
G03 X243.5213 Y256.1569 I-118.5970 J-53.5200
G03 X242.7817 Y257.1538 I-3.0046 J-1.4562
G03 X241.5965 Y257.4141 I-0.8863 J-1.2069
G03 X238.6598 Y255.7436 I0.9101 J-5.0163
G03 X239.1990 Y253.7686 I0.9361 J-0.8055
G02 X241.0669 Y250.4639 I-13.6596 J-9.9010
G02 X213.1574 Y250.4445 I-14.4836 J758.6953
G00 Z20.0000


(No. 30: Engraving 40)
G00 X267.5459 Y273.6474 Z20.0000
G00 Z0.5000
G01 Z0.0000 F1270
G01 Z-35.0000
G01 X183.1949 F1000
G01 X182.2803 Y274.6211
G02 X181.1992 Y276.8016 I4.0006 J3.3416
G02 X181.0254 Y279.7093 I6.3121 J1.8366
G02 X181.5574 Y280.9223 I3.3995 J-0.7680
G01 X225.4480 Y280.7823
G01 X268.9643 Y280.6434
G02 X269.1208 Y277.1087 I-53.7776 J-4.1515
G02 X268.9330 Y275.7087 I-3.6016 J-0.2295
G02 X268.1656 Y274.7166 I-2.8676 J1.4252
G01 X266.7787 Y273.3297
G00 Z20.0000


(No. 31: Engraving 41)
G00 X264.7188 Y285.8644 Z20.0000
G00 Z0.5000
G01 Z0.0000 F1270
G01 Z-35.0000
G01 X186.3935 F1000
G02 X186.4141 Y296.8965 I591.6806 J4.4132
G02 X186.5755 Y300.5332 I38.1721 J0.1280
G03 X225.0467 Y288.5928 I2274.9442 J7261.7813
G03 X225.5315 Y288.6297 I0.1620 J1.0728
G01 X243.7594 Y294.3084
G01 X245.2537 Y294.7739
G01 X246.7258 Y295.2322
G01 X248.1705 Y295.6818
G01 X249.5825 Y296.1211
G01 X250.9568 Y296.5485
G02 X263.6338 Y300.4687 I611.6511 J-1955.4281
G01 Y284.7794
G00 Z20.0000


(No. 32: Engraving 42)
G00 X241.8513 Y299.7563 Z20.0000
G00 Z0.5000
G01 Z0.0000 F1270
G01 Z-35.0000
G02 X226.0696 Y295.0748 I-141.4977 J448.0554 F1000
G02 X225.0158 Y294.8210 I-3.6613 J12.8870
G02 X218.1773 Y296.7390 I26.0312 J105.9637
G02 X198.4519 Y302.9289 I1058.5468 J3407.7904
G03 X193.5469 Y304.4717 I-1837.8703 J-5834.5496
G01 X186.3935 Y306.7178
G02 X186.4164 Y309.7358 I42.8373 J1.1843
G01 X186.4291 Y309.9321
G01 X186.4442 Y310.0223
G03 X225.0940 Y298.0616 I2485.6014 J7963.5389
G03 X225.5780 Y298.0985 I0.1615 J1.0729
G01 X244.3979 Y303.9581
G03 X263.5833 Y309.9855 I-716.2645 J2313.4510
G02 X263.4012 Y306.4861 I-87.9507 J2.8217
G02 X241.8498 Y299.7558 I-1599.4083 J5083.7256
G00 Z20.0000


(No. 33: Engraving 43)
G00 X240.3421 Y308.7569 Z20.0000
G00 Z0.5000
G01 Z0.0000 F1270
G01 Z-35.0000
G02 X226.0693 Y304.5386 I-134.3758 J428.4139 F1000
G02 X225.0250 Y304.2873 I-3.2904 J11.3787
G02 X216.6145 Y306.7082 I48.3081 J183.6517
G02 X186.9396 Y316.1086 I382.0139 J1257.4685
G01 X186.5082 Y316.2586
G01 X186.4626 Y316.2763
G02 X186.5622 Y318.7731 I16.1241 J0.6070
G03 X217.5160 Y309.1957 I863.9829 J2737.5473
G03 X224.5496 Y307.1398 I69.1348 J223.4593
G03 X225.3648 Y307.0402 I0.6009 J1.5332
G03 X226.4451 Y307.3090 I-1.8164 J9.6067
G03 X253.5108 Y315.5290 I-449.2447 J1527.8794
G03 X263.5898 Y318.7392 I-158.3208 J514.5042
G01 X263.5268 Y317.7785
G01 X263.4072 Y315.9562
G02 X240.3406 Y308.7564 I-1285.4915 J4077.8925
G00 Z20.0000


(No. 34: Engraving 44)
G00 X238.8761 Y317.1373 Z20.0000
G00 Z0.5000
G01 Z0.0000 F1270
G01 Z-35.0000
G02 X226.0223 Y313.3863 I-155.2975 J508.2822 F1000
G01 X225.1496 Y313.1607
G01 X224.9634 Y313.1249
G02 X216.7881 Y315.4672 I49.9512 J189.7884
G02 X187.0969 Y324.7009 I851.4228 J2790.1070
G02 X189.7611 Y325.6981 I3.3494 J-4.8911
G03 X192.4877 Y326.3545 I-2.4830 J16.3039
G03 X194.0597 Y327.6913 I-0.7529 J2.4781
G03 X194.2361 Y328.1641 I-2.2668 J1.1150
G02 X195.3528 Y328.8276 I2.4192 J-2.7999
G02 X199.8046 Y330.3114 I13.7966 J-33.9736
G02 X211.5748 Y333.0360 I52.6583 J-200.6928
G03 X221.2558 Y335.2811 I-32.9436 J164.0542
G03 X223.0770 Y336.0274 I-3.2350 J10.4895
G03 X223.5998 Y336.9554 I-0.5623 J0.9280
G01 Y365.5347
G02 X224.7919 Y366.0470 I3.4835 J-6.4634
G02 X226.1580 Y365.9106 I0.5260 J-1.6411
G01 X226.8122 Y365.6125
G03 X226.5413 Y347.5379 I1112.5635 J-25.7115
G03 X226.7038 Y337.9839 I152.8549 J-2.1790
G03 X226.9066 Y336.7476 I4.2690 J0.0656
G03 X227.7149 Y335.9827 I1.2499 J0.5114
G03 X231.6526 Y334.7765 I11.6632 J31.0449
G03 X242.5393 Y332.2175 I64.1679 J248.5427
G02 X253.0054 Y329.6620 I-35.0403 J-166.2216
G02 X255.8897 Y328.6055 I-4.0634 J-15.5587
G02 X256.4218 Y328.2491 I-0.6491 J-1.5447
G03 X257.4209 Y326.7403 I2.0364 J0.2633
G03 X259.3490 Y326.0278 I2.6525 J4.2129
G02 X262.0745 Y325.3880 I-37.0588 J-163.9771
G02 X263.3034 Y324.6875 I-1.2042 J-3.5406
G02 X244.6410 Y318.8739 I-260.5766 J803.6213
G01 X241.7313 Y317.9949
G01 X238.8744 Y317.1367
G00 Z20.0000


(No. 35: Engraving 47)
G00 X209.2049 Y358.7936 Z20.0000
G00 Z0.5000
G01 Z0.0000 F1270
G01 Z-35.0000
G02 X219.0864 Y364.0927 I141.7239 J-252.4171 F1000
G01 X219.2451 Y364.1626
G01 X219.3217 Y364.1864
G02 X219.5902 Y363.8868 I-0.1166 J-0.3746
G02 X219.7128 Y362.7806 I-2.4968 J-0.8368
G02 X219.0338 Y361.8257 I-1.9043 J0.6352
G02 X216.2816 Y359.9260 I-14.3554 J17.8537
G02 X207.6510 Y355.0159 I-132.7793 J223.3515
G01 X195.5819 Y348.3411
G02 X195.1623 Y337.9554 I-523.3096 J15.9421
G02 X194.8502 Y334.8439 I-20.6109 J0.4959
G02 X194.4809 Y333.9733 I-1.6787 J0.1985
G02 X193.5879 Y333.7851 I-0.5998 J0.6328
G02 X193.3100 Y334.3051 I0.5063 J0.6048
G02 X193.1507 Y336.6520 I14.5033 J2.1632
G02 X193.3606 Y350.0079 I561.4806 J-2.1456
G02 X209.2049 Y358.7936 I2019.9970 J-3624.2207
G00 Z20.0000


(No. 36: Engraving 48)
G00 X242.3797 Y358.1562 Z20.0000
G00 Z0.5000
G01 Z0.0000 F1270
G01 Z-35.0000
G02 X257.2221 Y349.8582 I-4070.8860 J-7298.9074 F1000
G02 X257.4291 Y337.6823 I-580.8419 J-15.9668
G02 X257.2916 Y334.7975 I-18.4039 J-0.5682
G02 X256.9154 Y333.8463 I-1.6128 J0.0879
G02 X256.2113 Y333.7403 I-0.4484 J0.5866
G02 X255.3440 Y334.0592 I1.1316 J4.4157
G02 X255.0451 Y334.7195 I1.0286 J0.8636
G02 X254.7607 Y338.0619 I19.9500 J3.3805
G02 X254.7231 Y348.3701 I365.1915 J6.4854
G02 X237.6249 Y357.8855 I692.7849 J1264.9932
G02 X232.5132 Y360.9837 I32.1946 J58.8826
G02 X231.2755 Y362.0014 I4.2670 J6.4514
G02 X230.8445 Y362.9046 I0.8336 J0.9522
G02 X231.0993 Y364.0744 I2.0919 J0.1571
G02 X231.2610 Y364.1670 I0.1646 J-0.0999
G02 X234.6159 Y362.4273 I-22.9111 J-48.2881
G02 X242.3797 Y358.1562 I-376.7116 J-693.9515
G00 Z20.0000


(No. 37: Engraving 49)
G00 X399.9088 Y198.1451 Z20.0000
G00 Z0.5000
G01 Z0.0000 F1270
G01 Z-35.0000
G02 X409.3264 Y198.0423 I1.7657 J-269.5374 F1000
G02 X411.9952 Y197.8363 I-0.3324 J-21.7046
G02 X412.7841 Y197.5739 I-0.1200 J-1.6774
G02 X412.9884 Y197.0394 I-0.3601 J-0.4440
G02 X412.6066 Y196.4055 I-0.5496 J-0.1009
G02 X410.9418 Y196.1215 I-1.7953 J5.5018
G02 X403.9298 Y195.9488 I-6.8903 J137.3666
G02 X376.7437 Y195.9810 I-10.7140 J2432.1944
G02 X372.2415 Y196.1770 I-0.2022 J47.1521
G02 X371.1661 Y196.4055 I0.1933 J3.5550
G02 X370.7843 Y197.0394 I0.1855 J0.5437
G02 X371.1661 Y197.6732 I0.5496 J0.1009
G02 X372.8310 Y197.9572 I1.7953 J-5.5017
G02 X379.8429 Y198.1299 I6.8903 J-137.3657
G02 X399.9088 Y198.1451 I12.9619 J-3859.7454
G00 Z20.0000


(No. 38: Engraving 50)
G00 X392.8984 Y232.5142 Z20.0000
G00 Z0.5000
G01 Z0.0000 F1270
G01 Z-35.0000
G03 X392.5288 Y233.8051 I-3.5415 J-0.3157 F1000
G03 X392.0347 Y234.1666 I-0.6318 J-0.3451
G03 X388.4055 Y234.5664 I-3.8251 J-18.0537
G03 X385.9306 Y234.5323 I-0.9803 J-18.7174
G03 X384.5927 Y234.0935 I0.1292 J-2.6529
G03 X383.9357 Y232.9693 I1.1791 J-1.4432
G03 X383.7908 Y230.8710 I8.5087 J-1.6414
G03 X384.3896 Y222.3063 I181.7940 J8.4060
G02 X386.7452 Y221.5903 I-5.9631 J-23.8542
G02 X387.7547 Y220.9040 I-0.5764 J-1.9334
G02 X387.9583 Y219.4450 I-1.7833 J-0.9925
G02 X387.2288 Y218.7626 I-0.7757 J0.0982
G02 X384.4999 Y219.0579 I-0.6509 J6.7423
G02 X382.1276 Y220.0705 I1.8770 J7.6826
G02 X381.3207 Y221.6862 I1.0750 J1.5462
G03 X380.8755 Y228.8723 I-124.1979 J-4.0862
G02 X380.4174 Y237.1221 I130.7554 J11.3983
G02 X380.5292 Y238.8087 I6.6582 J0.4060
G02 X381.5569 Y239.7592 I1.1482 J-0.2106
G02 X383.0335 Y239.1857 I-0.0052 J-2.2011
G02 X384.1285 Y238.0274 I-6.3821 J-7.1299
G03 X385.5973 Y237.2363 I1.7977 J1.5785
G03 X388.7200 Y236.9926 I3.3589 J22.9149
G03 X400.9775 Y236.9882 I6.2105 J226.1964
G03 X403.7555 Y237.1852 I-0.3039 J23.9715
G03 X404.9839 Y237.9888 I-0.7980 J2.5605
G03 X405.8100 Y239.2541 I-2.9832 J2.8502
G02 X406.5532 Y240.1583 I2.1219 J-0.9864
G02 X407.6969 Y239.9684 I0.4820 J-0.6359
G02 X408.2973 Y238.1534 I-2.9418 J-1.9799
G02 X408.7498 Y227.5686 I-166.3039 J-12.4125
G02 X408.7255 Y222.9471 I-57.7839 J-2.0071
G02 X408.3904 Y220.8636 I-8.0091 J0.2197
G02 X407.0326 Y219.4831 I-1.9666 J0.5763
G02 X405.1263 Y219.1082 I-3.1641 J11.0548
G02 X403.9414 Y219.1105 I-0.5871 J2.7448
G02 X403.5672 Y219.7130 I0.2430 J0.5684
G02 X403.6902 Y220.9011 I2.1478 J0.3780
G02 X404.7686 Y221.5735 I1.1330 J-0.6160
G03 X405.5216 Y221.8215 I-0.0224 J1.3353
G03 X405.8342 Y222.5637 I-0.8466 J0.7935
G03 X405.7697 Y225.3634 I-21.0710 J0.9148
G02 X405.4894 Y231.7369 I288.6948 J15.8868
G03 X405.1058 Y233.9617 I-8.4026 J-0.3032
G03 X404.6848 Y234.3333 I-0.5244 J-0.1698
G03 X402.5519 Y234.7123 I-2.7258 J-9.1492
G03 X397.6419 Y234.6485 I-2.1593 J-22.7887
G03 X396.7518 Y234.3925 I0.1903 J-2.3373
G01 X396.6274 Y234.2793
G03 X396.5132 Y233.0683 I2.9650 J-0.8904
G03 X397.0166 Y230.0307 I11.4444 J0.3360
G03 X397.6850 Y229.0190 I1.9808 J0.5821
G03 X398.2438 Y228.7751 I1.3168 J2.2546
G02 X399.0604 Y227.2284 I-0.4909 J-1.2481
G02 X398.4387 Y226.7159 I-0.7963 J0.3325
G02 X395.9320 Y226.4035 I-2.7312 J11.7024
G02 X392.9681 Y226.3183 I-2.3936 J31.6794
G02 X392.1754 Y226.5016 I-0.0534 J1.5748
G02 X391.8870 Y227.2462 I0.5428 J0.6384
G02 X392.3086 Y228.8523 I2.4622 J0.2120
G03 X392.6539 Y229.2184 I-1.1302 J1.4119
G03 X392.9749 Y230.8256 I-4.2615 J1.6869
G03 X392.8984 Y232.5142 I-9.3288 J0.4236
G00 Z20.0000


(No. 39: Engraving 51)
G00 X394.0179 Y268.4241 Z20.0000
G00 Z0.5000
G01 Z0.0000 F1270
G01 Z-35.0000
G03 X395.5784 Y269.5149 I-5.6341 J9.7225 F1000
G03 X396.0303 Y270.0806 I-0.8724 J1.1601
G01 X396.0590 Y270.2277
G01 X396.0283 Y270.3535
G01 X395.9391 Y270.4575
G03 X395.0142 Y270.6495 I-0.7772 J-1.4201
G03 X391.3459 Y270.0672 I0.8820 J-17.3989
G02 X387.4917 Y269.3861 I-5.8536 J21.8790
G02 X387.0454 Y269.4439 I-0.1407 J0.6654
G03 X386.5177 Y269.4701 I-0.2921 J-0.5549
G03 X385.2125 Y268.8300 I1.4083 J-4.5223
G02 X381.6245 Y267.7289 I-5.3553 J11.0538
G03 X379.7693 Y266.9135 I0.5422 J-3.7519
G03 X379.1882 Y264.9618 I1.4966 J-1.5079
G02 X379.2281 Y264.4468 I-0.8068 J-0.3215
G02 X378.5807 Y264.0059 I-0.7013 J0.3341
G02 X377.2609 Y264.0490 I-0.5644 J2.9477
G02 X376.5111 Y264.8771 I0.4924 J1.1993
G02 X375.6957 Y268.0188 I19.1925 J6.6580
G02 X375.2642 Y271.3101 I16.0826 J3.7821
G02 X375.4930 Y272.6004 I2.7385 J0.1800
G02 X376.5869 Y273.1017 I0.8640 J-0.4413
G02 X377.8133 Y272.1035 I-0.3618 J-1.6970
G02 X378.3472 Y270.7918 I-18.4231 J-8.2645
G03 X379.3335 Y270.1654 I0.9008 J0.3285
G03 X381.6796 Y270.4784 I-1.1466 J17.5410
G03 X388.3933 Y272.1088 I-12.8711 J67.6370
G03 X396.2035 Y274.3619 I-51.4188 J192.9093
G03 X397.9450 Y275.0639 I-2.8008 J9.4595
G03 X398.6724 Y276.0546 I-0.5326 J1.1534
G02 X399.1084 Y277.4844 I3.6822 J-0.3416
G02 X400.5176 Y278.4489 I1.8123 J-1.1362
G02 X401.7701 Y278.5515 I0.8548 J-2.7385
G02 X402.8490 Y277.6083 I-0.3077 J-1.4405
G02 X403.3806 Y275.0770 I-8.4337 J-3.0928
G01 X403.4274 Y274.5651
G01 X403.6790 Y271.5308
G02 X395.6538 Y266.3878 I-133.9484 J200.1825
G02 X392.8525 Y264.8331 I-13.4488 J20.9316
G03 X392.4949 Y264.7324 I0.2761 J-1.6662
G03 X390.5502 Y263.1767 I4.8697 J-8.0806
G02 X388.4473 Y261.3636 I-7.9140 J7.0529
G02 X387.9756 Y261.2033 I-0.4497 J0.5488
G03 X387.4929 Y261.1187 I-0.1611 J-0.5004
G03 X385.3832 Y259.4697 I5.6228 J-9.3676
G01 X383.2790 Y257.4447
G03 X386.9983 Y258.0021 I-4.9128 J45.4673
G03 X390.4539 Y259.0746 I-2.4045 J13.8513
G02 X394.2429 Y259.8046 I3.6499 J-8.7465
G03 X395.8178 Y260.1283 I-0.0788 J4.3757
G03 X396.1879 Y260.4579 I-1.2941 J1.8255
G02 X397.8508 Y261.1361 I2.7070 J-4.2603
G03 X400.8136 Y262.0266 I-3.2149 J16.0697
G03 X402.0447 Y262.9344 I-0.9100 J2.5227
G03 X402.4374 Y264.5183 I-2.3184 J1.4155
G02 X402.8669 Y266.2241 I2.9785 J0.1570
G02 X404.4548 Y267.0093 I1.4965 J-1.0281
G01 X404.5707 Y266.9782
G02 X405.0632 Y266.3051 I-0.9154 J-1.1866
G02 X406.0321 Y262.7670 I-13.8793 J-5.7025
G02 X406.0556 Y258.0819 I-13.0656 J-2.4080
G02 X405.7069 Y257.2121 I-2.1322 J0.3500
G02 X404.8666 Y257.1403 I-0.4549 J0.3711
G02 X403.8805 Y258.2146 I2.6823 J3.4520
G03 X403.3304 Y258.8926 I-2.7770 J-1.6908
G03 X402.2152 Y259.1305 I-0.8273 J-1.1449
G03 X398.9899 Y258.4594 I4.4472 J-29.4573
G02 X389.1098 Y256.5472 I-22.5451 J90.0101
G03 X382.3662 Y254.7351 I5.5075 J-33.9481
G02 X380.9017 Y254.3258 I-2.4000 J5.7631
G02 X379.8526 Y254.7013 I-0.1691 J1.1811
G02 X378.8209 Y255.8836 I3.2408 J3.8693
G02 X378.9793 Y257.5561 I1.2561 J0.7249
G02 X380.8366 Y259.2199 I6.3913 J-5.2662
G03 X383.9894 Y261.6440 I-45.2198 J62.0747
G02 X394.0179 Y268.4241 I158.9802 J-224.3428
G00 Z20.0000


(No. 40: Engraving 52)
G00 X386.2822 Y297.2788 Z20.0000
G00 Z0.5000
G01 Z0.0000 F1270
G01 Z-35.0000
G03 X376.4134 Y293.0201 I29.3257 J-81.5212 F1000
G02 X373.9551 Y292.0205 I-7.2684 J14.3527
G03 X372.5482 Y291.2730 I0.2236 J-2.1187
G03 X372.1055 Y289.7891 I0.9350 J-1.0869
G03 X372.9578 Y287.6894 I10.7869 J3.1559
G02 X373.8357 Y285.6669 I-12.1099 J-6.4583
G02 X373.4766 Y284.5827 I-0.8254 J-0.3282
G02 X372.2880 Y283.8030 I-3.7036 J4.3506
G02 X371.1839 Y283.9670 I-0.3843 J1.2117
G02 X370.3240 Y284.5613 I0.9180 J2.2478
G02 X369.3299 Y286.6059 I3.5073 J2.9693
G03 X366.5954 Y293.5419 I-75.0449 J-25.5788
G03 X364.4913 Y297.9110 I-50.4170 J-21.5892
G02 X364.2961 Y298.8411 I1.2568 J0.7492
G02 X365.0097 Y299.7695 I1.9331 J-0.7474
G02 X367.8819 Y299.1038 I1.1785 J-1.4445
G02 X368.0233 Y298.2250 I-2.2308 J-0.8095
G03 X369.0313 Y296.3032 I4.0118 J0.8791
G03 X371.0458 Y294.8394 I3.5916 J2.8250
G03 X372.1866 Y294.9307 I0.4356 J1.7315
G03 X375.8018 Y296.4960 I-8.3359 J24.2093
G02 X378.3993 Y297.5471 I6.8655 J-13.2317
G03 X379.8889 Y298.0369 I-1.0571 J5.7243
G03 X387.5197 Y301.7177 I-42.0251 J96.8737
G02 X389.9642 Y302.5537 I4.0966 J-7.9869
G03 X390.6026 Y302.6824 I0.1320 J0.9933
G03 X390.4981 Y302.9745 I-0.1657 J0.1055
G02 X389.6605 Y304.0192 I3.3748 J3.5641
G02 X387.5803 Y308.2327 I18.0255 J11.5190
G02 X387.4821 Y309.2339 I1.4838 J0.6510
G02 X388.7796 Y310.1667 I1.2176 J-0.3249
G02 X390.3620 Y309.6664 I-0.0206 J-2.8178
G02 X391.5136 Y308.2060 I-4.8383 J-4.9995
G02 X395.0077 Y300.6210 I-34.4323 J-20.4585
G03 X396.1521 Y297.6762 I16.8126 J4.8394
G03 X396.5975 Y297.0346 I3.4812 J1.9406
G02 X396.2582 Y294.4303 I-2.0124 J-1.0621
G02 X395.3829 Y293.8056 I-1.6055 J1.3239
G02 X394.6034 Y294.0849 I-0.1343 J0.8526
G02 X392.5095 Y296.9477 I5.5203 J6.2347
G02 X392.4248 Y297.4859 I1.5051 J0.5125
G03 X391.6136 Y298.2879 I-0.9881 J-0.1882
G03 X389.9985 Y298.2910 I-0.8162 J-4.4184
G03 X386.2822 Y297.2788 I3.8513 J-21.4673
G00 Z20.0000


(No. 41: Engraving 53)
G00 X356.2929 Y323.0504 Z20.0000
G00 Z0.5000
G01 Z0.0000 F1270
G01 Z-35.0000
G03 X355.8325 Y320.9478 I2.3876 J-1.6244 F1000
G03 X356.5920 Y319.8873 I1.5129 J0.2811
G02 X357.7609 Y318.3573 I-4.5511 J-4.6885
G03 X358.8390 Y316.4043 I92.6579 J49.8799
G03 X360.4633 Y314.4524 I6.5240 J3.7773
G03 X361.4934 Y313.9934 I1.3832 J1.7185
G03 X362.4917 Y314.3273 I-0.0386 J1.7750
G03 X364.1644 Y315.5703 I-12.3932 J18.4241
G02 X366.4434 Y316.8432 I4.8424 J-5.9930
G02 X367.6172 Y316.8594 I0.6077 J-1.5021
G02 X368.2869 Y315.8359 I-0.5977 J-1.1220
G02 X367.8615 Y314.7565 I-1.3023 J-0.1103
G02 X365.5088 Y312.7501 I-13.5130 J13.4624
G02 X362.4138 Y310.6674 I-12.5910 J15.3707
G02 X360.2838 Y310.1423 I-2.0009 J3.5330
G02 X358.7586 Y310.7845 I0.0797 J2.3216
G02 X357.2383 Y312.6116 I4.4166 J5.2210
G03 X355.9517 Y314.1555 I-5.3088 J-3.1161
G02 X355.7191 Y314.2514 I1.1728 J3.1752
G02 X354.7240 Y315.6597 I4.5913 J4.2997
G02 X353.1391 Y318.6660 I239.9172 J128.4047
G03 X352.0440 Y320.2795 I-6.3312 J-3.1187
G03 X351.8201 Y320.3603 I-0.3996 J-0.7567
G02 X350.9961 Y321.2057 I1.9183 J2.6941
G02 X348.4165 Y325.7452 I17.5858 J12.9960
G02 X348.2035 Y326.5679 I2.2629 J1.0247
G02 X348.6191 Y327.2387 I0.9606 J-0.1310
G02 X350.1443 Y327.4530 I1.0260 J-1.7677
G02 X352.5836 Y326.4602 I-1.5592 J-7.3239
G03 X353.6334 Y325.9904 I1.8534 J2.7336
G03 X354.6833 Y326.2499 I0.2063 J1.4190
G03 X356.6832 Y327.7445 I-21.7532 J31.1932
G02 X364.0071 Y333.0612 I192.1452 J-256.9809
G03 X367.7492 Y335.8630 I-58.5287 J82.0715
G03 X369.4569 Y337.8206 I-4.1305 J5.3270
G03 X369.6421 Y338.7812 I-1.2725 J0.7435
G03 X369.1184 Y339.4781 I-1.0493 J-0.2433
G02 X368.5760 Y340.7274 I0.8450 J1.1092
G02 X369.3010 Y342.1288 I1.6354 J0.0422
G02 X371.1488 Y342.4995 I1.5941 J-3.1546
G02 X372.3114 Y341.4784 I-0.1494 J-1.3425
G03 X373.7507 Y339.3235 I6.5363 J2.8076
G02 X376.1832 Y336.1185 I-16.7617 J-15.2473
G02 X377.0718 Y333.7535 I-4.8027 J-3.1539
G02 X376.9560 Y332.3185 I-3.4182 J-0.4465
G02 X376.3174 Y331.5462 I-1.1324 J0.2861
G02 X375.3109 Y331.6140 I-0.4228 J1.2277
G02 X373.7196 Y333.0169 I2.1950 J4.0936
G03 X372.6646 Y333.9566 I-2.7428 J-2.0176
G03 X371.3930 Y333.9179 I-0.5979 J-1.2673
G02 X370.3123 Y333.6534 I-1.3393 J3.1325
G03 X369.8539 Y333.4114 I-0.0187 J-0.5196
G02 X368.7800 Y332.4265 I-3.2461 J2.4613
G02 X366.0344 Y330.9181 I-7.0317 J9.5463
G03 X365.6530 Y330.8488 I4.4316 J-25.4846
G03 X364.3502 Y329.8516 I2.0618 J-4.0436
G02 X363.0498 Y328.4408 I-36.3356 J32.1879
G02 X361.8871 Y327.5607 I-3.0008 J2.7561
G03 X360.7944 Y327.0260 I0.4077 J-2.2170
G03 X359.2121 Y325.6046 I19.6702 J-23.4891
G02 X357.0181 Y323.8716 I-16.8573 J19.0850
G03 X356.2929 Y323.0504 I2.1917 J-2.6668
G00 Z20.0000


(No. 42: Engraving 54)
G00 X325.7075 Y363.8297 Z20.0000
G00 Z0.5000
G01 Z0.0000 F1270
G01 Z-35.0000
G02 X324.1718 Y362.0683 I-6.9793 J4.5348 F1000
G03 X322.5264 Y359.0342 I8.8018 J-6.7364
G03 X322.1864 Y357.8739 I3.2977 J-1.5964
G03 X322.6607 Y356.8120 I1.3258 J-0.0447
G02 X323.7818 Y355.6949 I-14.5319 J-15.7063
G02 X324.4887 Y354.0535 I-1.7898 J-1.7438
G02 X323.6356 Y353.1568 I-0.9324 J0.0329
G02 X322.4564 Y353.3582 I-0.2845 J1.8865
G02 X316.5564 Y356.5978 I19.0556 J41.6967
G02 X313.6255 Y358.6667 I10.6134 J18.1461
G02 X312.8498 Y359.6735 I1.4942 J1.9535
G02 X313.2618 Y360.8218 I1.0315 J0.2780
G02 X314.6021 Y361.1016 I1.0281 J-1.5745
G02 X317.7188 Y360.5108 I-2.8824 J-23.7200
G03 X318.9250 Y360.5640 I0.5270 J1.7508
G03 X319.9237 Y361.5186 I-1.4062 J2.4711
G02 X322.4028 Y364.6756 I28.6017 J-19.9077
G03 X323.3021 Y366.0627 I-6.1406 J4.9663
G02 X327.0381 Y371.3146 I68.5862 J-44.8348
G02 X331.5164 Y376.9983 I126.1971 J-94.8262
G03 X329.3642 Y379.2379 I-22.4466 J-19.4166
G03 X327.5227 Y380.4822 I-4.2062 J-4.2400
G03 X325.0193 Y380.0884 I-0.9437 J-2.1552
G03 X323.5824 Y378.3503 I4.6028 J-5.2681
G02 X321.5953 Y376.2476 I-5.7950 J3.4862
G02 X320.3322 Y375.8882 I-1.6532 J3.4112
G01 X320.1776 Y375.8964
G01 X320.0581 Y375.9344
G01 X319.9742 Y376.0045
G01 X319.9265 Y376.1091
G02 X320.1080 Y376.9187 I1.4924 J0.0906
G02 X321.9389 Y380.2005 I29.5564 J-14.3383
G02 X324.4939 Y383.2339 I8.2563 J-4.3614
G02 X326.0621 Y383.7994 I1.6313 J-2.0668
G02 X327.3731 Y383.3180 I-0.4749 J-3.3190
G02 X331.0478 Y380.7294 I-26.1119 J-40.9713
G03 X337.8037 Y375.9551 I92.1030 J123.1616
G02 X340.6938 Y373.3578 I-9.2796 J-13.2326
G01 X341.9002 Y371.8241
G02 X339.8916 Y368.3381 I-37.2097 J19.1186
G02 X336.9086 Y364.8211 I-13.7108 J8.6055
G02 X336.1386 Y364.3830 I-1.3838 J1.5365
G01 X336.0010 Y364.3747
G01 X335.8896 Y364.4116
G02 X335.5176 Y365.2476 I0.6714 J0.7996
G02 X335.9915 Y367.9246 I7.2831 J0.0910
G02 X337.3588 Y370.3818 I6.6000 J-2.0635
G02 X338.0421 Y370.8995 I3.2942 J-3.6379
G03 X338.4098 Y372.3229 I-0.7653 J0.9569
G03 X336.8202 Y374.0981 I-3.3260 J-1.3789
G03 X334.6013 Y374.8856 I-3.3528 J-5.9273
G03 X333.1807 Y374.9461 I-0.8619 J-3.5271
G03 X332.9006 Y374.6641 I0.1373 J-0.4165
G03 X325.7075 Y363.8297 I333.7307 J-229.3716
G00 Z20.0000


(No. 43: Engraving 55)
G00 X295.5623 Y377.1626 Z20.0000
G00 Z0.5000
G01 Z0.0000 F1270
G01 Z-35.0000
G03 X296.4552 Y379.5893 I-17.8699 J7.9532 F1000
G03 X296.5809 Y381.9209 I-4.4095 J1.4069
G03 X294.9683 Y383.7338 I-2.5929 J-0.6827
G02 X293.8726 Y384.4195 I1.0898 J2.9597
G02 X293.7106 Y385.4160 I0.7197 J0.6284
G02 X294.4164 Y386.7878 I4.1619 J-1.2741
G02 X295.4409 Y387.1335 I0.8717 J-0.8925
G02 X297.9816 Y386.7329 I-1.5397 J-18.0226
G03 X299.8870 Y386.4965 I2.0689 J8.8810
G03 X301.6972 Y387.2323 I-0.0716 J2.7711
G03 X303.1679 Y388.5617 I-6.4422 J8.6046
G03 X304.0350 Y390.4423 I-2.5100 J2.2975
G03 X303.3186 Y392.6870 I-3.2375 J0.2035
G03 X301.3086 Y394.3878 I-5.5880 J-4.5660
G03 X299.6758 Y395.2199 I-11.6508 J-20.8417
G02 X298.5577 Y395.9825 I1.1629 J2.9061
G02 X298.5052 Y396.9901 I0.8751 J0.5507
G02 X300.1966 Y398.1569 I1.4852 J-0.3436
G02 X302.6344 Y397.3300 I-0.7082 J-6.0952
G02 X305.1455 Y395.6508 I-6.5765 J-12.5510
G02 X306.3614 Y393.2067 I-2.6253 J-2.8305
G02 X306.3981 Y388.9710 I-13.4673 J-2.2348
G02 X303.1071 Y384.0757 I-6.9167 J1.0962
G02 X301.6438 Y383.2782 I-11.3205 J19.0288
G03 X300.1910 Y382.2705 I2.3254 J-4.9036
G03 X299.7038 Y380.8206 I1.5121 J-1.3150
G02 X299.0704 Y377.5713 I-13.9536 J1.0337
G03 X298.2209 Y374.7495 I28.3279 J-10.0662
G03 X298.0457 Y372.9288 I5.1576 J-1.4151
G03 X298.2931 Y372.2962 I1.0326 J0.0392
G03 X299.0097 Y372.2441 I0.3977 J0.5164
G02 X300.7390 Y372.5787 I1.5270 J-3.2559
G02 X301.7293 Y372.0497 I-0.0236 J-1.2357
G02 X301.8354 Y370.8819 I-1.2889 J-0.7058
G02 X299.7458 Y368.4007 I-4.0080 J1.2550
G02 X296.9884 Y368.5033 I-1.2700 J2.9720
G02 X295.0327 Y370.0101 I3.1517 J6.1133
G02 X294.2706 Y371.3614 I1.6464 J1.8192
G02 X294.3932 Y373.2435 I6.2769 J0.5359
G02 X295.5623 Y377.1626 I24.9264 J-5.3015
G00 Z20.0000


(No. 44: Engraving 56)
G00 X284.2527 Y380.4327 Z20.0000
G00 Z0.5000
G01 Z0.0000 F1270
G01 Z-35.0000
G03 X289.6468 Y391.3632 I-391.6046 J200.0517 F1000
G03 X291.3344 Y395.2913 I-42.6116 J20.6334
G03 X291.8346 Y397.4813 I-6.3461 J2.6014
G03 X291.2331 Y399.0140 I-2.2464 J0.0029
G02 X290.4773 Y399.9439 I4.0952 J4.1003
G02 X290.5937 Y400.8018 I0.5312 J0.3648
G02 X291.4733 Y401.4587 I1.5934 J-1.2164
G02 X292.9099 Y401.3483 I0.5141 J-2.7149
G02 X296.9226 Y400.0062 I-19.1262 J-63.8531
G03 X293.1009 Y392.8461 I167.1345 J-93.8085
G03 X292.0288 Y390.2200 I11.9812 J-6.4236
G03 X291.9214 Y389.2017 I4.0944 J-0.9465
G02 X290.7476 Y385.7261 I-8.0538 J0.7839
G02 X290.3124 Y385.3110 I-0.9611 J0.5719
G03 X289.9169 Y385.1208 I0.0347 J-0.5785
G03 X288.7830 Y383.5481 I6.4945 J-5.8776
G03 X286.8347 Y379.4777 I19.5276 J-11.8485
G03 X286.6645 Y378.6421 I2.1509 J-0.8731
G03 X286.8810 Y378.2124 I1.1840 J0.3270
G03 X288.1950 Y376.5738 I15.0048 J10.6864
G02 X289.0311 Y375.1573 I-2.3000 J-2.3126
G02 X288.2802 Y373.8957 I-1.0402 J-0.2351
G02 X286.2393 Y373.7965 I-1.2265 J4.1903
G02 X282.7452 Y374.9809 I2.4958 J13.1099
G03 X279.2116 Y376.4919 I-42.3014 J-94.0344
G02 X278.1017 Y377.2786 I0.8868 J2.4275
G02 X278.2349 Y378.1130 I0.4344 J0.3585
G02 X279.4833 Y378.5468 I1.5541 J-2.4590
G02 X281.3653 Y378.6337 I1.6879 J-16.1324
G03 X282.9250 Y378.8416 I0.1999 J4.4554
G03 X283.9059 Y379.7842 I-0.7678 J1.7807
G03 X284.2527 Y380.4327 I-10.3343 J5.9429
G00 Z20.0000


(No. 45: Engraving 57)
G00 X267.8797 Y396.3070 Z20.0000
G00 Z0.5000
G01 Z0.0000 F1270
G01 Z-35.0000
G03 X267.9600 Y402.3567 I-34.9505 J3.4895 F1000
G03 X267.3345 Y404.0131 I-2.8250 J-0.1206
G03 X266.0764 Y405.1332 I-8.9257 J-8.7588
G02 X265.1932 Y406.2130 I1.9094 J2.4628
G02 X265.0876 Y407.7029 I2.6624 J0.9373
G02 X265.6185 Y409.3563 I3.5171 J-0.2174
G02 X266.9717 Y409.6590 I0.8393 J-0.5762
G02 X268.4714 Y408.3005 I-2.4169 J-4.1751
G02 X270.3431 Y405.0905 I-13.2201 J-9.8590
G02 X271.2483 Y400.6916 I-15.0095 J-5.3813
G02 X270.7711 Y393.4559 I-23.8673 J-2.0596
G02 X269.8608 Y390.6901 I-21.5625 J5.5641
G02 X267.6399 Y385.9519 I-26.3811 J9.4760
G02 X265.3275 Y383.3395 I-7.2896 J4.1229
G02 X263.8709 Y382.6122 I-4.4538 J7.0981
G02 X260.8735 Y381.6731 I-5.0617 J10.9030
G02 X259.9644 Y381.7285 I-0.3585 J1.6064
G02 X259.7286 Y382.0881 I0.1333 J0.3445
G02 X260.1634 Y384.2717 I4.9115 J0.1570
G02 X261.4957 Y385.2829 I1.5260 J-0.6273
G03 X263.1548 Y385.8602 I-0.0473 J2.8085
G03 X265.5948 Y388.6284 I-5.8324 J7.6002
G03 X267.6317 Y394.3677 I-12.2069 J7.5636
G03 X267.8797 Y396.3070 I-36.0741 J5.5977
G00 Z20.0000


(No. 46: Engraving 58)
G00 X253.0093 Y394.7178 Z20.0000
G00 Z0.5000
G01 Z0.0000 F1270
G01 Z-35.0000
G03 X252.9899 Y392.1620 I11.7223 J-1.3670 F1000
G03 X253.3789 Y391.0599 I1.9115 J0.0550
G02 X253.7357 Y390.8626 I-2.2189 J-4.4332
G02 X254.1734 Y390.0315 I-0.5676 J-0.8296
G03 X254.9564 Y388.5747 I4.8277 J1.6558
G03 X256.3624 Y386.7386 I30.9589 J22.2529
G02 X257.1910 Y385.1243 I-3.1767 J-2.6504
G02 X257.0906 Y383.3896 I-3.9681 J-0.6404
G02 X256.7995 Y382.3832 I-3.8716 J0.5741
G02 X256.2032 Y382.0934 I-0.4514 J0.1706
G02 X254.9449 Y382.7300 I1.9350 J5.3861
G02 X252.9377 Y384.2136 I4.7677 J8.5505
G02 X252.5079 Y384.8175 I1.0335 J1.1905
G03 X251.9356 Y385.8396 I-1.6522 J-0.2538
G02 X251.1044 Y386.9619 I1.4304 J1.9284
G02 X249.9082 Y392.7936 I17.3279 J6.5929
G02 X250.0274 Y394.0553 I5.8142 J0.0869
G03 X250.4968 Y398.4697 I-64.3390 J9.0730
G02 X253.6522 Y407.1759 I17.1780 J-1.3010
G02 X255.7466 Y409.2513 I7.1996 J-5.1712
G02 X258.3499 Y410.2973 I4.2309 J-6.7675
G02 X261.8139 Y410.1862 I1.5415 J-5.9985
G02 X262.4254 Y409.3348 I-0.2237 J-0.8059
G02 X262.1052 Y407.7209 I-3.1587 J-0.2120
G02 X261.0224 Y407.0817 I-1.3631 J1.0722
G03 X258.9744 Y406.6424 I8.3422 J-43.8902
G03 X256.1476 Y404.4586 I1.4342 J-4.7779
G03 X254.2591 Y400.4663 I17.5828 J-10.7601
G03 X253.0093 Y394.7178 I23.6993 J-8.1628
G00 Z20.0000


(No. 47: Engraving 59)
G00 X229.9729 Y394.5892 Z20.0000
G00 Z0.5000
G01 Z0.0000 F1270
G01 Z-35.0000
G03 X230.0127 Y397.3999 I-15.9205 J1.6308 F1000
G03 X229.0973 Y398.8168 I-1.8031 J-0.1607
G03 X226.6008 Y399.5562 I-2.3878 J-3.4778
G03 X222.8496 Y399.2394 I0.4086 J-27.2114
G03 X220.9318 Y398.8309 I0.7115 J-8.0452
G03 X219.7914 Y397.6095 I0.5551 J-1.6613
G03 X219.3310 Y394.7171 I18.2319 J-4.3852
G03 X219.4259 Y391.6589 I9.8173 J-1.2259
G03 X220.6500 Y389.6074 I3.2793 J0.5658
G03 X221.6519 Y389.0639 I2.7613 J3.8948
G02 X223.1445 Y387.2241 I-1.4458 J-2.6983
G02 X223.0378 Y386.5336 I-0.6926 J-0.2465
G02 X222.6536 Y386.3584 I-0.4262 J0.4259
G02 X215.6837 Y386.0704 I-5.3281 J44.4526
G02 X213.7775 Y386.3767 I0.0778 J6.5688
G02 X213.1955 Y388.8810 I0.5703 J1.4523
G02 X214.1056 Y389.1927 I0.8609 J-1.0290
G03 X215.7869 Y390.2256 I-1.1742 J3.7964
G03 X216.5565 Y391.8307 I-1.8251 J1.8620
G03 X216.7597 Y395.4353 I-25.6197 J3.2522
G03 X216.5091 Y407.5085 I-193.8169 J2.0176
G03 X216.2307 Y410.0866 I-16.5137 J-0.4797
G03 X215.6696 Y410.7041 I-1.5731 J-0.8657
G03 X214.1812 Y411.5081 I-3.4300 J-4.5700
G02 X213.1507 Y412.5557 I0.6085 J1.6293
G02 X213.7198 Y413.8780 I1.2576 J0.2424
G02 X214.9893 Y414.3376 I1.3297 J-1.6896
G02 X219.6751 Y414.1517 I1.4734 J-22.0063
G02 X221.8130 Y413.6832 I-1.1233 J-10.2375
G01 X222.0663 Y413.5710
G01 X222.2405 Y413.4548
G01 X222.3268 Y413.3352
G02 X222.1113 Y412.8247 I-0.6334 J-0.0334
G02 X220.6193 Y411.7038 I-3.8932 J3.6286
G03 X219.5782 Y410.8298 I1.1286 J-2.4016
G03 X219.2207 Y409.3122 I3.0082 J-1.5097
G03 X219.2534 Y405.4887 I35.0411 J-1.6122
G03 X219.6440 Y403.7735 I5.5913 J0.3714
G03 X221.5686 Y402.2490 I2.4322 J1.0935
G03 X224.2890 Y401.9644 I2.6451 J12.1382
G03 X227.3139 Y402.0344 I0.8011 J30.7688
G03 X228.7789 Y402.3544 I-0.2425 J4.6237
G03 X229.7742 Y403.6557 I-0.7289 J1.5887
G03 X229.8874 Y405.8481 I-9.8494 J1.6080
G03 X229.6719 Y409.1738 I-31.3653 J-0.3625
G03 X229.2615 Y410.3858 I-2.7364 J-0.2512
G03 X228.1121 Y411.2484 I-2.2948 J-1.8607
G02 X226.3344 Y412.0493 I15.5671 J36.9281
G02 X225.4520 Y412.7264 I0.9590 J2.1634
G01 X225.3851 Y412.8773
G01 X225.3791 Y413.0205
G01 X225.4339 Y413.1557
G02 X226.2550 Y413.6122 I1.0929 J-0.9988
G02 X229.2643 Y414.0207 I3.6303 J-15.4570
G02 X233.4082 Y413.9741 I1.7929 J-24.8508
G02 X235.1483 Y413.5142 I-0.2907 J-4.6217
G02 X235.8424 Y412.5016 I-0.4143 J-1.0282
G02 X235.4592 Y412.0701 I-0.7928 J0.3179
G02 X233.8262 Y411.2402 I-4.3450 J6.5290
G03 X232.8324 Y410.0697 I0.5300 J-1.4571
G03 X232.5347 Y407.5881 I15.6012 J-3.1303
G03 X232.2384 Y396.5612 I140.3541 J-9.2883
G02 X232.5035 Y391.0386 I-137.9298 J-9.3872
G03 X232.9281 Y389.7680 I2.0772 J-0.0120
G03 X234.2684 Y388.9449 I2.5285 J2.6146
G02 X235.7899 Y388.1842 I-2.3582 J-6.6188
G02 X236.1070 Y387.7070 I-0.2646 J-0.5197
G02 X235.7751 Y387.2640 I-0.6238 J0.1214
G02 X234.0235 Y386.7171 I-3.1423 J6.9856
G02 X228.2918 Y386.0879 I-5.9463 J27.7482
G02 X227.1502 Y386.2725 I-0.1223 J2.8655
G02 X226.5074 Y387.6974 I0.6361 J1.1444
G02 X228.0350 Y389.1348 I1.6329 J-0.2048
G03 X228.9513 Y389.4769 I-0.2808 J2.1507
G03 X229.5454 Y390.5222 I-1.2351 J1.3934
G03 X229.8934 Y393.4306 I-19.8016 J3.8446
G01 X229.9369 Y394.0501
G01 X229.9729 Y394.5892
G00 Z20.0000


(No. 48: Engraving 60)
G00 X196.3377 Y394.6264 Z20.0000
G00 Z0.5000
G01 Z0.0000 F1270
G01 Z-35.0000
G03 X194.9361 Y395.8525 I-2.1833 J-1.0816 F1000
G03 X192.2774 Y396.3807 I-3.4787 J-10.5542
G03 X187.6255 Y396.5884 I-5.3753 J-68.1799
G01 X182.4457 Y396.6757
G01 X180.5452 Y398.7500
G02 X178.7782 Y401.8479 I5.1647 J4.9987
G02 X179.5652 Y406.2567 I5.5697 J1.2805
G02 X181.7652 Y408.6151 I6.0245 J-3.4148
G02 X184.8747 Y409.8406 I5.3590 J-9.0394
G02 X188.2948 Y410.5721 I41.2413 J-184.4680
G03 X190.8865 Y411.3329 I-2.9269 J14.7647
G03 X191.2753 Y411.6046 I-0.5039 J1.1352
G02 X192.5292 Y411.8381 I0.8057 J-0.8431
G02 X193.5765 Y410.7549 I-1.3702 J-2.3727
G02 X195.1055 Y407.0089 I-15.8651 J-8.6604
G02 X195.6873 Y403.6681 I-11.7112 J-3.7608
G02 X195.5041 Y402.7365 I-1.9708 J-0.0962
G01 X195.4047 Y402.6106
G01 X195.2833 Y402.5330
G02 X194.5772 Y402.6945 I-0.1573 J0.9368
G02 X193.1502 Y404.1702 I2.2904 J3.6426
G03 X191.3163 Y406.3550 I-9.9886 J-6.5221
G03 X189.2498 Y407.2174 I-2.4808 J-3.0376
G03 X186.9462 Y407.3415 I-1.6179 J-8.5911
G03 X184.6294 Y406.4559 I0.7545 J-5.4471
G03 X182.6306 Y404.8294 I3.5794 J-6.4404
G03 X182.0435 Y402.6083 I1.8807 J-1.6852
G03 X183.0710 Y400.8221 I4.2145 J1.2357
G03 X184.4034 Y399.6559 I4.3038 J3.5728
G03 X186.2770 Y399.2640 I1.6951 J3.4290
G03 X190.4984 Y399.4115 I-0.4522 J73.4038
G02 X193.8028 Y399.3419 I1.2609 J-18.6068
G02 X197.1195 Y397.7611 I-0.6488 J-5.6309
G02 X198.9697 Y395.8519 I-9.8113 J-11.3593
G02 X199.7087 Y393.7259 I-3.0405 J-2.2483
G02 X198.1549 Y386.5906 I-12.7690 J-0.9561
G02 X197.3433 Y385.5541 I-3.4997 J1.9040
G02 X196.6814 Y385.2871 I-0.6534 J0.6659
G03 X194.7267 Y384.5333 I2.2195 J-8.6672
G02 X192.4216 Y383.3458 I-63.7319 J120.8806
G02 X188.1710 Y382.5900 I-3.6046 J7.9414
G03 X185.0039 Y382.2735 I-0.5736 J-10.2667
G03 X184.4139 Y381.9392 I0.8548 J-2.1963
G02 X182.5283 Y382.4874 I-0.6534 J1.2695
G02 X181.5684 Y384.5647 I8.7681 J5.3120
G02 X180.0690 Y390.9342 I27.2296 J9.7714
G02 X180.0794 Y392.3431 I4.8106 J0.6689
G01 X180.1673 Y392.6218
G01 X180.3028 Y392.7836
G01 X180.4194 Y392.8252
G02 X181.0385 Y392.5622 I-0.0230 J-0.9141
G02 X183.0285 Y389.3532 I-4.6695 J-5.1174
G02 X183.1163 Y388.6067 I-19.4445 J-2.6649
G03 X184.0203 Y387.2631 I2.6071 J0.7782
G03 X187.6507 Y385.5809 I5.2049 J6.4741
G03 X192.8793 Y386.6243 I1.4455 J6.3785
G03 X196.5439 Y391.6547 I-4.7902 J7.3397
G03 X196.4415 Y394.3844 I-4.3822 J1.2024
G01 X196.3377 Y394.6264
G00 Z20.0000


(No. 49: Engraving 61)
G00 X140.3875 Y379.3160 Z20.0000
G00 Z0.5000
G01 Z0.0000 F1270
G01 Z-35.0000
G03 X138.9554 Y381.6044 I-14.4937 J-7.4774 F1000
G03 X135.5811 Y386.0058 I-50.9807 J-35.5903
G03 X134.3676 Y387.0399 I-3.3500 J-2.7020
G03 X132.5897 Y387.1699 I-1.0635 J-2.3220
G03 X131.4670 Y386.8804 I5.1020 J-22.1083
G02 X130.3351 Y387.4006 I-0.0475 J1.3880
G02 X129.8719 Y388.5043 I1.1410 J1.1279
G02 X130.4551 Y389.5606 I2.1036 J-0.4722
G02 X131.7256 Y390.5465 I3.6046 J-3.3336
G02 X136.7930 Y392.6682 I11.0757 J-19.3403
G02 X137.9940 Y392.8161 I1.0049 J-3.2107
G02 X138.6044 Y391.6167 I-0.3132 J-0.9144
G02 X137.7364 Y390.1813 I-3.2991 J1.0148
G03 X137.5065 Y389.0611 I0.8361 J-0.7554
G03 X138.4171 Y387.1261 I8.8988 J3.0061
G03 X142.8055 Y379.8892 I498.5916 J297.3882
G02 X144.6695 Y376.2113 I-78.6115 J-42.1547
G03 X148.0303 Y371.4605 I18.5935 J9.5889
G02 X149.1625 Y369.8594 I-5.6729 J-5.2126
G02 X149.1416 Y369.1795 I-1.0820 J-0.3069
G02 X147.8479 Y367.1508 I-3.9894 J1.1171
G02 X147.0303 Y367.0733 I-0.4575 J0.4747
G02 X142.9806 Y369.2635 I17.1562 J36.5595
G02 X139.8881 Y371.3288 I12.5771 J22.1806
G03 X138.1812 Y372.8094 I-10.0311 J-9.8400
G03 X130.9010 Y378.3769 I-2307.1757 J-3009.4136
G03 X129.5174 Y379.1982 I-3.9661 J-5.1052
G03 X128.9371 Y379.2544 I-0.3521 J-0.6115
G01 X128.8314 Y379.1693
G03 X128.7798 Y378.6099 I0.7323 J-0.3497
G03 X129.5856 Y376.6956 I7.6674 J2.1006
G03 X130.9240 Y374.4803 I51.0844 J29.3522
G02 X132.4967 Y371.4822 I-15.0238 J-9.7925
G02 X132.5722 Y371.0875 I-2.6491 J-0.7114
G03 X133.4269 Y369.7960 I3.5335 J1.4098
G02 X134.4617 Y368.7789 I-42.8103 J-44.5869
G02 X136.1564 Y365.8895 I-5.8694 J-5.3845
G03 X136.6208 Y365.0680 I1.8765 J0.5187
G03 X137.5246 Y364.8205 I0.7415 J0.9340
G03 X139.2364 Y365.0363 I-2.8029 J29.1316
G02 X140.7749 Y364.9735 I0.6060 J-4.0255
G02 X141.3706 Y364.4177 I-0.1222 J-0.7280
G02 X141.0339 Y363.4557 I-1.3892 J-0.0537
G02 X139.3179 Y361.8140 I-6.6652 J5.2494
G02 X134.6887 Y359.0989 I-14.0717 J18.6880
G02 X133.4142 Y358.8150 I-1.2647 J2.6755
G02 X132.6787 Y359.3553 I0.0366 J0.8207
G02 X132.9051 Y360.9982 I1.6436 J0.6105
G02 X133.7304 Y361.9105 I3.2029 J-2.0682
G01 X134.9073 Y362.8635
G03 X131.3456 Y368.9511 I-50.1525 J-25.2565
G03 X125.3819 Y377.6842 I-189.5012 J-123.0062
G03 X123.9956 Y379.2985 I-8.5728 J-5.9595
G03 X122.3419 Y379.8578 I-1.3812 J-1.3593
G02 X120.9189 Y379.8436 I-0.7585 J4.7056
G02 X119.8624 Y380.7510 I0.3537 J1.4806
G02 X119.3895 Y382.2869 I2.9112 J1.7369
G02 X120.1032 Y383.6392 I1.7605 J-0.0646
G02 X122.3981 Y384.8717 I5.3903 J-7.2840
G01 X122.8699 Y385.0568
G01 X125.3159 Y385.9909
G02 X134.0623 Y379.0517 I-53.4843 J-76.3950
G03 X139.0540 Y375.3846 I24.3952 J27.9759
G02 X140.2671 Y374.3772 I-3.1078 J-4.9765
G03 X140.4451 Y374.0794 I0.8404 J0.3002
G03 X142.8200 Y372.4980 I11.0193 J13.9750
G03 X144.9644 Y371.4269 I6.6972 J10.7255
G01 X145.0776 Y371.4088
G01 X145.1200 Y371.4485
G03 X144.8525 Y372.2724 I-2.1925 J-0.2564
G03 X141.9740 Y377.2206 I-28.9521 J-13.5315
G03 X141.4352 Y377.7708 I-5.6525 J-4.9957
G02 X140.3875 Y379.3160 I3.5016 J3.5021
G00 Z20.0000


(No. 50: Engraving 62)
G00 X107.4881 Y352.3583 Z20.0000
G00 Z0.5000
G01 Z0.0000 F1270
G01 Z-35.0000
G03 X106.3170 Y351.5325 I1.5693 J-3.4685 F1000
G03 X104.3787 Y349.3100 I6.3990 J-7.5373
G03 X104.3976 Y348.5659 I0.4649 J-0.3605
G03 X106.3806 Y346.0845 I13.8446 J9.0312
G03 X109.2654 Y343.3997 I16.5415 J14.8814
G01 X109.5168 Y343.2374
G01 X109.7224 Y343.1360
G01 X109.8756 Y343.1024
G03 X110.8388 Y343.6541 I-1.0431 J2.9376
G03 X116.9573 Y349.2754 I-31.1851 J40.0840
G03 X117.8767 Y350.6293 I-3.2695 J3.2092
G03 X117.9944 Y351.9890 I-2.3206 J0.8858
G02 X118.3438 Y353.6604 I2.0700 J0.4395
G02 X120.1440 Y353.8852 I1.0131 J-0.7928
G02 X121.1044 Y352.7080 I-2.1547 J-2.7382
G02 X121.2573 Y350.4989 I-2.1584 J-1.2593
G02 X119.9751 Y348.3922 I-7.9901 J3.4193
G02 X115.7865 Y343.7757 I-51.7283 J42.7254
G02 X110.2944 Y338.0530 I-2646.0250 J2533.9013
G02 X108.6867 Y337.0650 I-2.6897 J2.5749
G02 X107.3770 Y337.4907 I-0.3721 J1.0827
G02 X107.0811 Y338.7930 I1.9619 J1.1306
G02 X107.2802 Y340.2852 I6.5717 J-0.1175
G03 X106.7914 Y341.8916 I-2.3688 J0.1568
G03 X105.2001 Y343.7542 I-11.8816 J-8.5399
G02 X97.0113 Y352.6945 I140.9348 J137.3077
G02 X96.0216 Y353.9617 I169.1448 J133.1368
G03 X93.9719 Y355.3955 I-3.4023 J-2.6818
G03 X91.6018 Y355.1436 I-0.8675 J-3.1131
G02 X90.3210 Y354.8547 I-1.1683 J2.1964
G02 X89.4874 Y355.6425 I0.1103 J0.9516
G02 X89.7884 Y356.6167 I1.8119 J-0.0262
G02 X91.3082 Y358.6074 I11.2685 J-7.0270
G02 X96.9769 Y364.3286 I81.9020 J-75.4827
G02 X100.6774 Y367.7305 I51.4595 J-52.2615
G02 X102.7007 Y369.1913 I8.7853 J-10.0368
G02 X104.2267 Y369.6803 I1.7765 J-2.9184
G02 X105.9069 Y369.1342 I-0.0378 J-2.9738
G02 X107.5155 Y367.8500 I-5.9051 J-9.0469
G02 X107.5521 Y366.9039 I-0.4232 J-0.4902
G02 X106.3949 Y365.6126 I-6.0615 J4.2678
G02 X105.8680 Y365.6956 I-0.2170 J0.3363
G02 X104.2335 Y367.6431 I14.5028 J13.8306
G02 X98.6542 Y361.4512 I-213.0983 J186.4054
G02 X97.0295 Y359.9345 I-8.2390 J7.1970
G02 X96.4393 Y359.7318 I-0.6484 J0.9270
G03 X95.8832 Y359.0298 I0.7107 J-1.1343
G03 X95.9556 Y357.2377 I1.6016 J-0.8328
G03 X97.6862 Y354.9808 I10.5156 J6.2713
G03 X100.6841 Y352.1869 I15.5270 J13.6560
G03 X101.1304 Y351.9727 I0.6183 J0.7163
G03 X101.9386 Y352.3357 I-0.1923 J1.5094
G03 X104.3913 Y355.5546 I-5.5242 J6.7532
G03 X104.5116 Y356.4101 I-1.2714 J0.6149
G02 X104.9522 Y357.9874 I1.5308 J0.4225
G01 X105.1463 Y358.0869
G02 X105.9696 Y357.9414 I0.1783 J-1.3930
G02 X107.7673 Y356.6148 I-3.4539 J-6.5617
G02 X109.8562 Y353.8666 I-6.8031 J-7.3391
G02 X110.0872 Y352.6038 I-1.6187 J-0.9485
G02 X109.7097 Y351.8448 I-1.6451 J0.3447
G02 X109.1248 Y351.8518 I-0.2874 J0.4293
G03 X108.1677 Y352.3583 I-6.4385 J-11.0085
G03 X107.4881 I-0.3398 J-0.9353
G00 Z20.0000


(No. 51: Engraving 63)
G00 X93.1065 Y323.2425 Z20.0000
G00 Z0.5000
G01 Z0.0000 F1270
G01 Z-35.0000
G03 X92.7410 Y328.1066 I-31.4244 J0.0846 F1000
G03 X92.0675 Y329.6883 I-3.1660 J-0.4139
G03 X89.7806 Y330.8776 I-2.9415 J-2.8628
G03 X87.6464 Y330.3722 I-0.1989 J-3.9190
G03 X84.8711 Y328.3415 I8.2236 J-14.1507
G02 X82.0464 Y325.8283 I-66.7245 J72.1510
G02 X78.2060 Y323.4086 I-10.4103 J12.2653
G02 X75.5293 Y322.7706 I-3.0074 J6.6835
G02 X71.7706 Y324.4405 I-0.1295 J4.7736
G02 X69.8323 Y328.4093 I5.9082 J5.3432
G02 X70.5342 Y332.4255 I7.0325 J0.8403
G02 X73.0621 Y336.3873 I19.3676 J-9.5703
G03 X74.8475 Y339.3508 I-12.4712 J9.5328
G02 X75.0488 Y339.9646 I2.3869 J-0.4430
G02 X75.9346 Y340.4493 I0.8852 J-0.5660
G02 X78.5150 Y340.0031 I0.4654 J-4.9937
G02 X83.1180 Y337.1197 I-6.5826 J-15.6242
G02 X83.6639 Y336.4315 I-1.4464 J-1.7078
G01 X83.7133 Y336.2536
G01 X83.6856 Y336.1083
G02 X83.1069 Y335.8638 I-0.6565 J0.7468
G02 X80.1958 Y335.7933 I-1.7557 J12.3623
G03 X77.8930 Y335.6712 I-0.7267 J-8.0670
G03 X75.5455 Y334.3720 I1.4354 J-5.3644
G03 X73.1800 Y329.5184 I4.4268 J-5.1607
G03 X73.9066 Y327.1994 I3.3953 J-0.2095
G03 X78.1380 Y326.4211 I2.6130 J2.3145
G03 X80.8813 Y328.4605 I-4.9041 J9.4614
G02 X83.1348 Y330.8112 I353.3197 J-336.4648
G02 X85.2782 Y332.6584 I9.3029 J-8.6278
G02 X88.7179 Y333.6194 I3.3143 J-5.2265
G02 X93.5540 Y332.2239 I0.5437 J-7.1933
G02 X96.3677 Y327.2198 I-4.6609 J-5.9138
G02 X96.0095 Y322.7762 I-11.0538 J-1.3452
G02 X93.0386 Y317.0880 I-13.8723 J3.6253
G02 X92.0378 Y316.1201 I-13.8985 J13.3696
G03 X90.4525 Y314.0208 I4.6508 J-5.1604
G03 X90.3309 Y313.3896 I1.4947 J-0.6153
G02 X89.5357 Y312.6295 I-0.9872 J0.2368
G02 X87.5259 Y312.7925 I-0.6892 J3.9759
