(Project jsl)
(Created by Estlcam version 11 build 11.244)
(Machining time about 00:27:30 hours)

(Required tools:)
(Thin ball nose)
G21
G90
G94
M03 S24000
G00 Z20.0000


(No. 1: Engraving 101)
G00 X105.2086 Y40.5286
G00 Z0.5000
G01 Z0.0000 F1270 S24000
G01 Z-35.0000
G03 X115.6295 Y33.9019 I113.9117 J167.6259 F1000
G02 X118.9320 Y31.7394 I-24.8329 J-41.5262
G02 X117.0893 Y29.6236 I-19.3135 J14.9601
G02 X104.3269 Y37.7858 I180.5596 J296.3823
G02 X79.3338 Y57.0773 I127.7868 J191.3902
G02 X69.6132 Y66.2054 I209.0931 J232.4029
G01 X70.4498 Y67.3022
G01 X71.1564 Y68.2287
G03 X82.5109 Y58.0136 I292.0080 J313.1614
G03 X105.1991 Y40.5351 I167.3094 J193.7134
G00 Z20.0000


(No. 2: Engraving 102)
G00 X114.5966 Y46.5707 Z20.0000
G00 Z0.5000
G01 Z0.0000 F1270
G01 Z-35.0000
G02 X120.9534 Y42.6795 I-732.5557 J-1203.8602 F1000
G02 X122.7241 Y41.4689 I-8.7204 J-14.6563
G01 X122.8130 Y41.3805
G02 X121.4453 Y39.6609 I-23.4750 J17.2676
G01 X121.3601 Y39.5668
G01 X121.2815 Y39.4872
G02 X114.7613 Y43.4681 I58.4906 J103.1293
G02 X88.3684 Y62.8543 I130.5079 J205.3361
G02 X80.5776 Y69.8827 I111.1143 J131.0004
G01 X76.0517 Y74.2335
G01 X76.8580 Y75.1917
G01 X77.5839 Y76.0544
G03 X86.5745 Y67.8369 I214.4002 J225.5461
G03 X111.3641 Y48.6743 I168.1907 J191.9632
G01 X113.0006 Y47.5939
G01 X114.5830 Y46.5793
G00 Z20.0000


(No. 3: Engraving 103)
G00 X134.6726 Y35.2307 Z20.0000
G00 Z0.5000
G01 Z0.0000 F1270
G01 Z-35.0000
G03 X156.5871 Y26.2331 I83.9115 J173.1895 F1000
G02 X161.9279 Y24.3860 I-67.2055 J-202.9588
G02 X167.0312 Y22.2883 I-17.2554 J-49.2367
G02 X167.8004 Y21.7449 I-0.8286 J-1.9888
G02 X169.9900 Y19.2548 I-14.5089 J-14.9664
G02 X151.7429 Y25.1547 I44.6526 J169.2692
G02 X131.1431 Y34.1187 I74.6680 J199.7430
G02 X126.5168 Y36.6537 I26.4863 J53.8254
G02 X125.8069 Y37.1918 I1.6826 J2.9571
G02 X126.9020 Y38.7488 I7.1427 J-3.8604
G02 X129.0333 Y37.9639 I-2.2366 J-9.3596
G02 X134.6659 Y35.2340 I-100.5416 J-214.6203
G00 Z20.0000


(No. 4: Engraving 104)
G00 X134.2906 Y24.0494 Z20.0000
G00 Z0.5000
G01 Z0.0000 F1270
G01 Z-35.0000
G03 X158.3078 Y14.4680 I85.6963 J179.9167 F1000
G02 X165.0467 Y11.7837 I-15.2761 J-48.1517
G02 X165.6157 Y11.4379 I-1.6118 J-3.2933
G02 X167.4848 Y9.1326 I-7163.5347 J-5810.1988
G01 X167.6432 Y8.9373
G03 X167.9889 Y8.5126 I10.0903 J7.8594
G02 X158.8419 Y11.2767 I84.5783 J296.4088
G02 X126.2866 Y24.8043 I75.1888 J226.8850
G01 X121.5888 Y27.1838
G01 X122.3090 Y28.0395
G01 X123.3687 Y29.2986
G03 X134.2856 Y24.0518 I411.2765 J841.7584
G00 Z20.0000


(No. 5: Engraving 13)
G00 X151.8961 Y64.9177 Z20.0000
G00 Z0.5000
G01 Z0.0000 F1270
G01 Z-35.0000
G03 X150.1530 Y60.0532 I7.9593 J-5.5966 F1000
G03 X150.7426 Y57.3681 I4.5984 J-0.3975
G02 X151.4027 Y54.9439 I-5.3134 J-2.7489
G02 X151.2097 Y54.0865 I-1.5129 J-0.1097
G02 X150.1378 Y53.9654 I-0.5860 J0.3822
G02 X148.4572 Y56.7021 I3.1096 J3.7939
G02 X148.3428 Y60.3305 I10.2112 J2.1381
G02 X150.8533 Y66.9596 I14.8764 J-1.8439
G02 X152.9025 Y68.8988 I5.2777 J-3.5246
G02 X154.8339 Y69.7063 I3.2671 J-5.1006
G02 X155.7225 Y68.9292 I0.0028 J-0.8934
G02 X155.1172 Y67.8286 I-1.5417 J0.1311
G02 X153.8926 Y66.9862 I-5.2019 J6.2509
G03 X151.8961 Y64.9177 I4.9069 J-6.7339
G00 Z20.0000


(No. 6: Engraving 14)
G00 X159.2239 Y61.5628 Z20.0000
G00 Z0.5000
G01 Z0.0000 F1270
G01 Z-35.0000
G03 X159.4671 Y64.0194 I-8.8876 J2.1203 F1000
G03 X159.1237 Y65.3618 I-2.8899 J-0.0242
G01 X158.8932 Y65.6654
G02 X158.5516 Y68.0794 I1.5708 J1.4534
G02 X159.4639 Y68.4153 I0.6311 J-0.3072
G02 X160.5394 Y67.3603 I-0.8614 J-1.9539
G02 X161.1690 Y64.8436 I-6.1326 J-2.8714
G02 X159.4354 Y57.0753 I-14.4356 J-0.8560
G02 X155.6345 Y53.2282 I-10.4708 J6.5440
G02 X154.4057 Y52.7558 I-1.5689 J2.2468
G01 X154.2049 Y52.7881
G01 X154.0594 Y52.8893
G01 X153.9757 Y53.0638
G02 X154.4804 Y54.4252 I1.7302 J0.1328
G02 X155.4894 Y55.1778 I2.3058 J-2.0390
G03 X157.0453 Y56.5571 I-1.9534 J3.7704
G03 X159.2239 Y61.5628 I-11.3230 J7.9052
G00 Z20.0000


(No. 7: Engraving 15)
G00 X169.9926 Y56.8042 Z20.0000
G00 Z0.5000
G01 Z0.0000 F1270
G01 Z-35.0000
G02 X172.5938 Y61.5052 I42.3423 J-20.3589 F1000
G02 X173.6511 Y62.8289 I6.2907 J-3.9404
G02 X174.5197 Y63.2973 I1.1268 J-1.0503
G02 X175.4906 Y62.8451 I-0.0032 J-1.2754
G01 X175.5298 Y62.7656
G02 X175.2826 Y61.8032 I-2.3611 J0.0935
G02 X173.1368 Y58.2976 I-14.0583 J6.1954
G03 X172.6623 Y57.8105 I12.5455 J-12.6968
G03 X171.2743 Y55.1267 I10.5214 J-7.1421
G02 X169.1558 Y51.0809 I-17.1664 J6.4112
G03 X168.4451 Y49.7947 I2.3504 J-2.1384
G03 X168.6331 Y49.1189 I0.6845 J-0.1736
G02 X169.2113 Y48.2941 I-1.2780 J-1.5111
G02 X168.8486 Y47.7672 I-0.3415 J-0.1532
G02 X167.7062 Y47.9664 I-0.0834 J2.8958
G03 X165.2280 Y48.5876 I-18.2759 J-67.6615
G02 X164.4249 Y48.9905 I0.4960 J1.9905
G02 X164.4227 Y49.6151 I0.2127 J0.3130
G02 X165.6274 Y50.1273 I1.8587 J-2.6991
G03 X166.7846 Y51.1669 I-1.4786 J2.8096
G03 X168.9844 Y54.8472 I-23.7265 J16.6802
G03 X169.9926 Y56.8042 I-112.6313 J59.2605
G00 Z20.0000


(No. 8: Engraving 16)
G00 X175.4002 Y54.0576 Z20.0000
G00 Z0.5000
G01 Z0.0000 F1270
G01 Z-35.0000
G03 X175.0067 Y49.3166 I26.5469 J-4.5902 F1000
G03 X175.2230 Y47.7534 I5.6579 J-0.0134
G03 X175.8836 Y46.8450 I1.7406 J0.5713
G02 X176.1617 Y46.3678 I-0.4024 J-0.5542
G02 X175.7558 Y45.9119 I-0.7012 J0.2156
G02 X174.9584 Y45.5262 I-1.3574 J1.7893
G02 X173.8867 Y45.7524 I-0.0841 J2.2529
G02 X172.2424 Y46.5416 I2.2433 J6.7813
G02 X171.7417 Y47.2273 I0.4878 J0.8819
G02 X172.2112 Y48.0118 I0.9110 J-0.0124
G03 X172.9078 Y48.4418 I-6.1406 J10.7267
G03 X173.4936 Y49.8679 I-0.7934 J1.1592
G02 X173.3736 Y50.8018 I6.1122 J1.2599
G02 X174.0207 Y53.3709 I6.2561 J-0.2098
G02 X175.4205 Y55.8263 I13.3552 J-5.9867
G02 X175.5736 Y55.9592 I0.3218 J-0.2162
G01 X175.6081 Y55.9631
G01 X175.6344 Y55.9470
G02 X175.6243 Y55.4336 I-1.0914 J-0.2354
G01 X175.5060 Y54.7313
G01 X175.4002 Y54.0576
G00 Z20.0000


(No. 9: Engraving 17)
G00 X188.2499 Y49.6759 Z20.0000
G00 Z0.5000
G01 Z0.0000 F1270
G01 Z-35.0000
G03 X187.7084 Y45.4682 I27.9442 J-5.7347 F1000
G03 X187.8081 Y44.8987 I2.9866 J0.2291
G02 X187.3787 Y42.8322 I-2.8012 J-0.4959
G02 X186.5303 Y42.5970 I-0.6303 J0.6256
G02 X184.4575 Y43.2583 I0.9882 J6.6769
G02 X183.7118 Y44.0130 I0.6045 J1.3429
G02 X184.0549 Y44.8535 I0.6747 J0.2148
G02 X184.7401 Y45.1636 I1.5013 J-2.4047
G03 X185.4728 Y46.0933 I-0.7991 J1.3833
G03 X186.1450 Y48.8281 I-13.8404 J4.8522
G03 X186.9177 Y54.7904 I-54.7308 J10.1238
G03 X186.8465 Y56.4610 I-6.5124 J0.5593
G03 X186.4157 Y57.2966 I-1.3272 J-0.1555
G03 X185.8331 Y57.5949 I-1.8957 J-2.9836
G02 X185.3495 Y58.1941 I0.2521 J0.6982
G02 X185.7840 Y58.9040 I0.9939 J-0.1204
G02 X188.2635 Y59.6573 I2.0794 J-2.3869
G02 X189.6373 Y58.7030 I-0.1755 J-1.7186
G02 X189.7174 Y57.7134 I-1.8524 J-0.6479
G02 X188.4154 Y50.5604 I-108.5690 J16.0663
G01 X188.3304 Y50.1142
G01 X188.2499 Y49.6759
G00 Z20.0000


(No. 10: Engraving 18)
G00 X196.3534 Y48.4106 Z20.0000
G00 Z0.5000
G01 Z0.0000 F1270
G01 Z-35.0000
G02 X195.0924 Y45.0515 I-12.0638 J2.6124 F1000
G02 X192.6389 Y42.7877 I-4.4511 J2.3626
G02 X190.7475 Y42.1777 I-5.3915 J13.4804
G02 X190.3850 Y42.2487 I-0.1287 J0.3035
G02 X190.3111 Y42.9962 I1.4606 J0.5219
G02 X190.9783 Y44.0632 I2.1431 J-0.5979
G02 X192.0168 Y44.8793 I4.0818 J-4.1258
G03 X194.4033 Y48.5108 I-3.9934 J5.2242
G03 X194.8392 Y52.6137 I-14.5356 J3.6191
G03 X194.6065 Y54.3023 I-5.0833 J0.1595
G03 X193.7134 Y55.3370 I-1.9657 J-0.7937
G02 X192.6899 Y56.8679 I1.8915 J2.3723
G02 X192.5315 Y58.3353 I2.5767 J1.0204
G02 X192.9862 Y58.7655 I0.4629 J-0.0339
G02 X193.6630 Y58.3976 I-0.3517 J-1.4537
G02 X196.4117 Y54.9299 I-8.7136 J-9.7300
G02 X196.8227 Y53.1069 I-4.6847 J-2.0141
G02 X196.3534 Y48.4106 I-16.7169 J-0.7010
G00 Z20.0000


(No. 11: Engraving 19)
G00 X226.5136 Y46.0668 Z20.0000
G00 Z0.5000
G01 Z0.0000 F1270
G01 Z-35.0000
G02 X220.7857 Y46.0784 I-2.7080 J77.3589 F1000
G02 X216.9465 Y46.3521 I0.3867 J32.4803
G02 X216.6870 Y46.4558 I-0.0081 J0.3564
G02 X216.4313 Y47.8191 I1.9156 J1.0649
G02 X216.9505 Y48.2289 I0.6346 J-0.2702
G02 X218.8892 Y48.3790 I1.6379 J-8.5614
G02 X226.0241 Y48.0951 I-0.9969 J-114.8418
G02 X227.4868 Y47.8024 I-0.2438 J-5.0194
G02 X228.0631 Y46.9901 I-0.2539 J-0.7906
G02 X227.9435 Y46.4480 I-0.6135 J-0.1489
G02 X227.2853 Y46.1599 I-0.8069 J0.9476
G02 X226.5136 Y46.0668 I-1.2168 J6.8408
G00 Z20.0000


(No. 12: Engraving 20)
G00 X252.0268 Y43.6769 Z20.0000
G00 Z0.5000
G01 Z0.0000 F1270
G01 Z-35.0000
G03 X252.8282 Y43.2736 I0.7760 J0.5440 F1000
G03 X255.2219 Y43.4404 I0.2018 J14.3550
G03 X258.4651 Y44.2701 I-0.9853 J10.6062
G03 X259.0900 Y44.7931 I-0.5446 J1.2856
G02 X260.0381 Y45.4121 I1.2741 J-0.9159
G02 X260.7131 Y44.8972 I0.0798 J-0.5952
G02 X260.4696 Y43.4993 I-1.7598 J-0.4136
G02 X259.2574 Y42.7370 I-2.0489 J1.9130
G02 X255.0193 Y41.5344 I-13.5568 J39.7062
G02 X250.6887 Y40.5907 I-11.4995 J42.3636
G02 X249.5397 Y40.5975 I-0.5591 J2.5926
G02 X249.1776 Y41.2862 I0.1860 J0.5373
G02 X249.8066 Y42.5340 I2.2889 J-0.3715
G03 X250.0306 Y43.6351 I-2.2700 J1.0351
G03 X249.6933 Y48.2663 I-32.2278 J-0.0194
G03 X249.0875 Y52.1589 I-37.8636 J-3.8988
G03 X248.2812 Y54.0450 I-4.5690 J-0.8380
G03 X247.2184 Y55.0699 I-8.8275 J-8.0898
G02 X246.7585 Y55.7076 I0.9932 J1.2010
G02 X246.9779 Y56.2043 I0.4424 J0.1014
G02 X248.3915 Y56.7673 I2.5139 J-4.2553
G02 X254.9557 Y58.0451 I13.0811 J-49.7004
G02 X257.3921 Y58.0515 I1.2419 J-9.0373
G02 X258.5552 Y57.6053 I-0.2995 J-2.5203
G02 X259.1497 Y56.4636 I-1.0082 J-1.2505
G02 X259.0741 Y55.8133 I-0.8775 J-0.2275
G02 X258.0150 Y55.4882 I-0.7663 J0.6088
G02 X257.3564 Y56.1163 I0.2154 J0.8851
G03 X256.7275 Y56.3477 I-0.5576 J-0.5451
G03 X253.9661 Y55.9576 I0.4486 J-13.1420
G01 X253.5910 Y55.8756
G01 X250.0029 Y55.0782
G03 X250.3252 Y52.1201 I52.9483 J4.2714
G03 X250.6562 Y51.0142 I2.8357 J0.2463
G03 X251.7453 Y50.5223 I0.9592 J0.6719
G03 X254.1283 Y50.7938 I-1.3235 J22.2064
G02 X255.1643 Y50.8002 I0.5336 J-2.5195
G02 X255.6209 Y50.2577 I-0.1722 J-0.6083
G02 X255.6757 Y48.6884 I-3.9937 J-0.9253
G02 X254.9854 Y48.2652 I-0.6032 J0.2094
G03 X252.9514 Y48.3163 I-1.4789 J-18.3412
G03 X251.9179 Y48.0326 I0.0777 J-2.3070
G03 X251.3669 Y47.0967 I0.6790 J-1.0299
G03 X251.5247 Y45.3576 I5.6677 J-0.3626
G03 X251.9086 Y43.9170 I9.7664 J1.8316
G01 X251.9644 Y43.7892
G01 X252.0268 Y43.6769
G00 Z20.0000


(No. 13: Engraving 21)
G00 X279.6144 Y52.2297 Z20.0000
G00 Z0.5000
G01 Z0.0000 F1270
G01 Z-35.0000
G02 X279.3421 Y49.5562 I-7.3866 J-0.5985 F1000
G02 X276.8045 Y46.5438 I-5.3912 J1.9667
G02 X272.6583 Y45.2061 I-5.1963 J9.0113
G01 X269.7690 Y44.8512
G02 X268.6042 Y48.8841 I49.6169 J16.5151
G02 X268.3238 Y50.7845 I7.1667 J2.0286
G02 X268.3757 Y50.9458 I0.2440 J0.0104
G01 X268.4428 Y50.9876
G02 X268.9593 Y50.7535 I-0.0075 J-0.7032
G02 X270.2296 Y48.7532 I-3.2673 J-3.4785
G03 X270.3224 Y48.2399 I2.7374 J0.2299
G03 X271.1927 Y47.5934 I1.3943 J0.9678
G03 X274.4369 Y47.1435 I2.6633 J7.2839
G03 X276.2718 Y48.1511 I-0.8214 J3.6703
G03 X277.9776 Y51.2097 I-3.9132 J4.1874
G03 X277.7969 Y52.5713 I-2.0550 J0.4201
G03 X276.7831 Y53.2120 I-1.1188 J-0.6480
G03 X272.3829 Y53.4893 I-3.8083 J-25.3806
G02 X269.7491 Y53.6643 I-0.3771 J14.2289
G02 X268.0018 Y54.8010 I0.5109 J2.6967
G02 X266.9541 Y56.9114 I3.9065 J3.2547
G02 X267.6246 Y58.9251 I3.0275 J0.1104
G02 X271.5811 Y61.3209 I4.8859 J-3.6039
G03 X273.9344 Y62.1483 I-1.4398 J7.8552
G02 X274.6938 Y62.5206 I0.8989 J-0.8731
G02 X275.5545 Y61.9769 I-0.0645 J-1.0552
G02 X276.4542 Y59.8492 I-6.5273 J-4.0139
G02 X276.8415 Y57.9592 I-6.8675 J-2.3920
G02 X276.7236 Y57.3714 I-0.8967 J-0.1259
G01 X276.6496 Y57.3114
G01 X276.5583 Y57.2868
G02 X276.0254 Y57.5489 I0.0895 J0.8546
G02 X275.1386 Y58.5234 I5.1444 J5.5725
G03 X273.0674 Y59.8567 I-3.1091 J-2.5544
G03 X271.0751 Y59.3992 I-0.2071 J-3.6644
G03 X269.3856 Y57.8954 I1.7563 J-3.6743
G03 X269.3259 Y56.2244 I1.6329 J-0.8949
G03 X270.4649 Y55.2704 I1.5906 J0.7421
G03 X272.8114 Y55.0789 I1.7224 J6.6334
G02 X275.0451 Y55.2669 I5.5288 J-52.3215
G02 X277.0098 Y55.0426 I0.4831 J-4.4848
G02 X279.0205 Y53.5862 I-2.7727 J-5.9441
G02 X279.6144 Y52.2297 I-1.6541 J-1.5324
G00 Z20.0000


(No. 14: Engraving 22)
G00 X294.5181 Y52.4986 Z20.0000
G00 Z0.5000
G01 Z0.0000 F1270
G01 Z-35.0000
G02 X291.6604 Y51.2156 I-10.9961 J20.6676 F1000
G02 X290.7101 Y51.0308 I-0.9456 J2.3272
G02 X290.2780 Y51.6246 I0.0013 J0.4551
G02 X291.2814 Y53.0050 I3.7068 J-1.6394
G03 X291.9760 Y53.7758 I-1.7101 J2.2394
G03 X292.0656 Y54.6906 I-1.3280 J0.5919
G03 X291.1391 Y57.5134 I-17.6690 J-4.2362
G03 X288.7877 Y63.1198 I-62.8347 J-23.0564
G03 X287.7714 Y64.7378 I-7.7289 J-3.7265
G03 X286.8299 Y65.4152 I-1.5345 J-1.1399
G03 X285.6142 Y65.0758 I-0.2454 J-1.4680
G03 X284.6294 Y64.0192 I1.7942 J-2.6595
G03 X284.6236 Y62.6266 I1.5979 J-0.7030
G02 X285.1712 Y60.8022 I-8.4241 J-3.5229
G02 X285.1148 Y60.0792 I-0.9891 J-0.2866
G01 X285.0380 Y60.0208
G01 X284.9399 Y60.0107
G02 X284.3751 Y60.4494 I0.3574 J1.0429
G02 X283.0742 Y62.9007 I7.8081 J5.7146
G02 X282.7457 Y64.4717 I3.3712 J1.5247
G02 X283.1789 Y65.1887 I0.8644 J-0.0330
G02 X285.5756 Y66.3532 I9.4851 J-16.4730
G02 X292.4114 Y68.8109 I24.4906 J-57.3810
G02 X293.5050 Y69.0284 I1.4150 J-4.2576
G01 X293.6527 Y69.0034
G02 X294.4968 Y67.9805 I-2.4110 J-2.8494
G02 X295.6941 Y65.0702 I-8.2715 J-5.1045
G02 X295.6570 Y64.3842 I-1.0773 J-0.2857
G02 X295.0205 Y64.1800 I-0.4379 J0.2709
G02 X293.5682 Y65.2823 I1.0820 J2.9334
G02 X293.0271 Y66.7569 I1.6705 J1.4496
G03 X291.8617 Y67.6478 I-1.0687 J-0.1901
G03 X289.9590 Y66.2433 I0.0972 J-2.1226
G03 X290.0743 Y64.6702 I2.9363 J-0.5756
G03 X291.7257 Y60.7440 I27.8465 J9.4022
G02 X293.0227 Y57.4841 I-16.4124 J-8.4179
G03 X293.7082 Y56.1591 I1.8103 J0.0967
G03 X296.2942 Y55.1473 I2.5150 J2.6174
G02 X297.0779 Y54.9514 I0.0130 J-1.6130
G01 X297.1733 Y54.8651
G01 X297.2293 Y54.7651
G02 X297.0650 Y54.2404 I-0.5790 J-0.1068
G02 X295.6918 Y53.1471 I-4.2680 J3.9517
G02 X294.5181 Y52.4986 I-9.0283 J14.9531
G00 Z20.0000


(No. 15: Engraving 23)
G00 X317.8901 Y67.0938 Z20.0000
G00 Z0.5000
G01 Z0.0000 F1270
G01 Z-35.0000
G02 X320.5986 Y68.1903 I10.7088 J-22.5591 F1000
G02 X324.0398 Y68.7813 I3.5033 J-10.0843
G03 X325.0121 Y69.1424 I0.0220 J1.4303
G03 X325.3486 Y69.9671 I-1.0949 J0.9277
G02 X325.9028 Y71.2218 I2.0397 J-0.1513
G02 X326.7759 Y71.0461 I0.3902 J-0.3184
G02 X326.7544 Y69.2565 I-2.6017 J-0.8635
G02 X325.1374 Y67.7138 I-2.5222 J1.0249
G02 X322.2109 Y67.0739 I-3.6632 J9.7410
G03 X320.4904 Y66.6960 I0.3003 J-5.4732
G03 X319.9782 Y65.8521 I0.4465 J-0.8485
G02 X319.8765 Y64.2862 I-19.7410 J0.4954
G02 X319.6114 Y63.5960 I-1.1499 J0.0458
G02 X319.0878 Y63.5271 I-0.3159 J0.3771
G02 X317.1194 Y65.3724 I1.6460 J3.7284
G02 X316.7177 Y68.6871 I5.2787 J2.3213
G02 X318.1765 Y72.3608 I8.6857 J-1.3225
G03 X319.6418 Y75.7510 I-6.7508 J4.9297
G03 X319.4928 Y77.8481 I-3.9473 J0.7734
G03 X317.5166 Y79.2326 I-1.9454 J-0.6742
G03 X315.3101 Y78.5234 I0.1572 J-4.2763
G03 X313.5306 Y77.0657 I3.4325 J-6.0049
G03 X313.1054 Y76.1898 I1.1389 J-1.0942
G03 X313.7166 Y75.2101 I1.0959 J0.0033
G03 X314.6575 Y74.7692 I4.5305 J8.4439
G02 X315.4990 Y73.9935 I-0.4674 J-1.3514
G02 X315.3301 Y73.2212 I-0.8972 J-0.2084
G02 X314.3149 Y72.4054 I-1.3038 J0.5830
G02 X312.9153 Y72.9208 I-0.1582 J1.7282
G02 X312.0076 Y76.1195 I2.5722 J2.4581
G02 X313.6352 Y78.7473 I6.1530 J-1.9931
G02 X315.7242 Y80.1746 I3.8789 J-3.4350
G02 X316.6592 Y80.1864 I0.4888 J-1.6795
G03 X317.3973 Y80.2884 I0.2564 J0.8658
G03 X317.4862 Y80.5424 I-0.2651 J0.2354
G01 X317.5219 Y80.6097
G02 X317.9972 Y80.6994 I0.3289 J-0.4390
G02 X320.1992 Y79.5765 I-1.3111 J-5.2917
G02 X321.3056 Y77.5113 I-1.7844 J-2.2849
G02 X320.6123 Y73.6590 I-7.2393 J-0.6856
G02 X319.7309 Y72.1574 I-12.9541 J6.5943
G03 X318.2260 Y68.7732 I10.2039 J-6.5640
G01 X317.8901 Y67.0938
G00 Z20.0000


(No. 16: Engraving 24)
G00 X331.4102 Y80.1213 Z20.0000
G00 Z0.5000
G01 Z0.0000 F1270
G01 Z-35.0000
G03 X333.5592 Y78.1500 I10.6025 J9.4013 F1000
G03 X335.4957 Y77.7883 I1.3998 J2.1301
G02 X337.1576 Y77.9851 I1.7685 J-7.8196
G02 X338.4436 Y77.5219 I0.1000 J-1.7393
G02 X338.8454 Y76.8637 I-0.9179 J-1.0122
G02 X338.5376 Y76.4430 I-0.4430 J0.0011
G02 X334.1078 Y76.4668 I-2.1883 J4.9525
G02 X331.8050 Y77.9538 I3.3387 J7.6974
G02 X327.5648 Y83.9975 I9.8821 J11.4425
G02 X327.0821 Y86.6237 I6.5340 J2.5585
G02 X327.6447 Y88.4768 I3.9758 J-0.1950
G02 X328.1283 Y89.1440 I2.0326 J-0.9645
G01 X328.2301 Y89.2058
G01 X328.3243 Y89.2255
G01 X328.4111 Y89.2029
G02 X328.6846 Y88.6893 I-0.5094 J-0.6009
G02 X328.8940 Y85.8657 I-13.8253 J-2.4447
G03 X329.2129 Y83.3236 I9.5951 J-0.0874
G03 X329.5237 Y82.8015 I0.8619 J0.1595
G02 X330.2526 Y81.8123 I-0.3247 J-1.0023
G03 X331.0272 Y80.5703 I3.7726 J1.4904
G03 X331.4102 Y80.1213 I10.0451 J8.1818
G00 Z20.0000


(No. 17: Engraving 25)
G00 X341.1512 Y81.8064 Z20.0000
G00 Z0.5000
G01 Z0.0000 F1270
G01 Z-35.0000
G02 X341.2842 Y79.4183 I-13.4691 J-1.9477 F1000
G01 X341.2749 Y79.3817
G01 X341.2636 Y79.3608
G01 X341.2502 Y79.3560
G02 X340.2685 Y79.7415 I2.6370 J8.1586
G02 X339.6957 Y80.9900 I1.2121 J1.3118
G03 X339.2542 Y83.0216 I-5.5657 J-0.1459
G03 X336.6001 Y87.9185 I-19.1043 J-7.1869
G03 X335.6259 Y88.9109 I-3.6992 J-2.6567
G03 X332.2982 Y90.1828 I-5.6060 J-9.6783
G02 X331.0909 Y90.6593 I0.5816 J3.2405
G02 X330.8586 Y91.0037 I0.2242 J0.4018
G02 X331.2246 Y91.4276 I0.5877 J-0.1375
G02 X333.5404 Y91.6563 I1.4205 J-2.5439
G02 X335.8119 Y90.3899 I-2.3739 J-6.9283
G02 X340.6046 Y83.9482 I-10.0355 J-12.4704
G02 X341.1512 Y81.8064 I-7.8287 J-3.1385
G00 Z20.0000


(No. 18: Engraving 26)
G00 X351.9284 Y89.3279 Z20.0000
G00 Z0.5000
G01 Z0.0000 F1270
G01 Z-35.0000
G03 X352.0395 Y87.3766 I1.7339 J-0.8800 F1000
G02 X352.1999 Y86.6949 I-1.0897 J-0.6161
G02 X351.6855 Y86.2960 I-0.4733 J0.0792
G02 X349.7190 Y86.9397 I0.1250 J3.7076
G02 X348.3931 Y88.9654 I2.6846 J3.2041
G02 X348.3353 Y93.6157 I8.6519 J2.4331
G02 X349.0194 Y95.6518 I12.8167 J-3.1731
G03 X349.2338 Y99.9761 I-7.1886 J2.5240
G03 X348.6144 Y101.1118 I-2.3255 J-0.5316
G03 X347.5645 Y101.4948 I-1.1430 J-1.5030
G03 X344.6568 Y100.3658 I-0.1244 J-3.9885
G03 X343.0662 Y98.1253 I5.1461 J-5.3384
G03 X342.8301 Y97.2187 I1.5641 J-0.8914
G03 X343.3350 Y96.6541 I0.6614 J0.0834
G03 X344.6485 Y96.5195 I1.2118 J5.3480
G02 X345.6225 Y96.0987 I0.0321 J-1.2635
G02 X345.6155 Y95.0556 I-0.7890 J-0.5163
G02 X344.3277 Y93.8351 I-2.5548 J1.4060
G02 X343.3426 Y94.1151 I-0.2411 J1.0247
G02 X342.1940 Y95.5555 I1.9834 J2.7598
G02 X342.1119 Y98.4092 I4.6943 J1.5631
G02 X344.6961 Y101.9039 I5.2309 J-1.1653
G02 X347.4188 Y102.5214 I2.8342 J-6.1859
G02 X349.4007 Y102.2602 I0.3747 J-4.8079
G02 X350.9819 Y100.4700 I-0.9383 J-2.4221
G02 X351.0299 Y97.6821 I-6.7509 J-1.5107
G02 X350.0515 Y94.0105 I-23.3640 J4.2598
G03 X349.4073 Y91.3962 I12.8716 J-4.5584
G03 X349.4531 Y90.4774 I1.9775 J-0.3619
G01 X349.5245 Y90.3478
G01 X349.6200 Y90.2577
G03 X350.2442 Y90.2850 I0.2860 J0.6104
G03 X351.1917 Y90.8492 I-4.9759 J9.4334
G02 X354.7383 Y92.2561 I7.0732 J-12.6571
G03 X355.9474 Y92.8454 I-0.7026 J2.9767
G03 X356.3432 Y93.9273 I-1.0686 J1.0043
G02 X356.4963 Y95.0076 I2.3719 J0.2149
G02 X357.0402 Y95.2778 I0.3975 J-0.1175
G02 X357.8242 Y93.9081 I-0.3571 J-1.1136
G02 X357.0459 Y92.2424 I-3.7848 J0.7539
G02 X354.6906 Y90.5350 I-3.8391 J2.8177
G02 X353.6563 Y90.4075 I-1.1470 J5.0451
G03 X351.9284 Y89.3279 I0.1221 J-2.1180
G00 Z20.0000


(No. 19: Engraving 27)
G00 X366.3707 Y101.3799 Z20.0000
G00 Z0.5000
G01 Z0.0000 F1270
G01 Z-35.0000
G03 X365.2677 Y99.9088 I6.2305 J-5.8205 F1000
G02 X365.2069 Y99.6747 I-4.2773 J0.9866
G02 X364.3982 Y99.3036 I-0.7235 J0.5100
G02 X363.5689 Y100.3628 I0.0937 J0.9276
G02 X364.5851 Y101.8914 I2.3936 J-0.4891
G03 X365.4716 Y102.6381 I-1.3721 J2.5285
G03 X365.5253 Y103.9211 I-1.0674 J0.6873
G03 X364.4054 Y105.4947 I-6.1295 J-3.1773
G03 X360.1930 Y109.5777 I-50.4767 J-47.8618
G03 X358.0939 Y111.3304 I-12.7341 J-13.1174
G03 X357.0464 Y111.7840 I-1.4317 J-1.8697
G03 X356.0085 Y111.3899 I-0.0326 J-1.4779
G02 X354.8552 Y110.3473 I-766.0898 J846.2780
G02 X353.1706 Y109.3340 I-3.1685 J3.3606
G02 X352.6118 Y109.3751 I-0.2381 J0.5808
G02 X352.5589 Y110.0919 I0.4245 J0.3917
G02 X354.3156 Y112.6046 I12.6622 J-6.9819
G02 X356.3912 Y114.7314 I10.3429 J-8.0178
G01 X356.5501 Y114.8212
G01 X356.6706 Y114.8525
G02 X357.2871 Y114.5038 I-0.6905 J-1.9401
G02 X362.3489 Y110.0723 I-36.4332 J-46.7225
G03 X366.7371 Y106.3487 I30.2190 J31.1651
G03 X367.4120 Y105.9909 I1.0974 J1.2545
G03 X368.2818 Y106.4006 I-0.3255 J1.8193
G03 X369.9349 Y108.0259 I-5.7384 J7.4899
G02 X371.3315 Y109.0937 I2.9630 J-2.4282
G02 X371.9288 Y108.9897 I0.2237 J-0.4829
G02 X372.2683 Y107.4017 I-0.7209 J-0.9844
G02 X371.4827 Y107.0716 I-0.6784 J0.5146
G03 X370.7953 Y106.6689 I-0.0199 J-0.7541
G02 X370.5653 Y106.1708 I-0.9028 J0.1148
G02 X367.5589 Y102.7138 I-27.7300 J21.0790
G03 X366.3707 Y101.3799 I29.3535 J-27.3439
G00 Z20.0000


(No. 20: Engraving 115)
G00 X380.4988 Y83.1994 Z20.0000
G00 Z0.5000
G01 Z0.0000 F1270
G01 Z-35.0000
G02 X375.0508 Y77.7017 I-71.9491 J65.8509 F1000
G02 X373.6888 Y79.5310 I11.4352 J9.9355
G02 X376.7144 Y82.9519 I44.4256 J-36.2441
G03 X387.8780 Y96.1243 I-143.3987 J132.8466
G03 X402.5629 Y116.8496 I-198.0863 J155.9191
G01 X403.6270 Y118.5757
G01 X406.7505 Y123.7242
G02 X408.3351 Y122.3850 I-678.8733 J-804.8695
G02 X408.5266 Y122.1734 I-0.4034 J-0.5576
G02 X408.1077 Y121.0628 I-2.8821 J0.4528
G02 X405.9002 Y117.4317 I-51.0369 J28.5412
G02 X395.3538 Y101.8043 I-259.6165 J163.8343
G02 X382.9648 Y85.9787 I-191.8690 J137.4412
G01 X381.7079 Y84.5422
G01 X380.4870 Y83.1864
G00 Z20.0000


(No. 21: Engraving 116)
G00 X390.8721 Y77.2215 Z20.0000
G00 Z0.5000
G01 Z0.0000 F1270
G01 Z-35.0000
G02 X383.7843 Y69.7092 I-151.6047 J135.9384 F1000
G01 X382.8856 Y70.5290
G01 X381.9995 Y71.3375
G03 X391.8075 Y82.4509 I-300.8117 J275.3623
G03 X416.2227 Y116.7294 I-193.1175 J163.3843
G02 X417.4840 Y118.7703 I85.4555 J-51.3997
G02 X419.0726 Y116.5505 I-7.8007 J-7.2612
G02 X418.4465 Y115.1691 I-8.0676 J2.8242
G02 X414.3259 Y108.3617 I-92.9374 J51.6056
G02 X399.8376 Y87.8792 I-264.6282 J171.8195
G02 X390.8692 Y77.2182 I-179.3820 J141.7992
G00 Z20.0000


(No. 22: Engraving 118)
G00 X413.2819 Y130.3003 Z20.0000
G00 Z0.5000
G01 Z0.0000 F1270
G01 Z-35.0000
G01 X412.4619 Y128.7926 F1000
G01 X411.1668 Y126.4685
G01 X410.4344 Y127.1306
G01 X409.3055 Y128.1511
G03 X414.5886 Y138.7013 I-285.3124 J149.4691
G03 X424.9674 Y165.0931 I-202.1271 J94.7246
G02 X426.0203 Y167.6805 I14.6945 J-4.4722
G02 X427.7107 Y169.6115 I5.3935 J-3.0161
G02 X429.2771 Y170.8349 I26.4882 J-32.2987
G02 X427.8457 Y165.7424 I-1906.2862 J533.0567
G02 X422.1938 Y149.9438 I-183.7081 J56.8105
G02 X414.1212 Y131.9120 I-210.4793 J83.4068
G01 X413.2727 Y130.2832
G00 Z20.0000


(No. 23: Engraving 117)
G00 X424.6003 Y126.0086 Z20.0000
G00 Z0.5000
G01 Z0.0000 F1270
G01 Z-35.0000
G02 X421.8968 Y121.1276 I-58.9682 J29.4730 F1000
G01 X421.3293 Y121.8717
G01 X420.2022 Y123.3494
G03 X426.3800 Y136.1827 I-594.2508 J293.9698
G03 X434.9939 Y157.2058 I-208.6612 J97.7713
G03 X436.7807 Y162.8519 I-143.8031 J48.6142
G02 X438.1277 Y166.5661 I29.9409 J-8.7572
G02 X439.1471 Y167.7845 I6.1918 J-4.1453
G02 X441.7533 Y170.1548 I23.5730 J-23.3000
G02 X436.1795 Y152.2567 I-279.3217 J77.1686
G02 X430.0047 Y137.3319 I-222.2532 J83.2122
G02 X424.5949 Y125.9981 I-223.3555 J99.6524
G00 Z20.0000


(No. 24: Engraving 64)
G00 X441.8012 Y182.1910 Z20.0000
G00 Z0.5000
G01 Z0.0000 F1270
G01 Z-35.0000
G02 X442.4876 Y185.2889 I881.8027 J-193.7563 F1000
G02 X444.1904 Y183.3090 I-15.7491 J-15.2664
G02 X444.5080 Y181.9084 I-1.4982 J-1.0761
G02 X443.9430 Y179.1054 I-10.2458 J0.6068
G02 X442.0729 Y176.5851 I-6.4126 J2.8043
G02 X440.2079 Y175.0730 I-14.3523 J15.7957
G03 X441.8012 Y182.1907 I-885.5563 J201.9643
G00 Z20.0000


(No. 25: Engraving 63)
G00 X430.4531 Y186.0816 Z20.0000
G00 Z0.5000
G01 Z0.0000 F1270
G01 Z-35.0000
G01 X430.3521 Y185.6195 F1000
G01 X430.8650 Y185.1067
G01 X432.3693 Y183.6023
G02 X431.6929 Y180.3569 I-36.2590 J5.8633
G02 X429.7415 Y177.2848 I-5.4819 J1.3264
G02 X428.2215 Y176.1373 I-10.5256 J12.3622
G02 X429.5019 Y181.9345 I140.6624 J-28.0270
G03 X430.4525 Y186.0788 I-715.8922 J166.3908
G00 Z20.0000


(No. 26: Engraving 66)
G00 X432.4929 Y199.0235 Z20.0000
G00 Z0.5000
G01 Z0.0000 F1270
G01 Z-35.0000
G03 X434.0739 Y225.3162 I-209.5892 J25.7967 F1000
G03 X432.5026 Y251.6489 I-208.9012 J0.7473
G01 X432.1334 Y254.3395
G01 X431.4362 Y259.1020
G02 X433.3741 Y261.4705 I24.7029 J-18.2349
G01 X433.4965 Y261.6000
G01 X433.5096 Y261.6077
G02 X434.7783 Y253.1350 I-122.4094 J-22.6613
G02 X436.6180 Y232.4034 I-280.6133 J-35.3486
G02 X436.4230 Y214.8384 I-143.6121 J-7.1894
G02 X434.0288 Y192.2894 I-275.3258 J17.8318
G02 X433.5125 Y189.4879 I-38.7782 J5.6984
G02 X431.4218 Y191.5780 I13.2944 J15.3892
G01 X432.1215 Y196.3309
G01 X432.4905 Y199.0050
G00 Z20.0000


(No. 27: Engraving 65)
G00 X444.3241 Y197.2738 Z20.0000
G00 Z0.5000
G01 Z0.0000 F1270
G01 Z-35.0000
G03 X444.1168 Y255.0205 I-208.2369 J28.1262 F1000
G01 X443.2803 Y260.8926
G02 X445.7047 Y262.9154 I52.4438 J-60.3917
G01 X445.7289 Y262.8255
G01 X445.7246 Y262.8414
G02 X446.4203 Y258.5318 I-70.8082 J-13.6411
G02 X448.3532 Y208.9107 I-226.2529 J-33.6614
G02 X445.9161 Y188.9277 I-200.5346 J14.3168
G01 X445.3453 Y189.6110
G01 X443.5790 Y191.7253
G01 X444.3231 Y197.2665
G00 Z20.0000


(No. 28: Engraving 43)
G00 X401.4731 Y237.0071 Z20.0000
G00 Z0.5000
G01 Z0.0000 F1270
G01 Z-35.0000
G03 X403.8803 Y237.2162 I-0.0688 J14.7574 F1000
G03 X405.4887 Y238.6352 I-1.4430 J3.2566
G03 X405.9522 Y239.4993 I-84.7499 J46.0188
G02 X406.7064 Y240.2436 I1.5935 J-0.8603
G02 X407.6969 Y239.9684 I0.3317 J-0.7265
G02 X408.2973 Y238.1534 I-2.9418 J-1.9799
G02 X408.7498 Y227.5686 I-166.3039 J-12.4125
G02 X408.7255 Y222.9471 I-57.7839 J-2.0071
G02 X408.3904 Y220.8636 I-8.0091 J0.2197
G02 X407.0326 Y219.4831 I-1.9666 J0.5763
G02 X405.1263 Y219.1082 I-3.1641 J11.0548
G02 X403.9414 Y219.1105 I-0.5871 J2.7448
G02 X403.5672 Y219.7130 I0.2430 J0.5684
G02 X403.6902 Y220.9011 I2.1478 J0.3780
G02 X404.7686 Y221.5735 I1.1330 J-0.6160
G03 X405.5216 Y221.8215 I-0.0224 J1.3353
G03 X405.8342 Y222.5637 I-0.8466 J0.7935
G03 X405.7697 Y225.3634 I-21.0710 J0.9148
G02 X405.4894 Y231.7369 I288.6948 J15.8868
G03 X405.1058 Y233.9617 I-8.4026 J-0.3032
G03 X404.6848 Y234.3333 I-0.5244 J-0.1698
G03 X402.5519 Y234.7123 I-2.7258 J-9.1492
G03 X397.6419 Y234.6485 I-2.1593 J-22.7887
G03 X396.7518 Y234.3925 I0.1903 J-2.3373
G01 X396.6274 Y234.2793
G03 X396.5132 Y233.0683 I2.9650 J-0.8904
G03 X397.0166 Y230.0307 I11.4444 J0.3360
G03 X397.6850 Y229.0190 I1.9808 J0.5821
G03 X398.2438 Y228.7751 I1.3168 J2.2546
G02 X399.0604 Y227.2284 I-0.4909 J-1.2481
G02 X398.4387 Y226.7159 I-0.7963 J0.3325
G02 X395.9320 Y226.4035 I-2.7312 J11.7024
G02 X392.9681 Y226.3183 I-2.3936 J31.6794
G02 X392.1754 Y226.5016 I-0.0534 J1.5748
G02 X391.8870 Y227.2462 I0.5428 J0.6384
G02 X392.3086 Y228.8523 I2.4622 J0.2120
G03 X392.6539 Y229.2184 I-1.1302 J1.4119
G03 X392.9749 Y230.8256 I-4.2615 J1.6869
G03 X392.6253 Y233.6109 I-7.0858 J0.5251
G03 X392.2345 Y234.0959 I-0.7741 J-0.2238
G03 X390.0576 Y234.4673 I-2.6010 J-8.6787
G03 X385.9306 Y234.5323 I-2.5041 J-27.9425
G03 X384.5927 Y234.0935 I0.1292 J-2.6529
G03 X383.9357 Y232.9693 I1.1791 J-1.4432
G03 X383.7908 Y230.8710 I8.5087 J-1.6414
G03 X384.3896 Y222.3063 I181.7940 J8.4060
G02 X386.7452 Y221.5903 I-5.9631 J-23.8542
G02 X387.7547 Y220.9040 I-0.5764 J-1.9334
G02 X387.9583 Y219.4450 I-1.7833 J-0.9925
G02 X387.2288 Y218.7626 I-0.7757 J0.0982
G02 X384.4999 Y219.0579 I-0.6509 J6.7423
G02 X382.1276 Y220.0705 I1.8770 J7.6826
G02 X381.3207 Y221.6862 I1.0750 J1.5462
G03 X380.8755 Y228.8723 I-124.1979 J-4.0862
G02 X380.4174 Y237.1221 I130.7554 J11.3983
G02 X380.5292 Y238.8087 I6.6582 J0.4060
G02 X381.5569 Y239.7592 I1.1482 J-0.2106
G02 X383.0335 Y239.1857 I-0.0052 J-2.2011
G02 X384.1285 Y238.0274 I-6.3821 J-7.1299
G03 X385.5973 Y237.2363 I1.7977 J1.5785
G03 X388.7200 Y236.9926 I3.3589 J22.9149
G03 X400.9775 Y236.9882 I6.2105 J226.1964
G01 X401.4731 Y237.0071
G00 Z20.0000


(No. 29: Engraving 44)
G00 X392.1686 Y267.2212 Z20.0000
G00 Z0.5000
G01 Z0.0000 F1270
G01 Z-35.0000
G02 X394.9636 Y269.0375 I671.1440 J-1029.6952 F1000
G03 X395.9412 Y269.9126 I-2.0435 J3.2665
G01 X396.0303 Y270.0806
G01 X396.0590 Y270.2277
G01 X396.0283 Y270.3535
G01 X395.9391 Y270.4575
G03 X395.0142 Y270.6495 I-0.7772 J-1.4201
G03 X391.3459 Y270.0672 I0.8820 J-17.3989
G02 X387.4917 Y269.3861 I-5.8536 J21.8790
G02 X387.0454 Y269.4439 I-0.1407 J0.6654
G03 X386.5177 Y269.4701 I-0.2921 J-0.5549
G03 X385.2125 Y268.8300 I1.4083 J-4.5223
G02 X381.6245 Y267.7289 I-5.3553 J11.0538
G03 X379.7693 Y266.9135 I0.5422 J-3.7519
G03 X379.1882 Y264.9618 I1.4966 J-1.5079
G02 X379.2281 Y264.4468 I-0.8068 J-0.3215
G02 X378.5807 Y264.0059 I-0.7013 J0.3341
G02 X377.2609 Y264.0490 I-0.5644 J2.9477
G02 X376.5111 Y264.8771 I0.4924 J1.1993
G02 X375.6957 Y268.0188 I19.1925 J6.6580
G02 X375.2642 Y271.3101 I16.0826 J3.7821
G02 X375.4930 Y272.6004 I2.7385 J0.1800
G02 X376.5869 Y273.1017 I0.8640 J-0.4413
G02 X377.8133 Y272.1035 I-0.3618 J-1.6970
G02 X378.3472 Y270.7918 I-18.4231 J-8.2645
G03 X379.3335 Y270.1654 I0.9008 J0.3285
G03 X381.6796 Y270.4784 I-1.1466 J17.5410
G03 X388.3933 Y272.1088 I-12.8711 J67.6370
G03 X396.2035 Y274.3619 I-51.4188 J192.9093
G03 X397.9450 Y275.0639 I-2.8008 J9.4595
G03 X398.6724 Y276.0546 I-0.5326 J1.1534
G02 X399.1084 Y277.4844 I3.6822 J-0.3416
G02 X400.5176 Y278.4489 I1.8123 J-1.1362
G02 X401.7701 Y278.5515 I0.8548 J-2.7385
G02 X402.8490 Y277.6083 I-0.3077 J-1.4405
G02 X403.3806 Y275.0770 I-8.4337 J-3.0928
G01 X403.4274 Y274.5651
G01 X403.6790 Y271.5308
G02 X395.6538 Y266.3878 I-133.9484 J200.1825
G02 X392.8525 Y264.8331 I-13.4488 J20.9316
G03 X392.4949 Y264.7324 I0.2761 J-1.6662
G03 X390.5502 Y263.1767 I4.8697 J-8.0806
G02 X388.4473 Y261.3636 I-7.9140 J7.0529
G02 X387.9756 Y261.2033 I-0.4497 J0.5488
G03 X387.4929 Y261.1187 I-0.1611 J-0.5004
G03 X385.3832 Y259.4697 I5.6228 J-9.3676
G01 X383.2790 Y257.4447
G03 X386.9983 Y258.0021 I-4.9128 J45.4673
G03 X390.4539 Y259.0746 I-2.4045 J13.8513
G02 X394.2429 Y259.8046 I3.6499 J-8.7465
G03 X395.8178 Y260.1283 I-0.0788 J4.3757
G03 X396.1879 Y260.4579 I-1.2941 J1.8255
G02 X397.8508 Y261.1361 I2.7070 J-4.2603
G03 X400.8136 Y262.0266 I-3.2149 J16.0697
G03 X402.0447 Y262.9344 I-0.9100 J2.5227
G03 X402.4374 Y264.5183 I-2.3184 J1.4155
G02 X402.8669 Y266.2241 I2.9785 J0.1570
G02 X404.4548 Y267.0093 I1.4965 J-1.0281
G01 X404.5707 Y266.9782
G02 X405.0632 Y266.3051 I-0.9154 J-1.1866
G02 X406.0321 Y262.7670 I-13.8793 J-5.7025
G02 X406.0556 Y258.0819 I-13.0656 J-2.4080
G02 X405.7069 Y257.2121 I-2.1322 J0.3500
G02 X404.8666 Y257.1403 I-0.4549 J0.3711
G02 X403.8805 Y258.2146 I2.6823 J3.4520
G03 X403.3304 Y258.8926 I-2.7770 J-1.6908
G03 X402.2152 Y259.1305 I-0.8273 J-1.1449
G03 X398.9899 Y258.4594 I4.4472 J-29.4573
G02 X389.1098 Y256.5472 I-22.5451 J90.0101
G03 X382.3662 Y254.7351 I5.5075 J-33.9481
G02 X380.9017 Y254.3258 I-2.4000 J5.7631
G02 X379.8526 Y254.7013 I-0.1691 J1.1811
G02 X378.8209 Y255.8836 I3.2408 J3.8693
G02 X378.9793 Y257.5561 I1.2561 J0.7249
G02 X380.8366 Y259.2199 I6.3913 J-5.2662
G03 X383.9894 Y261.6440 I-45.2198 J62.0747
G02 X392.1686 Y267.2212 I151.9645 J-214.0803
G00 Z20.0000


(No. 30: Engraving 45)
G00 X376.9320 Y293.2684 Z20.0000
G00 Z0.5000
G01 Z0.0000 F1270
G01 Z-35.0000
G02 X373.9551 Y292.0205 I-8.9028 J17.0626 F1000
G03 X372.5482 Y291.2730 I0.2236 J-2.1187
G03 X372.1055 Y289.7891 I0.9350 J-1.0869
G03 X372.9578 Y287.6894 I10.7869 J3.1559
G02 X373.8357 Y285.6669 I-12.1099 J-6.4583
G02 X373.4766 Y284.5827 I-0.8254 J-0.3282
G02 X372.2880 Y283.8030 I-3.7036 J4.3506
G02 X371.1839 Y283.9670 I-0.3843 J1.2117
G02 X370.3240 Y284.5613 I0.9180 J2.2478
G02 X369.3299 Y286.6059 I3.5073 J2.9693
G03 X366.5954 Y293.5419 I-75.0449 J-25.5788
G03 X364.4913 Y297.9110 I-50.4170 J-21.5892
G02 X364.2961 Y298.8411 I1.2568 J0.7492
G02 X365.0097 Y299.7695 I1.9331 J-0.7474
G02 X367.8819 Y299.1038 I1.1785 J-1.4445
G02 X368.0233 Y298.2250 I-2.2308 J-0.8095
G03 X369.0313 Y296.3032 I4.0118 J0.8791
G03 X371.0458 Y294.8394 I3.5916 J2.8250
G03 X372.1866 Y294.9307 I0.4356 J1.7315
G03 X375.8018 Y296.4960 I-8.3359 J24.2093
G02 X378.3993 Y297.5471 I6.8655 J-13.2317
G03 X379.8889 Y298.0369 I-1.0571 J5.7243
G03 X387.5197 Y301.7177 I-42.0251 J96.8737
G02 X389.9642 Y302.5537 I4.0966 J-7.9869
G03 X390.6026 Y302.6824 I0.1320 J0.9933
G03 X390.4981 Y302.9745 I-0.1657 J0.1055
G02 X389.6605 Y304.0192 I3.3748 J3.5641
G02 X387.5803 Y308.2327 I18.0255 J11.5190
G02 X387.4821 Y309.2339 I1.4838 J0.6510
G02 X388.7796 Y310.1667 I1.2176 J-0.3249
G02 X390.3620 Y309.6664 I-0.0206 J-2.8178
G02 X391.5136 Y308.2060 I-4.8383 J-4.9995
G02 X395.0077 Y300.6210 I-34.4323 J-20.4585
G03 X396.1521 Y297.6762 I16.8126 J4.8394
G03 X396.5975 Y297.0346 I3.4812 J1.9406
G02 X396.2582 Y294.4303 I-2.0124 J-1.0621
G02 X395.3829 Y293.8056 I-1.6055 J1.3239
G02 X394.6034 Y294.0849 I-0.1343 J0.8526
G02 X392.5095 Y296.9477 I5.5203 J6.2347
G02 X392.4248 Y297.4859 I1.5051 J0.5125
G03 X391.6136 Y298.2879 I-0.9881 J-0.1882
G03 X389.9985 Y298.2910 I-0.8162 J-4.4184
G03 X385.6113 Y297.0373 I4.1909 J-22.9680
G03 X376.9320 Y293.2684 I29.1159 J-78.9292
G00 Z20.0000


(No. 31: Engraving 46)
G00 X363.6103 Y311.3737 Z20.0000
G00 Z0.5000
G01 Z0.0000 F1270
G01 Z-35.0000
G02 X361.4079 Y310.2688 I-4.6156 J6.4526 F1000
G02 X359.5120 Y310.2958 I-0.9075 J2.8576
G02 X357.5352 Y312.1466 I2.6239 J4.7836
G03 X356.0113 Y314.1135 I-7.2634 J-4.0537
G03 X355.7191 Y314.2514 I-1.8772 J-3.5998
G02 X354.7240 Y315.6597 I4.5913 J4.2997
G02 X353.1391 Y318.6660 I239.9172 J128.4047
G03 X352.0440 Y320.2795 I-6.3312 J-3.1187
G03 X351.8201 Y320.3603 I-0.3996 J-0.7567
G02 X350.9961 Y321.2057 I1.9183 J2.6941
G02 X348.4165 Y325.7452 I17.5858 J12.9960
G02 X348.2035 Y326.5679 I2.2629 J1.0247
G02 X348.6191 Y327.2387 I0.9606 J-0.1310
G02 X350.1443 Y327.4530 I1.0260 J-1.7677
G02 X352.5836 Y326.4602 I-1.5592 J-7.3239
G03 X353.6334 Y325.9904 I1.8534 J2.7336
G03 X354.6833 Y326.2499 I0.2063 J1.4190
G03 X356.6832 Y327.7445 I-21.7532 J31.1932
G02 X364.0071 Y333.0612 I192.1452 J-256.9809
G03 X367.7492 Y335.8630 I-58.5287 J82.0715
G03 X369.4569 Y337.8206 I-4.1305 J5.3270
G03 X369.6421 Y338.7812 I-1.2725 J0.7435
G03 X369.1184 Y339.4781 I-1.0493 J-0.2433
G02 X368.5760 Y340.7274 I0.8450 J1.1092
G02 X369.3010 Y342.1288 I1.6354 J0.0422
G02 X371.1488 Y342.4995 I1.5941 J-3.1546
G02 X372.3114 Y341.4784 I-0.1494 J-1.3425
G03 X373.7507 Y339.3235 I6.5363 J2.8076
G02 X376.1832 Y336.1185 I-16.7617 J-15.2473
G02 X377.0718 Y333.7535 I-4.8027 J-3.1539
G02 X376.9560 Y332.3185 I-3.4182 J-0.4465
G02 X376.3174 Y331.5462 I-1.1324 J0.2861
G02 X375.3109 Y331.6140 I-0.4228 J1.2277
G02 X373.7196 Y333.0169 I2.1950 J4.0936
G03 X372.6646 Y333.9566 I-2.7428 J-2.0176
G03 X371.3930 Y333.9179 I-0.5979 J-1.2673
G02 X370.3123 Y333.6534 I-1.3393 J3.1325
G03 X369.8539 Y333.4114 I-0.0187 J-0.5196
G02 X368.7800 Y332.4265 I-3.2461 J2.4613
G02 X366.0344 Y330.9181 I-7.0317 J9.5463
G03 X365.6530 Y330.8488 I4.4316 J-25.4846
G03 X364.3502 Y329.8516 I2.0618 J-4.0436
G02 X363.0498 Y328.4408 I-36.3356 J32.1879
G02 X361.8871 Y327.5607 I-3.0008 J2.7561
G03 X360.7944 Y327.0260 I0.4077 J-2.2170
G03 X359.2121 Y325.6046 I19.6702 J-23.4891
G02 X357.0181 Y323.8716 I-16.8573 J19.0850
G03 X355.7979 Y321.1663 I2.0218 J-2.5398
G03 X356.5920 Y319.8873 I1.5796 J0.0946
G02 X357.7609 Y318.3573 I-4.5511 J-4.6885
G03 X358.8390 Y316.4043 I92.6579 J49.8799
G03 X360.4633 Y314.4524 I6.5240 J3.7773
G03 X361.4934 Y313.9934 I1.3832 J1.7185
G03 X362.4917 Y314.3273 I-0.0386 J1.7750
G03 X364.1644 Y315.5703 I-12.3932 J18.4241
G02 X366.4434 Y316.8432 I4.8424 J-5.9930
G02 X367.6172 Y316.8594 I0.6077 J-1.5021
G02 X368.2869 Y315.8359 I-0.5977 J-1.1220
G02 X367.8615 Y314.7565 I-1.3023 J-0.1103
G02 X365.5088 Y312.7501 I-13.5130 J13.4624
G02 X363.6103 Y311.3737 I-19.6537 J25.1133
G00 Z20.0000


(No. 32: Engraving 71)
G00 X403.6340 Y332.1336 Z20.0000
G00 Z0.5000
G01 Z0.0000 F1270
G01 Z-35.0000
G03 X391.2806 Y350.1739 I-195.6391 J-120.7180 F1000
G03 X375.6021 Y369.0932 I-200.4732 J-150.1770
G02 X373.1766 Y371.9496 I47.2934 J42.6164
G02 X374.5469 Y373.7205 I16.6320 J-11.4549
G02 X382.4590 Y365.2623 I-196.4873 J-191.7319
G02 X396.7386 Y347.0239 I-149.1878 J-131.5143
G02 X405.1729 Y334.3703 I-305.9452 J-213.0649
G01 X408.8652 Y328.5953
G02 X407.0593 Y326.7836 I-16.1364 J14.2790
G02 X403.6367 Y332.1292 I89.3397 J60.9689
G00 Z20.0000


(No. 33: Engraving 72)
G00 X411.6957 Y346.3509 Z20.0000
G00 Z0.5000
G01 Z0.0000 F1270
G01 Z-35.0000
G02 X419.4062 Y334.0009 I-190.6564 J-127.6151 F1000
G02 X420.1413 Y332.5754 I-11.0779 J-6.6144
G02 X418.2438 Y330.6602 I-10.7489 J8.7521
G02 X416.1717 Y334.0612 I56.7071 J36.8820
G03 X406.2074 Y349.4935 I-180.1272 J-105.3715
G03 X387.5230 Y373.1853 I-215.4598 J-150.7078
G02 X382.7127 Y378.7186 I168.9832 J151.7607
G02 X384.1785 Y380.6112 I12.5208 J-8.1834
G02 X391.1059 Y373.2641 I-155.7386 J-153.7806
G02 X411.6982 Y346.3471 I-179.5119 J-158.6674
G00 Z20.0000


(No. 34: Engraving 69)
G00 X433.0734 Y306.3612 Z20.0000
G00 Z0.5000
G01 Z0.0000 F1270
G01 Z-35.0000
G02 X436.1527 Y298.5699 I-133.6452 J-57.3230 F1000
G02 X441.0175 Y283.2640 I-307.7010 J-106.2246
G03 X437.9164 Y285.5988 I-13.1548 J-14.2453
G01 X437.7666 Y285.6731
G01 X437.6265 Y285.7332
G02 X436.6097 Y288.4129 I11.5644 J5.9206
G03 X433.1158 Y298.6551 I-117.9322 J-34.5139
G03 X425.1755 Y317.1048 I-232.6045 J-89.1727
G01 X420.7513 Y326.2774
G02 X422.7568 Y327.8897 I10.5101 J-11.0198
G01 X423.0615 Y327.4221
G01 X423.0532 Y327.4348
G02 X426.2766 Y321.3254 I-78.4152 J-45.2768
G02 X433.0769 Y306.3531 I-276.5807 J-134.6516
G00 Z20.0000


(No. 35: Engraving 70)
G00 X419.4406 Y300.8897 Z20.0000
G00 Z0.5000
G01 Z0.0000 F1270
G01 Z-35.0000
G03 X412.3057 Y316.7375 I-168.6983 J-66.4199 F1000
G01 X409.4359 Y322.2129
G01 X410.6618 Y323.4011
G01 X411.4022 Y324.1188
G02 X417.6100 Y311.4104 I-386.9042 J-196.8654
G02 X425.6646 Y291.8993 I-192.6899 J-90.9645
G02 X429.2434 Y280.0118 I-192.8557 J-64.5435
G02 X426.6275 Y282.6716 I20.0886 J22.3738
G02 X424.8875 Y285.9253 I8.9323 J6.8690
G02 X422.7533 Y292.0957 I272.5907 J97.7396
G03 X419.4433 Y300.8830 I-213.6426 J-75.4573
G00 Z20.0000


(No. 36: Engraving 67)
G00 X431.7954 Y267.1801 Z20.0000
G00 Z0.5000
G01 Z0.0000 F1270
G01 Z-35.0000
G02 X430.2353 Y265.5731 I-16.1159 J14.0847 F1000
G02 X428.3526 Y273.7882 I364.0558 J87.7556
G01 X428.2334 Y274.4210
G02 X429.9424 Y272.6682 I-24.1679 J-25.2729
G02 X431.9053 Y269.3487 I-6.9431 J-6.3457
G02 X432.1459 Y267.8942 I-5.6870 J-1.6881
G02 X431.8904 Y267.3036 I-1.0326 J0.0962
G01 X431.7677 Y267.1460
G00 Z20.0000


(No. 37: Engraving 68)
G00 X442.5182 Y266.7023 Z20.0000
G00 Z0.5000
G01 Z0.0000 F1270
G01 Z-35.0000
G01 X442.3843 Y266.5769 F1000
G01 X442.2579 Y266.4609
G01 X442.2476 Y266.4696
G03 X440.0650 Y276.0286 I-224.2494 J-46.1762
G02 X439.6773 Y277.7929 I61.1994 J14.3706
G02 X442.4935 Y275.0366 I-23.7030 J-27.0351
G02 X443.8249 Y272.4516 I-4.2348 J-3.8164
G02 X444.4108 Y269.3995 I-28.3019 J-7.0149
G02 X444.1395 Y268.3973 I-1.0973 J-0.2407
G02 X442.5110 Y266.6955 I-18.4590 J16.0335
G00 Z20.0000


(No. 38: Engraving 62)
G00 X379.8429 Y195.9488 Z20.0000
G00 Z0.5000
G01 Z0.0000 F1270
G01 Z-35.0000
G02 X373.5609 Y196.0749 I-0.3672 J138.3088 F1000
G02 X371.4241 Y196.3183 I0.2253 J11.4796
G02 X370.8768 Y196.6171 I0.0981 J0.8302
G02 X370.7896 Y197.1951 I0.8397 J0.4222
G02 X371.1661 Y197.6732 I0.5210 J-0.0230
G02 X372.8310 Y197.9572 I1.7953 J-5.5017
G02 X379.8429 Y198.1299 I6.8903 J-137.3657
G02 X407.0290 Y198.0977 I10.7140 J-2432.1903
G02 X411.5313 Y197.9017 I0.2022 J-47.1522
G02 X412.6066 Y197.6732 I-0.1933 J-3.5550
G02 X412.9884 Y197.0394 I-0.1855 J-0.5437
G02 X412.6066 Y196.4055 I-0.5496 J-0.1009
G02 X410.9418 Y196.1215 I-1.7953 J5.5018
G02 X403.9298 Y195.9488 I-6.8903 J137.3666
G02 X379.8429 I-12.0433 J3438.6094
G00 Z20.0000


(No. 39: Engraving 28)
G00 X348.5547 Y135.5095 Z20.0000
G00 Z0.5000
G01 Z0.0000 F1270
G01 Z-35.0000
G03 X349.9600 Y135.3992 I1.0939 J4.9303 F1000
G02 X351.4408 Y135.2009 I0.2567 J-3.7113
G02 X351.3959 Y133.9013 I-0.2158 J-0.6431
G02 X349.9300 Y133.7231 I-1.2514 J4.1758
G03 X348.4706 Y133.2358 I0.0508 J-2.5816
G03 X348.1480 Y132.7656 I0.8062 J-0.8988
G02 X346.7877 Y132.0782 I-1.4654 J1.2103
G02 X345.5339 Y132.3384 I-0.2716 J1.8423
G02 X345.2356 Y132.9815 I0.4177 J0.5845
G03 X344.6400 Y133.6000 I-0.7476 J-0.1239
G03 X342.4118 Y133.5646 I-1.0505 J-4.0194
G03 X341.9040 Y132.8241 I0.1976 J-0.6799
G02 X341.2004 Y132.1493 I-0.8289 J0.1600
G02 X339.5015 Y132.2894 I-0.6562 J2.4129
G02 X339.1269 Y132.9851 I0.3395 J0.6316
G03 X338.5685 Y133.5734 I-0.7187 J-0.1229
G03 X336.4643 Y133.7025 I-1.4225 J-5.9745
G03 X335.4674 Y133.3930 I0.0114 J-1.7972
G03 X335.2402 Y132.8241 I0.4225 J-0.4986
G02 X334.5366 Y132.1493 I-0.8289 J0.1600
G02 X332.8377 Y132.2894 I-0.6562 J2.4129
G02 X332.4633 Y132.9815 I0.3381 J0.6302
G03 X331.8677 Y133.6000 I-0.7476 J-0.1239
G03 X329.6395 Y133.5646 I-1.0505 J-4.0194
G03 X329.1317 Y132.8254 I0.1973 J-0.6796
G02 X328.4514 Y132.1511 I-0.8297 J0.1568
G02 X326.3270 Y132.6377 I-0.6293 J2.1336
G02 X326.0322 Y133.1092 I8.0359 J5.3519
G03 X324.7234 Y133.6934 I-1.4910 J-1.5822
G03 X322.8912 Y133.5257 I-0.6077 J-3.4543
G03 X322.4679 Y132.8241 I0.2594 J-0.6350
G02 X321.7643 Y132.1493 I-0.8289 J0.1600
G02 X320.0654 Y132.2894 I-0.6562 J2.4129
G02 X319.6910 Y132.9815 I0.3381 J0.6302
G03 X319.0955 Y133.6000 I-0.7476 J-0.1239
G03 X316.8673 Y133.5646 I-1.0505 J-4.0194
G03 X316.3591 Y132.8190 I0.1986 J-0.6813
G02 X315.7636 Y132.2006 I-0.7476 J0.1239
G02 X313.5354 Y132.2360 I-1.0505 J4.0196
G02 X313.0272 Y132.9815 I0.1986 J0.6812
G03 X312.4317 Y133.6000 I-0.7476 J-0.1239
G03 X310.2035 Y133.5646 I-1.0505 J-4.0194
G03 X309.6956 Y132.8241 I0.1976 J-0.6799
G02 X308.9920 Y132.1493 I-0.8289 J0.1600
G02 X307.2931 Y132.2894 I-0.6562 J2.4129
G02 X306.9187 Y132.9817 I0.3382 J0.6303
G03 X306.3186 Y133.6005 I-0.7478 J-0.1249
G03 X303.7389 Y133.4038 I-1.0180 J-3.6636
G03 X303.1674 Y132.7656 I0.4959 J-1.0191
G02 X301.8070 Y132.0782 I-1.4654 J1.2103
G02 X300.5532 Y132.3384 I-0.2716 J1.8424
G02 X300.2549 Y132.9815 I0.4177 J0.5845
G03 X299.6594 Y133.6000 I-0.7476 J-0.1239
G03 X297.4312 Y133.5646 I-1.0505 J-4.0194
G03 X296.9233 Y132.8241 I0.1976 J-0.6799
G02 X296.2197 Y132.1493 I-0.8289 J0.1600
G02 X294.5208 Y132.2894 I-0.6562 J2.4129
G02 X294.1462 Y132.9851 I0.3395 J0.6316
G03 X293.5879 Y133.5734 I-0.7187 J-0.1229
G03 X291.4836 Y133.7025 I-1.4225 J-5.9745
G03 X290.4868 Y133.3930 I0.0114 J-1.7972
G03 X290.2595 Y132.8241 I0.4225 J-0.4986
G02 X289.5559 Y132.1493 I-0.8289 J0.1600
G02 X287.8570 Y132.2894 I-0.6562 J2.4129
G02 X287.4829 Y132.9768 I0.3365 J0.6287
G03 X286.7725 Y133.6518 I-0.8290 J-0.1612
G03 X284.5285 Y133.1628 I-0.6657 J-2.3387
G03 X284.2404 Y132.7007 I3.8581 J-2.7261
G02 X282.4729 Y132.0769 I-1.5191 J1.4884
G02 X281.5121 Y132.4961 I-0.0001 J1.3104
G02 X281.3617 Y133.0585 I0.7536 J0.5029
G03 X280.6745 Y133.6312 I-0.8024 J-0.2642
G03 X278.5504 Y133.5646 I-0.9336 J-4.1274
G03 X278.0426 Y132.8254 I0.1973 J-0.6796
G02 X277.3623 Y132.1511 I-0.8297 J0.1568
G02 X275.2378 Y132.6377 I-0.6293 J2.1336
G02 X274.9431 Y133.1092 I8.0469 J5.3589
G03 X273.6343 Y133.6934 I-1.4910 J-1.5822
G03 X271.8020 Y133.5257 I-0.6077 J-3.4543
G03 X271.3787 Y132.8241 I0.2594 J-0.6350
G02 X270.6752 Y132.1493 I-0.8289 J0.1600
G02 X268.9763 Y132.2894 I-0.6562 J2.4129
G02 X268.6019 Y132.9815 I0.3381 J0.6302
G03 X268.0063 Y133.6000 I-0.7476 J-0.1239
G03 X265.7781 Y133.5646 I-1.0505 J-4.0194
G03 X265.2703 Y132.8254 I0.1973 J-0.6796
G02 X264.5900 Y132.1511 I-0.8297 J0.1568
G02 X262.4655 Y132.6377 I-0.6293 J2.1336
G02 X262.1708 Y133.1092 I8.0359 J5.3519
G03 X260.8620 Y133.6934 I-1.4910 J-1.5822
G03 X259.0297 Y133.5257 I-0.6077 J-3.4543
G03 X258.6065 Y132.8241 I0.2594 J-0.6350
G02 X257.9029 Y132.1493 I-0.8289 J0.1600
G02 X256.2040 Y132.2894 I-0.6562 J2.4129
G02 X255.8296 Y132.9817 I0.3382 J0.6303
G03 X255.2294 Y133.6005 I-0.7478 J-0.1249
G03 X252.6497 Y133.4038 I-1.0180 J-3.6636
G03 X252.0782 Y132.7656 I0.4959 J-1.0191
G02 X250.7179 Y132.0782 I-1.4654 J1.2103
G02 X249.4641 Y132.3384 I-0.2716 J1.8423
G02 X249.1658 Y132.9815 I0.4177 J0.5845
G03 X248.5702 Y133.6000 I-0.7476 J-0.1239
G03 X246.3420 Y133.5646 I-1.0505 J-4.0194
G03 X245.8342 Y132.8241 I0.1976 J-0.6799
G02 X245.1306 Y132.1493 I-0.8289 J0.1600
G02 X243.4317 Y132.2894 I-0.6562 J2.4129
G02 X243.0571 Y132.9851 I0.3395 J0.6316
G03 X242.4987 Y133.5734 I-0.7187 J-0.1229
G03 X240.3945 Y133.7025 I-1.4225 J-5.9746
G03 X239.3976 Y133.3930 I0.0114 J-1.7972
G03 X239.1704 Y132.8241 I0.4225 J-0.4986
G02 X238.4668 Y132.1493 I-0.8289 J0.1600
G02 X236.7679 Y132.2894 I-0.6562 J2.4129
G02 X236.3935 Y132.9815 I0.3381 J0.6302
G03 X235.7979 Y133.6000 I-0.7476 J-0.1239
G03 X233.5697 Y133.5646 I-1.0505 J-4.0193
G03 X233.0619 Y132.8254 I0.1973 J-0.6796
G02 X232.3816 Y132.1511 I-0.8297 J0.1568
G02 X230.2572 Y132.6377 I-0.6293 J2.1336
G02 X229.9624 Y133.1092 I8.0430 J5.3564
G03 X228.6536 Y133.6934 I-1.4910 J-1.5822
G03 X226.8214 Y133.5257 I-0.6077 J-3.4543
G03 X226.3981 Y132.8241 I0.2594 J-0.6350
G02 X225.6945 Y132.1493 I-0.8289 J0.1600
G02 X223.9956 Y132.2894 I-0.6562 J2.4129
G02 X223.6212 Y132.9815 I0.3381 J0.6302
G03 X223.0257 Y133.6000 I-0.7476 J-0.1239
G03 X220.7974 Y133.5646 I-1.0505 J-4.0193
G03 X220.2896 Y132.8241 I0.1976 J-0.6799
G02 X219.5860 Y132.1493 I-0.8289 J0.1600
G02 X217.8871 Y132.2894 I-0.6562 J2.4129
G02 X217.5127 Y132.9817 I0.3382 J0.6303
G03 X216.9126 Y133.6005 I-0.7478 J-0.1249
G03 X214.3329 Y133.4038 I-1.0180 J-3.6636
G03 X213.7614 Y132.7656 I0.4959 J-1.0191
G02 X212.4010 Y132.0782 I-1.4654 J1.2103
G02 X211.1472 Y132.3384 I-0.2716 J1.8423
G02 X210.8489 Y132.9815 I0.4177 J0.5845
G03 X210.2534 Y133.6000 I-0.7476 J-0.1239
G03 X208.0252 Y133.5646 I-1.0505 J-4.0193
G03 X207.5173 Y132.8241 I0.1976 J-0.6799
G02 X206.8137 Y132.1493 I-0.8289 J0.1600
G02 X205.1148 Y132.2894 I-0.6562 J2.4129
G02 X204.7402 Y132.9851 I0.3395 J0.6316
G03 X204.1819 Y133.5734 I-0.7187 J-0.1229
G03 X202.0776 Y133.7025 I-1.4225 J-5.9746
G03 X201.0808 Y133.3930 I0.0114 J-1.7972
G03 X200.8535 Y132.8241 I0.4225 J-0.4986
G02 X200.1499 Y132.1493 I-0.8289 J0.1600
G02 X198.4510 Y132.2894 I-0.6562 J2.4129
G02 X198.0767 Y132.9815 I0.3381 J0.6302
G03 X197.4811 Y133.6000 I-0.7476 J-0.1239
G03 X195.2529 Y133.5646 I-1.0505 J-4.0193
G03 X194.7451 Y132.8254 I0.1973 J-0.6796
G02 X194.0647 Y132.1511 I-0.8297 J0.1568
G02 X191.9403 Y132.6377 I-0.6293 J2.1336
G02 X191.6455 Y133.1092 I8.0432 J5.3565
G03 X190.3368 Y133.6934 I-1.4910 J-1.5822
G03 X188.5045 Y133.5257 I-0.6077 J-3.4543
G03 X188.0812 Y132.8241 I0.2594 J-0.6350
G02 X187.3776 Y132.1493 I-0.8289 J0.1600
G02 X185.6787 Y132.2894 I-0.6562 J2.4129
G02 X185.3044 Y132.9815 I0.3381 J0.6302
G03 X184.7088 Y133.6000 I-0.7476 J-0.1239
G03 X182.4806 Y133.5646 I-1.0505 J-4.0193
G03 X181.9725 Y132.8190 I0.1986 J-0.6813
G02 X181.3769 Y132.2006 I-0.7476 J0.1239
G02 X179.1487 Y132.2360 I-1.0505 J4.0196
G02 X178.6406 Y132.9815 I0.1986 J0.6812
G03 X178.0450 Y133.6000 I-0.7476 J-0.1239
G03 X175.8168 Y133.5646 I-1.0505 J-4.0193
G03 X175.3089 Y132.8241 I0.1976 J-0.6799
G02 X174.6054 Y132.1493 I-0.8289 J0.1600
G02 X172.9065 Y132.2894 I-0.6562 J2.4129
G02 X172.5321 Y132.9817 I0.3382 J0.6303
G03 X171.9319 Y133.6005 I-0.7478 J-0.1249
G03 X169.3522 Y133.4038 I-1.0180 J-3.6636
G03 X168.7807 Y132.7656 I0.4959 J-1.0191
G02 X167.4203 Y132.0782 I-1.4654 J1.2103
G02 X166.1666 Y132.3384 I-0.2716 J1.8423
G02 X165.8683 Y132.9815 I0.4177 J0.5845
G03 X165.2727 Y133.6000 I-0.7476 J-0.1239
G03 X163.0445 Y133.5646 I-1.0505 J-4.0193
G03 X162.5367 Y132.8254 I0.1973 J-0.6796
G02 X161.8564 Y132.1511 I-0.8297 J0.1568
G02 X159.7319 Y132.6377 I-0.6293 J2.1336
G02 X159.4455 Y133.0998 I5.8082 J3.9197
G03 X157.8378 Y133.7332 I-1.5463 J-1.5678
G03 X156.6736 Y133.4186 I-0.1388 J-1.7972
G03 X156.4165 Y132.7510 I0.5688 J-0.6024
G02 X155.6251 Y132.1246 I-0.8788 J0.2971
G02 X154.0257 Y132.2894 I-0.5648 J2.3617
G02 X153.6513 Y132.9817 I0.3382 J0.6303
G03 X153.0511 Y133.6005 I-0.7478 J-0.1249
G03 X150.4715 Y133.4038 I-1.0180 J-3.6636
G03 X149.8999 Y132.7656 I0.4959 J-1.0191
G02 X148.5396 Y132.0782 I-1.4654 J1.2103
G02 X147.2858 Y132.3384 I-0.2716 J1.8423
G02 X146.9875 Y132.9815 I0.4177 J0.5845
G03 X146.3919 Y133.6000 I-0.7476 J-0.1239
G03 X144.1637 Y133.5646 I-1.0505 J-4.0193
G03 X143.6559 Y132.8241 I0.1976 J-0.6799
G02 X142.9523 Y132.1493 I-0.8289 J0.1600
G02 X141.2534 Y132.2894 I-0.6562 J2.4129
G02 X140.8788 Y132.9851 I0.3395 J0.6316
G03 X140.3204 Y133.5734 I-0.7187 J-0.1229
G03 X138.2162 Y133.7025 I-1.4225 J-5.9746
G03 X137.2193 Y133.3930 I0.0114 J-1.7972
G03 X136.9921 Y132.8241 I0.4225 J-0.4986
G02 X136.2885 Y132.1493 I-0.8289 J0.1600
G02 X134.5896 Y132.2894 I-0.6562 J2.4129
G02 X134.2152 Y132.9815 I0.3381 J0.6302
G03 X133.6196 Y133.6000 I-0.7476 J-0.1239
G03 X131.3914 Y133.5646 I-1.0505 J-4.0193
G03 X130.8836 Y132.8254 I0.1973 J-0.6796
G02 X130.2033 Y132.1511 I-0.8297 J0.1568
G02 X128.0789 Y132.6377 I-0.6293 J2.1336
G02 X127.7841 Y133.1092 I8.0432 J5.3565
G03 X126.4753 Y133.6934 I-1.4910 J-1.5822
G03 X124.6431 Y133.5257 I-0.6077 J-3.4543
G03 X124.2198 Y132.8241 I0.2594 J-0.6350
G02 X123.5162 Y132.1493 I-0.8289 J0.1600
G02 X121.8173 Y132.2894 I-0.6562 J2.4129
G02 X121.4429 Y132.9815 I0.3381 J0.6302
G03 X120.8474 Y133.6000 I-0.7476 J-0.1239
G03 X118.6192 Y133.5646 I-1.0505 J-4.0193
G03 X118.1113 Y132.8254 I0.1973 J-0.6796
G02 X117.4310 Y132.1511 I-0.8297 J0.1568
G02 X115.3066 Y132.6377 I-0.6293 J2.1336
G02 X115.0118 Y133.1092 I8.0432 J5.3565
G03 X113.7030 Y133.6934 I-1.4910 J-1.5822
G03 X111.8708 Y133.5257 I-0.6077 J-3.4543
G03 X111.4475 Y132.8241 I0.2594 J-0.6350
G02 X110.7439 Y132.1493 I-0.8289 J0.1600
G02 X109.0450 Y132.2894 I-0.6562 J2.4129
G02 X108.6706 Y132.9817 I0.3382 J0.6303
G03 X108.0705 Y133.6005 I-0.7478 J-0.1249
G03 X105.4908 Y133.4038 I-1.0180 J-3.6636
G03 X104.9193 Y132.7656 I0.4959 J-1.0191
G02 X103.5589 Y132.0782 I-1.4654 J1.2103
G02 X102.3051 Y132.3384 I-0.2716 J1.8423
G02 X102.0069 Y132.9815 I0.4177 J0.5845
G03 X101.4113 Y133.6000 I-0.7476 J-0.1239
G03 X99.1831 Y133.5646 I-1.0505 J-4.0193
G03 X98.6752 Y132.8241 I0.1976 J-0.6799
G02 X97.9716 Y132.1493 I-0.8289 J0.1600
G02 X96.2727 Y132.2894 I-0.6562 J2.4129
G02 X95.8984 Y132.9815 I0.3381 J0.6302
G03 X95.3028 Y133.6000 I-0.7476 J-0.1239
G03 X93.9200 Y133.7416 I-1.1980 J-4.8766
G02 X92.8372 Y134.0331 I-0.0677 J1.9054
G02 X93.0746 Y135.2305 I0.4134 J0.5403
G02 X94.4658 Y135.4002 I1.1550 J-3.6823
G03 X95.4176 Y135.5284 I0.2073 J2.0574
G03 X95.8459 Y136.2971 I-0.4699 J0.7654
G03 X95.9157 Y138.7420 I-37.1476 J2.2845
G02 X96.1545 Y140.0456 I2.9287 J0.1372
G02 X96.8770 Y140.3941 I0.6525 J-0.4296
G02 X97.7458 Y140.2015 I0.1948 J-1.1770
G02 X98.0627 Y139.3766 I-1.0389 J-0.8725
G02 X98.1238 Y137.8981 I-13.9660 J-1.3175
G01 Y135.3992
G01 X102.5663
G02 X102.5910 Y138.9754 I48.0430 J1.4566
G02 X102.8183 Y140.0456 I2.3304 J0.0643
G02 X103.5408 Y140.3941 I0.6525 J-0.4296
G02 X104.4096 Y140.2015 I0.1948 J-1.1770
G02 X104.7265 Y139.3766 I-1.0389 J-0.8725
G02 X104.7950 Y136.9409 I-27.5921 J-1.9946
G03 X104.9146 Y135.9483 I3.2591 J-0.1108
G03 X105.6002 Y135.4413 I0.7037 J0.2344
G03 X107.7786 Y135.4515 I1.0343 J11.7026
G03 X108.6764 Y136.2979 I-0.1102 J1.0162
G03 X109.0537 Y138.3121 I-19.9335 J4.7764
G02 X109.7119 Y140.0577 I4.2620 J-0.6103
G02 X110.2257 Y140.4538 I0.7358 J-0.4231
G01 X110.3461 Y140.4489
G02 X110.7383 Y139.9873 I-0.2269 J-0.5902
G02 X110.9001 Y138.3864 I-5.0423 J-1.3181
G03 X111.1282 Y136.6269 I5.5855 J-0.1702
G03 X112.6339 Y135.4494 I1.5857 J0.4762
G03 X114.6830 Y135.4720 I0.9390 J7.7703
G03 X115.2528 Y136.0980 I-0.1460 J0.7052
G03 X115.3399 Y138.2044 I-12.2689 J1.5628
G02 X115.4948 Y139.8301 I5.9293 J0.2554
G02 X116.3131 Y140.3941 I0.7471 J-0.2084
G02 X117.1829 Y140.2000 I0.1953 J-1.1708
G02 X117.4992 Y139.3651 I-1.0621 J-0.8798
G02 X117.5599 Y137.8646 I-14.4594 J-1.3361
G01 Y135.3321
G03 X120.6370 Y135.6122 I-1.5401 J33.9665
G03 X121.3706 Y135.8843 I-0.1215 J1.4525
G03 X121.7578 Y136.6983 I-0.9973 J0.9735
G03 X121.9663 Y138.8007 I-42.5230 J5.2784
G02 X122.3036 Y140.0309 I2.9085 J-0.1362
G02 X123.1450 Y140.3971 I0.7367 J-0.5431
G02 X123.9171 Y140.1234 I0.1241 J-0.8758
G02 X124.1829 Y139.1762 I-1.6676 J-0.9789
G02 X124.2402 Y136.6837 I-68.0059 J-2.8119
G03 X124.4042 Y135.8203 I2.0122 J-0.0650
G03 X125.2228 Y135.4205 I0.7549 J0.5075
G03 X127.4397 Y135.4691 I0.8706 J10.8575
G03 X128.0251 Y136.0913 I-0.1274 J0.7064
G03 X128.1122 Y138.2044 I-12.2238 J1.5622
G02 X128.2671 Y139.8301 I5.9293 J0.2554
G02 X129.0854 Y140.3941 I0.7471 J-0.2084
G02 X129.9542 Y140.2015 I0.1948 J-1.1770
G02 X130.2711 Y139.3766 I-1.0389 J-0.8725
G02 X130.3322 Y137.8981 I-13.9660 J-1.3175
G01 Y135.3992
G01 X134.7747
G02 X134.7994 Y138.9754 I48.0430 J1.4566
G02 X135.0267 Y140.0456 I2.3304 J0.0643
G02 X135.7492 Y140.3941 I0.6525 J-0.4296
G02 X136.6180 Y140.2015 I0.1948 J-1.1770
G02 X136.9349 Y139.3766 I-1.0389 J-0.8725
G02 X137.0031 Y136.9381 I-27.4913 J-1.9895
G03 X137.1233 Y135.9447 I3.2187 J-0.1146
G03 X137.8203 Y135.4401 I0.7080 J0.2444
G03 X140.0589 I1.1194 J14.5121
G03 X140.7974 Y136.0913 I-0.0024 J0.7471
G03 X140.8845 Y138.2044 I-12.2238 J1.5622
G02 X141.0394 Y139.8301 I5.9293 J0.2554
G02 X141.8577 Y140.3941 I0.7471 J-0.2084
G02 X142.7265 Y140.2015 I0.1948 J-1.1770
G02 X143.0434 Y139.3766 I-1.0389 J-0.8725
G02 X143.1045 Y137.8981 I-13.9660 J-1.3175
G01 Y135.3992
G01 X147.5470
G02 X147.5717 Y138.9754 I48.0430 J1.4566
G02 X147.7990 Y140.0456 I2.3304 J0.0643
G02 X148.5215 Y140.3941 I0.6525 J-0.4296
G02 X149.3903 Y140.2015 I0.1948 J-1.1770
G02 X149.7072 Y139.3766 I-1.0389 J-0.8725
G02 X149.7759 Y136.9435 I-27.6829 J-1.9992
G03 X149.8949 Y135.9518 I3.2966 J-0.1073
G03 X150.5703 Y135.4424 I0.6999 J0.2256
G03 X152.6648 Y135.5103 I0.8210 J7.0194
G03 X153.9440 Y136.8033 I-0.4209 J1.6956
G03 X154.2064 Y139.2564 I-8.7261 J2.1740
G02 X154.6464 Y140.2665 I1.2917 J0.0382
G02 X155.7280 Y139.9058 I0.4032 J-0.5930
G02 X155.8843 Y139.1476 I-1.6290 J-0.7310
G03 X156.2151 Y136.6356 I7.4564 J-0.2958
G03 X157.9215 Y135.4067 I1.6804 J0.5342
G03 X159.1823 Y135.4884 I0.3828 J3.8609
G03 X159.6777 Y136.1365 I-0.2570 J0.7099
G03 X159.7653 Y138.2044 I-12.4363 J1.5624
G02 X159.9201 Y139.8301 I5.9293 J0.2554
G02 X160.7385 Y140.3941 I0.7471 J-0.2084
G02 X161.6072 Y140.2015 I0.1948 J-1.1770
G02 X161.9241 Y139.3766 I-1.0389 J-0.8725
G02 X161.9852 Y137.8981 I-13.9660 J-1.3175
G01 Y135.3992
G01 X166.4278
G02 X166.4524 Y138.9754 I48.0430 J1.4566
G02 X166.6797 Y140.0456 I2.3304 J0.0643
G02 X167.4023 Y140.3941 I0.6525 J-0.4296
G02 X168.2710 Y140.2015 I0.1948 J-1.1770
G02 X168.5879 Y139.3766 I-1.0389 J-0.8725
G02 X168.6564 Y136.9409 I-27.5924 J-1.9946
G03 X168.7760 Y135.9483 I3.2591 J-0.1108
G03 X169.4616 Y135.4413 I0.7037 J0.2344
G03 X171.6400 Y135.4515 I1.0343 J11.7026
G03 X172.5378 Y136.2979 I-0.1102 J1.0162
G03 X172.9151 Y138.3121 I-19.9335 J4.7764
G02 X173.5733 Y140.0577 I4.2620 J-0.6103
G02 X174.0872 Y140.4538 I0.7358 J-0.4231
G01 X174.2076 Y140.4489
G02 X174.5997 Y139.9873 I-0.2269 J-0.5902
G02 X174.7615 Y138.3864 I-5.0423 J-1.3181
G03 X174.9897 Y136.6269 I5.5854 J-0.1702
G03 X176.4953 Y135.4494 I1.5857 J0.4762
G03 X178.5444 Y135.4720 I0.9390 J7.7703
G03 X179.1142 Y136.0980 I-0.1460 J0.7052
G03 X179.2014 Y138.2044 I-12.2689 J1.5628
G02 X179.3562 Y139.8301 I5.9293 J0.2554
G02 X180.1746 Y140.3941 I0.7471 J-0.2084
G02 X181.0443 Y140.2000 I0.1953 J-1.1708
G02 X181.3606 Y139.3651 I-1.0621 J-0.8798
G02 X181.4213 Y137.8646 I-14.4594 J-1.3361
G01 Y135.3321
G03 X184.4984 Y135.6122 I-1.5401 J33.9665
G03 X185.2320 Y135.8843 I-0.1215 J1.4525
G03 X185.6192 Y136.6983 I-0.9973 J0.9735
G03 X185.8277 Y138.8007 I-42.5230 J5.2784
G02 X186.1651 Y140.0309 I2.9085 J-0.1362
G02 X187.0064 Y140.3971 I0.7367 J-0.5431
G02 X187.7785 Y140.1234 I0.1241 J-0.8758
G02 X188.0443 Y139.1762 I-1.6676 J-0.9789
G02 X188.1017 Y136.6837 I-68.0071 J-2.8119
G03 X188.2657 Y135.8203 I2.0122 J-0.0650
G03 X189.0842 Y135.4205 I0.7549 J0.5075
G03 X191.3011 Y135.4691 I0.8706 J10.8575
G03 X191.8865 Y136.0913 I-0.1274 J0.7064
G03 X191.9736 Y138.2044 I-12.2238 J1.5622
G02 X192.1285 Y139.8301 I5.9293 J0.2554
G02 X192.9468 Y140.3941 I0.7471 J-0.2084
G02 X193.8156 Y140.2015 I0.1948 J-1.1770
G02 X194.1325 Y139.3766 I-1.0389 J-0.8725
G02 X194.1936 Y137.8981 I-13.9660 J-1.3175
G01 Y135.3992
G01 X198.6361
G02 X198.6608 Y138.9754 I48.0430 J1.4566
G02 X198.8881 Y140.0456 I2.3304 J0.0643
G02 X199.6106 Y140.3941 I0.6525 J-0.4296
G02 X200.4794 Y140.2015 I0.1948 J-1.1770
G02 X200.7963 Y139.3766 I-1.0389 J-0.8725
G02 X200.8646 Y136.9381 I-27.4916 J-1.9895
G03 X200.9848 Y135.9447 I3.2187 J-0.1146
G03 X201.6817 Y135.4401 I0.7080 J0.2444
G03 X203.9203 I1.1194 J14.5121
G03 X204.6588 Y136.0913 I-0.0024 J0.7471
G03 X204.7459 Y138.2044 I-12.2238 J1.5622
G02 X204.9008 Y139.8301 I5.9293 J0.2554
G02 X205.7191 Y140.3941 I0.7471 J-0.2084
G02 X206.5879 Y140.2015 I0.1948 J-1.1770
G02 X206.9048 Y139.3766 I-1.0389 J-0.8725
G02 X206.9659 Y137.8981 I-13.9660 J-1.3175
G01 Y135.3992
G01 X211.4084
G02 X211.4331 Y138.9754 I48.0430 J1.4566
G02 X211.6604 Y140.0456 I2.3304 J0.0643
G02 X212.3829 Y140.3941 I0.6525 J-0.4296
G02 X213.2517 Y140.2015 I0.1948 J-1.1770
G02 X213.5686 Y139.3766 I-1.0389 J-0.8725
G02 X213.6373 Y136.9435 I-27.6829 J-1.9992
G03 X213.7564 Y135.9518 I3.2966 J-0.1073
G03 X214.4317 Y135.4424 I0.6999 J0.2256
G03 X216.5263 Y135.5103 I0.8210 J7.0194
G03 X217.8054 Y136.8033 I-0.4209 J1.6956
G03 X218.0678 Y139.2564 I-8.7261 J2.1740
G02 X218.5078 Y140.2665 I1.2917 J0.0382
G02 X219.5762 Y139.8622 I0.4026 J-0.5500
G02 X219.7534 Y138.2280 I-4.8535 J-1.3529
G03 X220.1080 Y136.3537 I4.4845 J-0.1222
G03 X221.5316 Y135.4678 I1.4106 J0.6799
G03 X223.2946 Y135.7114 I0.2798 J4.4763
G03 X223.8972 Y136.5742 I-0.4961 J0.9884
G03 X224.1446 Y138.8007 I-25.1760 J3.9237
G02 X224.4819 Y140.0309 I2.9085 J-0.1362
G02 X225.3233 Y140.3971 I0.7367 J-0.5431
G02 X226.0953 Y140.1234 I0.1241 J-0.8758
G02 X226.3612 Y139.1762 I-1.6676 J-0.9789
G02 X226.4185 Y136.6837 I-68.0071 J-2.8119
G03 X226.5825 Y135.8203 I2.0122 J-0.0650
G03 X227.4010 Y135.4205 I0.7549 J0.5075
G03 X229.6180 Y135.4691 I0.8706 J10.8575
G03 X230.2034 Y136.0913 I-0.1274 J0.7064
G03 X230.2905 Y138.2044 I-12.2238 J1.5622
G02 X230.4454 Y139.8301 I5.9293 J0.2554
G02 X231.2637 Y140.3941 I0.7471 J-0.2084
G02 X232.1325 Y140.2015 I0.1948 J-1.1770
G02 X232.4494 Y139.3766 I-1.0389 J-0.8725
G02 X232.5105 Y137.8981 I-13.9660 J-1.3175
G01 Y135.3992
G01 X236.9530
G02 X236.9777 Y138.9754 I48.0430 J1.4566
G02 X237.2050 Y140.0456 I2.3304 J0.0643
G02 X237.9275 Y140.3941 I0.6525 J-0.4296
G02 X238.7963 Y140.2015 I0.1948 J-1.1770
G02 X239.1132 Y139.3766 I-1.0389 J-0.8725
G02 X239.1814 Y136.9381 I-27.4916 J-1.9895
G03 X239.3016 Y135.9447 I3.2187 J-0.1146
G03 X239.9986 Y135.4401 I0.7080 J0.2444
G03 X242.2372 I1.1194 J14.5121
G03 X242.9757 Y136.0913 I-0.0024 J0.7471
G03 X243.0628 Y138.2044 I-12.2238 J1.5622
G02 X243.2177 Y139.8301 I5.9293 J0.2554
G02 X244.0360 Y140.3941 I0.7471 J-0.2084
G02 X244.9047 Y140.2015 I0.1948 J-1.1770
G02 X245.2217 Y139.3766 I-1.0389 J-0.8725
G02 X245.2827 Y137.8981 I-13.9660 J-1.3175
G01 Y135.3992
G01 X249.7253
G02 X249.7500 Y138.9754 I48.0430 J1.4566
G02 X249.9773 Y140.0456 I2.3304 J0.0643
G02 X250.6998 Y140.3941 I0.6525 J-0.4296
G02 X251.5685 Y140.2015 I0.1948 J-1.1770
G02 X251.8855 Y139.3766 I-1.0389 J-0.8725
G02 X251.9542 Y136.9435 I-27.6829 J-1.9992
G03 X252.0732 Y135.9518 I3.2966 J-0.1073
G03 X252.7486 Y135.4424 I0.6999 J0.2256
G03 X254.8431 Y135.5103 I0.8210 J7.0194
G03 X256.1223 Y136.8033 I-0.4209 J1.6956
G03 X256.3847 Y139.2564 I-8.7261 J2.1740
G02 X256.8246 Y140.2665 I1.2916 J0.0382
G02 X257.8846 Y139.9027 I0.4028 J-0.5524
G02 X258.0550 Y138.7765 I-2.8981 J-1.0145
G03 X258.2872 Y136.6269 I6.7722 J-0.3560
G03 X259.7929 Y135.4494 I1.5857 J0.4762
G03 X261.8419 Y135.4720 I0.9390 J7.7703
G03 X262.4117 Y136.0980 I-0.1460 J0.7052
G03 X262.4989 Y138.2044 I-12.2693 J1.5628
G02 X262.6537 Y139.8301 I5.9292 J0.2554
G02 X263.4721 Y140.3941 I0.7471 J-0.2084
G02 X264.3418 Y140.2000 I0.1953 J-1.1708
G02 X264.6582 Y139.3651 I-1.0621 J-0.8798
G02 X264.7188 Y137.8646 I-14.4599 J-1.3361
G01 Y135.3321
G03 X267.7959 Y135.6122 I-1.5400 J33.9655
G03 X268.5295 Y135.8843 I-0.1215 J1.4525
G03 X268.9167 Y136.6983 I-0.9973 J0.9735
G03 X269.1252 Y138.8007 I-42.5189 J5.2780
G02 X269.4626 Y140.0309 I2.9085 J-0.1362
G02 X270.3039 Y140.3971 I0.7367 J-0.5431
G02 X271.0760 Y140.1234 I0.1241 J-0.8758
G02 X271.3418 Y139.1762 I-1.6676 J-0.9789
G02 X271.3992 Y136.6837 I-68.0379 J-2.8129
G03 X271.5632 Y135.8203 I2.0121 J-0.0650
G03 X272.3818 Y135.4205 I0.7549 J0.5076
G03 X274.5828 Y135.4692 I0.8610 J10.8498
G03 X275.2086 Y136.1844 I-0.1173 J0.7341
G03 X275.2760 Y138.1325 I-16.1906 J1.5348
G02 X275.4781 Y139.4252 I3.2961 J0.1468
G02 X276.2471 Y139.8388 I0.7001 J-0.3800
G02 X277.1040 Y139.6581 I0.1883 J-1.2287
G02 X277.4477 Y138.7484 I-0.9648 J-0.8844
G02 X277.4911 Y135.3992 I-34.7991 J-2.1257
G01 X281.9337
G02 X281.9583 Y138.9754 I48.0449 J1.4566
G02 X282.1856 Y140.0456 I2.3304 J0.0643
G02 X282.9082 Y140.3941 I0.6525 J-0.4296
G02 X283.7769 Y140.2015 I0.1948 J-1.1770
G02 X284.0938 Y139.3766 I-1.0389 J-0.8725
G02 X284.1621 Y136.9381 I-27.4931 J-1.9896
G03 X284.2823 Y135.9447 I3.2185 J-0.1145
G03 X284.9793 Y135.4401 I0.7081 J0.2444
G03 X287.2178 I1.1194 J14.5116
G03 X287.9564 Y136.0913 I-0.0024 J0.7471
G03 X288.0435 Y138.2044 I-12.2235 J1.5622
G02 X288.1983 Y139.8301 I5.9294 J0.2554
G02 X289.0167 Y140.3941 I0.7471 J-0.2084
G02 X289.8854 Y140.2015 I0.1948 J-1.1770
G02 X290.2023 Y139.3766 I-1.0389 J-0.8725
G02 X290.2706 Y136.9381 I-27.4931 J-1.9896
G03 X290.3908 Y135.9447 I3.2185 J-0.1145
G03 X291.0878 Y135.4401 I0.7081 J0.2444
G03 X293.3263 I1.1194 J14.5116
G03 X294.0648 Y136.0913 I-0.0024 J0.7471
G03 X294.1519 Y138.2044 I-12.2243 J1.5622
G02 X294.3068 Y139.8301 I5.9292 J0.2554
G02 X295.1251 Y140.3941 I0.7471 J-0.2084
G02 X295.9939 Y140.2015 I0.1948 J-1.1770
G02 X296.3108 Y139.3766 I-1.0389 J-0.8725
G02 X296.3719 Y137.8981 I-13.9664 J-1.3175
G01 Y135.3992
G01 X300.8144
G02 X300.8391 Y138.9754 I48.0402 J1.4566
G02 X301.0664 Y140.0456 I2.3304 J0.0643
G02 X301.7889 Y140.3941 I0.6525 J-0.4296
G02 X302.6577 Y140.2015 I0.1948 J-1.1770
G02 X302.9746 Y139.3766 I-1.0389 J-0.8725
G02 X303.0431 Y136.9409 I-27.5949 J-1.9947
G03 X303.1627 Y135.9483 I3.2590 J-0.1108
G03 X303.8483 Y135.4413 I0.7037 J0.2344
G03 X306.0267 Y135.4515 I1.0343 J11.7025
G03 X306.9245 Y136.2979 I-0.1102 J1.0162
G03 X307.3018 Y138.3121 I-19.9327 J4.7763
G02 X307.9600 Y140.0577 I4.2620 J-0.6103
G02 X308.4738 Y140.4538 I0.7358 J-0.4231
G01 X308.5942 Y140.4489
G02 X308.9864 Y139.9873 I-0.2269 J-0.5902
G02 X309.1482 Y138.3864 I-5.0423 J-1.3181
G03 X309.3763 Y136.6269 I5.5854 J-0.1702
G03 X310.8820 Y135.4494 I1.5857 J0.4762
G03 X312.9310 Y135.4720 I0.9390 J7.7703
G03 X313.5008 Y136.0980 I-0.1460 J0.7052
G03 X313.5880 Y138.2044 I-12.2685 J1.5628
G02 X313.7429 Y139.8301 I5.9294 J0.2554
G02 X314.5612 Y140.3941 I0.7471 J-0.2084
G02 X315.4300 Y140.2015 I0.1948 J-1.1770
G02 X315.7469 Y139.3766 I-1.0389 J-0.8725
G02 X315.8156 Y136.9430 I-27.6657 J-1.9984
G03 X315.9347 Y135.9512 I3.2900 J-0.1079
G03 X316.6119 Y135.4422 I0.7006 J0.2271
G03 X318.9549 Y135.5471 I0.8729 J6.7207
G03 X320.0846 Y136.8561 I-0.4775 J1.5540
G03 X320.2613 Y139.1525 I-11.0156 J2.0030
G02 X320.4891 Y140.1707 I2.5199 J-0.0292
G02 X320.8005 Y140.4489 I0.4381 J-0.1770
G02 X321.3052 Y140.2173 I0.0517 J-0.5530
G02 X322.0069 Y138.6925 I-3.1628 J-2.3793
G02 X322.3157 Y136.9645 I-48.3720 J-9.5361
G03 X322.5958 Y135.9797 I3.4463 J0.4479
G03 X323.3680 Y135.4515 I0.8534 J0.4190
G03 X325.5464 Y135.4413 I1.1465 J12.2463
G03 X326.2732 Y136.0951 I-0.0118 J0.7440
G03 X326.3603 Y138.2044 I-12.2494 J1.5625
G02 X326.5152 Y139.8301 I5.9292 J0.2554
G02 X327.3335 Y140.3941 I0.7471 J-0.2084
G02 X328.2023 Y140.2015 I0.1948 J-1.1770
G02 X328.5192 Y139.3766 I-1.0389 J-0.8725
G02 X328.5803 Y137.8981 I-13.9664 J-1.3175
G01 Y135.3992
G01 X333.0228
G02 X333.0475 Y138.9754 I48.0402 J1.4566
G02 X333.2748 Y140.0456 I2.3304 J0.0643
G02 X333.9973 Y140.3941 I0.6525 J-0.4296
G02 X334.8661 Y140.2015 I0.1948 J-1.1770
G02 X335.1830 Y139.3766 I-1.0389 J-0.8725
G02 X335.2512 Y136.9381 I-27.4957 J-1.9896
G03 X335.3714 Y135.9447 I3.2185 J-0.1145
G03 X336.0684 Y135.4401 I0.7081 J0.2444
G03 X338.3070 I1.1194 J14.5116
G03 X339.0455 Y136.0913 I-0.0024 J0.7471
G03 X339.1326 Y138.2044 I-12.2237 J1.5622
G02 X339.2875 Y139.8301 I5.9294 J0.2554
G02 X340.1058 Y140.3941 I0.7471 J-0.2084
G02 X340.9745 Y140.2015 I0.1948 J-1.1770
G02 X341.2915 Y139.3766 I-1.0389 J-0.8725
G02 X341.3526 Y137.8981 I-13.9654 J-1.3175
G01 Y135.3992
G01 X345.7951
G02 X345.8198 Y138.9754 I48.0449 J1.4566
G02 X346.0471 Y140.0456 I2.3304 J0.0643
G02 X346.7696 Y140.3941 I0.6525 J-0.4296
G02 X347.6384 Y140.2015 I0.1948 J-1.1770
G02 X347.9553 Y139.3766 I-1.0389 J-0.8725
G02 X348.0235 Y136.9381 I-27.4931 J-1.9896
G03 X348.1437 Y135.9447 I3.2185 J-0.1145
G03 X348.5547 Y135.5095 I0.6254 J0.1790
G00 Z20.0000


(No. 40: Engraving 29)
G00 X310.2548 Y165.3863 Z20.0000
G00 Z0.5000
G01 Z0.0000 F1270
G01 Z-35.0000
G01 X351.9036 F1000
G01 Y143.1736
G01 X279.1571
G01 Y213.1435
G01 X310.2548
G01 Y165.3863
G00 Z20.0000


(No. 41: Engraving 30)
G00 X268.2885 Y162.4920 Z20.0000
G00 Z0.5000
G01 Z0.0000 F1270
G01 Z-35.0000
G02 X265.0201 Y155.3271 I-15.4142 J2.7035 F1000
G02 X258.8227 Y149.6827 I-21.4859 J17.3663
G02 X249.8807 Y144.7941 I-26.6415 J38.1096
G02 X247.7817 Y144.0968 I-6.7674 J16.8621
G01 X247.0283 Y143.9845
G02 X238.9250 Y143.6094 I-10.4322 J137.6477
G02 X203.3992 Y143.4034 I-23.0474 J911.2297
G01 X201.2975 Y143.4605
G01 X199.6670 Y143.5323
G01 X198.5730 Y143.6194
G02 X197.8214 Y143.8531 I0.2556 J2.1476
G03 X194.8627 Y144.2838 I-2.7255 J-8.3446
G02 X193.0365 Y144.6348 I-0.0141 J4.8525
G02 X192.7033 Y144.9301 I0.9251 J1.3797
G03 X190.7165 Y145.6660 I-2.9193 J-4.8315
G02 X186.0630 Y147.1631 I10.6194 J40.9895
G02 X180.3107 Y149.4069 I82.2726 J219.4110
G02 X180.3596 Y166.6808 I752.3066 J6.5082
G02 X180.5579 Y171.7196 I64.6679 J-0.0217
G01 X180.5832 Y171.9012
G01 X180.6092 Y172.0124
G01 X180.6357 Y172.0501
G02 X186.0854 Y169.8264 I-42.9969 J-113.1598
G03 X196.0676 Y165.6460 I141.4385 J323.7307
G03 X203.4352 Y163.0078 I34.2410 J84.0175
G03 X223.2674 Y160.0382 I24.7801 J97.7840
G03 X232.3901 Y160.4528 I2.4920 J45.7446
G03 X236.3330 Y161.3862 I-2.5677 J19.6399
G03 X237.9060 Y162.2681 I-1.4715 J4.4689
G03 X237.9432 Y164.8583 I-1.0491 J1.3104
G03 X236.0280 Y165.9067 I-3.8405 J-4.7419
G03 X231.0413 Y167.0672 I-8.8267 J-26.6339
G03 X223.6212 Y167.9208 I-18.7398 J-130.2260
G02 X208.3117 Y169.7039 I39.3533 J404.4951
G02 X200.2121 Y171.1127 I12.5290 J96.0214
G02 X187.8039 Y176.1450 I8.3270 J38.3462
G02 X182.2356 Y182.1260 I8.2773 J13.2885
G02 X181.0148 Y184.7929 I11.3982 J6.8309
G02 X180.6033 Y188.3036 I13.0444 J3.3084
G02 X180.6684 Y193.2576 I61.7589 J1.6655
G02 X181.7686 Y197.4766 I10.8171 J-0.5678
G02 X185.9547 Y203.4170 I17.2440 J-7.7063
G02 X194.0908 Y209.0437 I21.5277 J-22.4330
G02 X203.0577 Y212.2520 I19.4037 J-40.0974
G02 X217.1671 Y214.3264 I16.7307 J-64.7768
G02 X235.4276 Y214.2892 I8.6990 J-211.9744
G02 X252.2302 Y211.7303 I-4.1698 J-83.8256
G03 X261.2522 Y209.5372 I52.2558 J195.3172
G02 X264.8461 Y208.4890 I-4.8052 J-23.1593
G02 X268.3284 Y207.1474 I-42.2702 J-114.9103
G02 X268.5217 Y190.7276 I-729.2521 J-16.7940
G02 X268.4419 Y186.7899 I-65.5210 J-0.6428
G01 X268.4255 Y186.6242
G01 X268.4076 Y186.5227
G01 X268.3883 Y186.4883
G02 X262.2265 Y188.7449 I43.4116 J128.0804
G03 X256.7690 Y190.6477 I-26.8616 J-68.2632
G02 X249.9989 Y192.8500 I37.3069 J126.1940
G03 X230.1292 Y196.5681 I-21.7879 J-61.4850
G03 X218.8714 Y196.3195 I-3.7415 J-85.6025
G03 X213.6664 Y195.4080 I2.3998 J-29.0223
G03 X211.1852 Y194.3155 I1.9375 J-7.7640
G03 X210.4101 Y193.3142 I0.9451 J-1.5322
G03 X210.8008 Y191.9598 I1.5160 J-0.2962
G03 X212.2951 Y191.0175 I2.7005 J2.6265
G03 X215.2872 Y190.2541 I5.8855 J16.8223
G03 X224.3689 Y189.1616 I17.9171 J110.6492
G02 X239.6933 Y187.5309 I-22.8165 J-287.2214
G02 X249.4553 Y185.6978 I-10.9113 J-85.0207
G02 X259.7554 Y181.6585 I-9.3911 J-39.0987
G02 X264.5496 Y177.9227 I-9.4023 J-17.0105
G02 X268.3977 Y169.5537 I-11.2028 J-10.2203
G02 X268.2885 Y162.4920 I-23.7713 J-3.1640
G00 Z20.0000


(No. 42: Engraving 34)
G00 X225.3464 Y242.0365 Z20.0000
G00 Z0.5000
G01 Z0.0000 F1270
G01 Z-35.0000
G01 X244.9415 Y242.0453 F1000
G03 X247.5302 Y235.8859 I241.8633 J98.0272
G01 X203.1460
G01 X204.2653 Y238.5342
G01 X205.7418 Y242.0277
G01 X225.3464 Y242.0365
G00 Z20.0000


(No. 43: Engraving 35)
G00 X225.0137 Y268.7009 Z20.0000
G00 Z0.5000
G01 Z0.0000 F1270
G01 Z-35.0000
G01 X263.6338 F1000
G02 X263.6062 Y266.0507 I-31.8953 J-0.9926
G02 X263.4298 Y265.0581 I-2.9543 J0.0130
G02 X263.2560 Y264.9409 I-0.1926 J0.0980
G02 X252.2158 Y260.8904 I-2614.5485 J7109.4139
G03 X248.1068 Y259.2108 I18.9132 J-52.1333
G03 X247.2332 Y257.5869 I0.7266 J-1.4378
G03 X248.2584 Y254.8281 I5.3652 J0.4239
G03 X250.1339 Y253.7984 I2.1796 J1.7470
G03 X252.3218 Y253.6963 I1.8994 J17.2145
G02 X255.0002 Y252.7334 I-0.0758 J-4.4172
G02 X257.7035 Y250.4043 I-11.7181 J-16.3347
G01 X257.4616 Y250.3745
G01 X257.4777 Y250.3765
G02 X255.5862 Y250.3166 I-2.2184 J40.1452
G03 X253.0478 Y249.9734 I0.0109 J-9.6401
G03 X252.0554 Y249.1342 I0.3305 J-1.3972
G03 X252.1207 Y247.9580 I1.6919 J-0.4960
G03 X253.3017 Y245.1720 I23.9504 J8.5097
G01 X254.5238 Y242.6565
G03 X255.4998 Y242.0456 I0.9759 J0.4741
G02 X259.8427 Y242.0284 I1.7689 J-101.4598
G02 X261.6845 Y241.6322 I0.0770 J-4.1205
G02 X263.6871 Y240.2125 I-6.2348 J-10.9176
G02 X266.4965 Y237.7414 I-19.3501 J-24.8314
G02 X267.4328 Y236.5120 I-3.2103 J-3.4162
G02 X267.5189 Y235.9748 I-0.9022 J-0.4199
G01 X267.4892 Y235.9693
G01 X267.5014 Y235.9715
G02 X264.4977 Y235.8859 I-2.2228 J25.2462
G01 X260.3902
G03 X259.3063 Y234.7517 I0.0000 J-1.0850
G01 X259.4186 Y232.2763
G01 X254.6383
G03 X247.5303 Y248.0390 I-898.4951 J-395.6818
G03 X243.5213 Y256.1569 I-118.5970 J-53.5200
G03 X242.7817 Y257.1538 I-3.0046 J-1.4562
G03 X241.5965 Y257.4141 I-0.8863 J-1.2069
G03 X238.6598 Y255.7436 I0.9101 J-5.0163
G03 X239.1990 Y253.7686 I0.9361 J-0.8055
G02 X241.0669 Y250.4639 I-13.6596 J-9.9010
G02 X212.2638 Y250.4675 I-14.3108 J736.3528
G02 X209.4235 Y250.5784 I1.8234 J83.0989
G02 X211.0692 Y253.6891 I12.8240 J-4.7939
G02 X211.4594 Y253.8845 I1.0672 J-1.6440
G03 X211.8991 Y255.7184 I-0.6921 J1.1356
G03 X209.5107 Y257.8682 I-4.4961 J-2.5935
G03 X208.1253 Y257.8836 I-0.7091 J-1.4757
G03 X207.4057 Y257.1755 I0.9897 J-1.7255
G03 X205.2983 Y253.2895 I39.8116 J-24.1047
G03 X201.3248 Y244.4148 I101.2290 J-50.6508
G03 X200.7922 Y242.8953 I206.0263 J-73.0623
G02 X197.8591 Y236.5368 I-81.9253 J33.9359
G01 X195.5771 Y231.9987
G01 X190.8486
G01 X190.9341 Y232.7315
G01 X191.1611 Y234.6751
G03 X190.0834 Y235.8859 I-1.0777 J0.1258
G02 X183.7393 Y235.9011 I-2.6060 J236.4791
G02 X182.5073 Y235.9879 I-0.0893 J7.5212
G01 X182.5066 Y236.0512
G01 X182.5067 Y236.0399
G02 X183.0856 Y237.1445 I3.0599 J-0.8994
G02 X185.1191 Y239.4647 I15.0488 J-11.1385
G01 X187.7325 Y242.0456
G01 X194.7302
G03 X195.6980 Y242.6402 I0.0000 J1.0850
G03 X198.2474 Y247.7959 I-81.0343 J43.2767
G03 X198.6001 Y248.7931 I-3.3288 J1.7385
G03 X197.6754 Y250.0779 I-1.1663 J0.1357
G03 X195.2291 Y250.3152 I-2.4057 J-12.0753
G02 X192.8126 Y250.4138 I-0.4070 J19.6880
G01 X193.0203 Y250.6521
G01 X193.0092 Y250.6393
G02 X195.9896 Y253.1456 I12.1184 J-11.3859
G02 X198.1861 Y253.7046 I2.0456 J-3.4430
G03 X200.3571 Y253.8572 I0.3858 J10.0253
G03 X202.2886 Y255.3090 I-0.6686 J2.9003
G03 X203.2334 Y257.2086 I-10.8875 J6.6004
G03 X202.8533 Y259.0113 I-1.4744 J0.6306
G03 X201.6766 Y259.6326 I-2.1177 J-2.5860
G03 X186.3935 Y265.1611 I-689.1877 J-1881.3095
G01 Y268.7009
G01 X225.0137
G00 Z20.0000


(No. 44: Engraving 36)
G00 X225.4480 Y280.7823 Z20.0000
G00 Z0.5000
G01 Z0.0000 F1270
G01 Z-35.0000
G01 X268.9643 Y280.6434 F1000
G02 X269.1208 Y277.1087 I-53.7776 J-4.1515
G02 X268.9330 Y275.7087 I-3.6016 J-0.2295
G02 X268.1656 Y274.7166 I-2.8676 J1.4252
G01 X267.0965 Y273.6474
G01 X183.1949
G01 X182.2803 Y274.6211
G02 X181.1992 Y276.8016 I4.0006 J3.3416
G02 X181.0254 Y279.7093 I6.3121 J1.8366
G02 X181.5574 Y280.9223 I3.3995 J-0.7680
G01 X225.4480 Y280.7823
G00 Z20.0000


(No. 45: Engraving 39)
G00 X215.3526 Y307.0910 Z20.0000
G00 Z0.5000
G01 Z0.0000 F1270
G01 Z-35.0000
G02 X186.9396 Y316.1086 I376.3601 J1235.1233 F1000
G01 X186.5082 Y316.2586
G01 X186.4626 Y316.2763
G02 X186.5622 Y318.7731 I16.1241 J0.6070
G03 X217.5160 Y309.1957 I863.9829 J2737.5473
G03 X224.5496 Y307.1398 I69.1348 J223.4593
G03 X225.3648 Y307.0402 I0.6009 J1.5332
G03 X226.4451 Y307.3090 I-1.8164 J9.6067
G03 X253.5108 Y315.5290 I-449.2447 J1527.8794
G03 X263.5898 Y318.7392 I-158.3208 J514.5042
G01 X263.5268 Y317.7785
G01 X263.4072 Y315.9562
G02 X234.7307 Y307.0479 I-658.0367 J2067.6607
G02 X225.5781 Y304.4125 I-69.3275 J223.5566
G01 X225.2102 Y304.3246
G01 X225.0250 Y304.2873
G02 X216.6145 Y306.7082 I48.3081 J183.6517
G01 X215.3510 Y307.0915
G00 Z20.0000


(No. 46: Engraving 40)
G00 X215.5561 Y315.8382 Z20.0000
G00 Z0.5000
G01 Z0.0000 F1270
G01 Z-35.0000
G02 X187.0969 Y324.7009 I902.9839 J2949.7007 F1000
G02 X189.7611 Y325.6981 I3.3494 J-4.8911
G03 X192.4877 Y326.3545 I-2.4830 J16.3039
G03 X194.0597 Y327.6913 I-0.7529 J2.4781
G03 X194.2361 Y328.1641 I-2.2668 J1.1150
G02 X195.3528 Y328.8276 I2.4192 J-2.7999
G02 X199.8046 Y330.3114 I13.7966 J-33.9736
G02 X211.5748 Y333.0360 I52.6583 J-200.6928
G03 X221.2558 Y335.2811 I-32.9436 J164.0542
G03 X223.0770 Y336.0274 I-3.2350 J10.4895
G03 X223.5998 Y336.9554 I-0.5623 J0.9280
G01 Y365.5347
G02 X224.7919 Y366.0470 I3.4835 J-6.4634
G02 X226.1580 Y365.9106 I0.5260 J-1.6411
G01 X226.8122 Y365.6125
G03 X226.5413 Y347.5379 I1112.5635 J-25.7115
G03 X226.7038 Y337.9839 I152.8549 J-2.1790
G03 X226.9066 Y336.7476 I4.2690 J0.0656
G03 X227.7149 Y335.9827 I1.2499 J0.5114
G03 X231.6526 Y334.7765 I11.6632 J31.0449
G03 X242.5393 Y332.2175 I64.1679 J248.5427
G02 X253.0054 Y329.6620 I-35.0403 J-166.2216
G02 X255.8897 Y328.6055 I-4.0634 J-15.5587
G02 X256.4218 Y328.2491 I-0.6491 J-1.5447
G03 X257.4209 Y326.7403 I2.0364 J0.2633
G03 X259.3490 Y326.0278 I2.6525 J4.2129
G02 X262.0745 Y325.3880 I-37.0588 J-163.9771
G02 X263.3034 Y324.6875 I-1.2042 J-3.5406
G02 X244.6410 Y318.8739 I-260.5766 J803.6213
G02 X226.0223 Y313.3863 I-264.2692 J862.3136
G01 X225.1496 Y313.1607
G01 X224.9634 Y313.1249
G02 X216.7881 Y315.4672 I49.9512 J189.7884
G01 X215.5546 Y315.8386
G00 Z20.0000


(No. 47: Engraving 38)
G00 X205.6557 Y304.0571 Z20.0000
G00 Z0.5000
G01 Z0.0000 F1270
G01 Z-35.0000
G01 X224.9351 Y298.0979 F1000
G03 X225.5780 Y298.0985 I0.3204 J1.0366
G01 X244.3979 Y303.9581
G03 X263.5833 Y309.9855 I-716.2645 J2313.4510
G02 X263.4012 Y306.4861 I-87.9507 J2.8217
G02 X234.7308 Y297.5824 I-654.8803 J2058.1480
G02 X225.5785 Y294.9488 I-68.9976 J222.5628
G01 X225.2107 Y294.8611
G01 X225.0158 Y294.8210
G02 X218.1773 Y296.7390 I26.0312 J105.9637
G02 X198.4519 Y302.9289 I1058.5468 J3407.7904
G03 X193.5469 Y304.4717 I-1837.8703 J-5834.5496
G01 X186.3935 Y306.7178
G02 X186.4164 Y309.7358 I42.8373 J1.1843
G01 X186.4291 Y309.9321
G01 X186.4442 Y310.0223
G03 X205.6557 Y304.0571 I1645.2871 J5264.8918
G00 Z20.0000


(No. 48: Engraving 41)
G00 X207.6510 Y355.0159 Z20.0000
G00 Z0.5000
G01 Z0.0000 F1270
G01 Z-35.0000
G01 X195.5819 Y348.3411 F1000
G02 X195.1623 Y337.9554 I-523.3096 J15.9421
G02 X194.8502 Y334.8439 I-20.6109 J0.4959
G02 X194.4809 Y333.9733 I-1.6787 J0.1985
G02 X193.5879 Y333.7851 I-0.5998 J0.6328
G02 X193.3100 Y334.3051 I0.5063 J0.6048
G02 X193.1507 Y336.6520 I14.5033 J2.1632
G02 X193.3606 Y350.0079 I561.4806 J-2.1456
G02 X214.5336 Y361.7023 I782.6795 J-1392.0526
G02 X219.0864 Y364.0927 I58.0970 J-105.1196
G01 X219.2451 Y364.1626
G01 X219.3217 Y364.1864
G02 X219.5902 Y363.8868 I-0.1166 J-0.3746
G02 X219.7128 Y362.7806 I-2.4968 J-0.8368
G02 X219.0338 Y361.8257 I-1.9043 J0.6352
G02 X216.2816 Y359.9260 I-14.3554 J17.8537
G02 X207.6510 Y355.0159 I-132.7793 J223.3515
G00 Z20.0000


(No. 49: Engraving 54)
G00 X189.6283 Y382.6143 Z20.0000
G00 Z0.5000
G01 Z0.0000 F1270
G01 Z-35.0000
G02 X187.4753 Y382.5964 I-1.2868 J25.1826 F1000
G03 X184.8872 Y382.2303 I-0.1847 J-8.0269
G03 X184.4881 Y381.9839 I0.7437 J-1.6506
G02 X182.5283 Y382.4874 I-0.7337 J1.2101
G02 X181.5684 Y384.5647 I8.7681 J5.3120
G02 X180.0690 Y390.9342 I27.2296 J9.7714
G02 X180.0794 Y392.3431 I4.8106 J0.6689
G01 X180.1673 Y392.6218
G01 X180.3028 Y392.7836
G01 X180.4194 Y392.8252
G02 X181.0385 Y392.5622 I-0.0230 J-0.9141
G02 X183.0285 Y389.3532 I-4.6695 J-5.1174
G02 X183.1163 Y388.6067 I-19.4445 J-2.6649
G03 X184.0203 Y387.2631 I2.6071 J0.7782
G03 X187.6507 Y385.5809 I5.2049 J6.4741
G03 X192.8793 Y386.6243 I1.4455 J6.3785
G03 X196.5439 Y391.6547 I-4.7902 J7.3397
G03 X196.4415 Y394.3844 I-4.3822 J1.2024
G03 X194.9361 Y395.8525 I-2.2555 J-0.8069
G03 X192.2774 Y396.3807 I-3.4787 J-10.5542
G03 X187.6255 Y396.5884 I-5.3753 J-68.1799
G01 X182.4457 Y396.6757
G01 X180.5452 Y398.7500
G02 X178.7782 Y401.8479 I5.1647 J4.9987
G02 X179.5652 Y406.2567 I5.5697 J1.2805
G02 X181.7652 Y408.6151 I6.0245 J-3.4148
G02 X184.8747 Y409.8406 I5.3590 J-9.0394
G02 X188.2948 Y410.5721 I41.2413 J-184.4680
G03 X190.8865 Y411.3329 I-2.9269 J14.7647
G03 X191.2753 Y411.6046 I-0.5039 J1.1352
G02 X192.5292 Y411.8381 I0.8057 J-0.8431
G02 X193.5765 Y410.7549 I-1.3702 J-2.3727
G02 X195.1055 Y407.0089 I-15.8651 J-8.6604
G02 X195.6873 Y403.6681 I-11.7112 J-3.7608
G02 X195.5041 Y402.7365 I-1.9708 J-0.0962
G01 X195.4047 Y402.6106
G01 X195.2833 Y402.5330
G02 X194.5772 Y402.6945 I-0.1573 J0.9368
G02 X193.1502 Y404.1702 I2.2904 J3.6426
G03 X191.3163 Y406.3550 I-9.9886 J-6.5221
G03 X189.2498 Y407.2174 I-2.4808 J-3.0376
G03 X186.9462 Y407.3415 I-1.6179 J-8.5911
G03 X184.6294 Y406.4559 I0.7545 J-5.4471
G03 X182.6306 Y404.8294 I3.5794 J-6.4404
G03 X182.0435 Y402.6083 I1.8807 J-1.6852
G03 X183.0710 Y400.8221 I4.2145 J1.2357
G03 X184.4034 Y399.6559 I4.3038 J3.5728
G03 X186.2770 Y399.2640 I1.6951 J3.4290
G03 X190.4984 Y399.4115 I-0.4522 J73.4038
G02 X193.8028 Y399.3419 I1.2609 J-18.6068
G02 X197.1195 Y397.7611 I-0.6488 J-5.6309
G02 X198.9697 Y395.8519 I-9.8113 J-11.3593
G02 X199.7087 Y393.7259 I-3.0405 J-2.2483
G02 X198.1549 Y386.5906 I-12.7690 J-0.9561
G02 X197.3433 Y385.5541 I-3.4997 J1.9040
G02 X196.6814 Y385.2871 I-0.6534 J0.6659
G03 X194.7267 Y384.5333 I2.2195 J-8.6672
G02 X192.4216 Y383.3458 I-63.7319 J120.8806
G02 X189.6283 Y382.6143 I-3.4104 J7.3237
G00 Z20.0000


(No. 50: Engraving 53)
G00 X221.2677 Y386.2256 Z20.0000
G00 Z0.5000
G01 Z0.0000 F1270
G01 Z-35.0000
G02 X215.2791 Y386.1008 I-3.7470 J36.0558 F1000
G02 X213.7775 Y386.3767 I0.3086 J5.9055
G02 X213.1955 Y388.8810 I0.5703 J1.4523
G02 X214.1056 Y389.1927 I0.8609 J-1.0290
G03 X215.7869 Y390.2256 I-1.1742 J3.7964
G03 X216.5565 Y391.8307 I-1.8251 J1.8620
G03 X216.7597 Y395.4353 I-25.6197 J3.2522
G03 X216.5091 Y407.5085 I-193.8169 J2.0176
G03 X216.2307 Y410.0866 I-16.5137 J-0.4797
G03 X215.6696 Y410.7041 I-1.5731 J-0.8657
G03 X214.1812 Y411.5081 I-3.4300 J-4.5700
G02 X213.1507 Y412.5557 I0.6085 J1.6293
G02 X213.7198 Y413.8780 I1.2576 J0.2424
G02 X214.9893 Y414.3376 I1.3297 J-1.6896
G02 X219.6751 Y414.1517 I1.4734 J-22.0063
G02 X221.8130 Y413.6832 I-1.1233 J-10.2375
G01 X222.0663 Y413.5710
G01 X222.2405 Y413.4548
G01 X222.3268 Y413.3352
G02 X222.1113 Y412.8247 I-0.6334 J-0.0334
G02 X220.6193 Y411.7038 I-3.8932 J3.6286
G03 X219.5782 Y410.8298 I1.1286 J-2.4016
G03 X219.2207 Y409.3122 I3.0082 J-1.5097
G03 X219.2534 Y405.4887 I35.0411 J-1.6122
G03 X219.6440 Y403.7735 I5.5913 J0.3714
G03 X221.5686 Y402.2490 I2.4322 J1.0935
G03 X224.2890 Y401.9644 I2.6451 J12.1382
G03 X227.3139 Y402.0344 I0.8011 J30.7688
G03 X228.7789 Y402.3544 I-0.2425 J4.6237
G03 X229.7742 Y403.6557 I-0.7289 J1.5887
G03 X229.8874 Y405.8481 I-9.8494 J1.6080
G03 X229.6719 Y409.1738 I-31.3653 J-0.3625
G03 X229.2615 Y410.3858 I-2.7364 J-0.2512
G03 X228.1121 Y411.2484 I-2.2948 J-1.8607
G02 X226.3344 Y412.0493 I15.5671 J36.9281
G02 X225.4520 Y412.7264 I0.9590 J2.1634
G01 X225.3851 Y412.8773
G01 X225.3791 Y413.0205
G01 X225.4339 Y413.1557
G02 X226.2550 Y413.6122 I1.0929 J-0.9988
G02 X229.2643 Y414.0207 I3.6303 J-15.4570
G02 X233.4082 Y413.9741 I1.7929 J-24.8508
G02 X235.1483 Y413.5142 I-0.2907 J-4.6217
G02 X235.8424 Y412.5016 I-0.4143 J-1.0282
G02 X235.4592 Y412.0701 I-0.7928 J0.3179
G02 X233.8262 Y411.2402 I-4.3450 J6.5290
G03 X232.8324 Y410.0697 I0.5300 J-1.4571
G03 X232.5347 Y407.5881 I15.6012 J-3.1303
G03 X232.2384 Y396.5612 I140.3541 J-9.2883
G02 X232.5035 Y391.0386 I-137.9298 J-9.3872
G03 X232.9281 Y389.7680 I2.0772 J-0.0120
G03 X234.2684 Y388.9449 I2.5285 J2.6146
G02 X235.7899 Y388.1842 I-2.3582 J-6.6188
G02 X236.1070 Y387.7070 I-0.2646 J-0.5197
G02 X235.7751 Y387.2640 I-0.6238 J0.1214
G02 X234.0235 Y386.7171 I-3.1423 J6.9856
G02 X228.2918 Y386.0879 I-5.9463 J27.7482
G02 X227.1502 Y386.2725 I-0.1223 J2.8655
G02 X226.5074 Y387.6974 I0.6361 J1.1444
G02 X228.0350 Y389.1348 I1.6329 J-0.2048
G03 X228.9513 Y389.4769 I-0.2808 J2.1507
G03 X229.5454 Y390.5222 I-1.2351 J1.3934
G03 X229.8934 Y393.4306 I-19.8016 J3.8446
G03 X230.0526 Y396.9068 I-37.4705 J3.4576
G03 X229.8042 Y398.1065 I-2.4863 J0.1106
G03 X228.7834 Y399.0204 I-2.2212 J-1.4538
G03 X226.3615 Y399.5590 I-2.1738 J-4.0598
G03 X221.5558 Y399.0179 I1.2006 J-32.2748
G03 X220.2807 Y398.4407 I0.3801 J-2.5362
G03 X219.7124 Y397.3293 I1.6199 J-1.5293
G03 X219.2783 Y392.8097 I18.9487 J-4.1011
G03 X219.8831 Y390.4613 I4.9026 J0.0106
G03 X221.4364 Y389.1656 I2.6860 J1.6412
G02 X223.1445 Y387.2241 I-1.2389 J-2.8122
G02 X223.0378 Y386.5336 I-0.6926 J-0.2465
G02 X222.6536 Y386.3584 I-0.4262 J0.4259
G01 X221.9518 Y386.2877
G01 X221.2677 Y386.2256
G00 Z20.0000


(No. 51: Engraving 51)
G00 X252.4991 Y384.9179 Z20.0000
G00 Z0.5000
G01 Z0.0000 F1270
G01 Z-35.0000
G03 X251.8086 Y385.9562 I-1.9286 J-0.5337 F1000
G02 X251.1044 Y386.9619 I1.3744 J1.7119
G02 X249.9082 Y392.7936 I17.3279 J6.5929
G02 X250.0274 Y394.0553 I5.8142 J0.0869
G03 X250.4968 Y398.4697 I-64.3390 J9.0730
G02 X253.6522 Y407.1759 I17.1780 J-1.3010
G02 X255.7466 Y409.2513 I7.1996 J-5.1712
G02 X258.3499 Y410.2973 I4.2309 J-6.7675
G02 X261.8139 Y410.1862 I1.5415 J-5.9985
G02 X262.4254 Y409.3348 I-0.2237 J-0.8059
G02 X262.1052 Y407.7209 I-3.1587 J-0.2120
G02 X261.0224 Y407.0817 I-1.3631 J1.0722
G03 X258.9744 Y406.6424 I8.3422 J-43.8902
G03 X256.1476 Y404.4586 I1.4342 J-4.7779
G03 X254.2591 Y400.4663 I17.5828 J-10.7601
G03 X252.9334 Y393.0614 I22.4644 J-7.8430
G03 X253.1370 Y391.4797 I5.3481 J-0.1156
G01 X253.2458 Y391.2341
G01 X253.3789 Y391.0599
G02 X253.7357 Y390.8626 I-2.2189 J-4.4332
G02 X254.1734 Y390.0315 I-0.5676 J-0.8296
G03 X254.9564 Y388.5747 I4.8277 J1.6558
G03 X256.3624 Y386.7386 I30.9589 J22.2529
G02 X257.1910 Y385.1243 I-3.1767 J-2.6504
G02 X257.0906 Y383.3896 I-3.9681 J-0.6404
G02 X256.7995 Y382.3832 I-3.8716 J0.5741
G02 X256.2032 Y382.0934 I-0.4514 J0.1706
G02 X254.9449 Y382.7300 I1.9350 J5.3861
G02 X252.9377 Y384.2136 I4.7677 J8.5505
G02 X252.5079 Y384.8175 I1.0335 J1.1905
G01 X252.5019 Y384.8686
G01 X252.4991 Y384.9179
G00 Z20.0000


(No. 52: Engraving 50)
G00 X265.9218 Y383.8056 Z20.0000
G00 Z0.5000
G01 Z0.0000 F1270
G01 Z-35.0000
G02 X263.8709 Y382.6122 I-4.4333 J5.2599 F1000
G02 X260.8735 Y381.6731 I-5.0617 J10.9030
G02 X259.9644 Y381.7285 I-0.3585 J1.6064
G02 X259.7286 Y382.0881 I0.1333 J0.3445
G02 X260.1634 Y384.2717 I4.9115 J0.1570
G02 X261.4957 Y385.2829 I1.5260 J-0.6273
G03 X263.1548 Y385.8602 I-0.0473 J2.8085
G03 X265.5948 Y388.6284 I-5.8324 J7.6002
G03 X267.6317 Y394.3677 I-12.2069 J7.5636
G03 X267.9600 Y402.3567 I-34.0209 J5.3993
G03 X267.3345 Y404.0131 I-2.8250 J-0.1206
G03 X266.0764 Y405.1332 I-8.9257 J-8.7588
G02 X265.1932 Y406.2130 I1.9094 J2.4628
G02 X265.0876 Y407.7029 I2.6624 J0.9373
G02 X265.6185 Y409.3563 I3.5171 J-0.2174
G02 X266.9717 Y409.6590 I0.8393 J-0.5762
G02 X268.4714 Y408.3005 I-2.4169 J-4.1751
G02 X270.3431 Y405.0905 I-13.2201 J-9.8590
G02 X271.2483 Y400.6916 I-15.0095 J-5.3813
G02 X270.7711 Y393.4559 I-23.8673 J-2.0596
G02 X269.8608 Y390.6901 I-21.5625 J5.5641
G02 X267.6399 Y385.9519 I-26.3811 J9.4760
G02 X265.9218 Y383.8056 I-7.9670 J4.6169
G00 Z20.0000


(No. 53: Engraving 49)
G00 X287.5936 Y373.7428 Z20.0000
G00 Z0.5000
G01 Z0.0000 F1270
G01 Z-35.0000
G02 X285.1560 Y374.0347 I-0.4018 J6.9683 F1000
G02 X282.9428 Y374.8918 I4.9638 J16.1050
G03 X279.2116 Y376.4919 I-42.6204 J-94.2305
G02 X278.1017 Y377.2786 I0.8868 J2.4275
G02 X278.2349 Y378.1130 I0.4344 J0.3585
G02 X279.4833 Y378.5468 I1.5541 J-2.4590
G02 X281.3653 Y378.6337 I1.6879 J-16.1324
G03 X282.9250 Y378.8416 I0.1999 J4.4554
G03 X283.9059 Y379.7842 I-0.7678 J1.7807
G03 X285.4244 Y382.7697 I-39.7237 J22.0830
G03 X289.6468 Y391.3632 I-334.6570 J169.7694
G03 X291.3344 Y395.2913 I-42.6116 J20.6334
G03 X291.8346 Y397.4813 I-6.3461 J2.6014
G03 X291.2331 Y399.0140 I-2.2464 J0.0029
G02 X290.4773 Y399.9439 I4.0952 J4.1003
G02 X290.5937 Y400.8018 I0.5312 J0.3648
G02 X291.4733 Y401.4587 I1.5934 J-1.2164
G02 X292.9099 Y401.3483 I0.5141 J-2.7149
G02 X296.9226 Y400.0062 I-19.1262 J-63.8531
G03 X293.1009 Y392.8461 I167.1345 J-93.8085
G03 X292.0288 Y390.2200 I11.9812 J-6.4236
G03 X291.9214 Y389.2017 I4.0944 J-0.9465
G02 X290.7476 Y385.7261 I-8.0538 J0.7839
G02 X290.3124 Y385.3110 I-0.9611 J0.5719
G03 X289.9169 Y385.1208 I0.0347 J-0.5785
G03 X288.7830 Y383.5481 I6.4945 J-5.8776
G03 X286.8347 Y379.4777 I19.5276 J-11.8485
G03 X286.6645 Y378.6421 I2.1509 J-0.8731
G03 X286.8810 Y378.2124 I1.1840 J0.3270
G03 X288.1950 Y376.5738 I15.0048 J10.6864
G02 X289.0311 Y375.1573 I-2.3000 J-2.3126
G02 X288.2802 Y373.8957 I-1.0402 J-0.2351
G01 X287.9606 Y373.8012
G01 X287.5936 Y373.7428
G00 Z20.0000


(No. 54: Engraving 48)
G00 X300.6960 Y369.0693 Z20.0000
G00 Z0.5000
G01 Z0.0000 F1270
G01 Z-35.0000
G02 X297.2764 Y368.3795 I-2.2075 J2.1224 F1000
G02 X295.0327 Y370.0101 I2.6667 J6.0283
G02 X294.2706 Y371.3614 I1.6464 J1.8192
G02 X294.3932 Y373.2435 I6.2769 J0.5359
G02 X296.0348 Y378.3229 I26.2545 J-5.6799
G03 X296.6742 Y381.0255 I-7.1203 J3.1115
G03 X295.9327 Y383.0841 I-2.7042 J0.1888
G03 X294.7529 Y383.8349 I-2.5952 J-2.7756
G02 X293.7917 Y384.5225 I0.8085 J2.1461
G02 X293.7106 Y385.4160 I0.8611 J0.5286
G02 X294.4164 Y386.7878 I4.1619 J-1.2741
G02 X295.4409 Y387.1335 I0.8717 J-0.8925
G02 X297.9816 Y386.7329 I-1.5397 J-18.0226
G03 X299.8870 Y386.4965 I2.0689 J8.8810
G03 X301.6972 Y387.2323 I-0.0716 J2.7711
G03 X303.1679 Y388.5617 I-6.4422 J8.6046
G03 X304.0350 Y390.4423 I-2.5100 J2.2975
G03 X303.3186 Y392.6870 I-3.2375 J0.2035
G03 X301.3086 Y394.3878 I-5.5880 J-4.5660
G03 X299.6758 Y395.2199 I-11.6508 J-20.8417
G02 X298.5577 Y395.9825 I1.1629 J2.9061
G02 X298.5052 Y396.9901 I0.8751 J0.5507
G02 X300.1966 Y398.1569 I1.4852 J-0.3436
G02 X302.6344 Y397.3300 I-0.7082 J-6.0952
G02 X305.1455 Y395.6508 I-6.5765 J-12.5510
G02 X306.3614 Y393.2067 I-2.6253 J-2.8305
G02 X306.3981 Y388.9710 I-13.4673 J-2.2348
G02 X303.1071 Y384.0757 I-6.9167 J1.0962
G02 X301.6438 Y383.2782 I-11.3205 J19.0288
G03 X300.1910 Y382.2705 I2.3254 J-4.9036
G03 X299.7038 Y380.8206 I1.5121 J-1.3150
G02 X299.0704 Y377.5713 I-13.9536 J1.0337
G03 X298.2209 Y374.7495 I28.3279 J-10.0662
G03 X298.0457 Y372.9288 I5.1576 J-1.4151
G03 X298.2931 Y372.2962 I1.0326 J0.0392
G03 X299.0097 Y372.2441 I0.3977 J0.5164
G02 X300.7390 Y372.5787 I1.5270 J-3.2559
G02 X301.7293 Y372.0497 I-0.0236 J-1.2357
G02 X301.8354 Y370.8819 I-1.2889 J-0.7058
G02 X300.6960 Y369.0693 I-4.4548 J1.5358
G00 Z20.0000


(No. 55: Engraving 47)
G00 X317.7188 Y360.5108 Z20.0000
G00 Z0.5000
G01 Z0.0000 F1270
G01 Z-35.0000
G03 X318.9250 Y360.5640 I0.5270 J1.7508 F1000
G03 X319.9237 Y361.5186 I-1.4062 J2.4711
G02 X322.4028 Y364.6756 I28.6017 J-19.9077
G03 X323.3021 Y366.0627 I-6.1406 J4.9663
G02 X327.0381 Y371.3146 I68.5862 J-44.8348
G02 X331.5164 Y376.9983 I126.1971 J-94.8262
G03 X329.3642 Y379.2379 I-22.4466 J-19.4166
G03 X327.5227 Y380.4822 I-4.2062 J-4.2400
G03 X325.0193 Y380.0884 I-0.9437 J-2.1552
G03 X323.5824 Y378.3503 I4.6028 J-5.2681
G02 X321.5953 Y376.2476 I-5.7950 J3.4862
G02 X320.3322 Y375.8882 I-1.6532 J3.4112
G01 X320.1776 Y375.8964
G01 X320.0581 Y375.9344
G01 X319.9742 Y376.0045
G01 X319.9265 Y376.1091
G02 X320.1080 Y376.9187 I1.4924 J0.0906
G02 X321.9389 Y380.2005 I29.5564 J-14.3383
G02 X324.4939 Y383.2339 I8.2563 J-4.3614
G02 X326.0621 Y383.7994 I1.6313 J-2.0668
G02 X327.3731 Y383.3180 I-0.4749 J-3.3190
G02 X331.0478 Y380.7294 I-26.1119 J-40.9713
G03 X337.8037 Y375.9551 I92.1030 J123.1616
G02 X340.6938 Y373.3578 I-9.2796 J-13.2326
G01 X341.9002 Y371.8241
G02 X339.8916 Y368.3381 I-37.2097 J19.1186
G02 X336.9086 Y364.8211 I-13.7108 J8.6055
G02 X336.1386 Y364.3830 I-1.3838 J1.5365
G01 X336.0010 Y364.3747
G01 X335.8896 Y364.4116
G02 X335.5176 Y365.2476 I0.6714 J0.7996
G02 X335.9915 Y367.9246 I7.2831 J0.0910
G02 X337.3588 Y370.3818 I6.6000 J-2.0635
G02 X338.0421 Y370.8995 I3.2942 J-3.6379
G03 X338.4098 Y372.3229 I-0.7653 J0.9569
G03 X336.8202 Y374.0981 I-3.3260 J-1.3789
G03 X334.6013 Y374.8856 I-3.3528 J-5.9273
G03 X333.1807 Y374.9461 I-0.8619 J-3.5271
G03 X332.9006 Y374.6641 I0.1373 J-0.4165
G03 X325.7075 Y363.8297 I333.7307 J-229.3716
G02 X324.1718 Y362.0683 I-6.9793 J4.5348
G03 X322.5264 Y359.0342 I8.8018 J-6.7364
G03 X322.1864 Y357.8739 I3.2977 J-1.5964
G03 X322.6607 Y356.8120 I1.3258 J-0.0447
G02 X323.7818 Y355.6949 I-14.5319 J-15.7063
G02 X324.4887 Y354.0535 I-1.7898 J-1.7438
G02 X323.6356 Y353.1568 I-0.9324 J0.0329
G02 X322.4564 Y353.3582 I-0.2845 J1.8865
G02 X316.5564 Y356.5978 I19.0556 J41.6967
G02 X313.6255 Y358.6667 I10.6134 J18.1461
G02 X312.8498 Y359.6735 I1.4942 J1.9535
G02 X313.2618 Y360.8218 I1.0315 J0.2780
G02 X314.6021 Y361.1016 I1.0281 J-1.5745
G02 X317.7188 Y360.5108 I-2.8824 J-23.7200
G00 Z20.0000


(No. 56: Engraving 74)
G00 X362.1867 Y382.0816 Z20.0000
G00 Z0.5000
G01 Z0.0000 F1270
G01 Z-35.0000
G03 X325.6437 Y408.7959 I-158.2525 J-178.1256 F1000
G02 X327.5283 Y410.7255 I30.2493 J-27.6577
G02 X345.1643 Y399.0473 I-106.0951 J-179.3756
G02 X364.8641 Y383.0732 I-139.1773 J-191.7730
G01 X366.3208 Y381.7157
G01 X370.9789 Y377.3073
G02 X369.5562 Y375.5126 I-10.9234 J7.1981
G01 X369.5353 Y375.4992
G02 X365.8322 Y378.7508 I40.8565 J50.2630
G01 X364.0308 Y380.4167
G01 X362.1961 Y382.0732
G00 Z20.0000


(No. 57: Engraving 73)
G00 X374.8562 Y386.1529 Z20.0000
G00 Z0.5000
G01 Z0.0000 F1270
G01 Z-35.0000
G03 X352.6055 Y404.6132 I-170.1785 J-182.4796 F1000
G03 X336.8355 Y415.3744 I-140.5391 J-189.0180
G01 X331.9038 Y418.4315
G01 X332.7264 Y419.2802
G01 X333.8830 Y420.4735
G02 X366.7844 Y396.9889 I-131.1610 J-218.5429
G02 X375.2744 Y389.4105 I-117.0809 J-139.7094
G01 X380.6487 Y384.2813
G02 X379.1056 Y382.2778 I-18.6112 J12.7382
G02 X374.8601 Y386.1492 I90.8330 J103.8732
G00 Z20.0000


(No. 58: Engraving 75)
G00 X306.9523 Y418.3365 Z20.0000
G00 Z0.5000
G01 Z0.0000 F1270
G01 Z-35.0000
G03 X286.1862 Y426.2186 I-85.2086 J-193.1947 F1000
G02 X282.5795 Y427.6984 I6.2674 J20.4106
G02 X279.6374 Y430.0126 I7.4820 J12.5391
G02 X278.3208 Y431.3073 I39.0448 J41.0234
G02 X296.6798 Y425.3594 I-55.7476 J-203.3807
G02 X318.2364 Y415.7982 I-82.0605 J-214.0950
G02 X323.0167 Y413.2146 I-106.1530 J-202.1241
G02 X321.2625 Y411.5920 I-7.6953 J6.5599
G01 X321.1789 Y411.5368
G01 X321.1289 Y411.5077
G02 X313.0967 Y415.4566 I75.8344 J164.3922
G03 X306.9601 Y418.3330 I-67.5210 J-136.0667
G00 Z20.0000


(No. 59: Engraving 76)
G00 X313.2549 Y430.8669 Z20.0000
G00 Z0.5000
G01 Z0.0000 F1270
G01 Z-35.0000
G02 X327.6736 Y423.8828 I-98.1422 J-220.9891 F1000
G02 X329.3491 Y422.9256 I-8.4127 J-16.6705
G02 X327.3711 Y420.9826 I-12.3297 J10.5731
G02 X317.9472 Y425.5955 I335.3752 J697.0825
G03 X288.0086 Y437.5538 I-99.6764 J-206.0923
G02 X284.5570 Y438.8310 I9.1456 J30.0188
G02 X282.1399 Y440.6942 I2.4443 J5.6705
G02 X280.5946 Y442.6467 I30.5650 J25.7780
G02 X290.6250 Y439.5935 I-38.5771 J-144.7367
G02 X308.5187 Y432.9450 I-78.2534 J-238.0125
G02 X313.2608 Y430.8643 I-99.7273 J-233.7301
G00 Z20.0000


(No. 60: Engraving 77)
G00 X273.5718 Y443.5577 Z20.0000
G00 Z0.5000
G01 Z0.0000 F1270
G01 Z-35.0000
G03 X275.8218 Y440.7286 I25.8325 J18.2359 F1000
G02 X266.5304 Y442.8185 I456.4039 J2050.8284
G02 X268.6964 Y444.5772 I21.0426 J-23.7025
G02 X269.6203 Y445.0291 I1.2954 J-1.4780
G02 X270.9083 Y444.8764 I0.1456 J-4.2795
G02 X273.3238 Y443.9178 I-0.9462 J-5.9069
G02 X273.5616 Y443.5730 I-1.6629 J-1.4010
G00 Z20.0000


(No. 61: Engraving 78)
G00 X269.4106 Y430.8819 Z20.0000
G00 Z0.5000
G01 Z0.0000 F1270
G01 Z-35.0000
G02 X263.6509 Y432.2083 I29.9701 J143.3081 F1000
G02 X264.8331 Y433.8714 I10.5754 J-6.2657
G02 X265.3557 Y434.0633 I0.4545 J-0.4305
G02 X268.0232 Y433.6967 I-0.2743 J-11.8837
G02 X269.9628 Y432.5274 I-1.8540 J-5.2686
G02 X272.3977 Y430.2020 I-26.5689 J-30.2564
G03 X269.4133 Y430.8813 I-39.2399 J-165.4833
G00 Z20.0000


(No. 62: Engraving 79)
G00 X247.4363 Y434.5211 Z20.0000
G00 Z0.5000
G01 Z0.0000 F1270
G01 Z-35.0000
G03 X232.7986 Y435.4471 I-19.1692 J-186.8704 F1000
G03 X203.5613 Y434.8111 I-8.2768 J-291.8551
G03 X193.2321 Y433.6361 I8.6546 J-122.0753
G01 X191.2118 Y433.2625
G02 X190.1433 Y433.5058 I-0.3031 J1.1365
G02 X188.6908 Y434.8080 I6.0362 J8.1939
G01 X188.0855 Y435.4279
G02 X204.3023 Y437.6224 I65.4112 J-422.3609
G02 X212.5347 Y438.1030 I11.2548 J-122.0333
G02 X239.0141 Y437.9435 I10.9985 J-372.0861
G02 X246.1287 Y437.3177 I-4.2216 J-88.7574
G02 X259.0036 Y435.4327 I-21.9556 J-194.8724
G01 X259.6205 Y435.3058
G01 X259.7286 Y435.2808
G02 X257.8949 Y433.0976 I-31.7707 J24.8240
G01 X249.8675 Y434.2178
G01 X247.4627 Y434.5182
G00 Z20.0000


(No. 63: Engraving 80)
G00 X251.8852 Y445.0713 Z20.0000
G00 Z0.5000
G01 Z0.0000 F1270
G01 Z-35.0000
G03 X229.7163 Y446.7272 I-34.7848 J-316.4799 F1000
G03 X209.4774 Y446.1515 I-4.2753 J-205.7619
G03 X196.9057 Y444.9021 I17.5706 J-240.6731
G01 X190.5513 Y444.0965
G01 X188.7466 Y445.8583
G01 X188.0918 Y446.4975
G02 X212.7622 Y449.1978 I33.0258 J-187.6803
G02 X254.3376 Y447.6247 I11.7078 J-240.7461
G02 X262.8881 Y446.2786 I-14.2286 J-118.2167
G02 X260.5277 Y444.2392 I-12.1817 J11.7138
G02 X259.3614 Y444.0367 I-0.8410 J1.3837
G03 X255.4974 Y444.6329 I-93.1274 J-590.7321
G03 X251.8917 Y445.0706 I-21.8562 J-164.9758
G00 Z20.0000


(No. 64: Engraving 81)
G00 X178.9358 Y444.7701 Z20.0000
G00 Z0.5000
G01 Z0.0000 F1270
G01 Z-35.0000
G01 X182.2743 Y445.3332 F1000
G02 X184.5935 Y443.0543 I-42.4951 J-45.5657
G01 X184.6650 Y442.9717
G03 X176.8876 Y441.4122 I16.4339 J-102.1273
G01 X172.5808 Y440.4223
G02 X174.3653 Y442.9599 I12.5947 J-6.9606
G02 X176.9163 Y444.3589 I3.5240 J-3.4008
G02 X178.9424 Y444.7712 I5.6951 J-22.8007
G00 Z20.0000


(No. 65: Engraving 82)
G00 X176.6969 Y431.8199 Z20.0000
G00 Z0.5000
G01 Z0.0000 F1270
G01 Z-35.0000
G02 X178.2447 Y433.2620 I5.9998 J-4.8880 F1000
G02 X180.3023 Y433.9068 I2.5445 J-4.5141
G02 X182.0342 Y434.0359 I1.3394 J-6.2857
G02 X182.9424 Y433.5403 I-0.3525 J-1.7256
G02 X184.3402 Y432.2104 I-17.0804 J-19.3527
G01 X184.3414 Y432.2004
G02 X175.6320 Y430.2314 I-982.1907 J4324.0901
G01 X175.3578 Y430.1675
G01 X175.3089 Y430.1565
G02 X176.7081 Y431.8326 I35.5285 J-28.2380
G00 Z20.0000


(No. 66: Engraving 83)
G00 X163.8629 Y429.6857 Z20.0000
G00 Z0.5000
G01 Z0.0000 F1270
G01 Z-35.0000
G02 X170.0351 Y431.4484 I36.1990 J-115.0671 F1000
G02 X167.8202 Y428.9489 I-15.1823 J11.2229
G02 X165.4512 Y427.6141 I-5.4248 J6.8578
G02 X160.0450 Y425.6822 I-37.8349 J97.3468
G03 X144.0436 Y419.7351 I73.4999 J-222.2628
G03 X132.1039 Y414.2518 I94.9236 J-222.4327
G02 X127.5466 Y412.0992 I-117.4779 J242.8094
G02 X125.9052 Y413.7646 I28.8979 J30.1227
G02 X137.9772 Y419.8430 I70.9114 J-125.8074
G02 X156.0057 Y427.1309 I87.6604 J-190.9090
G02 X163.8689 Y429.6875 I80.0199 J-232.7357
G00 Z20.0000


(No. 67: Engraving 84)
G00 X156.4240 Y438.5877 Z20.0000
G00 Z0.5000
G01 Z0.0000 F1270
G01 Z-35.0000
G02 X167.4104 Y441.9937 I58.1424 J-168.1185 F1000
G01 X167.8107 Y442.0899
G02 X165.7345 Y438.7621 I-56.6575 J33.0365
G03 X151.4427 Y433.8491 I204.1935 J-617.2347
G03 X131.8767 Y425.5393 I61.6918 J-172.4479
G03 X129.0277 Y424.1487 I1465.2366 J-3005.4111
G02 X122.5477 Y421.0254 I-190.1226 J386.1772
G02 X120.8108 Y423.2456 I39.6627 J32.8188
G02 X133.3939 Y429.2912 I241.9239 J-487.4186
G02 X147.9341 Y435.5503 I114.1346 J-245.1208
G02 X156.4295 Y438.5895 I87.9632 J-232.4863
G00 Z20.0000


(No. 68: Engraving 85)
G00 X108.6254 Y415.7623 Z20.0000
G00 Z0.5000
G01 Z0.0000 F1270
G01 Z-35.0000
G02 X116.4636 Y420.6222 I99.7566 J-152.1382 F1000
G02 X118.1795 Y418.4403 I-30.6930 J-25.9039
G03 X92.9408 Y401.2399 I120.6840 J-204.2012
G03 X75.8813 Y386.8362 I168.6646 J-217.0679
G02 X71.2926 Y382.7859 I-187.1179 J207.3665
G02 X69.4763 Y384.2465 I42.7355 J55.0013
G02 X83.2916 Y397.0668 I115.7539 J-110.8848
G02 X107.7885 Y415.2203 I162.5034 J-193.6810
G01 X108.6280 Y415.7640
G00 Z20.0000


(No. 69: Engraving 86)
G00 X113.0742 Y403.1746 Z20.0000
G00 Z0.5000
G01 Z0.0000 F1270
G01 Z-35.0000
G03 X80.6461 Y377.5320 I130.1413 J-197.9045 F1000
G02 X77.9349 Y375.0678 I-126.7005 J136.6800
G02 X76.2853 Y376.7637 I44.7085 J45.1385
G02 X94.1120 Y392.6216 I171.9417 J-175.3394
G02 X107.1036 Y402.0447 I194.0813 J-253.9131
G02 X119.3855 Y410.1875 I154.8381 J-220.2099
G01 X120.2738 Y410.7072
G01 X120.9164 Y411.0517
G02 X121.6356 Y411.2423 I0.6104 J-0.8509
G02 X122.5030 Y410.6984 I-0.6988 J-2.0785
G02 X123.5678 Y409.6587 I-13.3755 J-14.7633
G03 X113.0842 Y403.1812 I137.0863 J-233.5910
G00 Z20.0000


(No. 70: Engraving 55)
G00 X125.3819 Y377.6842 Z20.0000
G00 Z0.5000
G01 Z0.0000 F1270
G01 Z-35.0000
G03 X123.9956 Y379.2985 I-8.5728 J-5.9595 F1000
G03 X122.3419 Y379.8578 I-1.3812 J-1.3593
G02 X120.9189 Y379.8436 I-0.7585 J4.7056
G02 X119.8624 Y380.7510 I0.3537 J1.4806
G02 X119.3895 Y382.2869 I2.9112 J1.7369
G02 X120.1032 Y383.6392 I1.7605 J-0.0646
G02 X122.3981 Y384.8717 I5.3903 J-7.2840
G01 X122.8699 Y385.0568
G01 X125.3159 Y385.9909
G02 X134.0623 Y379.0517 I-53.4843 J-76.3950
G03 X139.0540 Y375.3846 I24.3952 J27.9759
G02 X140.2671 Y374.3772 I-3.1078 J-4.9765
G03 X140.4451 Y374.0794 I0.8404 J0.3002
G03 X142.8200 Y372.4980 I11.0193 J13.9750
G03 X144.9644 Y371.4269 I6.6972 J10.7255
G01 X145.0776 Y371.4088
G01 X145.1200 Y371.4485
G03 X144.8525 Y372.2724 I-2.1925 J-0.2564
G03 X141.9740 Y377.2206 I-28.9521 J-13.5315
G03 X141.4352 Y377.7708 I-5.6525 J-4.9957
G02 X140.2911 Y379.5257 I3.6646 J3.6395
G03 X137.4832 Y383.6254 I-34.8650 J-20.8676
G03 X135.3158 Y386.2890 I-24.3544 J-17.6036
G03 X134.1409 Y387.1414 I-2.4157 J-2.0940
G03 X132.5897 Y387.1699 I-0.8266 J-2.7655
G03 X131.4670 Y386.8804 I5.1020 J-22.1083
G02 X130.3351 Y387.4006 I-0.0475 J1.3880
G02 X129.8719 Y388.5043 I1.1410 J1.1279
G02 X130.4551 Y389.5606 I2.1036 J-0.4722
G02 X131.7256 Y390.5465 I3.6046 J-3.3336
G02 X136.7930 Y392.6682 I11.0757 J-19.3403
G02 X137.9940 Y392.8161 I1.0049 J-3.2107
G02 X138.6044 Y391.6167 I-0.3132 J-0.9144
G02 X137.7364 Y390.1813 I-3.2991 J1.0148
G03 X137.5065 Y389.0611 I0.8361 J-0.7554
G03 X138.4171 Y387.1261 I8.8988 J3.0061
G03 X142.8055 Y379.8892 I498.5916 J297.3882
G02 X144.6695 Y376.2113 I-78.6115 J-42.1547
G03 X148.0303 Y371.4605 I18.5935 J9.5889
G02 X149.1625 Y369.8594 I-5.6729 J-5.2126
G02 X149.1416 Y369.1795 I-1.0820 J-0.3069
G02 X147.8479 Y367.1508 I-3.9894 J1.1171
G02 X147.0303 Y367.0733 I-0.4575 J0.4747
G02 X142.9806 Y369.2635 I17.1562 J36.5595
G02 X139.8881 Y371.3288 I12.5771 J22.1806
G03 X138.1812 Y372.8094 I-10.0311 J-9.8400
G03 X130.9010 Y378.3769 I-2307.1757 J-3009.4136
G03 X129.5174 Y379.1982 I-3.9661 J-5.1052
G03 X128.9371 Y379.2544 I-0.3521 J-0.6115
G01 X128.8314 Y379.1693
G03 X128.7798 Y378.6099 I0.7323 J-0.3497
G03 X129.5856 Y376.6956 I7.6674 J2.1006
G03 X130.9240 Y374.4803 I51.0844 J29.3522
G02 X132.4967 Y371.4822 I-15.0238 J-9.7925
G02 X132.5722 Y371.0875 I-2.6491 J-0.7114
G03 X133.4269 Y369.7960 I3.5335 J1.4098
G02 X134.4617 Y368.7789 I-42.8103 J-44.5869
G02 X136.1564 Y365.8895 I-5.8694 J-5.3845
G03 X136.6208 Y365.0680 I1.8765 J0.5187
G03 X137.5246 Y364.8205 I0.7415 J0.9340
G03 X139.2364 Y365.0363 I-2.8029 J29.1316
G02 X140.7749 Y364.9735 I0.6060 J-4.0255
G02 X141.3706 Y364.4177 I-0.1222 J-0.7280
G02 X141.0339 Y363.4557 I-1.3892 J-0.0537
G02 X139.3179 Y361.8140 I-6.6652 J5.2494
G02 X134.6887 Y359.0989 I-14.0717 J18.6880
G02 X133.4142 Y358.8150 I-1.2647 J2.6755
G02 X132.6787 Y359.3553 I0.0366 J0.8207
G02 X132.9051 Y360.9982 I1.6436 J0.6105
G02 X133.7304 Y361.9105 I3.2029 J-2.0682
G01 X134.9073 Y362.8635
G03 X131.3456 Y368.9511 I-50.1525 J-25.2565
G03 X125.3819 Y377.6842 I-189.5012 J-123.0062
G00 Z20.0000


(No. 71: Engraving 56)
G00 X101.7146 Y352.1834 Z20.0000
G00 Z0.5000
G01 Z0.0000 F1270
G01 Z-35.0000
G03 X103.5768 Y354.1041 I-4.3319 J6.0633 F1000
G03 X104.4756 Y355.8069 I-4.4695 J3.4477
G03 X104.4722 Y356.5733 I-1.2558 J0.3776
G02 X104.9522 Y357.9874 I1.5659 J0.2570
G01 X105.1463 Y358.0869
G02 X105.9696 Y357.9414 I0.1783 J-1.3930
G02 X107.7673 Y356.6148 I-3.4539 J-6.5617
G02 X109.8562 Y353.8666 I-6.8031 J-7.3391
