(Project liam)
(Created by Estlcam version 11 build 11.244)
(Machining time about 00:00:53 hours)

(Required tools:)
(Thin ball nose)
G21
G90
G94
M03 S24000
G00 Z20.0000


(No. 1: Engraving 6)
G00 X16.2708 Y22.3264
G00 Z0.5000
G01 Z0.0000 F1270 S24000
G01 Z-36.0000
G02 X14.5312 Y13.5277 I-233.2419 J41.5419 F1600
G02 X12.1141 Y7.6380 I-17.8451 J3.8828
G02 X8.9476 Y4.4837 I-9.2570 J6.1263
G01 X7.8907 Y3.7863
G03 X19.0252 Y3.4646 I8.6727 J107.3232
G03 X22.8941 Y3.7621 I-0.2285 J28.2810
G03 X28.0556 Y5.6585 I-4.3538 J19.8219
G02 X28.2106 Y5.3910 I-0.1004 J-0.2368
G02 X28.0493 Y4.5633 I-1.0973 J-0.2158
G02 X26.2306 Y2.5456 I-7.3810 J4.8247
G02 X23.3112 Y0.6047 I-8.0728 J8.9763
G02 X20.5287 Y0.0376 I-2.8642 J6.9442
G02 X13.7767 Y0.1219 I-2.2493 J90.2794
G02 X9.3376 Y0.2928 I193.3456 J5080.2324
G03 X0.0000 Y0.5830 I-15.4244 J-345.9212
G02 X2.3097 Y3.1853 I43.8382 J-36.5828
G02 X3.1973 Y3.8281 I1.6917 J-1.4019
G02 X4.3720 Y3.9210 I0.9151 J-4.0955
G03 X8.0593 Y5.9022 I-0.1693 J4.7368
G03 X9.2746 Y9.0763 I-9.1524 J5.3241
G03 X11.0145 Y17.7413 I-184.3388 J41.5207
G02 X12.5950 Y25.1841 I117.5340 J-21.0701
G02 X18.3187 Y32.9884 I14.6571 J-4.7485
G02 X21.3261 Y34.3759 I5.0561 J-7.0063
G02 X24.9331 Y34.6371 I3.0962 J-17.7195
G02 X27.0149 Y34.0661 I-0.3258 J-5.2679
G02 X28.0903 Y33.5247 I-1.4444 J-4.2087
G02 X28.4162 Y32.5669 I-0.6711 J-0.7627
G02 X27.9056 Y29.5827 I-39.2929 J5.1880
G02 X27.5458 Y28.1928 I-6.6733 J0.9859
G02 X26.8827 Y27.7938 I-0.6277 J0.2926
G02 X26.3433 Y27.8220 I-0.2279 J0.8123
G02 X26.1896 Y28.3611 I0.5192 J0.4395
G03 X26.0836 Y29.9711 I-9.8825 J0.1578
G03 X23.0235 Y32.8268 I-3.3830 J-0.5577
G03 X19.2451 Y31.4231 I-0.6676 J-3.9900
G03 X17.5440 Y28.1800 I7.0751 J-5.7787
G03 X16.7357 Y24.7255 I28.5546 J-8.5031
G03 X16.2708 Y22.3264 I372.2288 J-73.3745
G00 Z20.0000


(No. 2: Engraving 7)
G00 X42.3143 Y18.9156 Z20.0000
G00 Z0.5000
G01 Z0.0000 F1270
G01 Z-36.0000
G03 X39.6570 Y4.4936 I403.7661 J-81.8506 F1600
G03 X39.7836 Y3.1570 I2.1406 J-0.4716
G03 X40.9588 Y2.5145 I1.0433 J0.5124
G03 X42.6354 Y3.0829 I-0.2964 J3.6314
G03 X45.6504 Y5.8219 I-23.7438 J29.1655
G02 X46.6872 Y6.6996 I4.6978 J-4.4982
G02 X46.8454 Y6.7379 I0.1241 J-0.1666
G01 X46.8783 Y6.7207
G02 X46.9166 Y6.2230 I-0.6506 J-0.3005
G02 X46.2043 Y4.8631 I-3.7443 J1.0946
G02 X40.9259 Y0.6871 I-11.7159 J9.3848
G02 X38.0110 Y0.1037 I-2.5783 J5.3087
G02 X36.7779 Y0.5009 I0.1471 J2.5691
G02 X35.4887 Y3.3995 I1.9912 J2.6216
G02 X36.0200 Y7.5386 I31.4144 J-1.9287
G03 X37.4329 Y15.4770 I-759.5804 J139.2782
G03 X37.9185 Y19.3803 I-32.9490 J6.0815
G03 X37.7811 Y20.6834 I-3.0024 J0.3421
G03 X37.3667 Y21.2343 I-0.9560 J-0.2879
G03 X36.4144 Y21.2883 I-0.5885 J-1.9530
G03 X33.5965 Y20.8544 I2.5435 J-25.8820
G02 X33.3726 Y21.0974 I-0.0368 J0.1908
G02 X33.5967 Y21.7492 I0.8258 J0.0805
G02 X34.7758 Y22.3807 I2.6222 J-3.4796
G02 X43.2358 Y25.2982 I42.0711 J-108.2709
G02 X43.5302 Y25.3471 I0.2709 J-0.7200
G02 X43.3111 Y23.7855 I-8.8446 J0.4445
G02 X42.3143 Y18.9156 I-217.8770 J42.0618
G00 Z20.0000


(No. 3: Engraving 8)
G00 X44.7610 Y32.4876 Z20.0000
G00 Z0.5000
G01 Z0.0000 F1270
G01 Z-36.0000
G02 X39.9737 Y29.9131 I-47.2898 J82.1987 F1600
G02 X39.7116 Y29.8046 I-0.5772 J1.0231
G01 X39.6989 Y29.8084
G01 X39.6904 Y29.8210
G02 X40.0446 Y30.9248 I3.2979 J-0.4494
G02 X41.6344 Y33.0487 I4.3354 J-1.5883
G02 X46.4333 Y36.3892 I33.8575 J-43.5219
G01 X46.4857 Y36.4142
G01 X46.5205 Y36.4265
G01 X46.5369 Y36.4255
G01 X46.5407 Y36.4115
G02 X45.6913 Y34.4095 I-12.5852 J4.1586
G01 X44.7610 Y32.4876
G00 Z20.0000


(No. 4: Engraving 9)
G00 X70.9542 Y19.8470 Z20.0000
G00 Z0.5000
G01 Z0.0000 F1270
G01 Z-36.0000
G03 X68.3309 Y5.3491 I250.3484 J-52.7851 F1600
G03 X68.2422 Y3.3690 I6.7892 J-1.2961
G03 X68.8301 Y2.5953 I0.8376 J0.0263
G03 X70.0685 Y2.6361 I0.5682 J1.5691
G03 X72.3614 Y4.1373 I-3.2859 J7.5205
G03 X75.5368 Y7.2391 I-34.9006 J38.9045
G01 X75.4295 Y6.3204
G02 X74.9040 Y5.1508 I-2.7977 J0.5541
G02 X72.1163 Y2.3441 I-10.9740 J8.1120
G02 X68.6269 Y0.3344 I-7.9219 J9.7204
G02 X65.2391 Y0.4796 I-1.4838 J4.9746
G02 X64.2919 Y1.5667 I0.9421 J1.7770
G02 X64.0331 Y4.5004 I5.5527 J1.9682
G02 X66.7969 Y20.0783 I512.5293 J-82.8971
G03 X66.9962 Y21.8242 I-9.9591 J2.0212
G01 X66.9882 Y21.8678
G01 X66.9758 Y21.8917
G03 X65.6918 Y22.4324 I-2.2057 J-3.4427
G03 X61.3456 Y23.0913 I-4.2398 J-13.3033
G03 X59.6782 Y22.5370 I0.3627 J-3.8759
G03 X57.0311 Y20.1587 I3.2244 J-6.2511
G03 X54.9466 Y15.9436 I15.4982 J-10.2875
G03 X53.5590 Y11.2371 I27.9602 J-10.8015
G03 X53.1406 Y5.9876 I21.5208 J-4.3563
G03 X53.5378 Y4.3715 I3.5462 J0.0146
G03 X55.5799 Y3.5324 I1.4924 J0.7275
G03 X57.4444 Y4.6133 I-1.5594 J4.8385
G01 X58.5514 Y5.5608
G02 X58.2216 Y3.2547 I-27.5883 J2.7685
G02 X57.1537 Y1.6603 I-2.1700 J0.2986
G02 X54.1622 Y0.2783 I-4.8315 J6.5293
G02 X51.3663 Y0.3319 I-1.3037 J4.9371
G02 X49.1010 Y2.8978 I1.2591 J3.3945
G02 X48.7443 Y6.1157 I11.6514 J2.9205
G02 X50.7792 Y14.4882 I18.0844 J0.0380
G02 X53.1898 Y18.3973 I21.8459 J-10.7739
G02 X57.9527 Y22.9951 I20.0387 J-15.9921
G02 X62.5469 Y24.9606 I7.2812 J-10.6669
G02 X66.9983 Y25.2303 I3.7130 J-24.4167
G02 X71.9740 Y25.0782 I0.6044 J-61.7102
G01 X71.9969 Y25.0692
G02 X71.7199 Y23.3590 I-10.4051 J0.8075
G02 X70.9542 Y19.8470 I-263.3272 J55.5757
G00 Z20.0000


(No. 5: Engraving 10)
G00 X82.2533 Y15.2842 Z20.0000
G00 Z0.5000
G01 Z0.0000 F1270
G01 Z-36.0000
G03 X83.3114 Y21.5868 I-140.3145 J26.7958 F1600
G03 X83.0408 Y22.8384 I-1.6260 J0.3035
G03 X81.9697 Y23.1478 I-0.8074 J-0.7865
G03 X80.2759 Y22.4216 I1.0586 J-4.8078
G03 X77.1814 Y19.7553 I9.8707 J-14.5843
G02 X76.0981 Y18.7493 I-6.3898 J5.7949
G01 X76.0430 Y18.7229
G01 X76.0016 Y18.7163
G01 X75.9730 Y18.7286
G01 X75.9558 Y18.7594
G02 X77.0919 Y21.3275 I4.1518 J-0.3014
G02 X81.3585 Y24.6673 I12.8175 J-11.9791
G02 X84.1194 Y25.5757 I3.5781 J-6.2255
G02 X86.2171 Y25.1059 I0.4444 J-2.9344
G02 X87.3428 Y23.1090 I-1.7288 J-2.2903
G02 X87.2576 Y20.3014 I-11.1380 J-1.0669
G02 X86.4811 Y15.5598 I-151.5314 J22.3784
G03 X86.1242 Y12.9350 I20.4404 J-4.1161
G01 X86.1295 Y12.8966
G01 X86.1397 Y12.8836
G03 X86.6720 Y13.7039 I-2.4390 J2.1654
G03 X87.8357 Y15.9425 I-309.6036 J162.3672
G02 X93.0682 Y22.9565 I28.2121 J-15.5875
G02 X95.2124 Y24.6957 I8.6119 J-8.4263
G02 X97.7979 Y25.5222 I2.8140 J-4.3457
G02 X100.8180 Y23.6073 I0.1347 J-3.1266
G02 X101.2245 Y20.5821 I-5.5687 J-2.2882
G02 X100.0504 Y13.1609 I-71.2751 J7.4722
G03 X100.0523 Y12.9138 I0.4737 J-0.1199
G01 X100.0744 Y12.8833
G01 X100.1067 Y12.8780
G03 X100.5818 Y13.5045 I-1.0957 J1.3244
G03 X101.5698 Y15.5247 I-25.5828 J13.7631
G02 X106.9014 Y23.0557 I26.1828 J-12.8834
G02 X109.0042 Y24.7452 I7.8738 J-7.6466
G02 X113.0179 Y25.3727 I2.8118 J-4.8352
G02 X115.1870 Y22.8619 I-0.8922 J-2.9631
G02 X115.1744 Y20.0194 I-11.7859 J-1.3692
G02 X113.8525 Y11.8837 I-110.6343 J13.8012
G03 X112.5609 Y4.2460 I167.4763 J-32.2496
G03 X113.2401 Y2.5152 I1.8668 J-0.2660
G03 X113.9521 Y2.4234 I0.4464 J0.6556
G03 X115.8343 Y3.3921 I-1.8801 J5.9661
G03 X118.1071 Y5.3385 I-9.7989 J13.7425
G01 X120.0000 Y7.2623
G02 X119.7239 Y5.8469 I-5.3982 J0.3182
G02 X118.7436 Y4.4545 I-4.0707 J1.8246
G02 X114.7367 Y1.0712 I-15.9351 J14.8078
G02 X110.6908 Y0.1477 I-3.6205 J6.5370
G02 X108.6134 Y1.9670 I0.1332 J2.2477
G02 X108.5166 Y4.2350 I8.1754 J1.4852
G02 X109.3665 Y10.0999 I60.1212 J-5.7186
G03 X111.0047 Y19.1175 I-378.7443 J73.4639
G03 X111.1720 Y20.7996 I-7.4725 J1.5926
G03 X110.5342 Y22.0845 I-1.7828 J-0.0842
G03 X109.2818 Y22.1816 I-0.7274 J-1.2571
G03 X107.0975 Y20.7906 I1.8448 J-5.3076
G03 X104.1668 Y17.2087 I15.9708 J-16.0571
G03 X99.7551 Y9.6923 I53.5756 J-36.4991
G03 X98.7703 Y6.3291 I13.5294 J-5.7873
G03 X98.2262 Y3.5491 I1961.5622 J-385.3853
G02 X97.6230 Y0.7110 I-45.5885 J8.2056
G02 X94.9636 Y0.4376 I-3.5536 J21.4993
G02 X93.5788 Y0.4046 I-0.8697 J7.4102
G02 X96.3157 Y15.3922 I9417.0526 J-1711.9276
G03 X97.1664 Y20.5827 I-91.6680 J17.6896
G03 X96.4691 Y22.0952 I-2.2271 J-0.1096
G03 X95.3175 Y22.1851 I-0.6420 J-0.8032
G03 X93.5235 Y20.8203 I3.1964 J-6.0628
G03 X88.8195 Y14.9404 I23.7032 J-23.7842
G03 X85.5612 Y9.2284 I39.0928 J-26.0853
G03 X84.6619 Y5.9758 I14.0234 J-5.6280
G02 X83.6780 Y1.0219 I-105.5401 J18.3867
G02 X83.1551 Y0.7068 I-0.6188 J0.4353
G02 X80.5330 Y0.4118 I-3.3576 J18.0467
G02 X79.3375 Y0.3882 I-0.7086 J5.5979
G02 X80.0309 Y3.9206 I35.2545 J-5.0863
G03 X82.2533 Y15.2842 I-368.4007 J77.9470
G00 Z20.0000
G00 X0.0000 Y0.0000

M05
M30
