(Project sarah)
(Created by Estlcam version 11 build 11.244)
(Machining time about 00:01:28 hours)

(Required tools:)
(Thin ball nose)
G21
G90
G94
M03 S24000
G00 Z20.0000


(No. 1: Engraving 4)
G00 X21.1625 Y32.6760
G00 Z0.5000
G01 Z0.0000 F1270 S24000
G01 Z-38.0000
G02 X22.9734 Y31.9206 I-2.3673 J-8.2242 F1000
G02 X23.1578 Y31.3976 I-0.3749 J-0.4262
G02 X22.7152 Y28.4074 I-18.3541 J1.1889
G02 X22.3039 Y26.8187 I-6.9608 J0.9547
G02 X21.6746 Y26.5227 I-0.4859 J0.2161
G02 X21.2437 Y26.9140 I0.0245 J0.4598
G02 X21.0405 Y28.0356 I8.1258 J2.0517
G03 X18.1035 Y31.4087 I-4.4569 J-0.9155
G03 X12.4262 Y31.1040 I-2.5066 J-6.3403
G03 X9.4919 Y25.0496 I2.6398 J-5.0176
G03 X10.0286 Y23.5526 I4.4714 J0.7585
G03 X12.0537 Y21.1380 I14.1003 J9.7693
G03 X16.5892 Y16.5808 I257.4089 J251.6419
G02 X19.0438 Y13.7996 I-16.5677 J-17.0963
G02 X20.1874 Y11.0885 I-4.2468 J-3.3881
G02 X19.6213 Y6.8245 I-8.4656 J-1.0456
G02 X16.3415 Y2.8046 I-9.0486 J4.0346
G02 X7.9034 Y0.0000 I-8.7343 J12.1829
G02 X2.9516 Y0.7680 I-0.3431 J14.1361
G02 X0.0000 Y1.9162 I7.4025 J23.3974
G02 X2.3931 Y4.5843 I27.7064 J-22.4434
G02 X2.7459 Y4.8702 I0.9588 J-0.8224
G02 X4.7924 Y3.6229 I-6.8442 J-13.5326
G03 X9.8066 Y1.9368 I5.5000 J8.0575
G03 X13.9282 Y2.7388 I0.6788 J7.5030
G03 X16.6893 Y6.8240 I-2.6011 J4.7338
G03 X16.5515 Y9.2815 I-5.0884 J0.9473
G03 X15.1987 Y11.5201 I-6.9939 J-2.6986
G03 X11.3149 Y15.6189 I-42.3332 J-36.2222
G02 X6.8459 Y20.3799 I45.3743 J47.0696
G02 X6.0875 Y22.7377 I3.1484 J2.3136
G02 X6.1654 Y25.6804 I15.7794 J1.0547
G02 X7.1864 Y28.1302 I7.9514 J-1.8762
G02 X11.8937 Y32.4988 I10.2551 J-6.3300
G02 X17.4816 Y33.5548 I4.9867 J-11.0747
G02 X21.1625 Y32.6760 I-2.5014 J-18.6252
G00 Z20.0000


(No. 2: Engraving 3)
G00 X45.6003 Y12.6887 Z20.0000
G00 Z0.5000
G01 Z0.0000 F1270
G01 Z-38.0000
G03 X44.2218 Y4.8279 I170.7546 J-33.9951 F1000
G03 X44.2741 Y3.2253 I3.5362 J-0.6868
G03 X45.2155 Y2.6609 I0.8635 J0.3730
G03 X46.9183 Y3.1699 I0.0041 J3.0892
G03 X49.8767 Y5.6819 I-7.1512 J11.4198
G01 X51.2844 Y7.2024
G01 X51.1277 Y6.2367
G02 X50.5386 Y4.9829 I-3.1755 J0.7268
G02 X47.6540 Y2.1879 I-10.3753 J7.8214
G02 X44.5751 Y0.5254 I-6.7210 J8.7651
G02 X41.9902 Y0.4537 I-1.4078 J4.1242
G02 X40.1452 Y2.8913 I0.7880 J2.5135
G02 X40.2140 Y3.9158 I4.3033 J0.2253
G02 X42.1112 Y14.2645 I293.2379 J-48.4102
G03 X43.1944 Y20.7231 I-90.4098 J18.4827
G01 X43.1989 Y20.8384
G01 X43.1929 Y20.9015
G03 X42.6176 Y21.3804 I-1.0387 J-0.6626
G03 X38.3738 Y22.3352 I-4.5259 J-10.2077
G03 X34.1869 Y20.4148 I-0.0507 J-5.4138
G03 X32.2126 Y17.2515 I10.0519 J-8.4715
G03 X29.7600 Y6.6824 I24.4366 J-11.2398
G03 X29.9493 Y4.7984 I7.2948 J-0.2185
G03 X30.6222 Y3.6961 I1.7921 J0.3374
G03 X31.9545 Y3.5600 I0.8055 J1.2958
G03 X34.1935 Y4.8812 I-2.3175 J6.4850
G02 X35.6264 Y5.8764 I5.2165 J-5.9820
G01 X35.6596 Y5.8855
G01 X35.6838 Y5.8869
G01 X35.6987 Y5.8802
G01 X35.7037 Y5.8653
G02 X35.2256 Y3.6630 I-13.1868 J1.7099
G02 X34.2212 Y2.3107 I-3.2567 J1.3695
G02 X29.9378 Y0.2829 I-5.2625 J5.5785
G02 X27.2324 Y0.9492 I-0.5279 J3.6821
G02 X25.8236 Y3.2696 I2.6748 J3.2119
G02 X25.5372 Y7.0488 I12.7286 J2.8650
G02 X26.9548 Y12.7817 I15.0408 J-0.6776
G02 X31.6888 Y19.9960 I21.9948 J-9.2726
G02 X36.9033 Y23.5650 I10.7501 J-10.1125
G02 X41.7391 Y24.4764 I4.9350 J-12.9006
G02 X46.4558 Y24.3424 I0.4584 J-66.9686
G02 X47.9155 Y24.2266 I-0.4829 J-15.3432
G02 X47.2766 Y21.1329 I-30.3608 J4.6574
G03 X45.6003 Y12.6887 I367.2682 J-77.2972
G00 Z20.0000


(No. 3: Engraving 5)
G00 X62.4460 Y13.8553 Z20.0000
G00 Z0.5000
G01 Z0.0000 F1270
G01 Z-38.0000
G02 X63.8003 Y16.3402 I90.6881 J-47.8147 F1000
G02 X68.3959 Y22.1438 I21.7617 J-12.5110
G02 X71.5763 Y24.2948 I7.8028 J-8.1103
G02 X73.3976 Y24.7494 I2.0047 J-4.1550
G02 X75.6151 Y24.2537 I0.1752 J-4.4236
G02 X75.7995 Y24.0078 I-0.1522 J-0.3062
G02 X74.6017 Y22.0438 I-12.7968 J6.4569
G02 X73.4215 Y20.3904 I-21.5056 J14.1029
G02 X72.2837 Y20.8069 I0.7048 J3.6878
G03 X69.7495 Y20.6081 I-1.0835 J-2.4400
G03 X67.4169 Y18.6372 I6.0610 J-9.5388
G03 X63.3867 Y13.1474 I26.4710 J-23.6574
G03 X61.2520 Y9.3198 I36.9014 J-23.0894
G03 X60.3669 Y6.2716 I12.3901 J-5.2503
G02 X59.2728 Y0.8225 I-123.7968 J22.0231
G01 X59.2647 Y0.8043
G02 X57.7485 Y0.6717 I-1.4346 J7.6720
G02 X55.1655 Y0.6818 I-1.2196 J18.5515
G01 X55.1366 Y0.6996
G02 X56.1979 Y5.5435 I213.5533 J-44.2506
G03 X58.7056 Y19.2671 I-265.2181 J55.5540
G03 X58.8108 Y20.8008 I-6.1158 J1.1900
G03 X58.4466 Y21.9698 I-2.2158 J-0.0491
G03 X57.3598 Y22.3552 I-0.8530 J-0.6803
G03 X55.6449 Y21.5563 I1.0315 J-4.4543
G03 X53.3806 Y19.5847 I9.9952 J-13.7648
G01 X51.5016 Y17.6747
G02 X51.8487 Y19.0123 I4.6275 J-0.4870
G02 X53.2879 Y20.8245 I6.2827 J-3.5118
G02 X56.8237 Y23.7351 I13.4267 J-12.7080
G02 X59.3910 Y24.7354 I3.6599 J-5.5985
G02 X61.9917 Y23.9556 I0.5576 J-2.8669
G02 X62.6379 Y22.5485 I-1.2926 J-1.4455
G02 X62.3954 Y17.2534 I-19.3144 J-1.7687
G03 X61.6848 Y13.0980 I116.3184 J-22.0303
G03 X61.6409 Y12.5512 I1.7916 J-0.4191
G01 X61.6525 Y12.5510
G03 X62.4460 Y13.8553 I-7.2049 J5.2769
G00 Z20.0000


(No. 4: Engraving 6)
G00 X80.9663 Y9.8189 Z20.0000
G00 Z0.5000
G01 Z0.0000 F1270
G01 Z-38.0000
G03 X80.7706 Y5.9397 I14.1535 J-2.6584 F1000
G03 X81.1762 Y4.3226 I4.7232 J0.3250
G03 X82.2298 Y3.4575 I1.3068 J0.5174
G03 X83.4905 Y3.6980 I0.2316 J2.2101
G03 X85.5623 Y5.1749 I-4.0663 J7.8962
G02 X86.5024 Y5.8896 I2.7292 J-2.6141
G01 X86.5302 Y5.8963
G01 X86.5512 Y5.8962
G01 X86.5654 Y5.8891
G01 X86.5723 Y5.8748
G03 X86.2038 Y4.0400 I14.3652 J-3.8399
G02 X84.7709 Y1.8934 I-3.3558 J0.6886
G02 X81.5986 Y0.3755 I-5.3947 J7.2004
G02 X77.4577 Y1.7826 I-0.9378 J4.0367
G02 X76.7359 Y3.7880 I3.6264 J2.4379
G02 X78.5411 Y14.2235 I16.8473 J2.4596
G02 X83.4637 Y20.7028 I19.9917 J-10.0791
G02 X90.0446 Y24.2018 I10.0609 J-10.9843
G02 X92.5369 Y24.4490 I2.6189 J-13.7185
G02 X98.3655 Y24.3081 I1.6676 J-51.6657
G02 X98.8720 Y24.1893 I0.0385 J-0.9746
G02 X98.4460 Y21.8574 I-17.1704 J1.9318
G03 X95.4351 Y5.6480 I212.8755 J-47.9251
G03 X95.2806 Y3.9438 I12.1691 J-1.9630
G03 X95.4250 Y2.9869 I2.6616 J-0.0875
G03 X95.9354 Y2.7257 I0.4855 J0.3195
G03 X97.9079 Y3.1795 I0.4207 J2.6853
G03 X100.4387 Y5.2974 I-9.3354 J13.7265
G01 X102.3242 Y7.1288
G02 X101.9898 Y5.8261 I-5.0276 J0.5966
G02 X100.6004 Y3.9435 I-6.0318 J2.9975
G02 X96.3565 Y0.8631 I-10.1450 J9.5133
G02 X93.9719 Y0.2784 I-2.6256 J5.5528
G02 X92.1403 Y0.8240 I-0.1686 J2.7811
G02 X91.2348 Y2.6363 I1.5163 J1.8899
G02 X91.3801 Y5.5908 I15.4070 J0.7231
G02 X93.0536 Y14.8128 I145.1925 J-21.5847
G03 X94.0419 Y20.4625 I-89.5763 J18.5807
G03 X93.9306 Y21.1476 I-0.9905 J0.1906
G03 X93.3318 Y21.5418 I-0.9571 J-0.8019
G03 X90.3900 Y22.2823 I-5.2201 J-14.5242
G03 X86.2026 Y21.3847 I-0.8854 J-6.0860
G03 X84.4885 Y19.5823 I3.5843 J-5.1250
G03 X82.1003 Y14.3813 I19.1016 J-11.9198
G03 X80.9663 Y9.8189 I28.0212 J-9.3869
G00 Z20.0000


(No. 5: Engraving 7)
G00 X110.5396 Y10.2561 Z20.0000
G00 Z0.5000
G01 Z0.0000 F1270
G01 Z-38.0000
G03 X109.1751 Y6.4310 I9.8764 J-5.6789 F1000
G03 X108.1350 Y0.8114 I315.9628 J-61.3868
G02 X103.9146 Y0.5666 I-8.0277 J101.8675
G02 X104.5845 Y3.6868 I49.2975 J-8.9515
G03 X107.4739 Y18.4960 I-747.6606 J153.5609
G02 X108.7653 Y24.8011 I169.9614 J-31.5262
G02 X111.8764 Y31.9753 I21.9635 J-5.2628
G02 X117.3218 Y37.1475 I14.2037 J-9.5012
G02 X122.5029 Y38.5275 I5.4192 J-9.9300
G02 X126.4726 Y38.3502 I1.1020 J-19.8525
G02 X126.8349 Y38.1962 I-0.0483 J-0.6167
G02 X126.7490 Y37.8677 I-0.3220 J-0.0913
G02 X125.0257 Y35.9358 I-46.1930 J39.4695
G03 X124.3704 Y35.1938 I11.1126 J-10.4755
G02 X122.8468 Y35.7027 I2.2860 J9.3797
G03 X119.9980 Y36.2600 I-2.8433 J-6.9753
G03 X116.7040 Y35.1650 I0.3447 J-6.5394
G03 X115.0032 Y32.9955 I3.6688 J-4.6276
G03 X113.5698 Y28.8157 I21.1692 J-9.5955
G03 X111.6154 Y19.4543 I155.6581 J-37.3811
G03 X110.3328 Y12.6094 I1931.4153 J-365.4376
G01 X110.3361 Y12.5470
G01 X110.3486 Y12.5056
G01 X110.3702 Y12.4848
G01 X110.4003 Y12.4843
G03 X110.9159 Y13.1661 I-1.1803 J1.4283
G03 X111.7603 Y14.7899 I-32.6207 J17.9953
G02 X117.2164 Y22.1857 I27.3012 J-14.4302
G02 X119.2969 Y23.8393 I7.9617 J-7.8818
G02 X122.3586 Y24.7461 I3.2991 J-5.5163
G02 X124.8131 Y23.6886 I0.1003 J-3.1443
G02 X125.4101 Y22.0022 I-2.7653 J-1.9278
G02 X125.3353 Y19.0301 I-14.7594 J-1.1158
G02 X124.1678 Y11.8844 I-101.5200 J12.9184
G03 X122.9983 Y5.2021 I162.8514 J-31.9457
G03 X122.8893 Y3.6204 I6.1672 J-1.2196
G03 X124.0479 Y2.6254 I1.0378 J0.0364
G03 X125.7344 Y3.2447 I-0.5412 J4.0802
G03 X128.5923 Y5.6819 I-7.3981 J11.5691
G01 X130.0000 Y7.2024
G02 X129.7391 Y5.7643 I-6.1960 J0.3813
G02 X128.8059 Y4.4272 I-3.5335 J1.4721
G02 X125.3059 Y1.4817 I-14.3142 J13.4565
G02 X122.2155 Y0.2948 I-4.1342 J6.1474
G02 X119.8310 Y0.9339 I-0.4575 J3.0611
G02 X118.9530 Y2.7023 I1.9871 J2.0887
G02 X119.0368 Y5.0976 I9.6007 J0.8632
G02 X120.5938 Y14.1427 I202.4298 J-30.1890
G03 X121.4399 Y19.3008 I-70.6693 J14.2413
G03 X121.4206 Y20.5129 I-3.1559 J0.5559
G03 X120.7908 Y21.4147 I-1.4692 J-0.3552
G03 X119.6847 Y21.4723 I-0.6298 J-1.4439
G03 X118.0199 Y20.6347 I0.9394 J-3.9402
G03 X115.1671 Y17.5873 I11.4312 J-13.5603
G03 X110.5396 Y10.2561 I47.1115 J-34.8631
G00 Z20.0000
G00 X0.0000 Y0.0000

M05
M30
