(Project sws-holdrege)
(Created by Estlcam version 11 build 11.244)
(Machining time about 00:53:43 hours)

(Required tools:)
(Thin ball nose)
G21
G90
G94
M03 S30000
G00 Z10.0000


(No. 1: Engraving 37)
G00 X74.8898 Y339.2693
G00 Z0.5000
G01 Z0.0000 F500 S30000
G01 Z-6.0000
G01 Y353.7268 F1300
G02 X75.4910 Y353.7218 I0.2626 J-4.6204
G01 X75.5255 Y353.5687
G01 X75.5225 Y353.5822
G02 X75.7323 Y350.3808 I-27.4309 J-3.4050
G02 X75.9514 Y342.6763 I-6227.7717 J-180.9873
G03 X76.9987 Y341.7038 I1.0792 J0.1121
G01 X82.7172 Y341.5360
G01 X88.4357 Y341.3681
G03 X89.5525 Y342.4526 I0.0318 J1.0845
G01 Y353.7268
G01 X90.9015
G01 Y324.8119
G01 X89.5525
G01 Y339.0185
G03 X88.4357 Y340.1031 I-1.0850 J0.0000
G01 X82.7172 Y339.9352
G01 X76.9987 Y339.7674
G03 X75.9458 Y338.7066 I0.0318 J-1.0845
G01 X75.7817 Y331.2287
G01 X75.6408 Y324.8119
G01 X74.8898
G01 Y339.2693
G01 Z-12.0000 F500
G01 Y324.8119 F1300
G01 X75.6408
G01 X75.7817 Y331.2287
G01 X75.9458 Y338.7066
G02 X76.9987 Y339.7674 I1.0847 J-0.0238
G01 X82.7172 Y339.9352
G01 X88.4357 Y340.1031
G02 X89.5525 Y339.0185 I0.0318 J-1.0845
G01 Y324.8119
G01 X90.9015
G01 Y353.7268
G01 X89.5525
G01 Y342.4526
G02 X88.4357 Y341.3681 I-1.0850 J0.0000
G01 X82.7172 Y341.5360
G01 X76.9987 Y341.7038
G02 X75.9460 Y342.7582 I0.0318 J1.0845
G03 X75.6856 Y351.6632 I-536.8812 J-11.2407
G03 X75.5225 Y353.5822 I-13.6458 J-0.1939
G01 X75.5255 Y353.5687
G01 X75.4910 Y353.7218
G03 X74.8898 Y353.7268 I-0.4224 J-14.7780
G01 Y339.2693
G01 Z-18.0000 F500
G01 Y353.7268 F1300
G02 X75.4910 Y353.7218 I0.2626 J-4.6204
G01 X75.5255 Y353.5687
G01 X75.5225 Y353.5822
G02 X75.7323 Y350.3808 I-27.4309 J-3.4050
G02 X75.9514 Y342.6763 I-6227.7717 J-180.9873
G03 X76.9987 Y341.7038 I1.0792 J0.1121
G01 X82.7172 Y341.5360
G01 X88.4357 Y341.3681
G03 X89.5525 Y342.4526 I0.0318 J1.0845
G01 Y353.7268
G01 X90.9015
G01 Y324.8119
G01 X89.5525
G01 Y339.0185
G03 X88.4357 Y340.1031 I-1.0850 J0.0000
G01 X82.7172 Y339.9352
G01 X76.9987 Y339.7674
G03 X75.9458 Y338.7066 I0.0318 J-1.0845
G01 X75.7817 Y331.2287
G01 X75.6408 Y324.8119
G01 X74.8898
G01 Y339.2693
G01 Z-24.0000 F500
G01 Y324.8119 F1300
G01 X75.6408
G01 X75.7817 Y331.2287
G01 X75.9458 Y338.7066
G02 X76.9987 Y339.7674 I1.0847 J-0.0238
G01 X82.7172 Y339.9352
G01 X88.4357 Y340.1031
G02 X89.5525 Y339.0185 I0.0318 J-1.0845
G01 Y324.8119
G01 X90.9015
G01 Y353.7268
G01 X89.5525
G01 Y342.4526
G02 X88.4357 Y341.3681 I-1.0850 J0.0000
G01 X82.7172 Y341.5360
G01 X76.9987 Y341.7038
G02 X75.9460 Y342.7582 I0.0318 J1.0845
G03 X75.6856 Y351.6632 I-536.8812 J-11.2407
G03 X75.5225 Y353.5822 I-13.6458 J-0.1939
G01 X75.5255 Y353.5687
G01 X75.4910 Y353.7218
G03 X74.8898 Y353.7268 I-0.4224 J-14.7780
G01 Y339.2693
G01 Z-30.0000 F500
G01 Y353.7268 F1300
G02 X75.4910 Y353.7218 I0.2626 J-4.6204
G01 X75.5255 Y353.5687
G01 X75.5225 Y353.5822
G02 X75.7323 Y350.3808 I-27.4309 J-3.4050
G02 X75.9514 Y342.6763 I-6227.7717 J-180.9873
G03 X76.9987 Y341.7038 I1.0792 J0.1121
G01 X82.7172 Y341.5360
G01 X88.4357 Y341.3681
G03 X89.5525 Y342.4526 I0.0318 J1.0845
G01 Y353.7268
G01 X90.9015
G01 Y324.8119
G01 X89.5525
G01 Y339.0185
G03 X88.4357 Y340.1031 I-1.0850 J0.0000
G01 X82.7172 Y339.9352
G01 X76.9987 Y339.7674
G03 X75.9458 Y338.7066 I0.0318 J-1.0845
G01 X75.7817 Y331.2287
G01 X75.6408 Y324.8119
G01 X74.8898
G01 Y339.2693
G01 Z-32.0000 F500
G01 Y324.8119 F1300
G01 X75.6408
G01 X75.7817 Y331.2287
G01 X75.9458 Y338.7066
G02 X76.9987 Y339.7674 I1.0847 J-0.0238
G01 X82.7172 Y339.9352
G01 X88.4357 Y340.1031
G02 X89.5525 Y339.0185 I0.0318 J-1.0845
G01 Y324.8119
G01 X90.9015
G01 Y353.7268
G01 X89.5525
G01 Y342.4526
G02 X88.4357 Y341.3681 I-1.0850 J0.0000
G01 X82.7172 Y341.5360
G01 X76.9987 Y341.7038
G02 X75.9460 Y342.7582 I0.0318 J1.0845
G03 X75.6856 Y351.6632 I-536.8812 J-11.2407
G03 X75.5225 Y353.5822 I-13.6458 J-0.1939
G01 X75.5255 Y353.5687
G01 X75.4910 Y353.7218
G03 X74.8898 Y353.7268 I-0.4224 J-14.7780
G01 Y339.2693
G00 Z10.0000


(No. 2: Engraving 38)
G00 X99.7749 Y341.6239 Z10.0000
G00 Z0.5000
G01 Z0.0000 F500
G01 Z-6.0000
G03 X98.5570 Y335.7301 I11.8076 J-5.5127 F1300
G03 X99.3684 Y329.7664 I22.6531 J0.0448
G03 X100.9146 Y326.8342 I7.4340 J2.0463
G03 X104.9110 Y325.1006 I3.7573 J3.1882
G03 X108.2049 Y326.6569 I-0.3622 J5.0304
G03 X110.2194 Y330.4264 I-5.3131 J5.2624
G03 X110.5833 Y336.8152 I-21.5456 J4.4321
G03 X109.7121 Y341.3464 I-17.2939 J-0.9759
G03 X108.6777 Y343.3039 I-7.3671 J-2.6406
G02 X107.7673 Y345.7356 I4.8467 J3.2008
G01 X107.9869 Y345.5382
G01 X107.9742 Y345.5496
G02 X110.8333 Y341.1704 I-8.9311 J-8.9539
G02 X111.2846 Y338.5371 I-11.6872 J-3.3581
G02 X110.7399 Y329.5072 I-34.8514 J-2.4291
G02 X110.1476 Y327.6041 I-8.6160 J1.6375
G02 X106.4301 Y324.1939 I-5.8889 J2.6883
G02 X101.6836 Y324.9016 I-1.6718 J5.0584
G02 X99.1055 Y328.1068 I4.4664 J6.2320
G02 X97.8908 Y333.3736 I14.1480 J6.0366
G02 X98.4375 Y340.6986 I27.9669 J1.5956
G02 X100.2773 Y344.1619 I7.6105 J-1.8227
G02 X101.9258 Y345.7765 I7.1410 J-5.6421
G01 X101.9729 Y345.8062
G02 X101.1174 Y343.8866 I-6.7030 J1.8369
G03 X99.7937 Y341.6629 I13.6865 J-9.6528
G01 Z-12.0000 F500
G02 X101.1174 Y343.8866 I17.0259 J-8.6290 F1300
G03 X101.9729 Y345.8062 I-5.2205 J3.4771
G03 X100.5649 Y344.4906 I4.6452 J-6.3829
G03 X98.8951 Y342.0600 I6.6470 J-6.3551
G03 X98.1173 Y338.9116 I10.2401 J-4.2003
G03 X97.9673 Y332.5064 I27.5384 J-3.8489
G03 X99.3987 Y327.5179 I13.3630 J1.1346
G03 X102.6397 Y324.3738 I6.1123 J3.0582
G03 X108.3524 Y325.2776 I2.1419 J4.9678
G03 X110.6013 Y328.9207 I-4.3953 J5.2289
G03 X111.3402 Y334.7115 I-28.8294 J6.6209
G03 X111.0399 Y340.3812 I-25.7234 J1.4807
G03 X109.7443 Y343.3352 I-8.4286 J-1.9357
G03 X107.9742 Y345.5496 I-10.2407 J-6.3715
G01 X107.9869 Y345.5382
G01 X107.7673 Y345.7356
G03 X108.8875 Y343.0001 I5.9591 J0.8432
G02 X110.1127 Y339.9633 I-7.7064 J-4.8746
G02 X110.3677 Y331.1482 I-23.2924 J-5.0850
G02 X109.0661 Y327.6986 I-8.2725 J1.1510
G02 X106.0669 Y325.3214 I-4.9386 J3.1503
G02 X101.4641 Y326.2978 I-1.4495 J4.5042
G02 X99.5101 Y329.3336 I4.6034 J5.1098
G02 X98.6361 Y333.9925 I18.7238 J5.9238
G02 X98.8444 Y338.8586 I16.7381 J1.7212
G02 X99.7749 Y341.6239 I11.5939 J-2.3623
G01 Z-18.0000 F500
G03 X98.5570 Y335.7301 I11.8076 J-5.5127 F1300
G03 X99.3684 Y329.7664 I22.6531 J0.0448
G03 X100.9146 Y326.8342 I7.4340 J2.0463
G03 X104.9110 Y325.1006 I3.7573 J3.1882
G03 X108.2049 Y326.6569 I-0.3622 J5.0304
G03 X110.2194 Y330.4264 I-5.3131 J5.2624
G03 X110.5833 Y336.8152 I-21.5456 J4.4321
G03 X109.7121 Y341.3464 I-17.2939 J-0.9759
G03 X108.6777 Y343.3039 I-7.3671 J-2.6406
G02 X107.7673 Y345.7356 I4.8467 J3.2008
G01 X107.9869 Y345.5382
G01 X107.9742 Y345.5496
G02 X110.8333 Y341.1704 I-8.9311 J-8.9539
G02 X111.2846 Y338.5371 I-11.6872 J-3.3581
G02 X110.7399 Y329.5072 I-34.8514 J-2.4291
G02 X110.1476 Y327.6041 I-8.6160 J1.6375
G02 X106.4301 Y324.1939 I-5.8889 J2.6883
G02 X101.6836 Y324.9016 I-1.6718 J5.0584
G02 X99.1055 Y328.1068 I4.4664 J6.2320
G02 X97.8908 Y333.3736 I14.1480 J6.0366
G02 X98.4375 Y340.6986 I27.9669 J1.5956
G02 X100.2773 Y344.1619 I7.6105 J-1.8227
G02 X101.9258 Y345.7765 I7.1410 J-5.6421
G01 X101.9729 Y345.8062
G02 X101.1174 Y343.8866 I-6.7030 J1.8369
G03 X99.7937 Y341.6629 I13.6865 J-9.6528
G01 Z-24.0000 F500
G02 X101.1174 Y343.8866 I17.0259 J-8.6290 F1300
G03 X101.9729 Y345.8062 I-5.2205 J3.4771
G03 X100.5649 Y344.4906 I4.6452 J-6.3829
G03 X98.8951 Y342.0600 I6.6470 J-6.3551
G03 X98.1173 Y338.9116 I10.2401 J-4.2003
G03 X97.9673 Y332.5064 I27.5384 J-3.8489
G03 X99.3987 Y327.5179 I13.3630 J1.1346
G03 X102.6397 Y324.3738 I6.1123 J3.0582
G03 X108.3524 Y325.2776 I2.1419 J4.9678
G03 X110.6013 Y328.9207 I-4.3953 J5.2289
G03 X111.3402 Y334.7115 I-28.8294 J6.6209
G03 X111.0399 Y340.3812 I-25.7234 J1.4807
G03 X109.7443 Y343.3352 I-8.4286 J-1.9357
G03 X107.9742 Y345.5496 I-10.2407 J-6.3715
G01 X107.9869 Y345.5382
G01 X107.7673 Y345.7356
G03 X108.8875 Y343.0001 I5.9591 J0.8432
G02 X110.1127 Y339.9633 I-7.7064 J-4.8746
G02 X110.3677 Y331.1482 I-23.2924 J-5.0850
G02 X109.0661 Y327.6986 I-8.2725 J1.1510
G02 X106.0669 Y325.3214 I-4.9386 J3.1503
G02 X101.4641 Y326.2978 I-1.4495 J4.5042
G02 X99.5101 Y329.3336 I4.6034 J5.1098
G02 X98.6361 Y333.9925 I18.7238 J5.9238
G02 X98.8444 Y338.8586 I16.7381 J1.7212
G02 X99.7749 Y341.6239 I11.5939 J-2.3623
G01 Z-30.0000 F500
G03 X98.5570 Y335.7301 I11.8076 J-5.5127 F1300
G03 X99.3684 Y329.7664 I22.6531 J0.0448
G03 X100.9146 Y326.8342 I7.4340 J2.0463
G03 X104.9110 Y325.1006 I3.7573 J3.1882
G03 X108.2049 Y326.6569 I-0.3622 J5.0304
G03 X110.2194 Y330.4264 I-5.3131 J5.2624
G03 X110.5833 Y336.8152 I-21.5456 J4.4321
G03 X109.7121 Y341.3464 I-17.2939 J-0.9759
G03 X108.6777 Y343.3039 I-7.3671 J-2.6406
G02 X107.7673 Y345.7356 I4.8467 J3.2008
G01 X107.9869 Y345.5382
G01 X107.9742 Y345.5496
G02 X110.8333 Y341.1704 I-8.9311 J-8.9539
G02 X111.2846 Y338.5371 I-11.6872 J-3.3581
G02 X110.7399 Y329.5072 I-34.8514 J-2.4291
G02 X110.1476 Y327.6041 I-8.6160 J1.6375
G02 X106.4301 Y324.1939 I-5.8889 J2.6883
G02 X101.6836 Y324.9016 I-1.6718 J5.0584
G02 X99.1055 Y328.1068 I4.4664 J6.2320
G02 X97.8908 Y333.3736 I14.1480 J6.0366
G02 X98.4375 Y340.6986 I27.9669 J1.5956
G02 X100.2773 Y344.1619 I7.6105 J-1.8227
G02 X101.9258 Y345.7765 I7.1410 J-5.6421
G01 X101.9729 Y345.8062
G02 X101.1174 Y343.8866 I-6.7030 J1.8369
G03 X99.7937 Y341.6629 I13.6865 J-9.6528
G01 Z-32.0000 F500
G02 X101.1174 Y343.8866 I17.0259 J-8.6290 F1300
G03 X101.9729 Y345.8062 I-5.2205 J3.4771
G03 X100.5649 Y344.4906 I4.6452 J-6.3829
G03 X98.8951 Y342.0600 I6.6470 J-6.3551
G03 X98.1173 Y338.9116 I10.2401 J-4.2003
G03 X97.9673 Y332.5064 I27.5384 J-3.8489
G03 X99.3987 Y327.5179 I13.3630 J1.1346
G03 X102.6397 Y324.3738 I6.1123 J3.0582
G03 X108.3524 Y325.2776 I2.1419 J4.9678
G03 X110.6013 Y328.9207 I-4.3953 J5.2289
G03 X111.3402 Y334.7115 I-28.8294 J6.6209
G03 X111.0399 Y340.3812 I-25.7234 J1.4807
G03 X109.7443 Y343.3352 I-8.4286 J-1.9357
G03 X107.9742 Y345.5496 I-10.2407 J-6.3715
G01 X107.9869 Y345.5382
G01 X107.7673 Y345.7356
G03 X108.8875 Y343.0001 I5.9591 J0.8432
G02 X110.1127 Y339.9633 I-7.7064 J-4.8746
G02 X110.3677 Y331.1482 I-23.2924 J-5.0850
G02 X109.0661 Y327.6986 I-8.2725 J1.1510
G02 X106.0669 Y325.3214 I-4.9386 J3.1503
G02 X101.4641 Y326.2978 I-1.4495 J4.5042
G02 X99.5101 Y329.3336 I4.6034 J5.1098
G02 X98.6361 Y333.9925 I18.7238 J5.9238
G02 X98.8444 Y338.8586 I16.7381 J1.7212
G02 X99.7749 Y341.6239 I11.5939 J-2.3623
G00 Z10.0000


(No. 3: Engraving 39)
G00 X129.6494 Y338.2661 Z10.0000
G00 Z0.5000
G01 Z0.0000 F500
G01 Z-6.0000
G03 X129.1989 Y342.0412 I-28.4644 J-1.4824 F1300
G03 X128.7576 Y343.2618 I-3.4155 J-0.5449
G03 X126.6597 Y344.5860 I-2.7727 J-2.0688
G03 X122.7239 Y344.1658 I-1.2682 J-6.7633
G03 X121.2267 Y343.3487 I2.7691 J-6.8549
G01 X119.5096 Y342.1261
G03 X119.0539 Y341.2422 I0.6293 J-0.8838
G01 Y324.8119
G01 X118.2816
G02 X118.5139 Y340.9138 I2123.2252 J-22.5858
G02 X118.6765 Y344.8565 I58.8001 J-0.4489
G02 X118.8649 Y345.9908 I4.3359 J-0.1377
G01 X118.9730 Y346.0072
G01 X119.0544 Y346.0172
G03 X119.2982 Y344.6374 I3.1035 J-0.1631
G03 X121.4061 Y344.0474 I1.3257 J0.6758
G03 X123.0560 Y345.3377 I-3.8807 J6.6628
G02 X128.2944 Y345.7349 I2.8745 J-3.1683
G02 X128.9898 Y345.0772 I-1.9572 J-2.7659
G01 X130.3128 Y343.4181
G03 X131.8988 Y343.2989 I0.8483 J0.6764
G01 X133.5558 Y344.8354
G02 X137.1937 Y346.5303 I4.2090 J-4.2827
G02 X139.5110 Y345.8228 I0.2713 J-3.2603
G02 X141.0510 Y343.7143 I-1.8799 J-2.9897
G02 X141.5410 Y340.6118 I-15.9737 J-4.1124
G02 X141.8271 Y333.5258 I-147.3182 J-9.4976
G01 X142.0215 Y324.8119
G01 X141.1641
G03 X141.1155 Y335.9783 I-425.1855 J3.7313
G03 X140.7825 Y340.4561 I-31.7028 J-0.1058
G03 X140.0912 Y342.6868 I-6.8929 J-0.9137
G03 X137.5589 Y344.4993 I-3.0957 J-1.6500
G03 X134.6795 Y344.5285 I-1.5080 J-6.7179
G03 X132.2950 Y342.9913 I1.3001 J-4.6347
G03 X131.0900 Y341.1493 I3.1300 J-3.3628
G03 X130.7185 Y338.4169 I9.3893 J-2.6680
G03 X130.7363 Y332.2323 I156.9864 J-2.6420
G01 X130.8451 Y324.8119
G01 X130.1461
G03 X129.7721 Y336.1868 I-451.7355 J-9.1605
G03 X129.6501 Y338.2568 I-94.7042 J-4.5421
G01 Z-12.0000 F500
G02 X129.9026 Y332.8222 I-143.2891 J-9.3820 F1300
G01 X130.1461 Y324.8119
G01 X130.8451
G02 X130.6923 Y336.3123 I831.7922 J16.8006
G02 X130.8276 Y339.9382 I26.8082 J0.8148
G02 X132.2950 Y342.9913 I4.6453 J-0.3535
G02 X134.6795 Y344.5285 I3.6846 J-3.0976
G02 X137.6723 Y344.4741 I1.3694 J-7.0167
G02 X140.2683 Y342.3230 I-0.6587 J-3.4369
G02 X140.8861 Y339.7287 I-8.6899 J-3.4400
G02 X141.1385 Y334.7945 I-52.0558 J-5.1363
G02 X141.1641 Y324.8119 I-880.9307 J-7.2539
G01 X142.0215
G03 X141.7106 Y337.5994 I-730.9536 J-11.3759
G03 X141.3798 Y342.1121 I-44.5728 J-0.9991
G03 X140.9192 Y344.1005 I-8.9974 J-1.0365
G03 X139.5110 Y345.8228 I-3.2972 J-1.2591
G03 X136.6055 Y346.4571 I-2.1203 J-2.7401
G03 X133.5558 Y344.8354 I1.3620 J-6.2394
G01 X131.8988 Y343.2989
G02 X130.3128 Y343.4181 I-0.7377 J0.7956
G01 X128.9898 Y345.0772
G03 X125.4927 Y346.4249 I-2.9917 J-2.5520
G03 X122.8147 Y345.1141 I0.3965 J-4.2010
G02 X121.4061 Y344.0474 I-4.4523 J4.4163
G02 X119.4656 Y344.3703 I-0.7847 J1.2765
G02 X119.0575 Y345.8266 I1.9803 J1.3403
G01 X119.0544 Y346.0172
G01 X118.9730 Y346.0072
G01 X118.8649 Y345.9908
G03 X118.6344 Y344.3022 I7.2692 J-1.8522
G03 X118.4255 Y335.2954 I227.2112 J-9.7763
G01 X118.2816 Y324.8119
G01 X119.0539
G01 Y341.2422
G02 X119.5096 Y342.1261 I1.0850 J0.0000
G01 X121.2267 Y343.3487
G02 X126.2842 Y344.6564 I4.2240 J-5.9027
G02 X128.5670 Y343.5142 I-0.4040 J-3.6598
G02 X129.1989 Y342.0412 I-2.3788 J-1.8925
G02 X129.6494 Y338.2661 I-28.0139 J-5.2576
G01 Z-18.0000 F500
G03 X129.1989 Y342.0412 I-28.4644 J-1.4824 F1300
G03 X128.7576 Y343.2618 I-3.4155 J-0.5449
G03 X126.6597 Y344.5860 I-2.7727 J-2.0688
G03 X122.7239 Y344.1658 I-1.2682 J-6.7633
G03 X121.2267 Y343.3487 I2.7691 J-6.8549
G01 X119.5096 Y342.1261
G03 X119.0539 Y341.2422 I0.6293 J-0.8838
G01 Y324.8119
G01 X118.2816
G02 X118.5139 Y340.9138 I2123.2252 J-22.5858
G02 X118.6765 Y344.8565 I58.8001 J-0.4489
G02 X118.8649 Y345.9908 I4.3359 J-0.1377
G01 X118.9730 Y346.0072
G01 X119.0544 Y346.0172
G03 X119.2982 Y344.6374 I3.1035 J-0.1631
G03 X121.4061 Y344.0474 I1.3257 J0.6758
G03 X123.0560 Y345.3377 I-3.8807 J6.6628
G02 X128.2944 Y345.7349 I2.8745 J-3.1683
G02 X128.9898 Y345.0772 I-1.9572 J-2.7659
G01 X130.3128 Y343.4181
G03 X131.8988 Y343.2989 I0.8483 J0.6764
G01 X133.5558 Y344.8354
G02 X137.1937 Y346.5303 I4.2090 J-4.2827
G02 X139.5110 Y345.8228 I0.2713 J-3.2603
G02 X141.0510 Y343.7143 I-1.8799 J-2.9897
G02 X141.5410 Y340.6118 I-15.9737 J-4.1124
G02 X141.8271 Y333.5258 I-147.3182 J-9.4976
G01 X142.0215 Y324.8119
G01 X141.1641
G03 X141.1155 Y335.9783 I-425.1855 J3.7313
G03 X140.7825 Y340.4561 I-31.7028 J-0.1058
G03 X140.0912 Y342.6868 I-6.8929 J-0.9137
G03 X137.5589 Y344.4993 I-3.0957 J-1.6500
G03 X134.6795 Y344.5285 I-1.5080 J-6.7179
G03 X132.2950 Y342.9913 I1.3001 J-4.6347
G03 X131.0900 Y341.1493 I3.1300 J-3.3628
G03 X130.7185 Y338.4169 I9.3893 J-2.6680
G03 X130.7363 Y332.2323 I156.9864 J-2.6420
G01 X130.8451 Y324.8119
G01 X130.1461
G03 X129.7721 Y336.1868 I-451.7355 J-9.1605
G03 X129.6501 Y338.2568 I-94.7042 J-4.5421
G01 Z-24.0000 F500
G02 X129.9026 Y332.8222 I-143.2891 J-9.3820 F1300
G01 X130.1461 Y324.8119
G01 X130.8451
G02 X130.6923 Y336.3123 I831.7922 J16.8006
G02 X130.8276 Y339.9382 I26.8082 J0.8148
G02 X132.2950 Y342.9913 I4.6453 J-0.3535
G02 X134.6795 Y344.5285 I3.6846 J-3.0976
G02 X137.6723 Y344.4741 I1.3694 J-7.0167
G02 X140.2683 Y342.3230 I-0.6587 J-3.4369
G02 X140.8861 Y339.7287 I-8.6899 J-3.4400
G02 X141.1385 Y334.7945 I-52.0558 J-5.1363
G02 X141.1641 Y324.8119 I-880.9307 J-7.2539
G01 X142.0215
G03 X141.7106 Y337.5994 I-730.9536 J-11.3759
G03 X141.3798 Y342.1121 I-44.5728 J-0.9991
G03 X140.9192 Y344.1005 I-8.9974 J-1.0365
G03 X139.5110 Y345.8228 I-3.2972 J-1.2591
G03 X136.6055 Y346.4571 I-2.1203 J-2.7401
G03 X133.5558 Y344.8354 I1.3620 J-6.2394
G01 X131.8988 Y343.2989
G02 X130.3128 Y343.4181 I-0.7377 J0.7956
G01 X128.9898 Y345.0772
G03 X125.4927 Y346.4249 I-2.9917 J-2.5520
G03 X122.8147 Y345.1141 I0.3965 J-4.2010
G02 X121.4061 Y344.0474 I-4.4523 J4.4163
G02 X119.4656 Y344.3703 I-0.7847 J1.2765
G02 X119.0575 Y345.8266 I1.9803 J1.3403
G01 X119.0544 Y346.0172
G01 X118.9730 Y346.0072
G01 X118.8649 Y345.9908
G03 X118.6344 Y344.3022 I7.2692 J-1.8522
G03 X118.4255 Y335.2954 I227.2112 J-9.7763
G01 X118.2816 Y324.8119
G01 X119.0539
G01 Y341.2422
G02 X119.5096 Y342.1261 I1.0850 J0.0000
G01 X121.2267 Y343.3487
G02 X126.2842 Y344.6564 I4.2240 J-5.9027
G02 X128.5670 Y343.5142 I-0.4040 J-3.6598
G02 X129.1989 Y342.0412 I-2.3788 J-1.8925
G02 X129.6494 Y338.2661 I-28.0139 J-5.2576
G01 Z-30.0000 F500
G03 X129.1989 Y342.0412 I-28.4644 J-1.4824 F1300
G03 X128.7576 Y343.2618 I-3.4155 J-0.5449
G03 X126.6597 Y344.5860 I-2.7727 J-2.0688
G03 X122.7239 Y344.1658 I-1.2682 J-6.7633
G03 X121.2267 Y343.3487 I2.7691 J-6.8549
G01 X119.5096 Y342.1261
G03 X119.0539 Y341.2422 I0.6293 J-0.8838
G01 Y324.8119
G01 X118.2816
G02 X118.5139 Y340.9138 I2123.2252 J-22.5858
G02 X118.6765 Y344.8565 I58.8001 J-0.4489
G02 X118.8649 Y345.9908 I4.3359 J-0.1377
G01 X118.9730 Y346.0072
G01 X119.0544 Y346.0172
G03 X119.2982 Y344.6374 I3.1035 J-0.1631
G03 X121.4061 Y344.0474 I1.3257 J0.6758
G03 X123.0560 Y345.3377 I-3.8807 J6.6628
G02 X128.2944 Y345.7349 I2.8745 J-3.1683
G02 X128.9898 Y345.0772 I-1.9572 J-2.7659
G01 X130.3128 Y343.4181
G03 X131.8988 Y343.2989 I0.8483 J0.6764
G01 X133.5558 Y344.8354
G02 X137.1937 Y346.5303 I4.2090 J-4.2827
G02 X139.5110 Y345.8228 I0.2713 J-3.2603
G02 X141.0510 Y343.7143 I-1.8799 J-2.9897
G02 X141.5410 Y340.6118 I-15.9737 J-4.1124
G02 X141.8271 Y333.5258 I-147.3182 J-9.4976
G01 X142.0215 Y324.8119
G01 X141.1641
G03 X141.1155 Y335.9783 I-425.1855 J3.7313
G03 X140.7825 Y340.4561 I-31.7028 J-0.1058
G03 X140.0912 Y342.6868 I-6.8929 J-0.9137
G03 X137.5589 Y344.4993 I-3.0957 J-1.6500
G03 X134.6795 Y344.5285 I-1.5080 J-6.7179
G03 X132.2950 Y342.9913 I1.3001 J-4.6347
G03 X131.0900 Y341.1493 I3.1300 J-3.3628
G03 X130.7185 Y338.4169 I9.3893 J-2.6680
G03 X130.7363 Y332.2323 I156.9864 J-2.6420
G01 X130.8451 Y324.8119
G01 X130.1461
G03 X129.7721 Y336.1868 I-451.7355 J-9.1605
G03 X129.6501 Y338.2568 I-94.7042 J-4.5421
G01 Z-32.0000 F500
G02 X129.9026 Y332.8222 I-143.2891 J-9.3820 F1300
G01 X130.1461 Y324.8119
G01 X130.8451
G02 X130.6923 Y336.3123 I831.7922 J16.8006
G02 X130.8276 Y339.9382 I26.8082 J0.8148
G02 X132.2950 Y342.9913 I4.6453 J-0.3535
G02 X134.6795 Y344.5285 I3.6846 J-3.0976
G02 X137.6723 Y344.4741 I1.3694 J-7.0167
G02 X140.2683 Y342.3230 I-0.6587 J-3.4369
G02 X140.8861 Y339.7287 I-8.6899 J-3.4400
G02 X141.1385 Y334.7945 I-52.0558 J-5.1363
G02 X141.1641 Y324.8119 I-880.9307 J-7.2539
G01 X142.0215
G03 X141.7106 Y337.5994 I-730.9536 J-11.3759
G03 X141.3798 Y342.1121 I-44.5728 J-0.9991
G03 X140.9192 Y344.1005 I-8.9974 J-1.0365
G03 X139.5110 Y345.8228 I-3.2972 J-1.2591
G03 X136.6055 Y346.4571 I-2.1203 J-2.7401
G03 X133.5558 Y344.8354 I1.3620 J-6.2394
G01 X131.8988 Y343.2989
G02 X130.3128 Y343.4181 I-0.7377 J0.7956
G01 X128.9898 Y345.0772
G03 X125.4927 Y346.4249 I-2.9917 J-2.5520
G03 X122.8147 Y345.1141 I0.3965 J-4.2010
G02 X121.4061 Y344.0474 I-4.4523 J4.4163
G02 X119.4656 Y344.3703 I-0.7847 J1.2765
G02 X119.0575 Y345.8266 I1.9803 J1.3403
G01 X119.0544 Y346.0172
G01 X118.9730 Y346.0072
G01 X118.8649 Y345.9908
G03 X118.6344 Y344.3022 I7.2692 J-1.8522
G03 X118.4255 Y335.2954 I227.2112 J-9.7763
G01 X118.2816 Y324.8119
G01 X119.0539
G01 Y341.2422
G02 X119.5096 Y342.1261 I1.0850 J0.0000
G01 X121.2267 Y343.3487
G02 X126.2842 Y344.6564 I4.2240 J-5.9027
G02 X128.5670 Y343.5142 I-0.4040 J-3.6598
G02 X129.1989 Y342.0412 I-2.3788 J-1.8925
G02 X129.6494 Y338.2661 I-28.0139 J-5.2576
G00 Z10.0000


(No. 4: Engraving 40)
G00 X156.2716 Y336.7175 Z10.0000
G00 Z0.5000
G01 Z0.0000 F500
G01 Z-6.0000
G03 X160.2322 Y336.9450 I0.7118 J22.2014 F1300
G03 X161.0785 Y337.2214 I-0.3133 J2.3930
G03 X161.6886 Y338.2926 I-0.5736 J1.0360
G03 X161.0628 Y341.1058 I-9.1870 J-0.5672
G03 X159.5460 Y343.9667 I-9.5768 J-3.2452
G03 X158.0373 Y344.9668 I-2.4846 J-2.1098
G03 X153.1773 Y344.7597 I-2.2192 J-5.0503
G03 X150.4636 Y341.8409 I3.5852 J-6.0542
G03 X149.2400 Y337.3724 I10.3037 J-5.2232
G03 X150.0460 Y330.5156 I17.8517 J-1.3773
G03 X152.1801 Y327.0818 I7.7686 J2.4480
G03 X155.5328 Y325.3783 I5.0455 J5.7795
G03 X158.5591 Y325.5315 I1.2917 J4.4507
G03 X161.8690 Y327.0785 I-12.9374 J31.9962
G02 X161.7659 Y325.8906 I-3.9006 J-0.2598
G02 X161.1951 Y325.2655 I-1.1025 J0.4337
G02 X157.9685 Y324.2879 I-3.6176 J6.1259
G02 X153.1166 Y324.9338 I-1.0774 J10.4518
G02 X149.9547 Y328.2018 I2.5989 J5.6782
G02 X148.9019 Y332.8465 I12.9304 J5.3725
G02 X149.1464 Y339.2873 I26.4977 J2.2191
G02 X150.4086 Y343.1031 I11.9839 J-1.8473
G02 X152.9316 Y345.7069 I5.4359 J-2.7429
G02 X155.9242 Y346.3948 I2.8829 J-5.6882
G02 X158.4694 Y345.9838 I0.2523 J-6.5234
G02 X160.6452 Y343.8713 I-1.6623 J-3.8890
G02 X161.7010 Y340.6179 I-11.9082 J-5.6624
G02 X162.3600 Y335.9555 I-48.0541 J-9.1694
G02 X155.7314 Y335.9681 I-2.6368 J357.6944
G02 X154.0827 Y336.0743 I-0.1708 J10.1954
G01 X154.0711 Y336.0831
G02 X154.0754 Y336.6283 I7.8768 J0.2100
G01 X154.2412 Y336.6530
G01 X154.2249 Y336.6506
G02 X156.2758 Y336.7175 I1.8024 J-23.7713
G01 Z-12.0000 F500
G03 X154.2249 Y336.6506 I-0.4856 J-16.5765 F1300
G01 X154.2412 Y336.6530
G01 X154.0754 Y336.6283
G03 X154.0711 Y336.0831 I7.8724 J-0.3352
G01 X154.0827 Y336.0743
G03 X156.8600 Y335.9573 I2.2756 J20.9855
G03 X162.3600 Y335.9555 I3.4612 J2247.2152
G03 X161.7010 Y340.6179 I-48.7131 J-4.5071
G03 X160.6452 Y343.8713 I-11.9884 J-2.0924
G03 X159.1998 Y345.5943 I-4.0039 J-1.8910
G03 X157.0794 Y346.3282 I-2.5922 J-4.0596
G03 X154.0124 Y346.1414 I-1.0743 J-7.6311
G03 X150.7588 Y343.6823 I1.6347 J-5.5448
G03 X149.3280 Y340.1722 I9.3170 J-5.8445
G03 X148.8252 Y334.3555 I23.9805 J-5.0029
G03 X149.5836 Y329.1614 I18.2148 J0.0070
G03 X151.4759 Y326.0221 I6.9868 J2.0716
G03 X154.7119 Y324.4549 I4.2064 J4.5608
G03 X159.6874 Y324.5972 I2.1785 J10.8846
G03 X161.4904 Y325.4832 I-1.2183 J4.7569
G03 X161.8480 Y326.3383 I-0.7456 J0.8142
G03 X161.8690 Y327.0785 I-7.5925 J0.5858
G02 X159.1521 Y325.7680 I-22.3981 J42.9646
G02 X156.8883 Y325.1946 I-2.5302 J5.2337
G02 X154.6732 Y325.6365 I0.1907 J6.7288
G02 X150.6804 Y329.0461 I2.1115 J6.5153
G02 X149.3750 Y333.4354 I11.7590 J5.8857
G02 X149.5493 Y339.3405 I15.4244 J2.5000
G02 X151.4694 Y343.3438 I9.1220 J-1.9131
G02 X155.6045 Y345.4269 I4.3659 J-3.5205
G02 X159.0087 Y344.4762 I0.0550 J-6.3729
G02 X160.2899 Y342.8343 I-3.2180 J-3.8320
G02 X161.6365 Y338.9365 I-11.0739 J-6.0073
G02 X161.6700 Y338.0370 I-2.3301 J-0.5371
G02 X160.7700 Y337.0796 I-1.2146 J0.2401
G02 X158.3289 Y336.7541 I-2.6427 J10.5023
G02 X156.2716 Y336.7175 I-1.7306 J39.4844
G01 Z-18.0000 F500
G03 X160.2322 Y336.9450 I0.7118 J22.2014 F1300
G03 X161.0785 Y337.2214 I-0.3133 J2.3930
G03 X161.6886 Y338.2926 I-0.5736 J1.0360
G03 X161.0628 Y341.1058 I-9.1870 J-0.5672
G03 X159.5460 Y343.9667 I-9.5768 J-3.2452
G03 X158.0373 Y344.9668 I-2.4846 J-2.1098
G03 X153.1773 Y344.7597 I-2.2192 J-5.0503
G03 X150.4636 Y341.8409 I3.5852 J-6.0542
G03 X149.2400 Y337.3724 I10.3037 J-5.2232
G03 X150.0460 Y330.5156 I17.8517 J-1.3773
G03 X152.1801 Y327.0818 I7.7686 J2.4480
G03 X155.5328 Y325.3783 I5.0455 J5.7795
G03 X158.5591 Y325.5315 I1.2917 J4.4507
G03 X161.8690 Y327.0785 I-12.9374 J31.9962
G02 X161.7659 Y325.8906 I-3.9006 J-0.2598
G02 X161.1951 Y325.2655 I-1.1025 J0.4337
G02 X157.9685 Y324.2879 I-3.6176 J6.1259
G02 X153.1166 Y324.9338 I-1.0774 J10.4518
G02 X149.9547 Y328.2018 I2.5989 J5.6782
G02 X148.9019 Y332.8465 I12.9304 J5.3725
G02 X149.1464 Y339.2873 I26.4977 J2.2191
G02 X150.4086 Y343.1031 I11.9839 J-1.8473
G02 X152.9316 Y345.7069 I5.4359 J-2.7429
G02 X155.9242 Y346.3948 I2.8829 J-5.6882
G02 X158.4694 Y345.9838 I0.2523 J-6.5234
G02 X160.6452 Y343.8713 I-1.6623 J-3.8890
G02 X161.7010 Y340.6179 I-11.9082 J-5.6624
G02 X162.3600 Y335.9555 I-48.0541 J-9.1694
G02 X155.7314 Y335.9681 I-2.6368 J357.6944
G02 X154.0827 Y336.0743 I-0.1708 J10.1954
G01 X154.0711 Y336.0831
G02 X154.0754 Y336.6283 I7.8768 J0.2100
G01 X154.2412 Y336.6530
G01 X154.2249 Y336.6506
G02 X156.2758 Y336.7175 I1.8024 J-23.7713
G01 Z-24.0000 F500
G03 X154.2249 Y336.6506 I-0.4856 J-16.5765 F1300
G01 X154.2412 Y336.6530
G01 X154.0754 Y336.6283
G03 X154.0711 Y336.0831 I7.8724 J-0.3352
G01 X154.0827 Y336.0743
G03 X156.8600 Y335.9573 I2.2756 J20.9855
G03 X162.3600 Y335.9555 I3.4612 J2247.2152
G03 X161.7010 Y340.6179 I-48.7131 J-4.5071
G03 X160.6452 Y343.8713 I-11.9884 J-2.0924
G03 X159.1998 Y345.5943 I-4.0039 J-1.8910
G03 X157.0794 Y346.3282 I-2.5922 J-4.0596
G03 X154.0124 Y346.1414 I-1.0743 J-7.6311
G03 X150.7588 Y343.6823 I1.6347 J-5.5448
G03 X149.3280 Y340.1722 I9.3170 J-5.8445
G03 X148.8252 Y334.3555 I23.9805 J-5.0029
G03 X149.5836 Y329.1614 I18.2148 J0.0070
G03 X151.4759 Y326.0221 I6.9868 J2.0716
G03 X154.7119 Y324.4549 I4.2064 J4.5608
G03 X159.6874 Y324.5972 I2.1785 J10.8846
G03 X161.4904 Y325.4832 I-1.2183 J4.7569
G03 X161.8480 Y326.3383 I-0.7456 J0.8142
G03 X161.8690 Y327.0785 I-7.5925 J0.5858
G02 X159.1521 Y325.7680 I-22.3981 J42.9646
G02 X156.8883 Y325.1946 I-2.5302 J5.2337
G02 X154.6732 Y325.6365 I0.1907 J6.7288
G02 X150.6804 Y329.0461 I2.1115 J6.5153
G02 X149.3750 Y333.4354 I11.7590 J5.8857
G02 X149.5493 Y339.3405 I15.4244 J2.5000
G02 X151.4694 Y343.3438 I9.1220 J-1.9131
G02 X155.6045 Y345.4269 I4.3659 J-3.5205
G02 X159.0087 Y344.4762 I0.0550 J-6.3729
G02 X160.2899 Y342.8343 I-3.2180 J-3.8320
G02 X161.6365 Y338.9365 I-11.0739 J-6.0073
G02 X161.6700 Y338.0370 I-2.3301 J-0.5371
G02 X160.7700 Y337.0796 I-1.2146 J0.2401
G02 X158.3289 Y336.7541 I-2.6427 J10.5023
G02 X156.2716 Y336.7175 I-1.7306 J39.4844
G01 Z-30.0000 F500
G03 X160.2322 Y336.9450 I0.7118 J22.2014 F1300
G03 X161.0785 Y337.2214 I-0.3133 J2.3930
G03 X161.6886 Y338.2926 I-0.5736 J1.0360
G03 X161.0628 Y341.1058 I-9.1870 J-0.5672
G03 X159.5460 Y343.9667 I-9.5768 J-3.2452
G03 X158.0373 Y344.9668 I-2.4846 J-2.1098
G03 X153.1773 Y344.7597 I-2.2192 J-5.0503
G03 X150.4636 Y341.8409 I3.5852 J-6.0542
G03 X149.2400 Y337.3724 I10.3037 J-5.2232
G03 X150.0460 Y330.5156 I17.8517 J-1.3773
G03 X152.1801 Y327.0818 I7.7686 J2.4480
G03 X155.5328 Y325.3783 I5.0455 J5.7795
G03 X158.5591 Y325.5315 I1.2917 J4.4507
G03 X161.8690 Y327.0785 I-12.9374 J31.9962
G02 X161.7659 Y325.8906 I-3.9006 J-0.2598
G02 X161.1951 Y325.2655 I-1.1025 J0.4337
G02 X157.9685 Y324.2879 I-3.6176 J6.1259
G02 X153.1166 Y324.9338 I-1.0774 J10.4518
G02 X149.9547 Y328.2018 I2.5989 J5.6782
G02 X148.9019 Y332.8465 I12.9304 J5.3725
G02 X149.1464 Y339.2873 I26.4977 J2.2191
G02 X150.4086 Y343.1031 I11.9839 J-1.8473
G02 X152.9316 Y345.7069 I5.4359 J-2.7429
G02 X155.9242 Y346.3948 I2.8829 J-5.6882
G02 X158.4694 Y345.9838 I0.2523 J-6.5234
G02 X160.6452 Y343.8713 I-1.6623 J-3.8890
G02 X161.7010 Y340.6179 I-11.9082 J-5.6624
G02 X162.3600 Y335.9555 I-48.0541 J-9.1694
G02 X155.7314 Y335.9681 I-2.6368 J357.6944
G02 X154.0827 Y336.0743 I-0.1708 J10.1954
G01 X154.0711 Y336.0831
G02 X154.0754 Y336.6283 I7.8768 J0.2100
G01 X154.2412 Y336.6530
G01 X154.2249 Y336.6506
G02 X156.2758 Y336.7175 I1.8024 J-23.7713
G01 Z-32.0000 F500
G03 X154.2249 Y336.6506 I-0.4856 J-16.5765 F1300
G01 X154.2412 Y336.6530
G01 X154.0754 Y336.6283
G03 X154.0711 Y336.0831 I7.8724 J-0.3352
G01 X154.0827 Y336.0743
G03 X156.8600 Y335.9573 I2.2756 J20.9855
G03 X162.3600 Y335.9555 I3.4612 J2247.2152
G03 X161.7010 Y340.6179 I-48.7131 J-4.5071
G03 X160.6452 Y343.8713 I-11.9884 J-2.0924
G03 X159.1998 Y345.5943 I-4.0039 J-1.8910
G03 X157.0794 Y346.3282 I-2.5922 J-4.0596
G03 X154.0124 Y346.1414 I-1.0743 J-7.6311
G03 X150.7588 Y343.6823 I1.6347 J-5.5448
G03 X149.3280 Y340.1722 I9.3170 J-5.8445
G03 X148.8252 Y334.3555 I23.9805 J-5.0029
G03 X149.5836 Y329.1614 I18.2148 J0.0070
G03 X151.4759 Y326.0221 I6.9868 J2.0716
G03 X154.7119 Y324.4549 I4.2064 J4.5608
G03 X159.6874 Y324.5972 I2.1785 J10.8846
G03 X161.4904 Y325.4832 I-1.2183 J4.7569
G03 X161.8480 Y326.3383 I-0.7456 J0.8142
G03 X161.8690 Y327.0785 I-7.5925 J0.5858
G02 X159.1521 Y325.7680 I-22.3981 J42.9646
G02 X156.8883 Y325.1946 I-2.5302 J5.2337
G02 X154.6732 Y325.6365 I0.1907 J6.7288
G02 X150.6804 Y329.0461 I2.1115 J6.5153
G02 X149.3750 Y333.4354 I11.7590 J5.8857
G02 X149.5493 Y339.3405 I15.4244 J2.5000
G02 X151.4694 Y343.3438 I9.1220 J-1.9131
G02 X155.6045 Y345.4269 I4.3659 J-3.5205
G02 X159.0087 Y344.4762 I0.0550 J-6.3729
G02 X160.2899 Y342.8343 I-3.2180 J-3.8320
G02 X161.6365 Y338.9365 I-11.0739 J-6.0073
G02 X161.6700 Y338.0370 I-2.3301 J-0.5371
G02 X160.7700 Y337.0796 I-1.2146 J0.2401
G02 X158.3289 Y336.7541 I-2.6427 J10.5023
G02 X156.2716 Y336.7175 I-1.7306 J39.4844
G00 Z10.0000


(No. 5: Engraving 41)
G00 X191.3102 Y336.9031 Z10.0000
G00 Z0.5000
G01 Z0.0000 F500
G01 Z-6.0000
G03 X187.7713 Y338.1765 I-6.1674 J-11.5855 F1300
G02 X183.7509 Y339.4458 I4.3016 J20.6265
G02 X181.3438 Y341.0441 I2.8040 J6.8344
G02 X179.8509 Y344.2898 I4.2794 J3.9346
G02 X180.0571 Y349.0788 I11.4795 J1.9046
G02 X185.3026 Y354.0568 I6.5378 J-1.6364
G02 X189.9522 Y354.0221 I2.2404 J-11.3089
G02 X193.7502 Y352.8177 I-3.8694 J-18.7919
G02 X194.0096 Y352.6299 I-0.1595 J-0.4937
G02 X194.1234 Y351.6312 I-2.6054 J-0.8025
G02 X194.1270 Y350.4431 I-110.4352 J-0.9291
G03 X189.2630 Y352.6792 I-7.6758 J-10.2886
G03 X185.0228 Y352.6033 I-1.9695 J-8.4552
G03 X180.6824 Y347.4941 I1.4434 J-5.6244
G03 X180.9841 Y344.3920 I7.0660 J-0.8787
G03 X182.9971 Y342.0577 I4.3095 J1.6814
G03 X185.5684 Y340.9085 I6.7851 J11.7298
G03 X188.2974 Y340.0686 I38.5058 J120.2604
G02 X192.6043 Y338.3282 I-6.7593 J-22.9253
G02 X194.3887 Y336.1669 I-2.7964 J-4.1260
G02 X195.0460 Y331.6986 I-8.5127 J-3.5348
G02 X193.1212 Y326.6304 I-9.4657 J0.6953
G02 X191.2154 Y325.0415 I-4.6024 J3.5830
G02 X188.2717 Y324.3042 I-3.8369 J9.0729
G02 X182.2650 Y324.7769 I-1.7696 J15.9120
G02 X179.6403 Y326.0991 I2.1088 J7.4529
G02 X179.3218 Y326.8879 I0.7172 J0.7483
G02 X179.3060 Y328.3991 I11.2770 J0.8735
G03 X181.8277 Y326.6790 I5.2025 J4.9183
G03 X188.4510 Y325.6364 I5.4007 J12.7496
G03 X191.7482 Y326.8656 I-0.5260 J6.4475
G03 X193.7977 Y330.2610 I-3.3748 J4.3533
G03 X193.6177 Y334.1846 I-7.9973 J1.5991
G03 X191.3742 Y336.8652 I-4.6528 J-1.6150
G01 Z-12.0000 F500
G02 X193.9029 Y332.8509 I-2.4415 J-4.3415 F1300
G02 X193.4960 Y329.2197 I-7.8405 J-0.9599
G02 X190.0231 Y325.9719 I-5.0329 J1.9010
G02 X185.8487 Y325.6501 I-2.8543 J9.7875
G02 X180.7038 Y327.2602 I1.1290 J12.6319
G02 X179.3060 Y328.3991 I2.5308 J4.5336
G03 X179.3922 Y326.4874 I6.6611 J-0.6573
G03 X179.8549 Y325.9282 I0.9205 J0.2905
G03 X183.3612 Y324.5091 I4.9856 J7.2771
G03 X189.9222 Y324.5897 I3.0870 J15.7847
G03 X193.1212 Y326.6304 I-1.1233 J5.2887
G03 X195.0460 Y331.6986 I-7.7320 J5.8361
G03 X194.6478 Y335.5094 I-9.2189 J0.9629
G03 X192.7889 Y338.2083 I-5.1049 J-1.5265
G03 X189.9155 Y339.5184 I-7.9033 J-13.5278
G03 X186.9040 Y340.4801 I-12.9267 J-35.2817
G02 X183.9080 Y341.5694 I5.7365 J20.4427
G02 X181.8495 Y342.9851 I2.4908 J5.8262
G02 X180.6801 Y345.7556 I3.3569 J3.0489
G02 X181.1310 Y349.2576 I7.0858 J0.8677
G02 X185.1580 Y352.6407 I5.4056 J-2.3461
G02 X190.1493 Y352.4507 I2.1587 J-8.9447
G02 X194.1270 Y350.4431 I-4.2092 J-13.2841
G03 X194.0868 Y352.3132 I-14.5045 J0.6239
G03 X193.9987 Y352.6460 I-0.5913 J0.0216
G03 X193.1332 Y353.0804 I-1.4952 J-1.8998
G03 X187.9492 Y354.2695 I-6.3845 J-15.9400
G03 X183.8025 Y353.5630 I-0.6164 J-8.9046
G03 X180.0571 Y349.0788 I2.7268 J-6.0838
G03 X179.7709 Y344.9224 I11.8632 J-2.9049
G03 X180.4942 Y342.2246 I7.0873 J0.4544
G03 X183.1506 Y339.7370 I5.2087 J2.9000
G03 X186.8182 Y338.4098 I7.9396 J16.2090
G02 X189.4776 Y337.7059 I-6.5284 J-30.0383
G02 X191.3102 Y336.9031 I-2.9056 J-9.1258
G01 Z-18.0000 F500
G03 X187.7713 Y338.1765 I-6.1674 J-11.5855 F1300
G02 X183.7509 Y339.4458 I4.3016 J20.6265
G02 X181.3438 Y341.0441 I2.8040 J6.8344
G02 X179.8509 Y344.2898 I4.2794 J3.9346
G02 X180.0571 Y349.0788 I11.4795 J1.9046
G02 X185.3026 Y354.0568 I6.5378 J-1.6364
G02 X189.9522 Y354.0221 I2.2404 J-11.3089
G02 X193.7502 Y352.8177 I-3.8694 J-18.7919
G02 X194.0096 Y352.6299 I-0.1595 J-0.4937
G02 X194.1234 Y351.6312 I-2.6054 J-0.8025
G02 X194.1270 Y350.4431 I-110.4352 J-0.9291
G03 X189.2630 Y352.6792 I-7.6758 J-10.2886
G03 X185.0228 Y352.6033 I-1.9695 J-8.4552
G03 X180.6824 Y347.4941 I1.4434 J-5.6244
G03 X180.9841 Y344.3920 I7.0660 J-0.8787
G03 X182.9971 Y342.0577 I4.3095 J1.6814
G03 X185.5684 Y340.9085 I6.7851 J11.7298
G03 X188.2974 Y340.0686 I38.5058 J120.2604
G02 X192.6043 Y338.3282 I-6.7593 J-22.9253
G02 X194.3887 Y336.1669 I-2.7964 J-4.1260
G02 X195.0460 Y331.6986 I-8.5127 J-3.5348
G02 X193.1212 Y326.6304 I-9.4657 J0.6953
G02 X191.2154 Y325.0415 I-4.6024 J3.5830
G02 X188.2717 Y324.3042 I-3.8369 J9.0729
G02 X182.2650 Y324.7769 I-1.7696 J15.9120
G02 X179.6403 Y326.0991 I2.1088 J7.4529
G02 X179.3218 Y326.8879 I0.7172 J0.7483
G02 X179.3060 Y328.3991 I11.2770 J0.8735
G03 X181.8277 Y326.6790 I5.2025 J4.9183
G03 X188.4510 Y325.6364 I5.4007 J12.7496
G03 X191.7482 Y326.8656 I-0.5260 J6.4475
G03 X193.7977 Y330.2610 I-3.3748 J4.3533
G03 X193.6177 Y334.1846 I-7.9973 J1.5991
G03 X191.3742 Y336.8652 I-4.6528 J-1.6150
G01 Z-24.0000 F500
G02 X193.9029 Y332.8509 I-2.4415 J-4.3415 F1300
G02 X193.4960 Y329.2197 I-7.8405 J-0.9599
G02 X190.0231 Y325.9719 I-5.0329 J1.9010
G02 X185.8487 Y325.6501 I-2.8543 J9.7875
G02 X180.7038 Y327.2602 I1.1290 J12.6319
G02 X179.3060 Y328.3991 I2.5308 J4.5336
G03 X179.3922 Y326.4874 I6.6611 J-0.6573
G03 X179.8549 Y325.9282 I0.9205 J0.2905
G03 X183.3612 Y324.5091 I4.9856 J7.2771
G03 X189.9222 Y324.5897 I3.0870 J15.7847
G03 X193.1212 Y326.6304 I-1.1233 J5.2887
G03 X195.0460 Y331.6986 I-7.7320 J5.8361
G03 X194.6478 Y335.5094 I-9.2189 J0.9629
G03 X192.7889 Y338.2083 I-5.1049 J-1.5265
G03 X189.9155 Y339.5184 I-7.9033 J-13.5278
G03 X186.9040 Y340.4801 I-12.9267 J-35.2817
G02 X183.9080 Y341.5694 I5.7365 J20.4427
G02 X181.8495 Y342.9851 I2.4908 J5.8262
G02 X180.6801 Y345.7556 I3.3569 J3.0489
G02 X181.1310 Y349.2576 I7.0858 J0.8677
G02 X185.1580 Y352.6407 I5.4056 J-2.3461
G02 X190.1493 Y352.4507 I2.1587 J-8.9447
G02 X194.1270 Y350.4431 I-4.2092 J-13.2841
G03 X194.0868 Y352.3132 I-14.5045 J0.6239
G03 X193.9987 Y352.6460 I-0.5913 J0.0216
G03 X193.1332 Y353.0804 I-1.4952 J-1.8998
G03 X187.9492 Y354.2695 I-6.3845 J-15.9400
G03 X183.8025 Y353.5630 I-0.6164 J-8.9046
G03 X180.0571 Y349.0788 I2.7268 J-6.0838
G03 X179.7709 Y344.9224 I11.8632 J-2.9049
G03 X180.4942 Y342.2246 I7.0873 J0.4544
G03 X183.1506 Y339.7370 I5.2087 J2.9000
G03 X186.8182 Y338.4098 I7.9396 J16.2090
G02 X189.4776 Y337.7059 I-6.5284 J-30.0383
G02 X191.3102 Y336.9031 I-2.9056 J-9.1258
G01 Z-30.0000 F500
G03 X187.7713 Y338.1765 I-6.1674 J-11.5855 F1300
G02 X183.7509 Y339.4458 I4.3016 J20.6265
G02 X181.3438 Y341.0441 I2.8040 J6.8344
G02 X179.8509 Y344.2898 I4.2794 J3.9346
G02 X180.0571 Y349.0788 I11.4795 J1.9046
G02 X185.3026 Y354.0568 I6.5378 J-1.6364
G02 X189.9522 Y354.0221 I2.2404 J-11.3089
G02 X193.7502 Y352.8177 I-3.8694 J-18.7919
G02 X194.0096 Y352.6299 I-0.1595 J-0.4937
G02 X194.1234 Y351.6312 I-2.6054 J-0.8025
G02 X194.1270 Y350.4431 I-110.4352 J-0.9291
G03 X189.2630 Y352.6792 I-7.6758 J-10.2886
G03 X185.0228 Y352.6033 I-1.9695 J-8.4552
G03 X180.6824 Y347.4941 I1.4434 J-5.6244
G03 X180.9841 Y344.3920 I7.0660 J-0.8787
G03 X182.9971 Y342.0577 I4.3095 J1.6814
G03 X185.5684 Y340.9085 I6.7851 J11.7298
G03 X188.2974 Y340.0686 I38.5058 J120.2604
G02 X192.6043 Y338.3282 I-6.7593 J-22.9253
G02 X194.3887 Y336.1669 I-2.7964 J-4.1260
G02 X195.0460 Y331.6986 I-8.5127 J-3.5348
G02 X193.1212 Y326.6304 I-9.4657 J0.6953
G02 X191.2154 Y325.0415 I-4.6024 J3.5830
G02 X188.2717 Y324.3042 I-3.8369 J9.0729
G02 X182.2650 Y324.7769 I-1.7696 J15.9120
G02 X179.6403 Y326.0991 I2.1088 J7.4529
G02 X179.3218 Y326.8879 I0.7172 J0.7483
G02 X179.3060 Y328.3991 I11.2770 J0.8735
G03 X181.8277 Y326.6790 I5.2025 J4.9183
G03 X188.4510 Y325.6364 I5.4007 J12.7496
G03 X191.7482 Y326.8656 I-0.5260 J6.4475
G03 X193.7977 Y330.2610 I-3.3748 J4.3533
G03 X193.6177 Y334.1846 I-7.9973 J1.5991
G03 X191.3742 Y336.8652 I-4.6528 J-1.6150
G01 Z-32.0000 F500
G02 X193.9029 Y332.8509 I-2.4415 J-4.3415 F1300
G02 X193.4960 Y329.2197 I-7.8405 J-0.9599
G02 X190.0231 Y325.9719 I-5.0329 J1.9010
G02 X185.8487 Y325.6501 I-2.8543 J9.7875
G02 X180.7038 Y327.2602 I1.1290 J12.6319
G02 X179.3060 Y328.3991 I2.5308 J4.5336
G03 X179.3922 Y326.4874 I6.6611 J-0.6573
G03 X179.8549 Y325.9282 I0.9205 J0.2905
G03 X183.3612 Y324.5091 I4.9856 J7.2771
G03 X189.9222 Y324.5897 I3.0870 J15.7847
G03 X193.1212 Y326.6304 I-1.1233 J5.2887
G03 X195.0460 Y331.6986 I-7.7320 J5.8361
G03 X194.6478 Y335.5094 I-9.2189 J0.9629
G03 X192.7889 Y338.2083 I-5.1049 J-1.5265
G03 X189.9155 Y339.5184 I-7.9033 J-13.5278
G03 X186.9040 Y340.4801 I-12.9267 J-35.2817
G02 X183.9080 Y341.5694 I5.7365 J20.4427
G02 X181.8495 Y342.9851 I2.4908 J5.8262
G02 X180.6801 Y345.7556 I3.3569 J3.0489
G02 X181.1310 Y349.2576 I7.0858 J0.8677
G02 X185.1580 Y352.6407 I5.4056 J-2.3461
G02 X190.1493 Y352.4507 I2.1587 J-8.9447
G02 X194.1270 Y350.4431 I-4.2092 J-13.2841
G03 X194.0868 Y352.3132 I-14.5045 J0.6239
G03 X193.9987 Y352.6460 I-0.5913 J0.0216
G03 X193.1332 Y353.0804 I-1.4952 J-1.8998
G03 X187.9492 Y354.2695 I-6.3845 J-15.9400
G03 X183.8025 Y353.5630 I-0.6164 J-8.9046
G03 X180.0571 Y349.0788 I2.7268 J-6.0838
G03 X179.7709 Y344.9224 I11.8632 J-2.9049
G03 X180.4942 Y342.2246 I7.0873 J0.4544
G03 X183.1506 Y339.7370 I5.2087 J2.9000
G03 X186.8182 Y338.4098 I7.9396 J16.2090
G02 X189.4776 Y337.7059 I-6.5284 J-30.0383
G02 X191.3102 Y336.9031 I-2.9056 J-9.1258
G00 Z10.0000


(No. 6: Engraving 42)
G00 X208.1673 Y334.8020 Z10.0000
G00 Z0.5000
G01 Z0.0000 F500
G01 Z-6.0000
G03 X207.1070 Y330.6105 I440.0081 J-113.5436 F1300
G02 X205.8136 Y326.0116 I-49.1583 J11.3442
G02 X205.3873 Y325.0961 I-3.8191 J1.2213
G02 X205.1360 Y324.9434 I-0.2553 J0.1369
G01 X204.9968 Y324.9234
G01 X204.8371 Y324.9060
G01 X204.8243 Y324.9112
G02 X204.2591 Y326.7696 I9.2230 J3.8204
G02 X202.4999 Y335.6810 I332.3052 J70.2299
G03 X200.5305 Y345.9730 I-2432.6650 J-460.1640
G01 X200.5138 Y346.1009
G02 X201.0074 Y346.0792 I0.1504 J-2.2018
G02 X201.4873 Y344.4415 I-5.7974 J-2.5882
G02 X202.7030 Y337.7789 I-1766.1656 J-325.6915
G03 X204.5408 Y328.8929 I180.6533 J32.7297
G03 X206.6019 Y329.0445 I1.0063 J0.4058
G01 X208.5099 Y336.9625
G02 X210.4921 Y344.9449 I237.2587 J-54.6811
G02 X210.9010 Y346.1042 I5.9802 J-1.4573
G01 X211.0407 Y346.1024
G01 X211.1550 Y346.0958
G02 X211.7675 Y344.4021 I-7.8399 J-3.7930
G02 X213.9657 Y335.3588 I-276.1645 J-71.9174
G03 X215.4579 Y329.8281 I61.0684 J13.5095
G03 X215.9361 Y328.9786 I1.7194 J0.4087
G03 X217.7305 Y329.4271 I0.7508 J0.8098
G03 X218.5204 Y333.1785 I-43.5349 J11.1265
G03 X220.8143 Y346.0929 I-488.7417 J93.4702
G02 X221.4310 Y346.0979 I0.3724 J-7.8871
G02 X220.7581 Y342.5446 I-120.0360 J20.8918
G02 X217.9874 Y328.3923 I-628.3680 J115.6720
G02 X217.2208 Y325.3935 I-27.2687 J5.3736
G01 X217.0944 Y325.0730
G01 X217.0326 Y324.9531
G02 X216.5136 Y324.9076 I-1.7917 J17.4521
G02 X215.9569 Y326.3436 I6.0223 J3.1610
G02 X214.1767 Y333.3409 I199.8419 J54.5672
G03 X212.2497 Y340.5861 I-133.6779 J-31.6739
G03 X210.8605 Y341.5032 I-1.1512 J-0.2331
G03 X209.9475 Y340.6308 I0.3697 J-1.3009
G03 X208.8185 Y337.1866 I29.9374 J-11.7205
G03 X208.1686 Y334.8068 I116.1077 J-32.9861
G01 Z-12.0000 F500
G02 X209.8448 Y340.3909 I56.5327 J-13.9263 F1300
G02 X210.5669 Y341.3862 I1.7960 J-0.5433
G02 X212.1834 Y340.7674 I0.5485 J-0.9880
G02 X213.5572 Y335.8077 I-72.6855 J-22.8030
G03 X215.6335 Y327.4900 I4592.2823 J1141.9719
G03 X216.3390 Y325.2467 I15.9169 J3.7727
G01 X216.4363 Y325.0400
G01 X216.5136 Y324.9076
G03 X217.0326 Y324.9531 I-1.2727 J17.4976
G03 X217.7561 Y327.3622 I-11.1845 J4.6720
G03 X220.2061 Y339.6516 I-422.6071 J90.6404
G03 X221.4087 Y345.9623 I-448.8305 J88.8019
G01 X221.4310 Y346.0979
G03 X220.8143 Y346.0929 I-0.2333 J-9.2439
G02 X217.8877 Y330.0125 I-445.3309 J72.7421
G02 X217.6185 Y329.1916 I-2.0711 J0.2246
G02 X215.6124 Y329.4403 I-0.9408 J0.6265
G02 X214.4643 Y333.3267 I30.3835 J11.0891
G03 X212.1362 Y343.0278 I-8273.0922 J-1980.2352
G03 X211.3452 Y345.6966 I-21.2636 J-4.8505
G01 X211.2395 Y345.9392
G01 X211.1550 Y346.0958
G01 X211.0407 Y346.1024
G01 X210.9010 Y346.1042
G03 X210.3353 Y344.3847 I9.8244 J-4.1847
G03 X208.5099 Y336.9625 I374.9492 J-96.1528
G01 X206.6019 Y329.0445
G02 X204.4871 Y329.0670 I-1.0548 J0.2542
G02 X201.6936 Y343.3917 I283.5025 J62.7206
G03 X201.1463 Y345.7656 I-14.8746 J-2.1791
G03 X201.0074 Y346.0792 I-1.0571 J-0.2809
G03 X200.5138 Y346.1009 I-0.3432 J-2.1800
G03 X202.0423 Y338.0863 I5198.2536 J987.2170
G02 X202.8155 Y334.0199 I-7102.1688 J-1352.5280
G03 X204.3983 Y326.2004 I156.6243 J27.6337
G03 X204.8243 Y324.9112 I6.4064 J1.4023
G01 X204.8371 Y324.9060
G03 X205.2848 Y324.9855 I0.0421 J1.0640
G03 X205.6847 Y325.6779 I-1.4061 J1.2738
G03 X206.8704 Y329.6842 I-35.5417 J12.6977
G02 X208.1673 Y334.8020 I441.5145 J-109.1606
G01 Z-18.0000 F500
G03 X207.1070 Y330.6105 I440.0081 J-113.5436 F1300
G02 X205.8136 Y326.0116 I-49.1583 J11.3442
G02 X205.3873 Y325.0961 I-3.8191 J1.2213
G02 X205.1360 Y324.9434 I-0.2553 J0.1369
G01 X204.9968 Y324.9234
G01 X204.8371 Y324.9060
G01 X204.8243 Y324.9112
G02 X204.2591 Y326.7696 I9.2230 J3.8204
G02 X202.4999 Y335.6810 I332.3052 J70.2299
G03 X200.5305 Y345.9730 I-2432.6650 J-460.1640
G01 X200.5138 Y346.1009
G02 X201.0074 Y346.0792 I0.1504 J-2.2018
G02 X201.4873 Y344.4415 I-5.7974 J-2.5882
G02 X202.7030 Y337.7789 I-1766.1656 J-325.6915
G03 X204.5408 Y328.8929 I180.6533 J32.7297
G03 X206.6019 Y329.0445 I1.0063 J0.4058
G01 X208.5099 Y336.9625
G02 X210.4921 Y344.9449 I237.2587 J-54.6811
G02 X210.9010 Y346.1042 I5.9802 J-1.4573
G01 X211.0407 Y346.1024
G01 X211.1550 Y346.0958
G02 X211.7675 Y344.4021 I-7.8399 J-3.7930
G02 X213.9657 Y335.3588 I-276.1645 J-71.9174
G03 X215.4579 Y329.8281 I61.0684 J13.5095
G03 X215.9361 Y328.9786 I1.7194 J0.4087
G03 X217.7305 Y329.4271 I0.7508 J0.8098
G03 X218.5204 Y333.1785 I-43.5349 J11.1265
G03 X220.8143 Y346.0929 I-488.7417 J93.4702
G02 X221.4310 Y346.0979 I0.3724 J-7.8871
G02 X220.7581 Y342.5446 I-120.0360 J20.8918
G02 X217.9874 Y328.3923 I-628.3680 J115.6720
G02 X217.2208 Y325.3935 I-27.2687 J5.3736
G01 X217.0944 Y325.0730
G01 X217.0326 Y324.9531
G02 X216.5136 Y324.9076 I-1.7917 J17.4521
G02 X215.9569 Y326.3436 I6.0223 J3.1610
G02 X214.1767 Y333.3409 I199.8419 J54.5672
G03 X212.2497 Y340.5861 I-133.6779 J-31.6739
G03 X210.8605 Y341.5032 I-1.1512 J-0.2331
G03 X209.9475 Y340.6308 I0.3697 J-1.3009
G03 X208.8185 Y337.1866 I29.9374 J-11.7205
G03 X208.1686 Y334.8068 I116.1077 J-32.9861
G01 Z-24.0000 F500
G02 X209.8448 Y340.3909 I56.5327 J-13.9263 F1300
G02 X210.5669 Y341.3862 I1.7960 J-0.5433
G02 X212.1834 Y340.7674 I0.5485 J-0.9880
G02 X213.5572 Y335.8077 I-72.6855 J-22.8030
G03 X215.6335 Y327.4900 I4592.2823 J1141.9719
G03 X216.3390 Y325.2467 I15.9169 J3.7727
G01 X216.4363 Y325.0400
G01 X216.5136 Y324.9076
G03 X217.0326 Y324.9531 I-1.2727 J17.4976
G03 X217.7561 Y327.3622 I-11.1845 J4.6720
G03 X220.2061 Y339.6516 I-422.6071 J90.6404
G03 X221.4087 Y345.9623 I-448.8305 J88.8019
G01 X221.4310 Y346.0979
G03 X220.8143 Y346.0929 I-0.2333 J-9.2439
G02 X217.8877 Y330.0125 I-445.3309 J72.7421
G02 X217.6185 Y329.1916 I-2.0711 J0.2246
G02 X215.6124 Y329.4403 I-0.9408 J0.6265
G02 X214.4643 Y333.3267 I30.3835 J11.0891
G03 X212.1362 Y343.0278 I-8273.0922 J-1980.2352
G03 X211.3452 Y345.6966 I-21.2636 J-4.8505
G01 X211.2395 Y345.9392
G01 X211.1550 Y346.0958
G01 X211.0407 Y346.1024
G01 X210.9010 Y346.1042
G03 X210.3353 Y344.3847 I9.8244 J-4.1847
G03 X208.5099 Y336.9625 I374.9492 J-96.1528
G01 X206.6019 Y329.0445
G02 X204.4871 Y329.0670 I-1.0548 J0.2542
G02 X201.6936 Y343.3917 I283.5025 J62.7206
G03 X201.1463 Y345.7656 I-14.8746 J-2.1791
G03 X201.0074 Y346.0792 I-1.0571 J-0.2809
G03 X200.5138 Y346.1009 I-0.3432 J-2.1800
G03 X202.0423 Y338.0863 I5198.2536 J987.2170
G02 X202.8155 Y334.0199 I-7102.1688 J-1352.5280
G03 X204.3983 Y326.2004 I156.6243 J27.6337
G03 X204.8243 Y324.9112 I6.4064 J1.4023
G01 X204.8371 Y324.9060
G03 X205.2848 Y324.9855 I0.0421 J1.0640
G03 X205.6847 Y325.6779 I-1.4061 J1.2738
G03 X206.8704 Y329.6842 I-35.5417 J12.6977
G02 X208.1673 Y334.8020 I441.5145 J-109.1606
G01 Z-30.0000 F500
G03 X207.1070 Y330.6105 I440.0081 J-113.5436 F1300
G02 X205.8136 Y326.0116 I-49.1583 J11.3442
G02 X205.3873 Y325.0961 I-3.8191 J1.2213
G02 X205.1360 Y324.9434 I-0.2553 J0.1369
G01 X204.9968 Y324.9234
G01 X204.8371 Y324.9060
G01 X204.8243 Y324.9112
G02 X204.2591 Y326.7696 I9.2230 J3.8204
G02 X202.4999 Y335.6810 I332.3052 J70.2299
G03 X200.5305 Y345.9730 I-2432.6650 J-460.1640
G01 X200.5138 Y346.1009
G02 X201.0074 Y346.0792 I0.1504 J-2.2018
G02 X201.4873 Y344.4415 I-5.7974 J-2.5882
G02 X202.7030 Y337.7789 I-1766.1656 J-325.6915
G03 X204.5408 Y328.8929 I180.6533 J32.7297
G03 X206.6019 Y329.0445 I1.0063 J0.4058
G01 X208.5099 Y336.9625
G02 X210.4921 Y344.9449 I237.2587 J-54.6811
G02 X210.9010 Y346.1042 I5.9802 J-1.4573
G01 X211.0407 Y346.1024
G01 X211.1550 Y346.0958
G02 X211.7675 Y344.4021 I-7.8399 J-3.7930
G02 X213.9657 Y335.3588 I-276.1645 J-71.9174
G03 X215.4579 Y329.8281 I61.0684 J13.5095
G03 X215.9361 Y328.9786 I1.7194 J0.4087
G03 X217.7305 Y329.4271 I0.7508 J0.8098
G03 X218.5204 Y333.1785 I-43.5349 J11.1265
G03 X220.8143 Y346.0929 I-488.7417 J93.4702
G02 X221.4310 Y346.0979 I0.3724 J-7.8871
G02 X220.7581 Y342.5446 I-120.0360 J20.8918
G02 X217.9874 Y328.3923 I-628.3680 J115.6720
G02 X217.2208 Y325.3935 I-27.2687 J5.3736
G01 X217.0944 Y325.0730
G01 X217.0326 Y324.9531
G02 X216.5136 Y324.9076 I-1.7917 J17.4521
G02 X215.9569 Y326.3436 I6.0223 J3.1610
G02 X214.1767 Y333.3409 I199.8419 J54.5672
G03 X212.2497 Y340.5861 I-133.6779 J-31.6739
G03 X210.8605 Y341.5032 I-1.1512 J-0.2331
G03 X209.9475 Y340.6308 I0.3697 J-1.3009
G03 X208.8185 Y337.1866 I29.9374 J-11.7205
G03 X208.1686 Y334.8068 I116.1077 J-32.9861
G01 Z-32.0000 F500
G02 X209.8448 Y340.3909 I56.5327 J-13.9263 F1300
G02 X210.5669 Y341.3862 I1.7960 J-0.5433
G02 X212.1834 Y340.7674 I0.5485 J-0.9880
G02 X213.5572 Y335.8077 I-72.6855 J-22.8030
G03 X215.6335 Y327.4900 I4592.2823 J1141.9719
G03 X216.3390 Y325.2467 I15.9169 J3.7727
G01 X216.4363 Y325.0400
G01 X216.5136 Y324.9076
G03 X217.0326 Y324.9531 I-1.2727 J17.4976
G03 X217.7561 Y327.3622 I-11.1845 J4.6720
G03 X220.2061 Y339.6516 I-422.6071 J90.6404
G03 X221.4087 Y345.9623 I-448.8305 J88.8019
G01 X221.4310 Y346.0979
G03 X220.8143 Y346.0929 I-0.2333 J-9.2439
G02 X217.8877 Y330.0125 I-445.3309 J72.7421
G02 X217.6185 Y329.1916 I-2.0711 J0.2246
G02 X215.6124 Y329.4403 I-0.9408 J0.6265
G02 X214.4643 Y333.3267 I30.3835 J11.0891
G03 X212.1362 Y343.0278 I-8273.0922 J-1980.2352
G03 X211.3452 Y345.6966 I-21.2636 J-4.8505
G01 X211.2395 Y345.9392
G01 X211.1550 Y346.0958
G01 X211.0407 Y346.1024
G01 X210.9010 Y346.1042
G03 X210.3353 Y344.3847 I9.8244 J-4.1847
G03 X208.5099 Y336.9625 I374.9492 J-96.1528
G01 X206.6019 Y329.0445
G02 X204.4871 Y329.0670 I-1.0548 J0.2542
G02 X201.6936 Y343.3917 I283.5025 J62.7206
G03 X201.1463 Y345.7656 I-14.8746 J-2.1791
G03 X201.0074 Y346.0792 I-1.0571 J-0.2809
G03 X200.5138 Y346.1009 I-0.3432 J-2.1800
G03 X202.0423 Y338.0863 I5198.2536 J987.2170
G02 X202.8155 Y334.0199 I-7102.1688 J-1352.5280
G03 X204.3983 Y326.2004 I156.6243 J27.6337
G03 X204.8243 Y324.9112 I6.4064 J1.4023
G01 X204.8371 Y324.9060
G03 X205.2848 Y324.9855 I0.0421 J1.0640
G03 X205.6847 Y325.6779 I-1.4061 J1.2738
G03 X206.8704 Y329.6842 I-35.5417 J12.6977
G02 X208.1673 Y334.8020 I441.5145 J-109.1606
G00 Z10.0000


(No. 7: Engraving 43)
G00 X241.5461 Y335.9555 Z10.0000
G00 Z0.5000
G01 Z0.0000 F500
G01 Z-6.0000
G02 X234.1730 Y335.9687 I-3.0500 J356.3221 F1300
G02 X232.6636 Y336.0757 I-0.2002 J7.8718
G02 X232.6678 Y336.6344 I7.6878 J0.2218
G01 X232.7773 Y336.6523
G01 X232.7589 Y336.6493
G02 X236.0476 Y336.7202 I2.4704 J-38.2735
G03 X238.0706 Y336.8550 I0.3919 J9.3689
G03 X239.5849 Y338.1827 I-0.2687 J1.8339
G03 X239.6987 Y339.5031 I-4.4848 J1.0514
G03 X235.9319 Y345.0268 I-5.9113 J0.0151
G03 X229.2159 Y342.7103 I-1.8659 J-5.4842
G03 X227.7066 Y338.4339 I8.5307 J-5.4153
G03 X228.2110 Y331.0181 I19.2969 J-2.4125
G03 X229.8306 Y327.8036 I8.4025 J2.2182
G03 X235.0059 Y325.4140 I5.0172 J4.0671
G03 X240.4611 Y327.1551 I-0.3322 J10.4578
G02 X240.3659 Y325.8052 I-5.0738 J-0.3202
G02 X240.0182 Y325.4329 I-0.5818 J0.1948
G02 X237.0316 Y324.4595 I-4.0859 J7.4673
G02 X232.6804 Y324.3550 I-2.4939 J13.2022
G02 X230.7265 Y325.3788 I0.9241 J4.1402
G02 X227.7303 Y329.6752 I5.7794 J7.2233
G02 X226.9740 Y336.8893 I15.5663 J5.2786
G02 X228.4294 Y342.3622 I16.7802 J-1.5325
G02 X230.8251 Y345.3918 I7.3326 J-3.3363
G02 X236.0578 Y346.2852 I3.4879 J-4.6576
G02 X239.0076 Y343.7967 I-1.9672 J-5.3242
G02 X240.3428 Y339.6774 I-9.1693 J-5.2481
G01 X240.4193 Y338.8314
G01 X240.4483 Y337.9300
G01 X240.4611 Y334.8660
G01 Z-12.0000 F500
G01 X240.4483 Y337.9300 F1300
G03 X239.6029 Y342.6169 I-12.0645 J0.2436
G03 X237.4665 Y345.5331 I-6.2314 J-2.3246
G03 X232.8494 Y346.3659 I-3.1616 J-4.3123
G03 X229.3873 Y343.9431 I1.6866 J-6.0951
G03 X227.4413 Y339.5330 I9.7196 J-6.9231
G03 X227.2984 Y331.1199 I17.2293 J-4.5005
G03 X229.3918 Y326.6784 I10.6430 J2.3022
G03 X231.6621 Y324.7240 I6.9170 J5.7392
G03 X233.6097 Y324.2473 I1.9814 J3.8786
G03 X238.9555 Y324.9369 I0.7795 J15.0214
G03 X240.1921 Y325.5538 I-1.7610 J5.0779
G03 X240.4281 Y326.1332 I-0.4713 J0.5298
G03 X240.4611 Y327.1551 I-10.4361 J0.8486
G02 X234.9625 Y325.4159 I-5.7489 J8.6138
G02 X229.4272 Y328.3496 I-0.1373 J6.4297
G02 X228.0120 Y331.7756 I8.8105 J5.6449
G02 X227.8211 Y339.1378 I19.0913 J4.1786
G02 X229.2493 Y342.7551 I8.9096 J-1.4273
G02 X235.9319 Y345.0268 I4.8196 J-3.2127
G02 X239.6979 Y339.2349 I-2.1666 J-5.5290
G02 X239.4279 Y337.7942 I-2.8022 J-0.2206
G02 X237.7867 Y336.8051 I-1.7572 J1.0595
G02 X234.6178 Y336.7174 I-2.3623 J28.0778
G03 X232.7589 Y336.6493 I-0.4309 J-13.6434
G01 X232.7773 Y336.6523
G01 X232.6678 Y336.6344
G03 X232.6636 Y336.0757 I7.6836 J-0.3368
G03 X235.2293 Y335.9574 I2.0912 J17.4719
G03 X241.5461 Y335.9555 I3.8243 J2188.4764
G01 Z-18.0000 F500
G02 X234.1730 Y335.9687 I-3.0500 J356.3221 F1300
G02 X232.6636 Y336.0757 I-0.2002 J7.8718
G02 X232.6678 Y336.6344 I7.6878 J0.2218
G01 X232.7773 Y336.6523
G01 X232.7589 Y336.6493
G02 X236.0476 Y336.7202 I2.4704 J-38.2735
G03 X238.0706 Y336.8550 I0.3919 J9.3689
G03 X239.5849 Y338.1827 I-0.2687 J1.8339
G03 X239.6987 Y339.5031 I-4.4848 J1.0514
G03 X235.9319 Y345.0268 I-5.9113 J0.0151
G03 X229.2159 Y342.7103 I-1.8659 J-5.4842
G03 X227.7066 Y338.4339 I8.5307 J-5.4153
G03 X228.2110 Y331.0181 I19.2969 J-2.4125
G03 X229.8306 Y327.8036 I8.4025 J2.2182
G03 X235.0059 Y325.4140 I5.0172 J4.0671
G03 X240.4611 Y327.1551 I-0.3322 J10.4578
G02 X240.3659 Y325.8052 I-5.0738 J-0.3202
G02 X240.0182 Y325.4329 I-0.5818 J0.1948
G02 X237.0316 Y324.4595 I-4.0859 J7.4673
G02 X232.6804 Y324.3550 I-2.4939 J13.2022
G02 X230.7265 Y325.3788 I0.9241 J4.1402
G02 X227.7303 Y329.6752 I5.7794 J7.2233
G02 X226.9740 Y336.8893 I15.5663 J5.2786
G02 X228.4294 Y342.3622 I16.7802 J-1.5325
G02 X230.8251 Y345.3918 I7.3326 J-3.3363
G02 X236.0578 Y346.2852 I3.4879 J-4.6576
G02 X239.0076 Y343.7967 I-1.9672 J-5.3242
G02 X240.3428 Y339.6774 I-9.1693 J-5.2481
G01 X240.4193 Y338.8314
G01 X240.4483 Y337.9300
G01 X240.4611 Y334.8660
G01 Z-24.0000 F500
G01 X240.4483 Y337.9300 F1300
G03 X239.6029 Y342.6169 I-12.0645 J0.2436
G03 X237.4665 Y345.5331 I-6.2314 J-2.3246
G03 X232.8494 Y346.3659 I-3.1616 J-4.3123
G03 X229.3873 Y343.9431 I1.6866 J-6.0951
G03 X227.4413 Y339.5330 I9.7196 J-6.9231
G03 X227.2984 Y331.1199 I17.2293 J-4.5005
G03 X229.3918 Y326.6784 I10.6430 J2.3022
G03 X231.6621 Y324.7240 I6.9170 J5.7392
G03 X233.6097 Y324.2473 I1.9814 J3.8786
G03 X238.9555 Y324.9369 I0.7795 J15.0214
G03 X240.1921 Y325.5538 I-1.7610 J5.0779
G03 X240.4281 Y326.1332 I-0.4713 J0.5298
G03 X240.4611 Y327.1551 I-10.4361 J0.8486
G02 X234.9625 Y325.4159 I-5.7489 J8.6138
G02 X229.4272 Y328.3496 I-0.1373 J6.4297
G02 X228.0120 Y331.7756 I8.8105 J5.6449
G02 X227.8211 Y339.1378 I19.0913 J4.1786
G02 X229.2493 Y342.7551 I8.9096 J-1.4273
G02 X235.9319 Y345.0268 I4.8196 J-3.2127
G02 X239.6979 Y339.2349 I-2.1666 J-5.5290
G02 X239.4279 Y337.7942 I-2.8022 J-0.2206
G02 X237.7867 Y336.8051 I-1.7572 J1.0595
G02 X234.6178 Y336.7174 I-2.3623 J28.0778
G03 X232.7589 Y336.6493 I-0.4309 J-13.6434
G01 X232.7773 Y336.6523
G01 X232.6678 Y336.6344
G03 X232.6636 Y336.0757 I7.6836 J-0.3368
G03 X235.2293 Y335.9574 I2.0912 J17.4719
G03 X241.5461 Y335.9555 I3.8243 J2188.4764
G01 Z-30.0000 F500
G02 X234.1730 Y335.9687 I-3.0500 J356.3221 F1300
G02 X232.6636 Y336.0757 I-0.2002 J7.8718
G02 X232.6678 Y336.6344 I7.6878 J0.2218
G01 X232.7773 Y336.6523
G01 X232.7589 Y336.6493
G02 X236.0476 Y336.7202 I2.4704 J-38.2735
G03 X238.0706 Y336.8550 I0.3919 J9.3689
G03 X239.5849 Y338.1827 I-0.2687 J1.8339
G03 X239.6987 Y339.5031 I-4.4848 J1.0514
G03 X235.9319 Y345.0268 I-5.9113 J0.0151
G03 X229.2159 Y342.7103 I-1.8659 J-5.4842
G03 X227.7066 Y338.4339 I8.5307 J-5.4153
G03 X228.2110 Y331.0181 I19.2969 J-2.4125
G03 X229.8306 Y327.8036 I8.4025 J2.2182
G03 X235.0059 Y325.4140 I5.0172 J4.0671
G03 X240.4611 Y327.1551 I-0.3322 J10.4578
G02 X240.3659 Y325.8052 I-5.0738 J-0.3202
G02 X240.0182 Y325.4329 I-0.5818 J0.1948
G02 X237.0316 Y324.4595 I-4.0859 J7.4673
G02 X232.6804 Y324.3550 I-2.4939 J13.2022
G02 X230.7265 Y325.3788 I0.9241 J4.1402
G02 X227.7303 Y329.6752 I5.7794 J7.2233
G02 X226.9740 Y336.8893 I15.5663 J5.2786
G02 X228.4294 Y342.3622 I16.7802 J-1.5325
G02 X230.8251 Y345.3918 I7.3326 J-3.3363
G02 X236.0578 Y346.2852 I3.4879 J-4.6576
G02 X239.0076 Y343.7967 I-1.9672 J-5.3242
G02 X240.3428 Y339.6774 I-9.1693 J-5.2481
G01 X240.4193 Y338.8314
G01 X240.4483 Y337.9300
G01 X240.4611 Y334.8660
G01 Z-32.0000 F500
G01 X240.4483 Y337.9300 F1300
G03 X239.6029 Y342.6169 I-12.0645 J0.2436
G03 X237.4665 Y345.5331 I-6.2314 J-2.3246
G03 X232.8494 Y346.3659 I-3.1616 J-4.3123
G03 X229.3873 Y343.9431 I1.6866 J-6.0951
G03 X227.4413 Y339.5330 I9.7196 J-6.9231
G03 X227.2984 Y331.1199 I17.2293 J-4.5005
G03 X229.3918 Y326.6784 I10.6430 J2.3022
G03 X231.6621 Y324.7240 I6.9170 J5.7392
G03 X233.6097 Y324.2473 I1.9814 J3.8786
G03 X238.9555 Y324.9369 I0.7795 J15.0214
G03 X240.1921 Y325.5538 I-1.7610 J5.0779
G03 X240.4281 Y326.1332 I-0.4713 J0.5298
G03 X240.4611 Y327.1551 I-10.4361 J0.8486
G02 X234.9625 Y325.4159 I-5.7489 J8.6138
G02 X229.4272 Y328.3496 I-0.1373 J6.4297
G02 X228.0120 Y331.7756 I8.8105 J5.6449
G02 X227.8211 Y339.1378 I19.0913 J4.1786
G02 X229.2493 Y342.7551 I8.9096 J-1.4273
G02 X235.9319 Y345.0268 I4.8196 J-3.2127
G02 X239.6979 Y339.2349 I-2.1666 J-5.5290
G02 X239.4279 Y337.7942 I-2.8022 J-0.2206
G02 X237.7867 Y336.8051 I-1.7572 J1.0595
G02 X234.6178 Y336.7174 I-2.3623 J28.0778
G03 X232.7589 Y336.6493 I-0.4309 J-13.6434
G01 X232.7773 Y336.6523
G01 X232.6678 Y336.6344
G03 X232.6636 Y336.0757 I7.6836 J-0.3368
G03 X235.2293 Y335.9574 I2.0912 J17.4719
G03 X241.5461 Y335.9555 I3.8243 J2188.4764
G00 Z10.0000


(No. 8: Engraving 44)
G00 X261.0680 Y335.9555 Z10.0000
G00 Z0.5000
G01 Z0.0000 F500
G01 Z-6.0000
G02 X253.5678 Y335.9685 I-3.1037 J372.9464 F1300
G02 X252.0196 Y336.0712 I-0.1454 J9.5350
G02 X252.0226 Y336.6344 I6.8851 J0.2459
G01 X252.1320 Y336.6523
G01 X252.1136 Y336.6493
G02 X255.3524 Y336.7221 I2.4890 J-38.6796
G03 X257.6127 Y336.9243 I0.3550 J8.7669
G03 X259.0382 Y338.7013 I-0.4389 J1.8124
G03 X258.6371 Y340.9949 I-5.2762 J0.2593
G03 X256.7307 Y344.3181 I-10.3370 J-3.7217
G03 X254.5602 Y345.2670 I-2.2009 J-2.0775
G03 X251.8805 Y345.0550 I-0.3608 J-12.4847
G03 X247.7647 Y341.5194 I1.1302 J-5.4791
G03 X247.0237 Y338.2889 I11.2363 J-4.2774
G03 X247.2685 Y331.6988 I24.0869 J-2.4049
G03 X248.7283 Y328.0654 I9.0152 J1.5120
G03 X253.0465 Y325.3995 I5.4658 J4.0232
G03 X257.7727 Y326.1413 I1.2843 J7.2446
G03 X259.2294 Y327.0031 I-5.3427 J10.6918
G02 X259.1004 Y325.8226 I-3.4954 J-0.2154
G02 X258.4281 Y325.1865 I-1.2290 J0.6256
G02 X255.9419 Y324.4046 I-3.0482 J5.3482
G02 X251.0517 Y324.6493 I-1.8204 J12.6066
G02 X249.2309 Y325.7435 I0.9809 J3.6942
G02 X246.9264 Y329.0841 I6.5592 J6.9901
G02 X246.4882 Y332.0548 I9.7154 J2.9509
G02 X246.5414 Y339.0624 I84.5820 J2.8619
G02 X247.0585 Y341.6584 I7.9675 J-0.2377
G02 X250.5233 Y345.6949 I8.3326 J-3.6471
G02 X253.9167 Y346.5038 I2.8288 J-4.3445
G02 X257.1625 Y345.0170 I-0.5100 J-5.3998
G02 X258.9263 Y341.8741 I-5.5716 J-5.1932
G02 X259.6204 Y338.2830 I-18.1566 J-5.3722
G01 X259.9889 Y334.7577
G01 Z-12.0000 F500
G01 X259.6204 Y338.2830 F1300
G03 X258.7277 Y342.4527 I-16.1011 J-1.2666
G03 X257.1625 Y345.0170 I-6.3508 J-2.1167
G03 X253.5844 Y346.5344 I-3.8408 J-4.0795
G03 X250.1867 Y345.4796 I-0.1037 J-5.6656
G03 X246.9745 Y341.4406 I5.2733 J-7.4907
G03 X246.5132 Y338.6336 I9.5821 J-3.0160
G03 X246.5401 Y331.1603 I82.2503 J-3.4412
G03 X247.0132 Y328.8600 I7.1980 J0.2816
G03 X250.0022 Y325.0991 I8.9723 J4.0625
G03 X251.8188 Y324.4722 I2.4906 J4.2719
G03 X257.1636 Y324.6521 I2.2416 J12.8914
G03 X258.9239 Y325.5479 I-0.9205 J3.9864
G03 X259.2092 Y326.4016 I-0.9950 J0.8070
G03 X259.2294 Y327.0031 I-8.1102 J0.5731
G02 X255.4194 Y325.3675 I-5.4424 J7.4221
G02 X249.7617 Y326.9301 I-1.0786 J7.1184
G02 X247.5589 Y330.5271 I4.9667 J5.5146
G02 X246.9126 Y335.9000 I18.1522 J4.9088
G02 X247.2296 Y339.6885 I19.1154 J0.3082
G02 X248.0385 Y342.1089 I8.3788 J-1.4551
G02 X251.8805 Y345.0550 I4.9116 J-2.4269
G02 X255.0935 Y345.2079 I2.0720 J-9.7080
G02 X257.0705 Y343.9119 I-0.5250 J-2.9570
G02 X259.0022 Y339.6703 I-8.6486 J-6.4993
G02 X258.7933 Y337.8124 I-2.9188 J-0.6126
G02 X257.2977 Y336.8490 I-1.7258 J1.0365
G02 X254.4510 Y336.7181 I-2.2404 J17.7001
G03 X252.1136 Y336.6493 I-0.6044 J-19.2250
G01 X252.1320 Y336.6523
G01 X252.0226 Y336.6344
G03 X252.0196 Y336.0712 I6.8822 J-0.3173
G03 X254.6434 Y335.9574 I2.1582 J19.4605
G03 X261.0680 Y335.9555 I3.8903 J2327.5620
G01 Z-18.0000 F500
G02 X253.5678 Y335.9685 I-3.1037 J372.9464 F1300
G02 X252.0196 Y336.0712 I-0.1454 J9.5350
G02 X252.0226 Y336.6344 I6.8851 J0.2459
G01 X252.1320 Y336.6523
G01 X252.1136 Y336.6493
G02 X255.3524 Y336.7221 I2.4890 J-38.6796
G03 X257.6127 Y336.9243 I0.3550 J8.7669
G03 X259.0382 Y338.7013 I-0.4389 J1.8124
G03 X258.6371 Y340.9949 I-5.2762 J0.2593
G03 X256.7307 Y344.3181 I-10.3370 J-3.7217
G03 X254.5602 Y345.2670 I-2.2009 J-2.0775
G03 X251.8805 Y345.0550 I-0.3608 J-12.4847
G03 X247.7647 Y341.5194 I1.1302 J-5.4791
G03 X247.0237 Y338.2889 I11.2363 J-4.2774
G03 X247.2685 Y331.6988 I24.0869 J-2.4049
G03 X248.7283 Y328.0654 I9.0152 J1.5120
G03 X253.0465 Y325.3995 I5.4658 J4.0232
G03 X257.7727 Y326.1413 I1.2843 J7.2446
G03 X259.2294 Y327.0031 I-5.3427 J10.6918
G02 X259.1004 Y325.8226 I-3.4954 J-0.2154
G02 X258.4281 Y325.1865 I-1.2290 J0.6256
G02 X255.9419 Y324.4046 I-3.0482 J5.3482
G02 X251.0517 Y324.6493 I-1.8204 J12.6066
G02 X249.2309 Y325.7435 I0.9809 J3.6942
G02 X246.9264 Y329.0841 I6.5592 J6.9901
G02 X246.4882 Y332.0548 I9.7154 J2.9509
G02 X246.5414 Y339.0624 I84.5820 J2.8619
G02 X247.0585 Y341.6584 I7.9675 J-0.2377
G02 X250.5233 Y345.6949 I8.3326 J-3.6471
G02 X253.9167 Y346.5038 I2.8288 J-4.3445
G02 X257.1625 Y345.0170 I-0.5100 J-5.3998
G02 X258.9263 Y341.8741 I-5.5716 J-5.1932
G02 X259.6204 Y338.2830 I-18.1566 J-5.3722
G01 X259.9889 Y334.7577
G01 Z-24.0000 F500
G01 X259.6204 Y338.2830 F1300
G03 X258.7277 Y342.4527 I-16.1011 J-1.2666
G03 X257.1625 Y345.0170 I-6.3508 J-2.1167
G03 X253.5844 Y346.5344 I-3.8408 J-4.0795
G03 X250.1867 Y345.4796 I-0.1037 J-5.6656
G03 X246.9745 Y341.4406 I5.2733 J-7.4907
G03 X246.5132 Y338.6336 I9.5821 J-3.0160
G03 X246.5401 Y331.1603 I82.2503 J-3.4412
G03 X247.0132 Y328.8600 I7.1980 J0.2816
G03 X250.0022 Y325.0991 I8.9723 J4.0625
G03 X251.8188 Y324.4722 I2.4906 J4.2719
G03 X257.1636 Y324.6521 I2.2416 J12.8914
G03 X258.9239 Y325.5479 I-0.9205 J3.9864
G03 X259.2092 Y326.4016 I-0.9950 J0.8070
G03 X259.2294 Y327.0031 I-8.1102 J0.5731
G02 X255.4194 Y325.3675 I-5.4424 J7.4221
G02 X249.7617 Y326.9301 I-1.0786 J7.1184
G02 X247.5589 Y330.5271 I4.9667 J5.5146
G02 X246.9126 Y335.9000 I18.1522 J4.9088
G02 X247.2296 Y339.6885 I19.1154 J0.3082
G02 X248.0385 Y342.1089 I8.3788 J-1.4551
G02 X251.8805 Y345.0550 I4.9116 J-2.4269
G02 X255.0935 Y345.2079 I2.0720 J-9.7080
G02 X257.0705 Y343.9119 I-0.5250 J-2.9570
G02 X259.0022 Y339.6703 I-8.6486 J-6.4993
G02 X258.7933 Y337.8124 I-2.9188 J-0.6126
G02 X257.2977 Y336.8490 I-1.7258 J1.0365
G02 X254.4510 Y336.7181 I-2.2404 J17.7001
G03 X252.1136 Y336.6493 I-0.6044 J-19.2250
G01 X252.1320 Y336.6523
G01 X252.0226 Y336.6344
G03 X252.0196 Y336.0712 I6.8822 J-0.3173
G03 X254.6434 Y335.9574 I2.1582 J19.4605
G03 X261.0680 Y335.9555 I3.8903 J2327.5620
G01 Z-30.0000 F500
G02 X253.5678 Y335.9685 I-3.1037 J372.9464 F1300
G02 X252.0196 Y336.0712 I-0.1454 J9.5350
G02 X252.0226 Y336.6344 I6.8851 J0.2459
G01 X252.1320 Y336.6523
G01 X252.1136 Y336.6493
G02 X255.3524 Y336.7221 I2.4890 J-38.6796
G03 X257.6127 Y336.9243 I0.3550 J8.7669
G03 X259.0382 Y338.7013 I-0.4389 J1.8124
G03 X258.6371 Y340.9949 I-5.2762 J0.2593
G03 X256.7307 Y344.3181 I-10.3370 J-3.7217
G03 X254.5602 Y345.2670 I-2.2009 J-2.0775
G03 X251.8805 Y345.0550 I-0.3608 J-12.4847
G03 X247.7647 Y341.5194 I1.1302 J-5.4791
G03 X247.0237 Y338.2889 I11.2363 J-4.2774
G03 X247.2685 Y331.6988 I24.0869 J-2.4049
G03 X248.7283 Y328.0654 I9.0152 J1.5120
G03 X253.0465 Y325.3995 I5.4658 J4.0232
G03 X257.7727 Y326.1413 I1.2843 J7.2446
G03 X259.2294 Y327.0031 I-5.3427 J10.6918
G02 X259.1004 Y325.8226 I-3.4954 J-0.2154
G02 X258.4281 Y325.1865 I-1.2290 J0.6256
G02 X255.9419 Y324.4046 I-3.0482 J5.3482
G02 X251.0517 Y324.6493 I-1.8204 J12.6066
G02 X249.2309 Y325.7435 I0.9809 J3.6942
G02 X246.9264 Y329.0841 I6.5592 J6.9901
G02 X246.4882 Y332.0548 I9.7154 J2.9509
G02 X246.5414 Y339.0624 I84.5820 J2.8619
G02 X247.0585 Y341.6584 I7.9675 J-0.2377
G02 X250.5233 Y345.6949 I8.3326 J-3.6471
G02 X253.9167 Y346.5038 I2.8288 J-4.3445
G02 X257.1625 Y345.0170 I-0.5100 J-5.3998
G02 X258.9263 Y341.8741 I-5.5716 J-5.1932
G02 X259.6204 Y338.2830 I-18.1566 J-5.3722
G01 X259.9889 Y334.7577
G01 Z-32.0000 F500
G01 X259.6204 Y338.2830 F1300
G03 X258.7277 Y342.4527 I-16.1011 J-1.2666
G03 X257.1625 Y345.0170 I-6.3508 J-2.1167
G03 X253.5844 Y346.5344 I-3.8408 J-4.0795
G03 X250.1867 Y345.4796 I-0.1037 J-5.6656
G03 X246.9745 Y341.4406 I5.2733 J-7.4907
G03 X246.5132 Y338.6336 I9.5821 J-3.0160
G03 X246.5401 Y331.1603 I82.2503 J-3.4412
G03 X247.0132 Y328.8600 I7.1980 J0.2816
G03 X250.0022 Y325.0991 I8.9723 J4.0625
G03 X251.8188 Y324.4722 I2.4906 J4.2719
G03 X257.1636 Y324.6521 I2.2416 J12.8914
G03 X258.9239 Y325.5479 I-0.9205 J3.9864
G03 X259.2092 Y326.4016 I-0.9950 J0.8070
G03 X259.2294 Y327.0031 I-8.1102 J0.5731
G02 X255.4194 Y325.3675 I-5.4424 J7.4221
G02 X249.7617 Y326.9301 I-1.0786 J7.1184
G02 X247.5589 Y330.5271 I4.9667 J5.5146
G02 X246.9126 Y335.9000 I18.1522 J4.9088
G02 X247.2296 Y339.6885 I19.1154 J0.3082
G02 X248.0385 Y342.1089 I8.3788 J-1.4551
G02 X251.8805 Y345.0550 I4.9116 J-2.4269
G02 X255.0935 Y345.2079 I2.0720 J-9.7080
G02 X257.0705 Y343.9119 I-0.5250 J-2.9570
G02 X259.0022 Y339.6703 I-8.6486 J-6.4993
G02 X258.7933 Y337.8124 I-2.9188 J-0.6126
G02 X257.2977 Y336.8490 I-1.7258 J1.0365
G02 X254.4510 Y336.7181 I-2.2404 J17.7001
G03 X252.1136 Y336.6493 I-0.6044 J-19.2250
G01 X252.1320 Y336.6523
G01 X252.0226 Y336.6344
G03 X252.0196 Y336.0712 I6.8822 J-0.3173
G03 X254.6434 Y335.9574 I2.1582 J19.4605
G03 X261.0680 Y335.9555 I3.8903 J2327.5620
G00 Z10.0000


(No. 9: Engraving 45)
G00 X267.4405 Y343.6681 Z10.0000
G00 Z0.5000
G01 Z0.0000 F500
G01 Z-6.0000
G03 X267.4692 Y332.3531 I483.9986 J-4.4293 F1300
G03 X267.6800 Y329.1035 I29.0753 J0.2540
G03 X268.1434 Y327.3307 I6.1704 J0.6661
G03 X270.5269 Y325.6240 I2.5561 J1.0521
G03 X272.7663 Y325.7278 I0.5907 J11.4704
G01 X273.0146 Y325.7542
G01 X273.2272 Y325.7736
G02 X273.0790 Y324.5635 I-6.4578 J0.1766
G01 X273.0216 Y324.5466
G01 X273.0333 Y324.5502
G02 X270.9970 Y324.3900 I-2.0961 J13.6226
G02 X268.4942 Y324.5223 I-0.5800 J12.7639
G02 X267.6678 Y325.3652 I0.7175 J1.5298
G02 X267.0838 Y327.4125 I6.9403 J3.0869
G02 X266.6960 Y333.1138 I42.6543 J5.7652
G03 X266.6353 Y340.7035 I-467.2643 J0.0553
G03 X266.4380 Y343.0080 I-13.5629 J-0.0004
G03 X265.6435 Y344.4162 I-2.1344 J-0.2760
G03 X264.3709 Y344.7624 I-1.2074 J-1.9266
G01 X264.3683 Y344.7760
G01 X264.3719 Y344.7576
G02 Y346.0978 I5.4683 J0.6701
G03 X265.6906 Y346.4205 I0.1525 J2.2327
G03 X266.5834 Y348.0955 I-1.3501 J1.7951
G03 X266.6815 Y351.2315 I-29.3331 J2.4870
G02 X266.7559 Y352.5483 I6.7293 J0.2807
G02 X267.3602 Y352.5485 I0.3049 J-8.5321
G01 X267.3726 Y352.4996
G01 X267.3706 Y352.5106
G02 X267.4405 Y350.4121 I-18.4304 J-1.6644
G01 Y347.1872
G03 X268.5255 Y346.1022 I1.0850 J0.0000
G02 X272.8150 Y346.0854 I1.7802 J-93.0541
G02 X273.2920 Y346.0439 I0.0021 J-2.7375
G01 X273.2955 Y346.0059
G01 X273.2942 Y346.0205
G02 X273.2875 Y344.8098 I-10.4291 J-0.5477
G02 X271.4574 Y344.7531 I-1.4025 J15.7122
G01 X268.5255
G01 Z-12.0000 F500
G03 X272.8150 Y344.7700 I1.7802 J93.0614 F1300
G03 X273.2875 Y344.8098 I-0.0277 J3.1471
G03 X273.2942 Y346.0205 I-12.4467 J0.6741
G01 X273.2955 Y346.0059
G01 X273.2920 Y346.0439
G03 X271.4574 Y346.1022 I-1.4040 J-15.2807
G01 X268.5255
G02 X267.4405 Y347.1872 I0.0000 J1.0850
G03 X267.4220 Y351.8747 I-104.6222 J1.9300
G03 X267.3706 Y352.5106 I-5.5136 J-0.1255
G01 X267.3726 Y352.4996
G01 X267.3602 Y352.5485
G03 X266.7559 Y352.5483 I-0.2995 J-8.5323
G03 X266.6768 Y349.9987 I19.9268 J-1.8940
G02 X266.4873 Y347.6022 I-10.5152 J-0.3744
G02 X264.6221 Y346.1063 I-1.8343 J0.3764
G01 X264.4346 Y346.1022
G01 X264.3719 Y346.0978
G03 Y344.7576 I5.4683 J-0.6701
G01 X264.3683 Y344.7760
G01 X264.3709 Y344.7624
G02 X265.9233 Y344.1605 I0.1348 J-1.9551
G02 X266.4996 Y342.6468 I-2.1814 J-1.6972
G02 X266.6708 Y338.4882 I-38.6460 J-3.6733
G03 X266.7527 Y331.1183 I185.4872 J-1.6235
G03 X267.0838 Y327.4125 I29.9376 J0.8071
G03 X267.6678 Y325.3652 I6.7837 J0.8284
G03 X268.4942 Y324.5223 I1.4348 J0.5801
G03 X272.3415 Y324.4551 I2.2157 J16.6893
G03 X273.0333 Y324.5502 I-0.2144 J4.1256
G01 X273.0216 Y324.5466
G01 X273.0790 Y324.5635
G03 X273.2272 Y325.7736 I-7.5935 J1.5438
G02 X270.8825 Y325.5994 I-2.4511 J17.1293
G02 X268.7481 Y326.4266 I-0.0833 J2.9523
G02 X267.7856 Y328.4829 I2.9839 J2.6501
G02 X267.4692 Y332.3531 I24.5987 J3.9591
G02 X267.4405 Y343.6681 I483.9698 J6.8858
G01 Z-18.0000 F500
G03 X267.4692 Y332.3531 I483.9986 J-4.4293 F1300
G03 X267.6800 Y329.1035 I29.0753 J0.2540
G03 X268.1434 Y327.3307 I6.1704 J0.6661
G03 X270.5269 Y325.6240 I2.5561 J1.0521
G03 X272.7663 Y325.7278 I0.5907 J11.4704
G01 X273.0146 Y325.7542
G01 X273.2272 Y325.7736
G02 X273.0790 Y324.5635 I-6.4578 J0.1766
G01 X273.0216 Y324.5466
G01 X273.0333 Y324.5502
G02 X270.9970 Y324.3900 I-2.0961 J13.6226
G02 X268.4942 Y324.5223 I-0.5800 J12.7639
G02 X267.6678 Y325.3652 I0.7175 J1.5298
G02 X267.0838 Y327.4125 I6.9403 J3.0869
G02 X266.6960 Y333.1138 I42.6543 J5.7652
G03 X266.6353 Y340.7035 I-467.2643 J0.0553
G03 X266.4380 Y343.0080 I-13.5629 J-0.0004
G03 X265.6435 Y344.4162 I-2.1344 J-0.2760
G03 X264.3709 Y344.7624 I-1.2074 J-1.9266
G01 X264.3683 Y344.7760
G01 X264.3719 Y344.7576
G02 Y346.0978 I5.4683 J0.6701
G03 X265.6906 Y346.4205 I0.1525 J2.2327
G03 X266.5834 Y348.0955 I-1.3501 J1.7951
G03 X266.6815 Y351.2315 I-29.3331 J2.4870
G02 X266.7559 Y352.5483 I6.7293 J0.2807
G02 X267.3602 Y352.5485 I0.3049 J-8.5321
G01 X267.3726 Y352.4996
G01 X267.3706 Y352.5106
G02 X267.4405 Y350.4121 I-18.4304 J-1.6644
G01 Y347.1872
G03 X268.5255 Y346.1022 I1.0850 J0.0000
G02 X272.8150 Y346.0854 I1.7802 J-93.0541
G02 X273.2920 Y346.0439 I0.0021 J-2.7375
G01 X273.2955 Y346.0059
G01 X273.2942 Y346.0205
G02 X273.2875 Y344.8098 I-10.4291 J-0.5477
G02 X271.4574 Y344.7531 I-1.4025 J15.7122
G01 X268.5255
G01 Z-24.0000 F500
G03 X272.8150 Y344.7700 I1.7802 J93.0614 F1300
G03 X273.2875 Y344.8098 I-0.0277 J3.1471
G03 X273.2942 Y346.0205 I-12.4467 J0.6741
G01 X273.2955 Y346.0059
G01 X273.2920 Y346.0439
G03 X271.4574 Y346.1022 I-1.4040 J-15.2807
G01 X268.5255
G02 X267.4405 Y347.1872 I0.0000 J1.0850
G03 X267.4220 Y351.8747 I-104.6222 J1.9300
G03 X267.3706 Y352.5106 I-5.5136 J-0.1255
G01 X267.3726 Y352.4996
G01 X267.3602 Y352.5485
G03 X266.7559 Y352.5483 I-0.2995 J-8.5323
G03 X266.6768 Y349.9987 I19.9268 J-1.8940
G02 X266.4873 Y347.6022 I-10.5152 J-0.3744
G02 X264.6221 Y346.1063 I-1.8343 J0.3764
G01 X264.4346 Y346.1022
G01 X264.3719 Y346.0978
G03 Y344.7576 I5.4683 J-0.6701
G01 X264.3683 Y344.7760
G01 X264.3709 Y344.7624
G02 X265.9233 Y344.1605 I0.1348 J-1.9551
G02 X266.4996 Y342.6468 I-2.1814 J-1.6972
G02 X266.6708 Y338.4882 I-38.6460 J-3.6733
G03 X266.7527 Y331.1183 I185.4872 J-1.6235
G03 X267.0838 Y327.4125 I29.9376 J0.8071
G03 X267.6678 Y325.3652 I6.7837 J0.8284
G03 X268.4942 Y324.5223 I1.4348 J0.5801
G03 X272.3415 Y324.4551 I2.2157 J16.6893
G03 X273.0333 Y324.5502 I-0.2144 J4.1256
G01 X273.0216 Y324.5466
G01 X273.0790 Y324.5635
G03 X273.2272 Y325.7736 I-7.5935 J1.5438
G02 X270.8825 Y325.5994 I-2.4511 J17.1293
G02 X268.7481 Y326.4266 I-0.0833 J2.9523
G02 X267.7856 Y328.4829 I2.9839 J2.6501
G02 X267.4692 Y332.3531 I24.5987 J3.9591
G02 X267.4405 Y343.6681 I483.9698 J6.8858
G01 Z-30.0000 F500
G03 X267.4692 Y332.3531 I483.9986 J-4.4293 F1300
G03 X267.6800 Y329.1035 I29.0753 J0.2540
G03 X268.1434 Y327.3307 I6.1704 J0.6661
G03 X270.5269 Y325.6240 I2.5561 J1.0521
G03 X272.7663 Y325.7278 I0.5907 J11.4704
G01 X273.0146 Y325.7542
G01 X273.2272 Y325.7736
G02 X273.0790 Y324.5635 I-6.4578 J0.1766
G01 X273.0216 Y324.5466
G01 X273.0333 Y324.5502
G02 X270.9970 Y324.3900 I-2.0961 J13.6226
G02 X268.4942 Y324.5223 I-0.5800 J12.7639
G02 X267.6678 Y325.3652 I0.7175 J1.5298
G02 X267.0838 Y327.4125 I6.9403 J3.0869
G02 X266.6960 Y333.1138 I42.6543 J5.7652
G03 X266.6353 Y340.7035 I-467.2643 J0.0553
G03 X266.4380 Y343.0080 I-13.5629 J-0.0004
G03 X265.6435 Y344.4162 I-2.1344 J-0.2760
G03 X264.3709 Y344.7624 I-1.2074 J-1.9266
G01 X264.3683 Y344.7760
G01 X264.3719 Y344.7576
G02 Y346.0978 I5.4683 J0.6701
G03 X265.6906 Y346.4205 I0.1525 J2.2327
G03 X266.5834 Y348.0955 I-1.3501 J1.7951
G03 X266.6815 Y351.2315 I-29.3331 J2.4870
G02 X266.7559 Y352.5483 I6.7293 J0.2807
G02 X267.3602 Y352.5485 I0.3049 J-8.5321
G01 X267.3726 Y352.4996
G01 X267.3706 Y352.5106
G02 X267.4405 Y350.4121 I-18.4304 J-1.6644
G01 Y347.1872
G03 X268.5255 Y346.1022 I1.0850 J0.0000
G02 X272.8150 Y346.0854 I1.7802 J-93.0541
G02 X273.2920 Y346.0439 I0.0021 J-2.7375
G01 X273.2955 Y346.0059
G01 X273.2942 Y346.0205
G02 X273.2875 Y344.8098 I-10.4291 J-0.5477
G02 X271.4574 Y344.7531 I-1.4025 J15.7122
G01 X268.5255
G01 Z-32.0000 F500
G03 X272.8150 Y344.7700 I1.7802 J93.0614 F1300
G03 X273.2875 Y344.8098 I-0.0277 J3.1471
G03 X273.2942 Y346.0205 I-12.4467 J0.6741
G01 X273.2955 Y346.0059
G01 X273.2920 Y346.0439
G03 X271.4574 Y346.1022 I-1.4040 J-15.2807
G01 X268.5255
G02 X267.4405 Y347.1872 I0.0000 J1.0850
G03 X267.4220 Y351.8747 I-104.6222 J1.9300
G03 X267.3706 Y352.5106 I-5.5136 J-0.1255
G01 X267.3726 Y352.4996
G01 X267.3602 Y352.5485
G03 X266.7559 Y352.5483 I-0.2995 J-8.5323
G03 X266.6768 Y349.9987 I19.9268 J-1.8940
G02 X266.4873 Y347.6022 I-10.5152 J-0.3744
G02 X264.6221 Y346.1063 I-1.8343 J0.3764
G01 X264.4346 Y346.1022
G01 X264.3719 Y346.0978
G03 Y344.7576 I5.4683 J-0.6701
G01 X264.3683 Y344.7760
G01 X264.3709 Y344.7624
G02 X265.9233 Y344.1605 I0.1348 J-1.9551
G02 X266.4996 Y342.6468 I-2.1814 J-1.6972
G02 X266.6708 Y338.4882 I-38.6460 J-3.6733
G03 X266.7527 Y331.1183 I185.4872 J-1.6235
G03 X267.0838 Y327.4125 I29.9376 J0.8071
G03 X267.6678 Y325.3652 I6.7837 J0.8284
G03 X268.4942 Y324.5223 I1.4348 J0.5801
G03 X272.3415 Y324.4551 I2.2157 J16.6893
G03 X273.0333 Y324.5502 I-0.2144 J4.1256
G01 X273.0216 Y324.5466
G01 X273.0790 Y324.5635
G03 X273.2272 Y325.7736 I-7.5935 J1.5438
G02 X270.8825 Y325.5994 I-2.4511 J17.1293
G02 X268.7481 Y326.4266 I-0.0833 J2.9523
G02 X267.7856 Y328.4829 I2.9839 J2.6501
G02 X267.4692 Y332.3531 I24.5987 J3.9591
G02 X267.4405 Y343.6681 I483.9698 J6.8858
G00 Z10.0000


(No. 10: Engraving 46)
G00 X298.4374 Y340.0611 Z10.0000
G00 Z0.5000
G01 Z0.0000 F500
G01 Z-6.0000
G01 X292.5724 F1300
G03 X291.4874 Y338.9761 I0.0000 J-1.0850
G01 Y324.8119
G01 X290.7248
G01 Y353.7268
G01 X291.4874
G01 Y342.4951
G03 X292.5724 Y341.4101 I1.0850 J0.0000
G01 X304.3025
G03 X305.3875 Y342.4951 I0.0000 J1.0850
G01 Y353.7268
G01 X306.1500
G01 Y324.8119
G01 X305.3875
G01 Y338.9761
G03 X304.3025 Y340.0611 I-1.0850 J0.0000
G01 X298.4374
G01 Z-12.0000 F500
G01 X304.3025 F1300
G02 X305.3875 Y338.9761 I0.0000 J-1.0850
G01 Y324.8119
G01 X306.1500
G01 Y353.7268
G01 X305.3875
G01 Y342.4951
G02 X304.3025 Y341.4101 I-1.0850 J0.0000
G01 X292.5724
G02 X291.4874 Y342.4951 I0.0000 J1.0850
G01 Y353.7268
G01 X290.7248
G01 Y324.8119
G01 X291.4874
G01 Y338.9761
G02 X292.5724 Y340.0611 I1.0850 J0.0000
G01 X298.4374
G01 Z-18.0000 F500
G01 X292.5724 F1300
G03 X291.4874 Y338.9761 I0.0000 J-1.0850
G01 Y324.8119
G01 X290.7248
G01 Y353.7268
G01 X291.4874
G01 Y342.4951
G03 X292.5724 Y341.4101 I1.0850 J0.0000
G01 X304.3025
G03 X305.3875 Y342.4951 I0.0000 J1.0850
G01 Y353.7268
G01 X306.1500
G01 Y324.8119
G01 X305.3875
G01 Y338.9761
G03 X304.3025 Y340.0611 I-1.0850 J0.0000
G01 X298.4374
G01 Z-24.0000 F500
G01 X304.3025 F1300
G02 X305.3875 Y338.9761 I0.0000 J-1.0850
G01 Y324.8119
G01 X306.1500
G01 Y353.7268
G01 X305.3875
G01 Y342.4951
G02 X304.3025 Y341.4101 I-1.0850 J0.0000
G01 X292.5724
G02 X291.4874 Y342.4951 I0.0000 J1.0850
G01 Y353.7268
G01 X290.7248
G01 Y324.8119
G01 X291.4874
G01 Y338.9761
G02 X292.5724 Y340.0611 I1.0850 J0.0000
G01 X298.4374
G01 Z-30.0000 F500
G01 X292.5724 F1300
G03 X291.4874 Y338.9761 I0.0000 J-1.0850
G01 Y324.8119
G01 X290.7248
G01 Y353.7268
G01 X291.4874
G01 Y342.4951
G03 X292.5724 Y341.4101 I1.0850 J0.0000
G01 X304.3025
G03 X305.3875 Y342.4951 I0.0000 J1.0850
G01 Y353.7268
G01 X306.1500
G01 Y324.8119
G01 X305.3875
G01 Y338.9761
G03 X304.3025 Y340.0611 I-1.0850 J0.0000
G01 X298.4374
G01 Z-32.0000 F500
G01 X304.3025 F1300
G02 X305.3875 Y338.9761 I0.0000 J-1.0850
G01 Y324.8119
G01 X306.1500
G01 Y353.7268
G01 X305.3875
G01 Y342.4951
G02 X304.3025 Y341.4101 I-1.0850 J0.0000
G01 X292.5724
G02 X291.4874 Y342.4951 I0.0000 J1.0850
G01 Y353.7268
G01 X290.7248
G01 Y324.8119
G01 X291.4874
G01 Y338.9761
G02 X292.5724 Y340.0611 I1.0850 J0.0000
G01 X298.4374
G00 Z10.0000


(No. 11: Engraving 47)
G00 X326.2553 Y336.1391 Z10.0000
G00 Z0.5000
G01 Z0.0000 F500
G01 Z-6.0000
G03 X325.2961 Y341.4473 I-18.2688 J-0.5605 F1300
G03 X324.4066 Y343.2559 I-15.3710 J-6.4360
G02 X323.6762 Y345.3202 I8.0922 J4.0249
G02 X325.0323 Y343.7511 I-8.2770 J-8.5239
G02 X326.6171 Y340.0212 I-9.7897 J-6.3611
G02 X326.3711 Y329.6838 I-19.8198 J-4.7001
G02 X324.6722 Y326.1947 I-10.5307 J2.9695
G02 X320.3721 Y323.8901 I-4.6281 J3.4715
G02 X316.2409 Y325.5843 I-0.0324 J5.8051
G02 X314.2406 Y329.1216 I5.6695 J5.5402
G02 X313.5400 Y334.9858 I20.1181 J5.3776
G02 X313.9984 Y340.5015 I26.7032 J0.5578
G02 X317.0723 Y345.5694 I8.5569 J-1.7241
G02 X317.8458 Y346.0252 I2.0421 J-2.5814
G01 X317.8360 Y345.9122
G01 X317.8378 Y345.9244
G02 X316.3435 Y343.4408 I-5.0097 J1.3229
G03 X314.7635 Y340.2639 I3.8637 J-3.9029
G03 X314.4531 Y336.1255 I34.8946 J-4.6981
G03 X314.5053 Y331.5080 I30.6541 J-1.9629
G03 X316.9273 Y326.4518 I7.6712 J0.5665
G03 X321.5885 Y325.3990 I3.2097 J3.3656
G03 X324.5653 Y327.6340 I-2.1434 J5.9546
G03 X325.8890 Y330.6199 I-5.6350 J4.2844
G03 X326.2571 Y336.1043 I-21.5117 J4.1983
G01 Z-12.0000 F500
G02 X325.8890 Y330.6199 I-21.1440 J-1.3354 F1300
G01 X325.7196 Y329.9462
G02 X323.7278 Y326.7077 I-6.5195 J1.7780
G02 X320.4727 Y325.1757 I-3.7700 J3.7861
G02 X316.4873 Y326.8862 I-0.2613 J4.8891
G02 X314.5053 Y331.5080 I5.8100 J5.2276
G02 X314.4809 Y336.8051 I37.7340 J2.8220
G02 X314.8329 Y340.6280 I24.8048 J-0.3561
G02 X316.3435 Y343.4408 I5.3981 J-1.0871
G03 X317.7961 Y345.7429 I-3.5273 J3.8350
G01 X317.8378 Y345.9244
G01 X317.8360 Y345.9122
G01 X317.8458 Y346.0252
G03 X316.1593 Y344.7246 I2.1468 J-4.5277
G03 X313.8797 Y339.8750 I6.4205 J-5.9786
G03 X313.7171 Y331.7458 I32.1497 J-4.7093
G03 X314.8477 Y327.5429 I12.7940 J1.1878
G03 X319.2046 Y323.9902 I5.7374 J2.5884
G03 X323.2714 Y324.8780 I0.9910 J5.2191
G03 X325.6249 Y327.7566 I-4.0520 J5.7142
G03 X327.0410 Y333.0284 I-15.1603 J6.8984
G03 X326.3141 Y341.0699 I-19.3310 J2.3064
G03 X324.4714 Y344.4768 I-9.3345 J-2.8472
G03 X323.6762 Y345.3202 I-12.4407 J-10.9334
G03 X324.7703 Y342.5822 I9.2728 J2.1177
G02 X325.8751 Y339.3282 I-9.9480 J-5.1923
G02 X326.2553 Y336.1391 I-22.4275 J-4.2907
G01 Z-18.0000 F500
G03 X325.2961 Y341.4473 I-18.2688 J-0.5605 F1300
G03 X324.4066 Y343.2559 I-15.3710 J-6.4360
G02 X323.6762 Y345.3202 I8.0922 J4.0249
G02 X325.0323 Y343.7511 I-8.2770 J-8.5239
G02 X326.6171 Y340.0212 I-9.7897 J-6.3611
G02 X326.3711 Y329.6838 I-19.8198 J-4.7001
G02 X324.6722 Y326.1947 I-10.5307 J2.9695
G02 X320.3721 Y323.8901 I-4.6281 J3.4715
G02 X316.2409 Y325.5843 I-0.0324 J5.8051
G02 X314.2406 Y329.1216 I5.6695 J5.5402
G02 X313.5400 Y334.9858 I20.1181 J5.3776
G02 X313.9984 Y340.5015 I26.7032 J0.5578
G02 X317.0723 Y345.5694 I8.5569 J-1.7241
G02 X317.8458 Y346.0252 I2.0421 J-2.5814
G01 X317.8360 Y345.9122
G01 X317.8378 Y345.9244
G02 X316.3435 Y343.4408 I-5.0097 J1.3229
G03 X314.7635 Y340.2639 I3.8637 J-3.9029
G03 X314.4531 Y336.1255 I34.8946 J-4.6981
G03 X314.5053 Y331.5080 I30.6541 J-1.9629
G03 X316.9273 Y326.4518 I7.6712 J0.5665
G03 X321.5885 Y325.3990 I3.2097 J3.3656
G03 X324.5653 Y327.6340 I-2.1434 J5.9546
G03 X325.8890 Y330.6199 I-5.6350 J4.2844
G03 X326.2571 Y336.1043 I-21.5117 J4.1983
G01 Z-24.0000 F500
G02 X325.8890 Y330.6199 I-21.1440 J-1.3354 F1300
G01 X325.7196 Y329.9462
G02 X323.7278 Y326.7077 I-6.5195 J1.7780
G02 X320.4727 Y325.1757 I-3.7700 J3.7861
G02 X316.4873 Y326.8862 I-0.2613 J4.8891
G02 X314.5053 Y331.5080 I5.8100 J5.2276
G02 X314.4809 Y336.8051 I37.7340 J2.8220
G02 X314.8329 Y340.6280 I24.8048 J-0.3561
G02 X316.3435 Y343.4408 I5.3981 J-1.0871
G03 X317.7961 Y345.7429 I-3.5273 J3.8350
G01 X317.8378 Y345.9244
G01 X317.8360 Y345.9122
G01 X317.8458 Y346.0252
G03 X316.1593 Y344.7246 I2.1468 J-4.5277
G03 X313.8797 Y339.8750 I6.4205 J-5.9786
G03 X313.7171 Y331.7458 I32.1497 J-4.7093
G03 X314.8477 Y327.5429 I12.7940 J1.1878
G03 X319.2046 Y323.9902 I5.7374 J2.5884
G03 X323.2714 Y324.8780 I0.9910 J5.2191
G03 X325.6249 Y327.7566 I-4.0520 J5.7142
G03 X327.0410 Y333.0284 I-15.1603 J6.8984
G03 X326.3141 Y341.0699 I-19.3310 J2.3064
G03 X324.4714 Y344.4768 I-9.3345 J-2.8472
G03 X323.6762 Y345.3202 I-12.4407 J-10.9334
G03 X324.7703 Y342.5822 I9.2728 J2.1177
G02 X325.8751 Y339.3282 I-9.9480 J-5.1923
G02 X326.2553 Y336.1391 I-22.4275 J-4.2907
G01 Z-30.0000 F500
G03 X325.2961 Y341.4473 I-18.2688 J-0.5605 F1300
G03 X324.4066 Y343.2559 I-15.3710 J-6.4360
G02 X323.6762 Y345.3202 I8.0922 J4.0249
G02 X325.0323 Y343.7511 I-8.2770 J-8.5239
G02 X326.6171 Y340.0212 I-9.7897 J-6.3611
G02 X326.3711 Y329.6838 I-19.8198 J-4.7001
G02 X324.6722 Y326.1947 I-10.5307 J2.9695
G02 X320.3721 Y323.8901 I-4.6281 J3.4715
G02 X316.2409 Y325.5843 I-0.0324 J5.8051
G02 X314.2406 Y329.1216 I5.6695 J5.5402
G02 X313.5400 Y334.9858 I20.1181 J5.3776
G02 X313.9984 Y340.5015 I26.7032 J0.5578
G02 X317.0723 Y345.5694 I8.5569 J-1.7241
G02 X317.8458 Y346.0252 I2.0421 J-2.5814
G01 X317.8360 Y345.9122
G01 X317.8378 Y345.9244
G02 X316.3435 Y343.4408 I-5.0097 J1.3229
G03 X314.7635 Y340.2639 I3.8637 J-3.9029
G03 X314.4531 Y336.1255 I34.8946 J-4.6981
G03 X314.5053 Y331.5080 I30.6541 J-1.9629
G03 X316.9273 Y326.4518 I7.6712 J0.5665
G03 X321.5885 Y325.3990 I3.2097 J3.3656
G03 X324.5653 Y327.6340 I-2.1434 J5.9546
G03 X325.8890 Y330.6199 I-5.6350 J4.2844
G03 X326.2571 Y336.1043 I-21.5117 J4.1983
G01 Z-32.0000 F500
G02 X325.8890 Y330.6199 I-21.1440 J-1.3354 F1300
G01 X325.7196 Y329.9462
G02 X323.7278 Y326.7077 I-6.5195 J1.7780
G02 X320.4727 Y325.1757 I-3.7700 J3.7861
G02 X316.4873 Y326.8862 I-0.2613 J4.8891
G02 X314.5053 Y331.5080 I5.8100 J5.2276
G02 X314.4809 Y336.8051 I37.7340 J2.8220
G02 X314.8329 Y340.6280 I24.8048 J-0.3561
G02 X316.3435 Y343.4408 I5.3981 J-1.0871
G03 X317.7961 Y345.7429 I-3.5273 J3.8350
G01 X317.8378 Y345.9244
G01 X317.8360 Y345.9122
G01 X317.8458 Y346.0252
G03 X316.1593 Y344.7246 I2.1468 J-4.5277
G03 X313.8797 Y339.8750 I6.4205 J-5.9786
G03 X313.7171 Y331.7458 I32.1497 J-4.7093
G03 X314.8477 Y327.5429 I12.7940 J1.1878
G03 X319.2046 Y323.9902 I5.7374 J2.5884
G03 X323.2714 Y324.8780 I0.9910 J5.2191
G03 X325.6249 Y327.7566 I-4.0520 J5.7142
G03 X327.0410 Y333.0284 I-15.1603 J6.8984
G03 X326.3141 Y341.0699 I-19.3310 J2.3064
G03 X324.4714 Y344.4768 I-9.3345 J-2.8472
G03 X323.6762 Y345.3202 I-12.4407 J-10.9334
G03 X324.7703 Y342.5822 I9.2728 J2.1177
G02 X325.8751 Y339.3282 I-9.9480 J-5.1923
G02 X326.2553 Y336.1391 I-22.4275 J-4.2907
G00 Z10.0000


(No. 12: Engraving 48)
G00 X345.2671 Y333.6590 Z10.0000
G00 Z0.5000
G01 Z0.0000 F500
G01 Z-6.0000
G03 X345.1146 Y339.2295 I-81.2861 J0.5620 F1300
G03 X344.7052 Y342.0275 I-15.0728 J-0.7763
G03 X343.9813 Y343.5757 I-4.1015 J-0.9745
G03 X341.5686 Y344.7359 I-2.4393 J-1.9839
G03 X337.7856 Y343.8973 I-0.3498 J-7.3734
G03 X336.8585 Y343.3132 I2.5760 J-5.1168
G01 X335.3031 Y342.0898
G03 X334.8889 Y341.2370 I0.6708 J-0.8528
G01 Y324.8119
G01 X334.1264
G01 Y335.4670
G01 Y346.0972
G02 X334.8822 Y346.0790 I0.2896 J-3.6841
G03 X335.0494 Y344.9383 I2.8736 J-0.1614
G03 X336.8448 Y344.2900 I1.2157 J0.5566
G03 X338.7099 Y345.4219 I-5.2224 J10.7073
G02 X340.7248 Y346.4705 I4.2840 J-5.7718
G02 X343.0239 Y346.1373 I0.8273 J-2.3903
G02 X344.1102 Y345.2314 I-3.7158 J-5.5597
G01 X345.8695 Y343.4720
G03 X347.3353 Y343.4091 I0.7672 J0.7672
G01 X349.0752 Y344.8731
G02 X351.7526 Y346.3954 I4.7702 J-5.2743
G02 X354.5749 Y346.1274 I1.1077 J-3.3302
G02 X356.4409 Y343.8651 I-2.6536 J-4.0894
G02 X356.9868 Y341.3510 I-7.2765 J-2.8963
G02 X357.1750 Y334.4381 I-89.5583 J-5.8972
G01 X357.1763 Y333.2662
G01 Y324.8119
G01 X356.4137
G03 X356.3831 Y335.4703 I-352.5301 J4.3168
G03 X355.9885 Y341.8926 I-59.5078 J-0.4330
G03 X355.7290 Y342.9367 I-4.0199 J-0.4449
G03 X353.6891 Y344.5457 I-2.8126 J-1.4682
G03 X349.1595 Y344.0340 I-1.5793 J-6.3237
G03 X348.0083 Y343.3180 I2.7473 J-5.7012
G01 X346.4468 Y342.0898
G03 X346.0326 Y341.2370 I0.6708 J-0.8528
G01 Y324.8119
G01 X345.2701
G01 Y332.1941
G01 X345.2671 Y333.6532
G01 Z-12.0000 F500
G01 X345.2701 Y332.1941 F1300
G01 Y324.8119
G01 X346.0326
G01 Y341.2370
G02 X346.4468 Y342.0898 I1.0850 J0.0000
G01 X348.0083 Y343.3180
G02 X353.4079 Y344.6180 I4.1391 J-5.3281
G02 X355.6281 Y343.1299 I-0.5673 J-3.2467
G02 X355.9885 Y341.8926 I-3.1293 J-1.5827
G02 X356.3831 Y335.4703 I-59.1131 J-6.8554
G02 X356.4137 Y324.8119 I-409.4411 J-6.5051
G01 X357.1763
G03 X357.1526 Y337.4139 I-686.8697 J5.0105
G03 X356.8867 Y342.1952 I-38.7795 J0.2417
G03 X355.1673 Y345.6937 I-5.6898 J-0.6246
G03 X351.7526 Y346.3954 I-2.3112 J-2.5877
G03 X349.0752 Y344.8731 I2.4140 J-7.3614
G01 X347.3353 Y343.4091
G02 X345.8695 Y343.4720 I-0.6986 J0.8302
G01 X344.1102 Y345.2314
G03 X342.5525 Y346.3951 I-3.7304 J-3.3688
G03 X340.4407 Y346.3727 I-1.0307 J-2.3898
G03 X338.1575 Y345.0499 I4.8876 J-11.0676
G02 X336.7551 Y344.2573 I-3.7729 J5.0387
G02 X334.9494 Y345.2445 I-0.5050 J1.2211
G02 X334.8822 Y346.0790 I6.7651 J0.9650
G03 X334.1264 Y346.0972 I-0.4796 J-4.2223
G01 Y335.4670
G01 Y324.8119
G01 X334.8889
G01 Y341.2370
G02 X335.3031 Y342.0898 I1.0850 J0.0000
G02 X337.2052 Y343.5611 I12.3452 J-13.9940
G02 X341.0553 Y344.7535 I4.1116 J-6.4643
G02 X342.9710 Y344.3975 I0.1790 J-4.3700
G02 X344.5057 Y342.6280 I-1.4319 J-2.7921
G02 X345.0440 Y340.0437 I-9.4345 J-3.3135
G02 X345.2571 Y334.9943 I-62.1379 J-5.1519
G01 X345.2671 Y333.6590
G01 Z-18.0000 F500
G03 X345.1146 Y339.2295 I-81.2861 J0.5620 F1300
G03 X344.7052 Y342.0275 I-15.0728 J-0.7763
G03 X343.9813 Y343.5757 I-4.1015 J-0.9745
G03 X341.5686 Y344.7359 I-2.4393 J-1.9839
G03 X337.7856 Y343.8973 I-0.3498 J-7.3734
G03 X336.8585 Y343.3132 I2.5760 J-5.1168
G01 X335.3031 Y342.0898
G03 X334.8889 Y341.2370 I0.6708 J-0.8528
G01 Y324.8119
G01 X334.1264
G01 Y335.4670
G01 Y346.0972
G02 X334.8822 Y346.0790 I0.2896 J-3.6841
G03 X335.0494 Y344.9383 I2.8736 J-0.1614
G03 X336.8448 Y344.2900 I1.2157 J0.5566
G03 X338.7099 Y345.4219 I-5.2224 J10.7073
G02 X340.7248 Y346.4705 I4.2840 J-5.7718
G02 X343.0239 Y346.1373 I0.8273 J-2.3903
G02 X344.1102 Y345.2314 I-3.7158 J-5.5597
G01 X345.8695 Y343.4720
G03 X347.3353 Y343.4091 I0.7672 J0.7672
G01 X349.0752 Y344.8731
G02 X351.7526 Y346.3954 I4.7702 J-5.2743
G02 X354.5749 Y346.1274 I1.1077 J-3.3302
G02 X356.4409 Y343.8651 I-2.6536 J-4.0894
G02 X356.9868 Y341.3510 I-7.2765 J-2.8963
G02 X357.1750 Y334.4381 I-89.5583 J-5.8972
G01 X357.1763 Y333.2662
G01 Y324.8119
G01 X356.4137
G03 X356.3831 Y335.4703 I-352.5301 J4.3168
G03 X355.9885 Y341.8926 I-59.5078 J-0.4330
G03 X355.7290 Y342.9367 I-4.0199 J-0.4449
G03 X353.6891 Y344.5457 I-2.8126 J-1.4682
G03 X349.1595 Y344.0340 I-1.5793 J-6.3237
G03 X348.0083 Y343.3180 I2.7473 J-5.7012
G01 X346.4468 Y342.0898
G03 X346.0326 Y341.2370 I0.6708 J-0.8528
G01 Y324.8119
G01 X345.2701
G01 Y332.1941
G01 X345.2671 Y333.6532
G01 Z-24.0000 F500
G01 X345.2701 Y332.1941 F1300
G01 Y324.8119
G01 X346.0326
G01 Y341.2370
G02 X346.4468 Y342.0898 I1.0850 J0.0000
G01 X348.0083 Y343.3180
G02 X353.4079 Y344.6180 I4.1391 J-5.3281
G02 X355.6281 Y343.1299 I-0.5673 J-3.2467
G02 X355.9885 Y341.8926 I-3.1293 J-1.5827
G02 X356.3831 Y335.4703 I-59.1131 J-6.8554
G02 X356.4137 Y324.8119 I-409.4411 J-6.5051
G01 X357.1763
G03 X357.1526 Y337.4139 I-686.8697 J5.0105
G03 X356.8867 Y342.1952 I-38.7795 J0.2417
G03 X355.1673 Y345.6937 I-5.6898 J-0.6246
G03 X351.7526 Y346.3954 I-2.3112 J-2.5877
G03 X349.0752 Y344.8731 I2.4140 J-7.3614
G01 X347.3353 Y343.4091
G02 X345.8695 Y343.4720 I-0.6986 J0.8302
G01 X344.1102 Y345.2314
G03 X342.5525 Y346.3951 I-3.7304 J-3.3688
G03 X340.4407 Y346.3727 I-1.0307 J-2.3898
G03 X338.1575 Y345.0499 I4.8876 J-11.0676
G02 X336.7551 Y344.2573 I-3.7729 J5.0387
G02 X334.9494 Y345.2445 I-0.5050 J1.2211
G02 X334.8822 Y346.0790 I6.7651 J0.9650
G03 X334.1264 Y346.0972 I-0.4796 J-4.2223
G01 Y335.4670
G01 Y324.8119
G01 X334.8889
G01 Y341.2370
G02 X335.3031 Y342.0898 I1.0850 J0.0000
G02 X337.2052 Y343.5611 I12.3452 J-13.9940
G02 X341.0553 Y344.7535 I4.1116 J-6.4643
G02 X342.9710 Y344.3975 I0.1790 J-4.3700
G02 X344.5057 Y342.6280 I-1.4319 J-2.7921
G02 X345.0440 Y340.0437 I-9.4345 J-3.3135
G02 X345.2571 Y334.9943 I-62.1379 J-5.1519
G01 X345.2671 Y333.6590
G01 Z-30.0000 F500
G03 X345.1146 Y339.2295 I-81.2861 J0.5620 F1300
G03 X344.7052 Y342.0275 I-15.0728 J-0.7763
G03 X343.9813 Y343.5757 I-4.1015 J-0.9745
G03 X341.5686 Y344.7359 I-2.4393 J-1.9839
G03 X337.7856 Y343.8973 I-0.3498 J-7.3734
G03 X336.8585 Y343.3132 I2.5760 J-5.1168
G01 X335.3031 Y342.0898
G03 X334.8889 Y341.2370 I0.6708 J-0.8528
G01 Y324.8119
G01 X334.1264
G01 Y335.4670
G01 Y346.0972
G02 X334.8822 Y346.0790 I0.2896 J-3.6841
G03 X335.0494 Y344.9383 I2.8736 J-0.1614
G03 X336.8448 Y344.2900 I1.2157 J0.5566
G03 X338.7099 Y345.4219 I-5.2224 J10.7073
G02 X340.7248 Y346.4705 I4.2840 J-5.7718
G02 X343.0239 Y346.1373 I0.8273 J-2.3903
G02 X344.1102 Y345.2314 I-3.7158 J-5.5597
G01 X345.8695 Y343.4720
G03 X347.3353 Y343.4091 I0.7672 J0.7672
G01 X349.0752 Y344.8731
G02 X351.7526 Y346.3954 I4.7702 J-5.2743
G02 X354.5749 Y346.1274 I1.1077 J-3.3302
G02 X356.4409 Y343.8651 I-2.6536 J-4.0894
G02 X356.9868 Y341.3510 I-7.2765 J-2.8963
G02 X357.1750 Y334.4381 I-89.5583 J-5.8972
G01 X357.1763 Y333.2662
G01 Y324.8119
G01 X356.4137
G03 X356.3831 Y335.4703 I-352.5301 J4.3168
G03 X355.9885 Y341.8926 I-59.5078 J-0.4330
G03 X355.7290 Y342.9367 I-4.0199 J-0.4449
G03 X353.6891 Y344.5457 I-2.8126 J-1.4682
G03 X349.1595 Y344.0340 I-1.5793 J-6.3237
G03 X348.0083 Y343.3180 I2.7473 J-5.7012
G01 X346.4468 Y342.0898
G03 X346.0326 Y341.2370 I0.6708 J-0.8528
G01 Y324.8119
G01 X345.2701
G01 Y332.1941
G01 X345.2671 Y333.6532
G01 Z-32.0000 F500
G01 X345.2701 Y332.1941 F1300
G01 Y324.8119
G01 X346.0326
G01 Y341.2370
G02 X346.4468 Y342.0898 I1.0850 J0.0000
G01 X348.0083 Y343.3180
G02 X353.4079 Y344.6180 I4.1391 J-5.3281
G02 X355.6281 Y343.1299 I-0.5673 J-3.2467
G02 X355.9885 Y341.8926 I-3.1293 J-1.5827
G02 X356.3831 Y335.4703 I-59.1131 J-6.8554
G02 X356.4137 Y324.8119 I-409.4411 J-6.5051
G01 X357.1763
G03 X357.1526 Y337.4139 I-686.8697 J5.0105
G03 X356.8867 Y342.1952 I-38.7795 J0.2417
G03 X355.1673 Y345.6937 I-5.6898 J-0.6246
G03 X351.7526 Y346.3954 I-2.3112 J-2.5877
G03 X349.0752 Y344.8731 I2.4140 J-7.3614
G01 X347.3353 Y343.4091
G02 X345.8695 Y343.4720 I-0.6986 J0.8302
G01 X344.1102 Y345.2314
G03 X342.5525 Y346.3951 I-3.7304 J-3.3688
G03 X340.4407 Y346.3727 I-1.0307 J-2.3898
G03 X338.1575 Y345.0499 I4.8876 J-11.0676
G02 X336.7551 Y344.2573 I-3.7729 J5.0387
G02 X334.9494 Y345.2445 I-0.5050 J1.2211
G02 X334.8822 Y346.0790 I6.7651 J0.9650
G03 X334.1264 Y346.0972 I-0.4796 J-4.2223
G01 Y335.4670
G01 Y324.8119
G01 X334.8889
G01 Y341.2370
G02 X335.3031 Y342.0898 I1.0850 J0.0000
G02 X337.2052 Y343.5611 I12.3452 J-13.9940
G02 X341.0553 Y344.7535 I4.1116 J-6.4643
G02 X342.9710 Y344.3975 I0.1790 J-4.3700
G02 X344.5057 Y342.6280 I-1.4319 J-2.7921
G02 X345.0440 Y340.0437 I-9.4345 J-3.3135
G02 X345.2571 Y334.9943 I-62.1379 J-5.1519
G01 X345.2671 Y333.6590
G00 Z10.0000


(No. 13: Engraving 49)
G00 X373.1713 Y335.9558 Z10.0000
G00 Z0.5000
G01 Z0.0000 F500
G01 Z-6.0000
G02 X370.0789 Y336.0447 I-0.7774 J26.8014 F1300
G01 X369.9075 Y336.0711
G02 X369.9107 Y336.6327 I6.8657 J0.2414
G01 X370.0344 Y336.6525
G01 X370.0166 Y336.6497
G02 X372.4147 Y336.7181 I1.8925 J-24.2761
G01 X376.0098
G03 X377.0808 Y337.9769 I0.0000 J1.0850
G01 X376.7340 Y340.1140
G03 X375.3213 Y343.5752 I-7.2186 J-0.9273
G03 X371.6210 Y345.3404 I-3.6272 J-2.8423
G03 X368.0560 Y344.3683 I-0.2091 J-6.2557
G03 X365.8120 Y341.6421 I3.4846 J-5.1550
G03 X364.9368 Y338.2412 I11.0048 J-4.6449
G03 X365.1882 Y331.9688 I18.7953 J-2.3881
G03 X367.4339 Y327.3684 I9.8119 J1.9415
G03 X371.0301 Y325.4503 I4.2624 J3.6611
G03 X377.1174 Y326.8890 I1.2264 J8.4080
G02 X377.0281 Y325.4113 I-6.6858 J-0.3374
G02 X376.8006 Y325.1404 I-0.3474 J0.0607
G02 X373.5152 Y324.3182 I-3.7695 J8.0873
G02 X368.8626 Y324.7311 I-1.2676 J12.1368
G02 X367.1484 Y325.9216 I1.2764 J3.6672
G02 X365.3259 Y328.4935 I7.7469 J7.4215
G02 X364.4640 Y331.7814 I11.9782 J4.8968
G02 X364.7295 Y339.9949 I23.9868 J3.3356
G02 X367.8689 Y345.3114 I8.9656 J-1.7091
G02 X372.9225 Y346.3173 I3.5017 J-4.3952
G02 X376.1877 Y343.8033 I-1.1182 J-4.8299
G02 X377.4207 Y339.8519 I-9.8934 J-5.2551
G02 X377.7739 Y335.9555 I-62.9781 J-7.6738
G01 X373.8841
G01 X373.1691 Y335.9558
G01 Z-12.0000 F500
G01 X373.8841 Y335.9555 F1300
G01 X377.7739
G03 X377.4207 Y339.8519 I-44.2060 J-2.0435
G03 X376.1877 Y343.8033 I-11.1263 J-1.3037
G03 X372.4475 Y346.4222 I-4.4322 J-2.3495
G03 X367.5053 Y345.0071 I-1.0993 J-5.4984
G03 X364.7295 Y339.9949 I6.2708 J-6.7475
G03 X364.7384 Y330.2983 I23.4758 J-4.8269
G03 X365.6591 Y327.8636 I7.4729 J1.4344
G03 X368.0332 Y325.1213 I8.8728 J5.2827
G03 X369.9329 Y324.4619 I2.6333 J4.5207
G03 X375.6367 Y324.6940 I2.3155 J13.3000
G03 X376.9212 Y325.2206 I-0.9814 J4.2235
G03 X377.0499 Y325.5063 I-0.2725 J0.2945
G03 X377.1174 Y326.8890 I-8.8572 J1.1256
G02 X370.1045 Y325.6515 I-4.8408 J6.9432
G02 X367.4339 Y327.3684 I1.4346 J5.1669
G02 X365.1882 Y331.9688 I7.7149 J6.6145
G02 X365.1846 Y339.7124 I19.0356 J3.8806
G02 X366.1245 Y342.2586 I8.6259 J-1.7378
G02 X370.9762 Y345.3160 I5.1251 J-2.7547
G02 X374.1897 Y344.6066 I0.6153 J-4.8456
G02 X376.2947 Y341.8159 I-3.1622 J-4.5744
G02 X376.7340 Y340.1140 I-8.5667 J-3.1192
G01 X377.0808 Y337.9769
G02 X376.0098 Y336.7181 I-1.0710 J-0.1738
G03 X370.7550 Y336.7010 I-2.1639 J-142.8895
G03 X370.0166 Y336.6497 I0.1313 J-7.2213
G01 X370.0344 Y336.6525
G01 X369.9107 Y336.6327
G03 X369.9075 Y336.0711 I6.8624 J-0.3202
G03 X372.5291 Y335.9574 I2.1565 J19.4379
G01 X373.1713 Y335.9558
G01 Z-18.0000 F500
G02 X370.0789 Y336.0447 I-0.7774 J26.8014 F1300
G01 X369.9075 Y336.0711
G02 X369.9107 Y336.6327 I6.8657 J0.2414
G01 X370.0344 Y336.6525
G01 X370.0166 Y336.6497
G02 X372.4147 Y336.7181 I1.8925 J-24.2761
G01 X376.0098
G03 X377.0808 Y337.9769 I0.0000 J1.0850
G01 X376.7340 Y340.1140
G03 X375.3213 Y343.5752 I-7.2186 J-0.9273
G03 X371.6210 Y345.3404 I-3.6272 J-2.8423
G03 X368.0560 Y344.3683 I-0.2091 J-6.2557
G03 X365.8120 Y341.6421 I3.4846 J-5.1550
G03 X364.9368 Y338.2412 I11.0048 J-4.6449
G03 X365.1882 Y331.9688 I18.7953 J-2.3881
G03 X367.4339 Y327.3684 I9.8119 J1.9415
G03 X371.0301 Y325.4503 I4.2624 J3.6611
G03 X377.1174 Y326.8890 I1.2264 J8.4080
G02 X377.0281 Y325.4113 I-6.6858 J-0.3374
G02 X376.8006 Y325.1404 I-0.3474 J0.0607
G02 X373.5152 Y324.3182 I-3.7695 J8.0873
G02 X368.8626 Y324.7311 I-1.2676 J12.1368
G02 X367.1484 Y325.9216 I1.2764 J3.6672
G02 X365.3259 Y328.4935 I7.7469 J7.4215
G02 X364.4640 Y331.7814 I11.9782 J4.8968
G02 X364.7295 Y339.9949 I23.9868 J3.3356
G02 X367.8689 Y345.3114 I8.9656 J-1.7091
G02 X372.9225 Y346.3173 I3.5017 J-4.3952
G02 X376.1877 Y343.8033 I-1.1182 J-4.8299
G02 X377.4207 Y339.8519 I-9.8934 J-5.2551
G02 X377.7739 Y335.9555 I-62.9781 J-7.6738
G01 X373.8841
G01 X373.1691 Y335.9558
G01 Z-24.0000 F500
G01 X373.8841 Y335.9555 F1300
G01 X377.7739
G03 X377.4207 Y339.8519 I-44.2060 J-2.0435
G03 X376.1877 Y343.8033 I-11.1263 J-1.3037
G03 X372.4475 Y346.4222 I-4.4322 J-2.3495
G03 X367.5053 Y345.0071 I-1.0993 J-5.4984
G03 X364.7295 Y339.9949 I6.2708 J-6.7475
G03 X364.7384 Y330.2983 I23.4758 J-4.8269
G03 X365.6591 Y327.8636 I7.4729 J1.4344
G03 X368.0332 Y325.1213 I8.8728 J5.2827
G03 X369.9329 Y324.4619 I2.6333 J4.5207
G03 X375.6367 Y324.6940 I2.3155 J13.3000
G03 X376.9212 Y325.2206 I-0.9814 J4.2235
G03 X377.0499 Y325.5063 I-0.2725 J0.2945
G03 X377.1174 Y326.8890 I-8.8572 J1.1256
G02 X370.1045 Y325.6515 I-4.8408 J6.9432
G02 X367.4339 Y327.3684 I1.4346 J5.1669
G02 X365.1882 Y331.9688 I7.7149 J6.6145
G02 X365.1846 Y339.7124 I19.0356 J3.8806
G02 X366.1245 Y342.2586 I8.6259 J-1.7378
G02 X370.9762 Y345.3160 I5.1251 J-2.7547
G02 X374.1897 Y344.6066 I0.6153 J-4.8456
G02 X376.2947 Y341.8159 I-3.1622 J-4.5744
G02 X376.7340 Y340.1140 I-8.5667 J-3.1192
G01 X377.0808 Y337.9769
G02 X376.0098 Y336.7181 I-1.0710 J-0.1738
G03 X370.7550 Y336.7010 I-2.1639 J-142.8895
G03 X370.0166 Y336.6497 I0.1313 J-7.2213
G01 X370.0344 Y336.6525
G01 X369.9107 Y336.6327
G03 X369.9075 Y336.0711 I6.8624 J-0.3202
G03 X372.5291 Y335.9574 I2.1565 J19.4379
G01 X373.1713 Y335.9558
G01 Z-30.0000 F500
G02 X370.0789 Y336.0447 I-0.7774 J26.8014 F1300
G01 X369.9075 Y336.0711
G02 X369.9107 Y336.6327 I6.8657 J0.2414
G01 X370.0344 Y336.6525
G01 X370.0166 Y336.6497
G02 X372.4147 Y336.7181 I1.8925 J-24.2761
G01 X376.0098
G03 X377.0808 Y337.9769 I0.0000 J1.0850
G01 X376.7340 Y340.1140
G03 X375.3213 Y343.5752 I-7.2186 J-0.9273
G03 X371.6210 Y345.3404 I-3.6272 J-2.8423
G03 X368.0560 Y344.3683 I-0.2091 J-6.2557
G03 X365.8120 Y341.6421 I3.4846 J-5.1550
G03 X364.9368 Y338.2412 I11.0048 J-4.6449
G03 X365.1882 Y331.9688 I18.7953 J-2.3881
G03 X367.4339 Y327.3684 I9.8119 J1.9415
G03 X371.0301 Y325.4503 I4.2624 J3.6611
G03 X377.1174 Y326.8890 I1.2264 J8.4080
G02 X377.0281 Y325.4113 I-6.6858 J-0.3374
G02 X376.8006 Y325.1404 I-0.3474 J0.0607
G02 X373.5152 Y324.3182 I-3.7695 J8.0873
G02 X368.8626 Y324.7311 I-1.2676 J12.1368
G02 X367.1484 Y325.9216 I1.2764 J3.6672
G02 X365.3259 Y328.4935 I7.7469 J7.4215
G02 X364.4640 Y331.7814 I11.9782 J4.8968
G02 X364.7295 Y339.9949 I23.9868 J3.3356
G02 X367.8689 Y345.3114 I8.9656 J-1.7091
G02 X372.9225 Y346.3173 I3.5017 J-4.3952
G02 X376.1877 Y343.8033 I-1.1182 J-4.8299
G02 X377.4207 Y339.8519 I-9.8934 J-5.2551
G02 X377.7739 Y335.9555 I-62.9781 J-7.6738
G01 X373.8841
G01 X373.1691 Y335.9558
G01 Z-32.0000 F500
G01 X373.8841 Y335.9555 F1300
G01 X377.7739
G03 X377.4207 Y339.8519 I-44.2060 J-2.0435
G03 X376.1877 Y343.8033 I-11.1263 J-1.3037
G03 X372.4475 Y346.4222 I-4.4322 J-2.3495
G03 X367.5053 Y345.0071 I-1.0993 J-5.4984
G03 X364.7295 Y339.9949 I6.2708 J-6.7475
G03 X364.7384 Y330.2983 I23.4758 J-4.8269
G03 X365.6591 Y327.8636 I7.4729 J1.4344
G03 X368.0332 Y325.1213 I8.8728 J5.2827
G03 X369.9329 Y324.4619 I2.6333 J4.5207
G03 X375.6367 Y324.6940 I2.3155 J13.3000
G03 X376.9212 Y325.2206 I-0.9814 J4.2235
G03 X377.0499 Y325.5063 I-0.2725 J0.2945
G03 X377.1174 Y326.8890 I-8.8572 J1.1256
G02 X370.1045 Y325.6515 I-4.8408 J6.9432
G02 X367.4339 Y327.3684 I1.4346 J5.1669
G02 X365.1882 Y331.9688 I7.7149 J6.6145
G02 X365.1846 Y339.7124 I19.0356 J3.8806
G02 X366.1245 Y342.2586 I8.6259 J-1.7378
G02 X370.9762 Y345.3160 I5.1251 J-2.7547
G02 X374.1897 Y344.6066 I0.6153 J-4.8456
G02 X376.2947 Y341.8159 I-3.1622 J-4.5744
G02 X376.7340 Y340.1140 I-8.5667 J-3.1192
G01 X377.0808 Y337.9769
G02 X376.0098 Y336.7181 I-1.0710 J-0.1738
G03 X370.7550 Y336.7010 I-2.1639 J-142.8895
G03 X370.0166 Y336.6497 I0.1313 J-7.2213
G01 X370.0344 Y336.6525
G01 X369.9107 Y336.6327
G03 X369.9075 Y336.0711 I6.8624 J-0.3202
G03 X372.5291 Y335.9574 I2.1565 J19.4379
G01 X373.1713 Y335.9558
G00 Z10.0000


(No. 14: Engraving 50)
G00 X118.6884 Y105.1644 Z10.0000
G00 Z0.5000
G01 Z0.0000 F500
G01 Z-6.0000
G01 X107.6914 Y105.3240 F1300
G01 X96.6943 Y105.4836
G03 X95.5936 Y104.3987 I-0.0157 J-1.0849
G01 Y83.7570
G01 X91.8985
G01 Y104.6760
G01 Y125.5701
G01 X95.5936 Y125.5751
G01 Y109.0390
G03 X96.6943 Y107.9541 I1.0850 J0.0000
G01 X107.6914 Y108.1137
G01 X118.6884 Y108.2732
G03 X119.7575 Y109.3378 I-0.0157 J1.0849
G01 X119.9198 Y117.9888
G01 X120.0621 Y125.5751
G01 X123.1595
G01 Y83.7570
G01 X120.0613
G01 X119.7575 Y104.0957
G01 Z-12.0000 F500
G01 X120.0613 Y83.7570 F1300
G01 X123.1595
G01 Y125.5751
G01 X120.0621
G01 X119.9198 Y117.9888
G01 X119.7575 Y109.3378
G02 X118.6884 Y108.2732 I-1.0848 J0.0204
G01 X107.6914 Y108.1137
G01 X96.6943 Y107.9541
G02 X95.5936 Y109.0390 I-0.0157 J1.0849
G01 Y125.5751
G01 X91.8985 Y125.5701
G01 Y104.6760
G01 Y83.7570
G01 X95.5936
G01 Y104.3987
G02 X96.6943 Y105.4836 I1.0850 J0.0000
G01 X107.6914 Y105.3240
G01 X118.6884 Y105.1644
G01 Z-18.0000 F500
G01 X107.6914 Y105.3240 F1300
G01 X96.6943 Y105.4836
G03 X95.5936 Y104.3987 I-0.0157 J-1.0849
G01 Y83.7570
G01 X91.8985
G01 Y104.6760
G01 Y125.5701
G01 X95.5936 Y125.5751
G01 Y109.0390
G03 X96.6943 Y107.9541 I1.0850 J0.0000
G01 X107.6914 Y108.1137
G01 X118.6884 Y108.2732
G03 X119.7575 Y109.3378 I-0.0157 J1.0849
G01 X119.9198 Y117.9888
G01 X120.0621 Y125.5751
G01 X123.1595
G01 Y83.7570
G01 X120.0613
G01 X119.7575 Y104.0957
G01 Z-24.0000 F500
G01 X120.0613 Y83.7570 F1300
G01 X123.1595
G01 Y125.5751
G01 X120.0621
G01 X119.9198 Y117.9888
G01 X119.7575 Y109.3378
G02 X118.6884 Y108.2732 I-1.0848 J0.0204
G01 X107.6914 Y108.1137
G01 X96.6943 Y107.9541
G02 X95.5936 Y109.0390 I-0.0157 J1.0849
G01 Y125.5751
G01 X91.8985 Y125.5701
G01 Y104.6760
G01 Y83.7570
G01 X95.5936
G01 Y104.3987
G02 X96.6943 Y105.4836 I1.0850 J0.0000
G01 X107.6914 Y105.3240
G01 X118.6884 Y105.1644
G01 Z-30.0000 F500
G01 X107.6914 Y105.3240 F1300
G01 X96.6943 Y105.4836
G03 X95.5936 Y104.3987 I-0.0157 J-1.0849
G01 Y83.7570
G01 X91.8985
G01 Y104.6760
G01 Y125.5701
G01 X95.5936 Y125.5751
G01 Y109.0390
G03 X96.6943 Y107.9541 I1.0850 J0.0000
G01 X107.6914 Y108.1137
G01 X118.6884 Y108.2732
G03 X119.7575 Y109.3378 I-0.0157 J1.0849
G01 X119.9198 Y117.9888
G01 X120.0621 Y125.5751
G01 X123.1595
G01 Y83.7570
G01 X120.0613
G01 X119.7575 Y104.0957
G01 Z-32.0000 F500
G01 X120.0613 Y83.7570 F1300
G01 X123.1595
G01 Y125.5751
G01 X120.0621
G01 X119.9198 Y117.9888
G01 X119.7575 Y109.3378
G02 X118.6884 Y108.2732 I-1.0848 J0.0204
G01 X107.6914 Y108.1137
G01 X96.6943 Y107.9541
G02 X95.5936 Y109.0390 I-0.0157 J1.0849
G01 Y125.5751
G01 X91.8985 Y125.5701
G01 Y104.6760
G01 Y83.7570
G01 X95.5936
G01 Y104.3987
G02 X96.6943 Y105.4836 I1.0850 J0.0000
G01 X107.6914 Y105.3240
G01 X118.6884 Y105.1644
G00 Z10.0000


(No. 15: Engraving 51)
G00 X137.4956 Y109.4227 Z10.0000
G00 Z0.5000
G01 Z0.0000 F500
G01 Z-6.0000
G02 X142.5661 Y114.0165 I10.1651 J-6.1247 F1300
G02 X144.6792 Y114.8645 I7.3603 J-15.2841
G02 X145.3359 Y114.9963 I0.7791 J-2.1807
G01 X145.3706 Y114.8622
G01 X145.3680 Y114.8719
G02 X145.3435 Y112.4676 I-7.3364 J-1.1273
G03 X143.2693 Y111.4741 I1.0540 J-4.8620
G03 X139.6133 Y106.9114 I7.7552 J-9.9602
G03 X138.6777 Y103.3768 I13.1599 J-5.3746
G03 X138.8262 Y93.9751 I30.2613 J-4.2240
G03 X140.0877 Y90.3509 I10.4948 J1.6212
G03 X151.8550 Y85.9476 I8.6045 J5.0695
G03 X157.3395 Y90.4520 I-3.3392 J9.6571
G03 X159.0835 Y95.6075 I-11.5026 J6.7638
G03 X159.0657 Y102.3335 I-28.2261 J3.2884
G03 X157.9224 Y107.0045 I-16.0447 J-1.4518
G03 X153.2837 Y111.6582 I-7.9927 J-3.3282
G02 X152.0478 Y112.3944 I1.9248 J4.6366
G02 X151.7866 Y113.0238 I0.5960 J0.6163
G02 X151.7895 Y115.0152 I9.6384 J0.9818
G01 X151.8138 Y115.0166
G01 X151.8014 Y115.0159
G02 X153.8527 Y114.5331 I-0.1969 J-5.4362
G02 X158.9222 Y111.1287 I-5.7536 J-14.0442
G02 X162.1078 Y104.5409 I-10.8256 J-9.2989
G02 X162.5918 Y97.7067 I-27.0137 J-5.3475
G02 X161.6785 Y92.0378 I-21.1248 J0.4954
G02 X158.5014 Y86.7822 I-11.6220 J3.4375
G02 X151.6351 Y83.4148 I-8.8419 J9.3450
G02 X144.2003 Y83.6150 I-3.2422 J17.7427
