(Project sws-norfolk)
(Created by Estlcam version 11 build 11.244)
(Machining time about 00:11:50 hours)

(Required tools:)
(Thin ball nose)
G21
G90
G94
M03 S30000
G00 Z20.0000


(No. 1: Engraving 1)
G00 X114.9617 Y107.6880
G00 Z0.5000
G01 Z0.0000 F1000 S30000
G01 Z-34.0000
G01 X126.3906 Y86.0045 F1400
G03 X128.4354 Y86.5028 I0.9598 J0.5059
G01 X128.5891 Y108.2072
G01 X128.7351 Y128.8343
G01 X133.5917
G01 Y77.0851
G01 X130.1261 Y77.0905
G01 X126.2539 Y77.0966
G01 X113.9454 Y100.3421
G01 X101.3537 Y124.1376
G03 X99.3050 Y123.6459 I-0.9637 J-0.4987
G01 X99.1519 Y99.8256
G01 X99.0057 Y77.0833
G01 X94.1488
G01 Y102.9688
G01 Y128.8294
G01 X98.7742 Y128.8134
G01 X103.8368 Y128.7948
G01 X114.9617 Y107.6880
G00 Z20.0000


(No. 2: Engraving 2)
G00 X151.4688 Y95.9158 Z20.0000
G00 Z0.5000
G01 Z0.0000 F1000
G01 Z-34.0000
G03 X151.9700 Y89.6974 I30.4106 J-0.6781 F1400
G03 X153.9459 Y85.2749 I11.2971 J2.3946
G03 X158.4926 Y80.8700 I12.8556 J8.7206
G03 X160.3657 Y80.0612 I4.6717 J8.2450
G02 X160.9579 Y79.7881 I-0.5405 J-1.9506
G02 X161.0549 Y79.5622 I-0.2544 J-0.2431
G02 X161.1328 Y77.2727 I-15.8118 J-1.6835
G02 X161.0600 Y76.1401 I-12.7723 J0.2522
G02 X157.7356 Y77.0447 I9.5769 J41.7546
G02 X149.3927 Y84.2892 I4.8545 J14.0167
G02 X147.3275 Y90.3452 I19.2249 J9.9358
G02 X147.4034 Y102.4867 I32.9726 J5.8648
G02 X149.6787 Y108.6733 I19.6021 J-3.6972
G02 X158.9573 Y115.6577 I12.8745 J-7.4481
G01 X160.2534 Y115.9591
G01 X161.1382 Y116.1338
G02 X161.1145 Y113.3970 I-41.8468 J-1.0058
G02 X161.0091 Y112.7189 I-2.0712 J-0.0251
G02 X160.7466 Y112.5269 I-0.3371 J0.1853
G03 X159.0814 Y111.8938 I15.5968 J-43.5269
G03 X154.4886 Y108.0446 I5.1315 J-10.7874
G03 X152.5948 Y104.6037 I11.7274 J-8.6963
G03 X151.7642 Y100.6807 I19.3978 J-6.1562
G03 X151.4689 Y95.9396 I41.8146 J-4.9843
G00 Z20.0000


(No. 3: Engraving 3)
G00 X176.7136 Y94.0686 Z20.0000
G00 Z0.5000
G01 Z0.0000 F1000
G01 Z-34.0000
G03 X176.3954 Y101.8562 I-35.7341 J2.4402 F1400
G03 X175.1048 Y106.0739 I-14.8862 J-2.2485
G03 X170.0406 Y111.1665 I-10.1731 J-5.0521
G01 X169.2728 Y111.5533
G01 X166.8287 Y112.7095
G02 X167.0426 Y115.8070 I56.3389 J-2.3346
G01 X167.0683 Y116.0014
G01 X167.0866 Y116.0975
G02 X175.1027 Y112.6774 I-0.9629 J-13.3613
G02 X179.5764 Y106.4608 I-12.3874 J-13.6324
G02 X181.6421 Y96.3890 I-22.8935 J-9.9433
G02 X180.6921 Y88.7913 I-27.6793 J-0.3971
G02 X177.1652 Y81.8457 I-17.5890 J4.5632
G02 X168.7638 Y76.5225 I-12.5933 J10.5840
G01 X167.4046 Y76.1904
G01 X166.8248 Y76.0690
G02 X166.8446 Y78.9874 I52.0538 J1.1061
G02 X166.9550 Y79.6533 I1.6594 J0.0671
G02 X167.3403 Y79.9379 I0.7055 J-0.5523
G02 X169.5430 Y80.8511 I53.2219 J-125.2648
G03 X174.8621 Y86.1656 I-4.6853 J10.0084
G03 X176.4888 Y91.8104 I-17.5328 J8.1093
G01 X176.6199 Y92.9074
G01 X176.7112 Y94.0309
G00 Z20.0000


(No. 4: Engraving 4)
G00 X194.3714 Y75.9985 Z20.0000
G00 Z0.5000
G01 Z0.0000 F1000
G01 Z-34.0000
G01 Y96.2288 F1400
G01 Y115.3492
G01 X199.2345 Y115.3542
G01 Y110.5186
G03 X200.9704 Y109.6505 I1.0850 J0.0000
G02 X204.2131 Y111.9996 I23.0745 J-28.4387
G02 X213.0732 Y115.2802 I12.0306 J-18.8872
G02 X216.1977 Y115.2642 I1.5077 J-10.6798
G02 X217.2120 Y115.0028 I-0.5088 J-4.0731
G01 X217.2409 Y114.9887
G02 X217.3825 Y113.9510 I-3.0376 J-0.9430
G02 X217.4036 Y110.2658 I-101.3199 J-2.4215
G03 X213.5061 Y110.7748 I-5.8432 J-29.5624
G03 X204.7055 Y108.8628 I-0.7756 J-17.6399
G03 X202.8427 Y107.8433 I11.0528 J-22.4068
G01 X199.7594 Y105.9849
G03 X199.2345 Y105.0557 I0.5601 J-0.9293
G01 Y77.0835
G01 X193.2864
G00 Z20.0000


(No. 5: Engraving 5)
G00 X230.8838 Y110.5782 Z20.0000
G00 Z0.5000
G01 Z0.0000 F1000
G01 Z-34.0000
G01 Y77.0835 F1400
G01 X226.6067
G01 Y93.2984
G01 Y110.5782
G03 X225.5217 Y111.6632 I-1.0850 J0.0000
G01 X221.9179
G01 Y115.3542
G03 X224.3852 Y115.3759 I0.8967 J38.2563
G03 X225.8833 Y115.8656 I0.0519 J2.3776
G03 X226.5836 Y117.5140 I-1.5244 J1.6206
G02 X226.6466 Y119.5438 I40.2878 J-0.2336
G02 X228.6348 Y126.3020 I19.2718 J-1.9983
G02 X230.7527 Y128.8194 I6.8539 J-3.6166
G02 X236.0061 Y131.2127 I7.3953 J-9.2705
G02 X242.5224 Y131.4260 I3.9715 J-21.6902
G01 X245.5362 Y131.1290
G02 X245.5156 Y127.5886 I-70.4192 J-1.3608
G01 X245.5028 Y127.3450
G01 X245.4821 Y127.1818
G03 X238.6675 Y127.7757 I-5.1140 J-19.2864
G03 X234.2466 Y126.2319 I0.9775 J-9.9012
G03 X231.4773 Y122.1385 I4.0817 J-5.7449
G03 X231.0665 Y119.8547 I13.5559 J-3.6167
G01 X230.7255 Y116.5506
G03 X231.8048 Y115.3542 I1.0793 J-0.1114
G01 X243.1918
G01 Y111.6632
G01 X231.9688
G00 Z20.0000


(No. 6: Engraving 6)
G00 X249.7456 Y91.9905 Z20.0000
G00 Z0.5000
G01 Z0.0000 F1000
G01 Z-34.0000
G02 X250.2676 Y102.5673 I30.6450 J3.7887 F1400
G02 X253.2592 Y109.4899 I19.6774 J-4.3958
G02 X263.6784 Y116.1813 I12.9836 J-8.7592
G01 X264.2913 Y116.2893
G02 X264.2707 Y113.4260 I-48.0942 J-1.0845
G02 X264.1614 Y112.7851 I-1.5749 J-0.0613
G02 X263.7714 Y112.4988 I-0.7237 J0.5770
G02 X261.5801 Y111.5893 I-51.2058 J120.2770
G03 X256.2788 Y106.3186 I4.7457 J-10.0747
G03 X254.6329 Y100.7653 I17.1094 J-8.0913
G03 X254.8061 Y90.6414 I32.6043 J-4.5055
G03 X256.6987 Y85.3436 I15.8346 J2.6699
G03 X262.7362 Y80.3744 I9.5853 J5.4936
G02 X263.9201 Y79.8586 I-2.5913 J-7.5637
G02 X264.2318 Y79.3955 I-0.1778 J-0.4561
G02 X264.2735 Y76.5207 I-25.5896 J-1.8090
G01 X264.2549 Y76.2499
G01 X264.2297 Y76.0442
G01 X264.1601 Y76.0513
G01 X264.1710 Y76.0502
G02 X259.4067 Y77.6579 I5.0270 J22.7601
G02 X251.0943 Y86.6290 I6.9703 J14.7950
G02 X249.7378 Y92.0513 I20.8189 J8.0889
G00 Z20.0000


(No. 7: Engraving 7)
G00 X284.1369 Y91.9790 Z20.0000
G00 Z0.5000
G01 Z0.0000 F1000
G01 Z-34.0000
G02 X281.2532 Y83.5469 I-23.3771 J3.2855 F1400
G02 X275.5462 Y77.9628 I-12.4914 J7.0580
G02 X271.6507 Y76.5509 I-7.2948 J14.0464
G01 X270.5640 Y76.3067
G02 X270.5892 Y79.0799 I41.0441 J1.0142
G02 X270.7050 Y79.8111 I2.3215 J0.0071
G02 X271.0373 Y80.1135 I0.5402 J-0.2598
G03 X272.6797 Y80.9032 I-11.1041 J25.1983
G03 X276.2934 Y84.0951 I-7.4529 J12.0792
G03 X278.7769 Y88.3417 I-10.7998 J9.1654
G03 X279.3335 Y91.3069 I-15.7196 J4.4860
G03 X279.0609 Y102.9699 I-41.9649 J4.8535
G03 X278.1456 Y105.5573 I-8.4371 J-1.5289
G03 X273.1075 Y111.2715 I-14.0146 J-7.2783
G03 X271.3680 Y112.1605 I-6.1374 J-9.8634
G02 X270.7677 Y112.5219 I0.4990 J1.5079
G02 X270.6092 Y113.0664 I0.8138 J0.5321
G02 X270.6272 Y115.9322 I18.2494 J1.3182
G01 X270.6569 Y115.9345
G01 X270.6439 Y115.9335
G02 X272.5772 Y115.6199 I0.1751 J-5.0358
G02 X278.9816 Y111.6847 I-6.0931 J-17.0954
G02 X282.5091 Y106.3404 I-12.0657 J-11.8002
G02 X284.4301 Y94.9529 I-24.3836 J-9.9693
G01 X284.3211 Y93.4472
G01 X284.1278 Y91.9202
G00 Z20.0000


(No. 8: Engraving 8)
G00 X301.8015 Y104.1311 Z20.0000
G00 Z0.5000
G01 Z0.0000 F1000
G01 Z-34.0000
G01 Y77.0835 F1400
G01 X297.5245
G01 Y131.1788
G01 X301.8015
G01 Y104.1311
G00 Z20.0000


(No. 9: Engraving 9)
G00 X318.0379 Y75.9985 Z20.0000
G00 Z0.5000
G01 Z0.0000 F1000
G01 Z-34.0000
G01 Y104.1411 F1400
G01 Y131.1738
G01 X322.3149 Y131.1788
G03 X322.3497 Y107.4361 I1559.5967 J-9.5890
G03 X322.6189 Y97.3507 I199.1439 J0.2702
G01 X322.6547 Y96.9285
G01 X322.6963 Y96.5809
G03 X322.9127 Y95.9543 I1.5267 J0.1767
G03 X324.5725 Y95.6948 I0.9417 J0.5850
G03 X327.1987 Y98.1553 I-23.2965 J27.4981
G03 X334.6307 Y105.7298 I-319.0698 J320.4944
G01 X343.8804 Y115.3542
G01 X349.1952
G01 X332.3318 Y98.4660
G03 X332.3130 Y96.9520 I0.7678 J-0.7666
G02 X350.9076 Y77.0982 I-1707.4242 J-1617.7710
G01 X348.8168 Y77.1105
G01 X344.6902 Y77.1348
G01 X339.7359 Y82.6067
G02 X328.8151 Y94.7083 I4895.3969 J4428.6761
G03 X327.3761 Y94.6399 I-0.6810 J-0.8447
G01 X325.0090 Y92.3285
G01 X322.6419 Y90.0171
G03 X322.3149 Y89.2408 I0.7580 J-0.7763
G01 Y77.0835
G01 X316.9529
G00 Z20.0000


(No. 10: Engraving 10)
G00 X317.8327 Y145.2886 Z20.0000
G00 Z0.5000
G01 Z0.0000 F1000
G01 Z-34.0000
G02 X279.4879 Y145.0817 I-35.8081 J3082.3914 F1400
G01 X267.9367 Y145.0733
G01 X254.8705 Y145.0703
G01 X240.1948 Y145.0702
G01 X223.8150 Y145.0708
G01 X116.9754
G01 X115.6689 Y146.1946
G02 X114.3441 Y149.8259 I2.8465 J3.0957
G02 X115.4180 Y152.1720 I3.8412 J-0.3395
G01 X116.4046 Y153.1587
G01 X223.6360 Y153.4505
G01 X235.4053 Y153.4812
G01 X246.3836 Y153.5071
G01 X256.5923 Y153.5281
G01 X266.0528 Y153.5442
G01 X274.7866 Y153.5551
G02 X321.0597 Y153.4516 I12.6691 J-4677.4086
G02 X330.6713 Y153.2651 I-2.1833 J-360.4393
G01 X331.8814 Y153.2048
G01 X332.6213 Y153.1428
G02 X333.4277 Y152.8264 I-0.4179 J-2.2509
G02 X335.1230 Y148.4152 I-2.0810 J-3.3312
G02 X334.4897 Y146.9018 I-6.5089 J1.8346
G02 X334.0045 Y146.3823 I-0.7906 J0.2521
G01 X333.4191 Y146.1835
G01 X332.3840 Y145.9789
G01 X330.8306 Y145.7920
G02 X322.2734 Y145.3797 I-11.4687 J149.0193
G01 X317.8249 Y145.2885
G00 Z20.0000


(No. 11: Engraving 11)
G00 X373.1310 Y195.5623 Z20.0000
G00 Z0.5000
G01 Z0.0000 F1000
G01 Z-34.0000
G01 Y252.9998 F1400
G03 X372.0460 Y254.0848 I-1.0850 J0.0000
G01 X355.5481
G01 Y259.4523
G03 X361.6721 Y260.0412 I-4.0577 J74.3320
G03 X366.6451 Y261.0958 I-3.5085 J28.7958
G03 X373.9197 Y267.2623 I-4.5659 J12.7608
G03 X374.8892 Y270.8171 I-6.6222 J3.7155
G01 X374.8902 Y271.0402
G01 X374.8936 Y271.1481
G01 X375.0094 Y271.1685
G01 X374.9982 Y271.1666
G02 X378.4933 Y271.2560 I2.5633 J-31.8153
G01 X382.0969
G01 Y195.5623
G03 X383.1819 Y194.4773 I1.0850 J0.0000
G01 X399.0937
G01 Y187.8558
G01 X355.5481
G01 Y194.4723
G01 X372.0460 Y194.4773
G00 Z20.0000


(No. 12: Engraving 12)
G00 X323.2314 Y197.8365 Z20.0000
G00 Z0.5000
G01 Z0.0000 F1000
G01 Z-34.0000
G02 X310.8184 Y187.5919 I-19.7049 J11.2332 F1400
G02 X307.2134 Y186.5630 I-14.2181 J42.9843
G02 X305.1990 Y186.1384 I-4.2513 J15.1814
G02 X304.7441 Y186.1352 I-0.2354 J1.1076
G02 X304.5673 Y187.6593 I4.9065 J1.3413
G02 X304.5576 Y193.5276 I365.9365 J3.5376
G03 X307.2054 Y194.2437 I-3.8167 J19.3653
G03 X315.6445 Y201.7782 I-5.6995 J14.8771
G03 X318.0450 Y208.3679 I-24.7162 J12.7359
G03 X319.3751 Y217.2792 I-60.2365 J13.5454
G03 X319.7927 Y228.9851 I-147.1174 J11.1097
G03 X319.4589 Y240.3097 I-165.0305 J0.8028
G03 X318.3695 Y249.0891 I-70.5987 J-4.3032
G03 X316.3825 Y255.7002 I-30.9815 J-5.7075
G03 X313.2794 Y260.5106 I-15.1337 J-6.3563
G03 X308.0473 Y264.0938 I-11.2038 J-10.7479
G03 X304.9089 Y265.1881 I-6.3031 J-13.0296
G01 X304.7243 Y265.2120
G01 X304.7047 Y265.2139
G01 X304.6787 Y265.3515
G01 X304.6819 Y265.3345
G02 X304.5576 Y268.9061 I29.5763 J2.8166
G01 Y272.4596
G01 X306.7047 Y272.2160
G02 X315.7235 Y268.7920 I-2.4938 J-20.1583
G02 X323.9191 Y259.2871 I-13.8863 J-20.2591
G02 X326.6539 Y251.8281 I-39.8570 J-18.8444
G02 X328.8500 Y239.6417 I-74.0348 J-19.6326
G02 X328.5844 Y216.3866 I-102.2932 J-10.4607
G02 X326.0783 Y204.5817 I-68.2807 J8.3271
G01 X325.1898 Y202.0368
G01 X324.1962 Y199.6934
G01 X323.7268 Y198.7427
G01 X323.2080 Y197.7959
G00 Z20.0000


(No. 13: Engraving 13)
G00 X288.3196 Y198.4910 Z20.0000
G00 Z0.5000
G01 Z0.0000 F1000
G01 Z-34.0000
G03 X296.0073 Y193.8443 I10.5043 J8.6958 F1400
G01 X298.2850 Y193.3346
G01 Y186.1198
G02 X294.8366 Y186.4966 I0.1147 J17.0132
G02 X287.5769 Y188.9368 I5.0473 J27.0352
G02 X279.8557 Y195.7937 I9.6851 J18.6816
G02 X276.2913 Y202.9341 I25.5669 J17.2226
G02 X273.8881 Y212.4373 I53.2914 J18.5319
G02 X272.8330 Y237.9691 I103.8452 J17.0790
G02 X274.6627 Y250.3979 I80.8913 J-5.5590
G02 X277.8749 Y259.3348 I38.5584 J-8.8133
G02 X282.5900 Y265.9824 I23.5939 J-11.7391
G02 X294.5315 Y272.0802 I15.0743 J-14.7789
G01 X296.1447 Y272.2837
G01 X298.2917 Y272.4850
G01 X298.1654 Y269.1200
G01 X298.0246 Y265.3680
G03 X294.4926 Y264.5052 I4.2014 J-24.8600
G03 X287.7785 Y259.6075 I4.2219 J-12.8387
G03 X283.0661 Y247.7677 I20.9926 J-15.2130
G03 X282.4575 Y240.9093 I69.3465 J-9.6098
G03 X282.2645 Y224.8794 I346.5830 J-12.1900
G03 X282.4725 Y215.0720 I175.1741 J-1.1907
G03 X283.5766 Y208.5091 I28.9417 J1.4950
G03 X286.0878 Y201.8665 I30.8522 J7.8673
G03 X288.2773 Y198.5415 I16.6109 J8.5550
G00 Z20.0000


(No. 14: Engraving 14)
G00 X235.8004 Y223.6191 Z20.0000
G00 Z0.5000
G01 Z0.0000 F1000
G01 Z-34.0000
G01 X216.8918 Y188.1310 F1400
G02 X208.7884 Y187.9233 I-13.8625 J382.5690
G02 X207.1708 Y187.9498 I-0.4683 J20.7708
G02 X231.8402 Y233.4117 I5860.2914 J-3150.5964
G03 X246.7382 Y260.9987 I-2308.4090 J1264.4377
G03 X247.0860 Y261.7609 I-2.9988 J1.8290
G03 X246.0690 Y263.1381 I-1.0824 J0.2649
G03 X242.3991 Y263.2978 I-3.8620 J-46.5132
G03 X221.6887 Y263.4624 I-18.8351 J-1066.6219
G01 X198.4655
G01 X198.5962 Y267.1745
G01 X198.7298 Y270.9685
G01 X226.8461 Y271.1150
G01 X254.9108 Y271.2613
G01 X254.8960 Y265.7559
G01 X254.8790 Y259.4263
G01 X235.8004 Y223.6191
G00 Z20.0000


(No. 15: Engraving 15)
G00 X170.8493 Y208.7136 Z20.0000
G00 Z0.5000
G01 Z0.0000 F1000
G01 Z-34.0000
G03 X170.2848 Y214.2542 I-21.9290 J0.5650 F1400
G03 X166.4086 Y220.5516 I-11.7133 J-2.8681
G03 X162.0451 Y223.5370 I-15.8210 J-18.4429
G03 X153.8143 Y227.3331 I-37.7622 J-71.0545
G02 X144.4400 Y231.1023 I173.9015 J446.0566
G02 X134.5083 Y235.7053 I41.0381 J101.5616
G02 X130.3604 Y238.3959 I11.3795 J22.0858
G02 X126.7715 Y242.3547 I14.2279 J16.5044
G02 X125.1928 Y246.6178 I8.3687 J5.5230
G02 X124.9189 Y251.5370 I36.2801 J4.4877
G02 X125.0633 Y255.9665 I44.8066 J0.7560
G02 X126.2317 Y259.8142 I10.0518 J-0.9511
G01 X127.6899 Y262.2906
G01 X129.4604 Y264.4867
G01 X131.5311 Y266.4367
G01 X133.8688 Y268.1391
G01 X136.4386 Y269.5910
G01 X139.2038 Y270.7891
G01 X142.1261 Y271.7303
G01 X145.1667 Y272.4121
G01 X148.2861 Y272.8326
G01 X151.4448 Y272.9907
G01 X154.6028 Y272.8857
G01 X157.7203 Y272.5177
G01 X160.7578 Y271.8873
G01 X163.6756 Y270.9957
G01 X166.4350 Y269.8450
G01 X168.9977 Y268.4377
G01 X171.3273 Y266.7767
G01 X173.3890 Y264.8644
G01 X175.1501 Y262.7015
G01 X176.5987 Y260.2529
G02 X177.7646 Y255.7597 I-9.1724 J-4.7781
G02 X177.7674 Y248.8532 I-78.3435 J-3.4853
G02 X176.7151 Y245.0825 I-8.6022 J0.3686
G02 X173.0332 Y239.2884 I-27.8768 J13.6476
G02 X171.5772 Y237.8498 I-11.0758 J9.7538
G02 X165.9288 Y240.3888 I59.6836 J140.3316
G02 X167.0433 Y242.8733 I33.0843 J-13.3492
G03 X168.9923 Y254.0076 I-18.3876 J8.9564
G03 X167.1728 Y259.1983 I-11.6125 J-1.1564
G03 X161.0956 Y264.6632 I-14.5202 J-10.0355
G03 X157.4273 Y266.0487 I-6.1834 J-10.8226
G03 X147.1232 Y266.4751 I-6.8774 J-41.4794
G03 X142.6616 Y265.1164 I1.6194 J-13.3223
G03 X137.8969 Y262.1892 I7.7491 J-17.9551
G03 X134.0475 Y256.1457 I7.3641 J-8.9380
G03 X135.1194 Y247.2052 I12.5292 J-3.0324
G03 X138.8660 Y242.7290 I13.1374 J7.1901
G03 X144.9074 Y238.8771 I20.0110 J24.7221
G03 X153.4211 Y235.3655 I31.8058 J65.0339
G02 X160.6047 Y232.6003 I-20.7178 J-64.5368
G02 X168.1238 Y229.0008 I-42.4966 J-98.4238
G02 X174.1214 Y224.9992 I-15.8603 J-30.2668
G02 X177.8979 Y220.6709 I-11.2794 J-13.6535
G02 X180.0985 Y214.4269 I-14.7400 J-8.7045
G02 X178.7867 Y201.9489 I-23.4775 J-3.8398
G02 X170.5374 Y191.5996 I-21.7290 J8.8575
G02 X159.7266 Y186.7888 I-17.6900 J25.2008
G02 X154.2162 Y186.2146 I-6.9471 J39.9386
G02 X143.6149 Y186.5793 I-3.1304 J63.2575
G02 X139.1219 Y187.6925 I2.7192 J20.5994
G02 X127.9487 Y194.8425 I8.7400 J25.9632
G02 X123.5966 Y201.9522 I14.6646 J13.8635
G02 X122.6487 Y214.8442 I25.5458 J8.3591
G02 X123.8120 Y218.4060 I14.2511 J-2.6835
G02 X127.9811 Y224.9468 I26.0886 J-12.0297
G02 X130.5755 Y227.1328 I8.3249 J-7.2479
G02 X136.1420 Y224.6290 I-50.6095 J-119.9570
G02 X135.1930 Y223.2204 I-18.1949 J11.2345
G03 X131.6320 Y212.0975 I16.1895 J-11.3146
G03 X132.4672 Y205.0987 I21.4593 J-0.9884
G03 X137.2718 Y197.6588 I15.7778 J4.9180
G03 X141.6352 Y194.4091 I14.7329 J15.2271
G03 X148.0481 Y192.5952 I7.5670 J14.5098
G03 X154.3300 Y192.4644 I4.4053 J60.6439
G03 X158.0486 Y192.9474 I-0.0128 J14.6520
G03 X161.6322 Y194.4511 I-6.5036 J20.5221
G03 X166.6816 Y197.9750 I-7.6583 J16.3534
G03 X170.7070 Y206.5730 I-10.2458 J10.0382
G01 X170.8046 Y207.6140
G01 X170.8483 Y208.6615
G00 Z20.0000


(No. 16: Engraving 16)
G00 X95.3190 Y203.8662 Z20.0000
G00 Z0.5000
G01 Z0.0000 F1000
G01 Z-34.0000
G03 X96.4267 Y208.0130 I-15.7742 J6.4349 F1400
G03 X96.4084 Y219.4199 I-40.4797 J5.6384
G03 X95.6585 Y222.4256 I-15.1396 J-2.1811
G03 X92.9011 Y226.6902 I-13.8521 J-5.9325
G03 X87.7150 Y230.9921 I-15.2890 J-13.1543
G03 X84.8507 Y232.0517 I-4.6991 J-8.3020
G03 X78.1739 Y232.8242 I-8.1454 J-41.1616
G03 X71.4118 Y232.6346 I-2.2672 J-39.8238
G01 X70.7534 Y232.5288
G01 X68.9466 Y232.1932
G01 Y238.6341
G02 X73.8738 Y239.7577 I6.4514 J-16.9261
G02 X84.3106 Y239.8330 I5.5995 J-52.7622
G02 X99.5964 Y232.8096 I-2.8855 J-26.4259
G02 X104.3515 Y226.0260 I-13.5395 J-14.5491
G02 X106.3796 Y216.7561 I-32.7525 J-12.0226
G02 X104.6594 Y204.1539 I-29.7095 J-2.3633
G02 X89.5532 Y188.3566 I-25.6451 J9.4019
G02 X84.8168 Y186.8117 I-10.6448 J24.6027
G02 X77.6723 Y186.1698 I-6.7475 J35.0193
G02 X70.5781 Y186.8367 I-0.4024 J33.7848
G02 X54.8009 Y197.7803 I6.0642 J25.5873
G02 X49.9395 Y208.8751 I29.0239 J19.3298
G02 X48.6110 Y217.5795 I49.8396 J12.0607
G02 X49.5982 Y239.1967 I95.4853 J6.4703
G02 X51.0913 Y245.7366 I50.7853 J-8.1536
G02 X59.4823 Y260.5611 I39.1195 J-12.3557
G02 X78.3441 Y271.5729 I26.0663 J-22.9883
G02 X83.8301 Y272.2155 I8.0761 J-45.2128
G02 X94.4566 Y272.2243 I5.3779 J-77.8672
G02 X98.4258 Y271.4612 I-0.8456 J-15.1028
G02 X98.4130 Y264.4388 I-376.6511 J-2.8229
G02 X98.3376 Y263.0415 I-11.9066 J-0.0584
G03 X90.4636 Y264.6391 I-24.3940 J-100.0290
G03 X83.8044 Y264.8765 I-4.2089 J-24.5420
G03 X78.2587 Y263.6710 I4.2472 J-32.8971
G03 X69.0974 Y258.9844 I6.2221 J-23.4605
G03 X62.2028 Y250.3470 I18.0783 J-21.5008
G03 X58.6860 Y241.0007 I35.2878 J-18.6128
G03 X58.0241 Y234.8937 I34.1976 J-6.7957
G03 X57.9339 Y216.6596 I336.8903 J-10.7849
G03 X58.3548 Y211.0680 I45.0564 J0.5802
G03 X59.5906 Y206.9337 I23.5693 J4.7932
G03 X64.9425 Y198.5513 I23.0098 J8.7913
G03 X71.6999 Y194.2136 I12.4874 J12.0211
G03 X77.7125 Y193.3631 I5.4106 J16.5724
G03 X83.0084 Y193.8756 I-0.1674 J29.3486
G03 X90.5298 Y197.2933 I-3.1947 J17.0161
G03 X95.2960 Y203.8103 I-10.2435 J12.4929
G00 Z20.0000


(No. 17: Engraving 17)
G00 X149.2706 Y301.9449 Z20.0000
G00 Z0.5000
G01 Z0.0000 F1000
G01 Z-34.0000
G01 X143.5608 Y301.9484 F1400
G01 X138.3193 Y301.9532
G02 X116.8066 Y302.0328 I-4.3454 J1731.1662
G02 X115.4123 Y302.8921 I0.9245 J3.0611
G02 X113.6024 Y305.6802 I4.5718 J4.9493
G02 X113.6984 Y307.2909 I2.2116 J0.6764
G02 X114.6490 Y308.9727 I5.2904 J-1.8807
G01 X115.7325 Y310.2323
G01 X222.9817 Y310.4039
G01 X234.0615 Y310.4202
G01 X244.4955 Y310.4326
G01 X254.2934 Y310.4410
G01 X263.4650 Y310.4455
G01 X272.0198 Y310.4459
G01 X279.9675 Y310.4423
G02 X322.8484 Y310.2621 I3.9829 J-4154.3640
G02 X331.4630 Y310.0682 I-1.9903 J-279.8232
G01 X332.3458 Y310.0114
G02 X333.3114 Y309.7362 I-0.3949 J-3.2173
G02 X335.1980 Y307.8576 I-1.2684 J-3.1603
G02 X335.7317 Y305.9019 I-3.7007 J-2.0607
G02 X335.0957 Y304.3152 I-2.8659 J0.2280
G02 X333.1745 Y302.1155 I-17.0948 J12.9915
G01 X225.8135 Y301.9839
G01 X216.9979 Y301.9738
G01 X208.3640 Y301.9650
G01 X199.9404 Y301.9577
G01 X191.7558 Y301.9517
G01 X183.8388 Y301.9472
G01 X176.2180 Y301.9440
G01 X168.9221 Y301.9422
G01 X161.9798 Y301.9418
G01 X155.4197 Y301.9427
G01 X149.2703 Y301.9449
G00 Z20.0000


(No. 18: Engraving 18)
G00 X115.4803 Y337.9791 Z20.0000
G00 Z0.5000
G01 Z0.0000 F1000
G01 Z-34.0000
G03 X111.1144 Y339.7255 I-8.1490 J-14.0422 F1400
G02 X106.4377 Y341.1528 I8.1085 J34.9434
G02 X103.5669 Y342.6781 I4.4744 J11.8850
G02 X101.0666 Y346.2871 I3.7762 J5.2868
G02 X100.5960 Y350.4267 I15.1697 J3.8213
G02 X101.1909 Y354.6923 I12.8551 J0.3813
G02 X103.8725 Y358.3776 I7.7843 J-2.8457
G02 X106.2756 Y360.0042 I9.1913 J-10.9910
G02 X108.7745 Y360.5307 I2.4575 J-5.4706
G02 X115.9255 Y359.8084 I1.2663 J-23.2234
G02 X119.2745 Y358.5837 I-8.2661 J-27.7964
G02 X119.4336 Y355.1416 I-34.5732 J-3.3222
G01 X119.3960 Y355.1278
G03 X116.8217 Y356.5972 I-7.2122 J-9.6455
G03 X111.2994 Y358.3275 I-9.3682 J-20.2212
G03 X104.4576 Y356.2331 I-1.1444 J-8.4839
G03 X102.6924 Y348.3951 I4.7837 J-5.1952
G03 X104.4984 Y345.6112 I6.6370 J2.3281
G03 X106.6055 Y344.3419 I5.1184 J6.1128
G03 X111.6533 Y342.7449 I14.5605 J37.2481
G01 X112.6622 Y342.4818
G01 X113.7379 Y342.2077
G02 X118.6212 Y339.1522 I-1.9502 J-8.5470
G02 X120.5045 Y333.6664 I-7.4293 J-5.6166
G02 X119.3686 Y327.8429 I-12.9399 J-0.4986
G02 X114.6383 Y322.9154 I-9.1702 J4.0689
G02 X111.7080 Y322.1851 I-3.8437 J9.1792
G02 X102.8365 Y323.3370 I-1.9719 J19.5526
G01 X100.2655 Y324.3764
G01 X100.1238 Y327.1120
G01 X100.0631 Y328.2842
G03 X104.3205 Y325.7181 I13.3783 J17.3807
G03 X109.9864 Y324.3795 I6.0590 J12.9868
G03 X115.0398 Y325.6679 I0.3739 J9.0874
G03 X118.4264 Y330.5708 I-4.0271 J6.4028
G03 X118.6898 Y333.7680 I-11.5498 J2.5610
G03 X117.5390 Y336.1978 I-4.1112 J-0.4598
G03 X115.5107 Y337.9601 I-6.6899 J-5.6511
G00 Z20.0000


(No. 19: Engraving 19)
G00 X142.6190 Y343.2408 Z20.0000
G00 Z0.5000
G01 Z0.0000 F1000
G01 Z-34.0000
G02 X143.8850 Y337.8855 I-5259.9033 J-1246.2958 F1400
G03 X146.2143 Y328.6764 I182.4954 J41.2592
G03 X147.3356 Y327.6904 I1.1803 J0.2118
G03 X148.4536 Y328.6886 I-0.0059 J1.1318
G03 X150.8367 Y342.1220 I-460.4444 J88.6120
G02 X152.3711 Y350.2922 I179.1508 J-29.4162
G01 X152.3979 Y350.3726
G02 X153.4902 Y350.2657 I0.3911 J-1.6372
G02 X150.8332 Y335.7432 I-492.7722 J82.6543
G01 X148.2979 Y322.6582
G02 X146.9023 Y322.6510 I-2.7201 J390.2913
G02 X146.2911 Y324.2637 I6.4053 J3.3495
G02 X144.0998 Y332.8714 I251.9225 J68.7141
G03 X141.7294 Y341.6876 I-119.9218 J-27.5165
G03 X141.1095 Y343.3439 I-12.8077 J-3.8499
G03 X140.1288 Y344.2036 I-1.2713 J-0.4611
G03 X138.8436 Y343.4024 I-0.1726 J-1.1546
G03 X137.1628 Y337.0891 I107.0107 J-31.8697
G03 X133.7157 Y322.6582 I1172.0863 J-287.6019
G02 X132.3599 Y322.6888 I-0.5117 J7.3776
G02 X132.0567 Y322.7935 I-0.0241 J0.4217
G02 X131.8545 Y323.4895 I1.6635 J0.8606
G02 X127.0777 Y347.8351 I8907.7914 J1760.4222
G03 X126.5677 Y350.3201 I-181.1531 J-35.8808
G02 X128.1847 Y350.1695 I-7.9546 J-94.1685
G03 X132.2177 Y328.0220 I1389.3980 J241.5665
G03 X134.3187 Y328.0633 I1.0452 J0.2913
G01 X136.5395 Y337.4410
G02 X139.2512 Y348.6209 I395.8165 J-90.0864
G02 X139.8437 Y350.3630 I10.0093 J-2.4326
G01 X139.8615 Y350.3893
G03 X140.6329 Y350.3807 I0.5204 J12.0365
G02 X141.2845 Y348.5703 I-7.7895 J-3.8261
G02 X142.6195 Y343.2386 I-153.8389 J-41.3537
G00 Z20.0000


(No. 20: Engraving 20)
G00 X171.0896 Y338.6572 Z20.0000
G00 Z0.5000
G01 Z0.0000 F1000
G01 Z-34.0000
G01 X175.2672 F1400
G03 X176.3386 Y339.9135 I0.0000 J1.0850
G03 X175.7027 Y343.5889 I-39.3538 J-4.9155
G03 X174.3486 Y346.6465 I-7.5803 J-1.5285
G03 X171.2609 Y348.6748 I-4.7877 J-3.9240
G03 X166.5178 Y348.3644 I-1.9865 J-6.0406
G03 X162.7941 Y344.6480 I2.4242 J-6.1527
G03 X161.8014 Y340.2323 I14.3563 J-5.5468
G03 X161.7210 Y333.1197 I51.4792 J-4.1391
G03 X163.1204 Y328.5700 I9.9348 J0.5657
G03 X166.9444 Y324.8739 I7.4464 J3.8780
G03 X172.7296 Y324.4542 I3.4659 J7.6914
G03 X176.9628 Y326.5235 I-3.7719 J13.0810
G02 X176.9181 Y324.5411 I-15.2538 J-0.6477
G02 X176.7627 Y324.0426 I-0.7672 J-0.0342
G02 X175.7413 Y323.4239 I-2.2899 J2.6280
G02 X167.0914 Y322.5548 I-5.4389 J10.6511
G02 X163.6407 Y324.6221 I1.9317 J7.1380
G02 X161.7277 Y327.6279 I10.1521 J8.5729
G02 X160.4935 Y330.5695 I13.8348 J7.5340
G02 X160.1279 Y333.8181 I13.0642 J3.1154
G02 X160.2770 Y340.8094 I69.4689 J2.0152
G02 X161.5914 Y345.2457 I10.9669 J-0.8364
G02 X164.7132 Y349.2715 I10.8936 J-5.2239
G02 X170.1032 Y350.8166 I4.4899 J-5.4890
G02 X173.1591 Y349.9148 I-0.7075 J-8.0260
G02 X175.9476 Y346.8873 I-3.3045 J-5.8413
G02 X177.0975 Y343.1084 I-12.9296 J-5.9991
G02 X177.4307 Y340.1084 I-27.5936 J-4.5833
G01 X177.6328 Y336.7245
G01 X167.9970
G01 Y338.6572
G01 X171.0896
G00 Z20.0000


(No. 21: Engraving 21)
G00 X196.8030 Y336.7245 Z20.0000
G00 Z0.5000
G01 Z0.0000 F1000
G01 Z-34.0000
G01 X192.0270 F1400
G01 Y338.6572
G03 X197.0474 Y338.6725 I1.9576 J181.8975
G03 X198.7611 Y338.8559 I0.1128 J7.0442
G03 X200.2088 Y340.5725 I-0.3990 J1.8053
G03 X199.7512 Y343.7946 I-8.1001 J0.4932
G03 X197.8439 Y347.1377 I-7.9052 J-2.2944
G03 X190.7092 Y348.4217 I-4.5032 J-4.5581
G03 X186.4037 Y343.8736 I3.3462 J-7.4797
G03 X185.5814 Y340.0633 I14.6467 J-5.1546
G03 X186.1257 Y331.3582 I26.9471 J-2.6848
G03 X187.5750 Y327.8659 I10.0453 J2.1221
G03 X192.2431 Y324.4090 I6.7815 J4.2772
G03 X197.5503 Y324.7011 I2.1842 J8.6751
G03 X200.9175 Y326.4724 I-4.7530 J13.1217
G02 X200.7068 Y324.3470 I-13.7436 J0.2899
G02 X200.0721 Y323.4460 I-1.1172 J0.1129
G02 X198.0650 Y322.7091 I-3.1328 J5.4315
G02 X192.3863 Y322.2128 I-4.6193 J20.1163
G02 X189.4324 Y323.2222 I0.5848 J6.5380
G02 X186.6549 Y325.9987 I3.6721 J6.4510
G02 X184.7405 Y329.8982 I22.6448 J13.5366
G02 X184.1468 Y333.5578 I11.0927 J3.6777
G02 X184.3529 Y340.3336 I46.2282 J1.9848
G02 X185.7670 Y345.4280 I15.3439 J-1.5155
G02 X190.8486 Y350.3111 I9.5288 J-4.8306
G02 X196.0965 Y350.3833 I2.7145 J-6.5511
G02 X199.7704 Y347.2076 I-2.3797 J-6.4659
G02 X201.3202 Y342.5077 I-11.9711 J-6.5531
G02 X201.5757 Y338.9991 I-22.7939 J-3.4232
G01 X201.5779 Y336.7245
G01 X196.8030
G00 Z20.0000


(No. 22: Engraving 22)
G00 X210.9565 Y346.7754 Z20.0000
G00 Z0.5000
G01 Z0.0000 F1000
G01 Z-34.0000
G03 X211.0038 Y334.3718 I376.0368 J-4.7683 F1400
G03 X211.3499 Y329.6384 I39.9982 J0.5455
G03 X211.9811 Y327.0730 I11.3740 J1.4380
G03 X213.6235 Y324.9509 I4.0156 J1.4113
G03 X216.7263 Y324.2831 I2.5438 J4.2766
G03 X218.5709 Y324.6547 I-0.3421 J6.4607
G02 X218.5109 Y322.8337 I-10.7025 J-0.5589
G02 X218.4192 Y322.5438 I-0.4682 J-0.0114
G02 X217.7744 Y322.3337 I-0.8762 J1.5946
G02 X212.9296 Y322.6119 I-1.9532 J8.3111
G02 X211.2307 Y323.8240 I1.5361 J3.9497
G02 X210.4499 Y325.7004 I4.1055 J2.8089
G02 X209.9658 Y329.6440 I26.4795 J5.2515
G02 X209.6415 Y340.2164 I310.0583 J14.8035
G03 X209.3720 Y345.3860 I-54.8200 J-0.2664
G03 X209.0299 Y346.7837 I-4.7134 J-0.4127
G03 X207.3390 Y347.8599 I-1.6227 J-0.6830
G01 X207.3196 Y347.9444
G01 X207.3223 Y347.9293
G02 X207.3357 Y350.3785 I11.3966 J1.1625
G03 X208.9357 Y350.9815 I0.1656 J1.9850
G03 X209.5272 Y352.6510 I-2.3014 J1.7550
G03 X209.6099 Y355.5659 I-33.8829 J2.4196
G01 Y358.5845
G01 X210.9565
G01 Y351.4642
G03 X212.0415 Y350.3792 I1.0850 J0.0000
G01 X218.5757
G01 Y347.8604
G01 X212.0415
G00 Z20.0000


(No. 23: Engraving 23)
G00 X249.8448 Y341.9994 Z20.0000
G00 Z0.5000
G01 Z0.0000 F1000
G01 Z-34.0000
G01 X242.5186 F1400
G03 X241.4336 Y340.9144 I0.0000 J-1.0850
G01 Y322.6582
G01 X240.0870
G01 Y359.7567
G01 X241.4336
G01 Y345.6032
G03 X242.5186 Y344.5182 I1.0850 J0.0000
G01 X257.1710
G03 X258.2560 Y345.6032 I0.0000 J1.0850
G01 Y359.7567
G01 X260.1887
G01 Y322.6582
G01 X258.2560
G01 Y340.9144
G03 X257.1710 Y341.9994 I-1.0850 J0.0000
G01 X249.8448
G00 Z20.0000


(No. 24: Engraving 24)
G00 X270.1556 Y336.4413 Z20.0000
G00 Z0.5000
G01 Z0.0000 F1000
G01 Z-34.0000
G03 X270.6009 Y331.0162 I27.2788 J-0.4916 F1400
G03 X272.4525 Y326.7427 I9.9012 J1.7519
G03 X273.7504 Y325.3471 I13.6347 J11.3797
G02 X274.7677 Y323.6242 I-2.3927 J-2.5745
G02 X274.7907 Y322.2025 I-3.9501 J-0.7749
G01 X274.6663 Y322.2606
G01 X274.6757 Y322.2562
G02 X272.1099 Y324.3526 I6.0453 J10.0169
G02 X269.3337 Y329.6625 I9.2277 J8.2053
G02 X268.6114 Y335.9418 I24.8261 J6.0371
G02 X268.9984 Y341.6876 I31.6393 J0.7549
G02 X273.3447 Y349.5907 I13.3129 J-2.1749
G02 X274.7513 Y350.4968 I3.3075 J-3.5891
G01 X274.8306 Y350.5167
G02 X274.7460 Y348.9485 I-5.5833 J-0.4850
G02 X273.7288 Y347.4446 I-2.7540 J0.7668
G03 X271.1040 Y343.5759 I5.4018 J-6.4898
G03 X270.2205 Y338.6993 I17.2727 J-5.6476
G03 X270.1556 Y336.4600 I36.1442 J-2.1675
G00 Z20.0000


(No. 25: Engraving 25)
G00 X284.6704 Y334.6381 Z20.0000
G00 Z0.5000
G01 Z0.0000 F1000
G01 Z-34.0000
G03 X284.3075 Y341.6411 I-25.7280 J2.1774 F1400
G03 X281.4993 Y347.4279 I-11.9136 J-2.2065
G03 X280.7896 Y347.9638 I-1.7074 J-1.5233
G02 X280.5278 Y349.3880 I2.7795 J1.2470
G02 X280.6092 Y350.2696 I3.2159 J0.1477
G02 X282.3651 Y348.8474 I-3.8503 J-6.5488
G02 X285.6103 Y343.0260 I-7.7574 J-8.1396
G02 X286.2601 Y336.6463 I-29.2220 J-6.1996
G02 X286.1532 Y331.7562 I-52.7685 J-1.2925
G02 X285.1221 Y328.0156 I-10.1962 J0.7981
G02 X281.1671 Y322.7772 I-12.6012 J5.4020
G01 X280.8897 Y322.5757
G01 X280.6288 Y322.4066
G01 X280.5606 Y322.3752
G02 X280.6690 Y324.6281 I7.2215 J0.7817
G02 X280.7834 Y324.9014 I0.8953 J-0.2140
G03 X282.6003 Y326.5892 I-1.8490 J3.8122
G03 X283.9733 Y330.0897 I-10.6317 J6.1898
G03 X284.6674 Y334.5961 I-26.0598 J6.3203
G00 Z20.0000


(No. 26: Engraving 26)
G00 X310.0069 Y343.8376 Z20.0000
G00 Z0.5000
G01 Z0.0000 F1000
G01 Z-34.0000
G01 Y322.6582 F1400
G01 X308.7120
G03 X308.4467 Y338.5286 I-1302.1647 J-13.8276
G03 X308.1495 Y343.8406 I-53.5601 J-0.3326
G03 X307.6617 Y345.8147 I-6.6736 J-0.6015
G03 X302.5515 Y348.3464 I-4.2045 J-2.0635
G03 X298.5975 Y346.4694 I1.8046 J-8.9051
G03 X296.9609 Y344.9575 I5.0184 J-7.0738
G03 X296.1885 Y342.9003 I3.4753 J-2.4784
G03 X295.9670 Y338.8840 I37.6840 J-4.0927
G03 X295.9406 Y322.6582 I1494.5920 J-10.5458
G01 X294.5940
G01 Y350.3792
G02 X295.9123 Y350.3491 I0.4903 J-7.4261
G01 X295.9178 Y350.3067
G01 X295.9157 Y350.3226
G02 X295.9443 Y347.6384 I-41.7476 J-1.7866
G03 X297.7656 Y346.9348 I1.0813 J0.0899
G02 X300.2713 Y349.2225 I29.8446 J-30.1738
G02 X302.8147 Y350.7072 I4.9960 J-5.6372
G02 X304.9506 Y350.9166 I1.5305 J-4.6140
G02 X307.6068 Y349.5388 I-2.0229 J-7.1490
G02 X308.7564 Y348.3370 I-2.4490 J-3.4934
G02 X308.8492 Y347.9294 I-0.6966 J-0.3731
G03 X310.2356 Y346.3016 I1.7751 J0.1076
G03 X312.1602 Y347.6489 I0.2868 J1.6385
G02 X313.7146 Y348.8721 I6.0535 J-6.0941
G02 X317.5926 Y350.8189 I10.0121 J-15.1080
G02 X318.9457 Y350.9271 I0.8777 J-2.4611
G02 X322.7975 Y348.4054 I-0.5178 J-4.9935
G02 X323.9302 Y345.0072 I-7.7473 J-4.4701
G02 X324.3964 Y338.4122 I-63.5424 J-7.8063
G02 X324.7699 Y322.6582 I-1192.9223 J-36.1672
G01 X322.7267
G03 X322.7091 Y338.2052 I-1370.3233 J6.2284
G03 X322.5398 Y342.9054 I-53.0111 J0.4427
G03 X322.1125 Y345.0635 I-8.0467 J-0.4718
G03 X319.5299 Y347.9583 I-5.2708 J-2.1029
G03 X316.1390 Y348.1797 I-1.9755 J-4.1792
G03 X312.8952 Y346.4836 I3.3867 J-10.4271
G01 X310.4554 Y344.7162
G00 Z20.0000


(No. 27: Engraving 27)
G00 X345.7300 Y338.6868 Z20.0000
G00 Z0.5000
G01 Z0.0000 F1000
G01 Z-34.0000
G03 X347.1968 Y338.9028 I0.0181 J4.9657 F1400
G03 X348.4914 Y340.5725 I-0.5427 J1.7575
G03 X348.0338 Y343.7946 I-8.1001 J0.4932
G03 X346.1244 Y347.1385 I-7.8935 J-2.2900
G03 X338.9853 Y348.4208 I-4.5050 J-4.5672
G03 X334.7160 Y343.8895 I3.3139 J-7.3992
G03 X333.9089 Y340.2577 I14.4271 J-5.1115
G03 X334.5214 Y331.1628 I25.9286 J-2.8219
G03 X338.0343 Y325.6911 I9.5987 J2.2989
G03 X343.2018 Y324.0384 I4.7703 J6.0105
G03 X346.5198 Y325.0071 I-2.1561 J13.5523
G03 X349.5925 Y326.6104 I-5.6423 J14.5593
G01 X349.8296 Y326.7908
G02 X349.7947 Y324.3987 I-13.5871 J-0.9981
G02 X349.4037 Y323.8378 I-0.6336 J0.0249
G02 X346.2403 Y322.7122 I-5.0849 J9.2821
G02 X340.6572 Y322.2161 I-4.6283 J20.4256
G02 X337.9925 Y323.0830 I0.4613 J5.9470
G02 X334.9503 Y326.0112 I3.7194 J6.9086
G02 X333.0535 Y329.7868 I20.9687 J12.8987
G02 X332.4642 Y333.4366 I10.9310 J3.6374
G02 X332.6619 Y340.3162 I48.2749 J2.0557
G02 X334.0596 Y345.4348 I15.3780 J-1.4492
G02 X339.0420 Y350.2577 I9.3996 J-4.7255
G02 X345.6715 Y349.8299 I2.8879 J-6.8288
G02 X348.2920 Y346.8326 I-4.1337 J-6.2581
G02 X349.7064 Y341.7585 I-13.6622 J-6.5426
G02 X349.8583 Y338.9990 I-24.6508 J-2.7404
G01 X349.8604 Y336.7245
G01 X340.3095
G01 Y338.6572
G03 X345.3299 Y338.6725 I1.9576 J181.8978
G01 X345.7052 Y338.6856
G00 Z20.0000


(No. 28: Engraving 28)
G00 X281.5777 Y389.4733 Z20.0000
G00 Z0.5000
G01 Z0.0000 F1000
G01 Z-34.0000
G01 X275.8389 F1400
G01 Y391.4060
G01 X284.1314
G03 X285.2164 Y392.4910 I0.0000 J1.0850
G03 X285.1668 Y395.2914 I-20.5666 J1.0362
G03 X282.9551 Y400.4692 I-8.8327 J-0.7115
G03 X277.6143 Y402.6254 I-5.0501 J-4.8164
G03 X272.7054 Y400.5107 I0.2216 J-7.2695
G03 X270.2607 Y396.6492 I6.9437 J-7.1006
G03 X269.6838 Y393.1682 I17.1556 J-4.6316
G03 X269.9233 Y384.7752 I38.9174 J-3.0892
G03 X270.5533 Y382.2516 I11.2764 J1.4748
G03 X272.6388 Y378.8342 I11.0470 J4.3964
G03 X280.5978 Y376.0341 I6.3874 J5.4444
G03 X286.1232 Y378.3877 I-2.6036 J13.7753
G01 X286.5630 Y378.6862
G02 X286.5416 Y376.4189 I-39.8092 J-0.7582
G02 X286.4229 Y375.7009 I-1.9060 J-0.0537
G02 X286.0426 Y375.3765 I-0.7484 J0.4924
G02 X279.2505 Y373.3592 I-8.6123 J16.5543
G02 X276.9288 Y373.5695 I-0.5331 J7.0366
G02 X274.8924 Y374.0189 I11.8772 J58.6609
G02 X272.9141 Y375.2545 I2.9034 J6.8503
G02 X269.2772 Y379.6700 I10.0256 J11.9632
G02 X268.1525 Y383.7585 I10.5238 J5.0938
G02 X267.9278 Y390.1102 I56.6270 J5.1830
G02 X268.1160 Y394.6750 I37.5410 J0.7387
G02 X269.2606 Y398.1744 I10.8147 J-1.6004
G02 X271.8187 Y402.1901 I14.2500 J-6.2550
G02 X276.5321 Y404.6323 I5.7272 J-5.2842
G02 X280.0466 Y404.7743 I2.3304 J-14.1128
G02 X282.1255 Y403.9527 I-0.6105 J-4.5856
G02 X285.2580 Y400.3589 I-4.7442 J-7.2976
G02 X286.7411 Y395.3620 I-15.3752 J-7.2816
G02 X286.9971 Y393.0122 I-28.2401 J-4.2665
G01 X287.2397 Y389.4733
G01 X281.5777
G00 Z20.0000


(No. 29: Engraving 29)
G00 X241.8452 Y385.2047 Z20.0000
G00 Z0.5000
G01 Z0.0000 F1000
G01 Z-34.0000
G03 X241.7278 Y393.7989 I-186.2462 J1.7522 F1400
G03 X241.2840 Y397.9479 I-25.8629 J-0.6682
G03 X240.4501 Y400.0788 I-5.7206 J-1.0100
G03 X237.8355 Y401.6516 I-3.0635 J-2.1332
G03 X234.6237 Y401.6639 I-1.6454 J-10.3152
G03 X231.4628 Y400.0996 I1.3962 J-6.7971
G03 X228.8526 Y397.8209 I52.9592 J-63.2973
G03 X228.5394 Y397.0583 I0.7718 J-0.7626
G01 Y374.2348
G01 X226.6067
G01 Y389.2774
G01 Y404.2951
G02 X228.4264 Y404.2772 I0.7316 J-18.1439
G01 X228.5161 Y404.2633
G01 X228.5180 Y404.2484
G01 X228.5157 Y404.2663
G02 X228.5431 Y401.5594 I-45.6072 J-1.8163
G03 X230.3644 Y400.8558 I1.0813 J0.0899
G02 X232.9014 Y403.1708 I30.0348 J-30.3669
G02 X235.2636 Y404.5600 I4.8505 J-5.5446
G02 X238.6766 Y404.7706 I2.1288 J-6.7388
G02 X240.3455 Y403.7635 I-1.3470 J-4.1182
G02 X243.7578 Y400.4095 I-60.0447 J-64.5021
G03 X245.2090 Y400.4451 I0.7058 J0.8240
G02 X248.0288 Y403.0602 I37.5440 J-37.6551
G02 X250.4966 Y404.5537 I5.0244 J-5.5164
G02 X254.3370 Y404.7291 I2.2738 J-7.6548
G02 X257.2084 Y402.6576 I-1.2138 J-4.7083
G02 X258.8503 Y398.2666 I-7.8794 J-5.4487
G02 X259.3240 Y391.2263 I-73.1312 J-8.4566
G02 X259.7309 Y374.2348 I-1398.5061 J-41.9941
G01 X257.7702
G03 X257.4705 Y390.6845 I-1235.0102 J-14.2721
G03 X257.0996 Y396.8375 I-61.0800 J-0.5936
G03 X256.4764 Y399.1504 I-7.0916 J-0.6705
G03 X252.3265 Y401.8467 I-4.3192 J-2.1060
G03 X247.7202 Y400.6374 I-0.2603 J-8.3861
G03 X245.0345 Y398.5745 I6.0127 J-10.6076
G03 X244.0976 Y396.6089 I2.8952 J-2.5861
G03 X243.8431 Y393.6639 I20.7146 J-3.2733
G03 X243.7779 Y385.0627 I332.0863 J-6.8186
G01 Y374.2348
G01 X241.8452
G01 Y385.2033
G00 Z20.0000


(No. 30: Engraving 30)
G00 X215.9496 Y386.0483 Z20.0000
G00 Z0.5000
G01 Z0.0000 F1000
G01 Z-34.0000
G03 X215.8307 Y393.7469 I-43.3608 J3.1807 F1400
G03 X214.5738 Y398.0729 I-12.4085 J-1.2598
G03 X212.3640 Y401.0147 I-11.4753 J-6.3189
G02 X211.5579 Y402.2824 I2.5678 J2.5231
G02 X211.4711 Y403.7279 I3.5433 J0.9381
G01 X211.5179 Y404.2557
G02 X214.8798 Y401.5157 I-3.0441 J-7.1676
G02 X216.9161 Y397.1931 I-12.4345 J-8.4986
G02 X217.9896 Y388.9843 I-27.6930 J-7.7959
G02 X217.3858 Y382.2549 I-30.9313 J-0.6165
G02 X215.1228 Y377.1952 I-12.3691 J2.4962
G02 X211.7810 Y373.9730 I-13.0106 J10.1498
G01 X211.5518 Y373.8359
G01 X211.4305 Y373.7764
G01 X211.3983 Y373.9733
G01 X211.4002 Y373.9615
G02 X211.6648 Y376.0531 I3.7866 J0.5835
G02 X212.7676 Y377.5264 I4.7830 J-2.4308
G03 X215.3425 Y382.1183 I-7.0973 J6.9977
G03 X215.9479 Y386.0239 I-21.1066 J5.2713
G00 Z20.0000


(No. 31: Engraving 31)
G00 X200.8949 Y383.8290 Z20.0000
G00 Z0.5000
G01 Z0.0000 F1000
G01 Z-34.0000
G03 X202.3013 Y379.5086 I15.3596 J2.6109 F1400
G03 X204.2845 Y376.9680 I6.5624 J3.0782
G03 X205.5199 Y376.2475 I2.8485 J3.4645
G02 X205.5781 Y374.5795 I-5.0349 J-1.0107
G01 X205.5072 Y373.6560
G02 X201.7371 Y376.5790 I2.9317 J7.6740
G02 X199.7495 Y380.5473 I11.7245 J8.3546
G02 X198.5536 Y388.3102 I25.4322 J7.8913
G02 X199.3205 Y396.2398 I32.4301 J0.8658
G02 X200.8056 Y400.2869 I15.8410 J-3.5171
G02 X204.0037 Y403.8080 I7.9706 J-4.0265
G02 X205.6732 Y404.5645 I3.6843 J-5.9100
G02 X205.5765 Y402.8577 I-6.1709 J-0.5064
G02 X204.6121 Y401.2804 I-3.3863 J0.9870
G03 X203.2947 Y399.9372 I31.9349 J-32.6383
G03 X200.9108 Y395.0059 I8.3170 J-7.0625
G03 X200.4099 Y389.3785 I25.8921 J-5.1406
G03 X200.8874 Y383.8685 I28.7385 J-0.2856
G00 Z20.0000


(No. 32: Engraving 32)
G00 X189.8570 Y394.5423 Z20.0000
G00 Z0.5000
G01 Z0.0000 F1000
G01 Z-34.0000
G01 Y374.2348 F1400
G01 X187.3382
G01 Y394.2493
G03 X186.2532 Y395.3343 I-1.0850 J0.0000
G01 X170.4286
G03 X169.3436 Y394.2493 I0.0000 J-1.0850
G01 Y374.2348
G01 X167.4109
G01 Y414.8499
G01 X169.3436
G01 Y398.9380
G03 X170.4286 Y397.8530 I1.0850 J0.0000
G01 X186.2532
G03 X187.3382 Y398.9380 I0.0000 J1.0850
G01 Y414.8499
G01 X189.8570
G01 Y394.5423
G00 Z20.0000


(No. 33: Engraving 33)
G00 X200.3070 Y432.2485 Z20.0000
G00 Z0.5000
G01 Z0.0000 F1000
G01 Z-34.0000
G03 X129.3444 Y411.0666 I23.9281 J-209.6221 F1400
G03 X91.4688 Y386.2485 I90.9736 J-180.1472
G02 X84.4212 Y380.5687 I-339.6873 J414.2832
G02 X81.4274 Y379.5313 I-2.9560 J3.6921
G02 X78.3809 Y379.6343 I-1.0329 J14.5599
G02 X76.4019 Y380.6524 I0.8103 J4.0077
G02 X73.9584 Y383.5617 I5.1591 J6.8139
G02 X74.1758 Y389.5652 I5.8875 J2.7925
G02 X76.3228 Y392.1436 I14.0269 J-9.4972
G02 X82.5666 Y397.6938 I57.4229 J-58.3115
G02 X95.7947 Y407.7752 I176.2451 J-217.5368
G02 X153.2282 Y436.8733 I126.7698 J-178.9865
G02 X202.3030 Y447.6749 I75.7105 J-227.0953
G02 X216.6436 Y448.4502 I18.7895 J-214.5110
G02 X243.3142 Y448.0182 I8.2890 J-311.7737
G02 X249.4089 Y447.4708 I-6.4881 J-106.4399
G02 X286.3543 Y440.1172 I-29.1412 J-242.8947
G02 X331.2006 Y422.0665 I-59.4871 J-212.5280
G02 X363.5228 Y400.7518 I-103.9173 J-192.7475
G02 X371.5159 Y394.3003 I-139.2404 J-180.6876
G02 X375.2912 Y390.7919 I-32.0384 J-38.2609
G02 X377.2327 Y388.2865 I-9.3095 J-9.2195
G02 X377.6977 Y383.5635 I-5.0712 J-2.8836
G02 X375.2161 Y379.1006 I-11.7917 J3.6352
G02 X373.2905 Y377.8976 I-2.8798 J2.4670
G02 X367.5060 Y377.3758 I-4.1740 J13.9510
G02 X366.4262 Y377.6922 I0.3129 J3.0689
G02 X361.4405 Y381.6767 I51.3955 J69.4215
G03 X338.9012 Y398.8151 I-144.7867 J-167.0232
G03 X306.3522 Y416.3991 I-119.5708 J-182.4152
G03 X260.6058 Y430.3050 I-80.7817 J-183.5504
G03 X248.4143 Y432.1689 I-39.5926 J-218.1568
G03 X233.5208 Y433.1240 I-21.2117 J-214.1769
G03 X212.1145 Y433.1901 I-11.6877 J-318.6164
G03 X206.5733 Y432.8750 I3.5298 J-110.9394
G01 X200.3388 Y432.2522
G00 Z20.0000


(No. 34: Engraving 34)
G00 X41.3339 Y302.0853 Z20.0000
G00 Z0.5000
G01 Z0.0000 F1000
G01 Z-34.0000
G03 X33.2691 Y301.8936 I0.0987 J-173.8851 F1400
G03 X30.3967 Y301.5334 I0.2926 J-13.9628
G03 X29.0443 Y300.4247 I0.3939 J-1.8597
G03 X24.9443 Y288.5955 I129.4568 J-51.4949
G03 X17.9406 Y259.6614 I255.1738 J-77.0810
G03 X16.0287 Y244.3225 I141.5711 J-25.4345
G03 X15.3736 Y214.0860 I281.4375 J-21.2229
G03 X16.8635 Y197.8059 I159.7812 J6.4137
G03 X23.0295 Y167.4905 I241.0578 J33.2453
G03 X25.6186 Y159.1613 I123.2914 J33.7581
G01 X27.2770 Y154.4671
G03 X28.2915 Y153.7436 I1.0230 J0.3614
G01 X65.5086 Y153.4505
G02 X90.9284 Y153.1784 I-9.2914 J-2055.0606
G02 X99.5581 Y152.8732 I-2.6346 J-196.6481
G02 X102.8801 Y152.5076 I-1.1638 J-25.8548
G01 X103.5103 Y152.3622
G02 X104.3093 Y151.9880 I-0.2366 J-1.5453
G02 X104.6752 Y151.2112 I-1.6074 J-1.2317
G02 X104.1781 Y146.7345 I-5.4825 J-1.6572
G02 X103.7365 Y146.1760 I-2.6516 J1.6429
G01 X102.6313 Y145.0708
G01 X67.8879
G03 X36.6124 Y144.8285 I-4.2494 J-1470.3370
G03 X33.0693 Y144.6927 I1.3942 J-82.6759
G03 X32.1491 Y144.4761 I-0.0645 J-1.7893
G03 X31.6415 Y143.2823 I0.5467 J-0.9372
G03 X32.2176 Y141.7325 I9.4648 J2.6366
G03 X37.8116 Y130.2997 I256.7609 J118.5451
G03 X43.2823 Y120.0744 I217.3334 J109.7014
G03 X60.0925 Y95.5824 I189.0497 J111.7398
G02 X67.0030 Y86.9114 I-204.0239 J-169.6909
G02 X68.9648 Y83.9315 I-18.3888 J-14.2416
G02 X69.7043 Y81.0792 I-4.6926 J-2.7387
G02 X61.3854 Y74.2411 I-6.9295 J-0.0492
G02 X58.7613 Y75.2992 I1.2961 J6.9972
G02 X56.0221 Y77.8792 I13.8021 J17.3979
G02 X48.5275 Y86.8739 I98.8941 J90.0200
G02 X38.4064 Y100.9683 I206.2085 J158.7578
G01 X32.9311 Y109.5936
G01 X27.8858 Y118.4293
G01 X23.2676 Y127.4669
G01 X19.0786 Y136.6891
G01 X15.3213 Y146.0784
G01 X11.9981 Y155.6175
G01 X9.1112 Y165.2891
G01 X6.6630 Y175.0756
G01 X4.6559 Y184.9598
G01 X3.0922 Y194.9242
G01 X1.9744 Y204.9514
G01 X1.3046 Y215.0240
G01 X1.0853 Y225.1245
G01 X1.3187 Y235.2356
G01 X2.0072 Y245.3399
G01 X3.1532 Y255.4200
G01 X4.7588 Y265.4585
G01 X6.8264 Y275.4379
G01 X9.3584 Y285.3411
G01 X12.3592 Y295.1577
G02 X26.0903 Y327.5588 I215.5382 J-72.2319
G02 X44.4866 Y357.4036 I200.8328 J-103.2009
G02 X49.7224 Y364.2258 I205.0278 J-151.9297
G03 X53.9050 Y369.8473 I-76.1027 J60.9909
G02 X54.3446 Y370.5700 I42.5269 J-25.3720
G02 X56.6625 Y372.3945 I4.7103 J-3.5992
G02 X62.8967 Y372.8609 I3.7470 J-8.1862
G02 X66.3794 Y369.8960 I-1.7790 J-5.6174
G02 X67.0929 Y364.0442 I-6.8128 J-3.8002
G02 X66.0915 Y362.1706 I-5.7795 J1.8847
G02 X61.0934 Y355.6587 I-123.2241 J89.4039
G03 X37.7551 Y319.7275 I159.2896 J-129.0077
G01 X33.9842 Y312.3990
G03 X34.9395 Y310.8177 I0.9648 J-0.4964
G01 X68.6389 Y310.5246
G01 X101.9139 Y310.2352
G01 X103.0995 Y309.1211
G02 X103.1496 Y303.2493 I-2.9042 J-2.9609
G01 X102.0452 Y302.1448
G01 X66.4856
G03 X41.3378 Y302.0854 I-5.9333 J-2810.2621
G00 Z20.0000


(No. 35: Engraving 35)
G00 X128.7556 Y39.2010 Z20.0000
G00 Z0.5000
G01 Z0.0000 F1000
G01 Z-34.0000
G03 X187.5913 Y19.5218 I95.6464 J188.1663 F1400
G03 X203.8358 Y17.2073 I38.8545 J214.5413
G03 X214.4450 Y16.7019 I13.7864 J177.7841
G03 X242.1093 Y17.1825 I7.8072 J347.0053
G03 X247.6334 Y17.6752 I-5.5710 J93.6866
G03 X293.2034 Y28.3306 I-26.1445 J214.5846
G03 X354.1073 Y62.2190 I-69.6272 J196.8056
G02 X359.6510 Y65.9412 I25.3217 J-31.7236
G02 X361.0282 Y66.3908 I1.8081 J-3.2041
G02 X366.2603 Y65.1143 I1.0475 J-7.0676
G02 X369.8687 Y57.6386 I-4.8278 J-6.9390
G02 X369.3407 Y54.8723 I-7.1764 J-0.0639
G02 X367.5193 Y52.2996 I-8.2458 J3.9069
G02 X363.4851 Y48.7804 I-32.2274 J32.8719
G02 X288.8645 Y10.1935 I-137.3591 J174.1840
G02 X251.6156 Y2.3963 I-66.5260 J224.9372
G02 X238.0364 Y1.4759 I-22.8735 J236.8472
G02 X212.0816 Y1.1919 I-17.0930 J375.9013
G02 X206.6811 Y1.4845 I2.1715 J90.0556
G02 X116.0672 Y29.1060 I20.4523 J229.5379
G02 X100.2562 Y38.7356 I104.3312 J189.0971
G02 X80.8843 Y53.3487 I147.5177 J215.7042
G02 X76.8673 Y56.9364 I43.9275 J53.2265
G01 X76.2904 Y57.5379
G02 X75.6832 Y58.5677 I1.2586 J1.4360
G02 X77.1940 Y66.4192 I8.5489 J2.4261
G02 X82.9260 Y68.8276 I5.0660 J-4.0318
G02 X86.6111 Y67.5476 I-1.3400 J-9.8028
G02 X89.9848 Y65.0001 I-9.4054 J-15.9633
G03 X96.3002 Y59.8283 I67.1488 J75.5547
G03 X111.0247 Y49.3442 I151.2417 J196.8297
G03 X128.7337 Y39.2122 I114.0015 J178.7139
G00 Z20.0000


(No. 36: Engraving 36)
G00 X411.2048 Y133.8399 Z20.0000
G00 Z0.5000
G01 Z0.0000 F1000
G01 Z-34.0000
G01 X415.7743 Y143.2174 F1400
G03 X414.8083 Y144.7777 I-0.9754 J0.4753
G01 X380.9774 Y145.0707
G02 X357.6171 Y145.3454 I7.7360 J1651.0698
G02 X349.7563 Y145.6669 I2.1792 J149.5431
G02 X346.7502 Y146.0586 I1.0578 J19.8489
G02 X345.5343 Y146.5167 I0.4435 J3.0201
G02 X344.8897 Y147.3919 I1.3973 J1.7041
G02 X344.6291 Y150.7573 I4.1572 J2.0147
G02 X345.4941 Y152.3949 I4.1565 J-1.1481
G01 X346.4885 Y153.5510
G01 X381.9683 Y153.4776
G02 X416.3773 Y153.2250 I0.3782 J-2291.5800
G02 X418.2285 Y153.1477 I0.1115 J-19.5368
G03 X419.3873 Y153.6547 I0.1252 J1.2916
G03 X420.1129 Y155.0744 I-6.1273 J4.0269
G03 X423.1334 Y164.0414 I-110.3494 J42.1620
G03 X430.1117 Y194.9501 I-196.5726 J60.6227
G03 X431.9410 Y219.6416 I-198.8453 J27.1450
G03 X431.5040 Y241.4633 I-278.1277 J5.3463
G03 X427.6379 Y268.4649 I-174.5149 J-11.2099
G03 X419.9546 Y295.7301 I-230.7320 J-50.3044
G03 X417.5419 Y301.6596 I-72.2407 J-25.9390
G03 X416.6158 Y302.1767 I-0.9245 J-0.5679
G01 X381.5825 Y302.1260
G01 X347.0480 Y302.0759
G01 X346.0677 Y303.2152
G02 X345.1165 Y307.3386 I3.1598 J2.9003
G02 X346.4317 Y309.2759 I3.9518 J-1.2677
G01 X347.9156 Y310.5246
G01 X411.9796
G03 X413.0208 Y311.9148 I0.0000 J1.0850
G03 X411.6780 Y315.6575 I-19.8939 J-5.0254
G03 X407.8437 Y322.9634 I-92.4718 J-43.8711
G03 X391.2142 Y349.0834 I-285.8263 J-163.6207
G03 X386.1579 Y355.7363 I-103.2685 J-73.2387
G02 X382.6426 Y360.7459 I34.0076 J27.6009
G02 X381.2633 Y363.7708 I12.0460 J7.3195
G02 X381.5970 Y368.5673 I6.1527 J1.9818
G02 X382.9435 Y370.7842 I7.9991 J-3.3412
G02 X387.1571 Y373.2171 I6.0551 J-5.6215
G02 X391.9961 Y373.0031 I2.0745 J-7.9071
G02 X393.7344 Y371.8775 I-1.4651 J-4.1678
G02 X397.4357 Y367.7283 I-42.3756 J-41.5267
G02 X411.2491 Y349.1115 I-194.4634 J-158.7215
G01 X416.5146 Y340.8276
G01 X421.3889 Y332.3607
G01 X425.8746 Y323.7174
G01 X429.9695 Y314.9124
G01 X433.6712 Y305.9601
G01 X436.9775 Y296.8752
G01 X439.8860 Y287.6721
G01 X442.3944 Y278.3656
G01 X444.5005 Y268.9701
G01 X446.2019 Y259.5003
G01 X447.4963 Y249.9707
G01 X448.3815 Y240.3958
G01 X448.8551 Y230.7904
G01 X448.9149 Y221.1690
G01 X448.5586 Y211.5460
G01 X447.7838 Y201.9362
G01 X446.5885 Y192.3541
G01 X444.9701 Y182.8141
G01 X442.9266 Y173.3309
G01 X440.4534 Y163.9109
G02 X428.3414 Y131.0019 I-217.5734 J61.3935
G02 X408.5240 Y96.6013 I-204.9493 J95.1585
G02 X394.1596 Y77.9743 I-196.9430 J137.0219
G02 X388.5664 Y72.0073 I-57.0077 J47.8316
G01 X387.7387 Y71.2724
G02 X386.2042 Y70.2211 I-4.0446 J4.2577
G02 X382.5365 Y69.5196 I-3.4782 J8.2478
G02 X378.9951 Y70.2576 I-0.1658 J8.0701
G02 X375.1990 Y74.1060 I4.2181 J7.9574
G02 X375.0256 Y80.4629 I7.0959 J3.3743
G02 X377.5124 Y84.1670 I16.7310 J-8.5458
G02 X380.4412 Y87.4223 I61.8894 J-52.7358
G03 X396.1665 Y107.7725 I-140.7456 J125.0101
G03 X411.2013 Y133.8328 I-181.1407 J121.8717
G00 Z20.0000
G00 X0.0000 Y0.0000

M05
M30
