(Project sws-wauneta)
(Created by Estlcam version 11 build 11.244)
(Machining time about 00:11:33 hours)

(Required tools:)
(Thin ball nose)
G21
G90
G94
M03 S30000
G00 Z20.0000


(No. 1: Engraving 1)
G00 X82.4876 Y342.1225
G00 Z0.5000
G01 Z0.0000 F1000 S30000
G01 Z-34.0000
G01 X88.2061 Y342.2904 F1400
G03 X89.2588 Y343.3447 I-0.0318 J1.0845
G02 X89.5192 Y352.2497 I536.9045 J-11.2413
G02 X89.6823 Y354.1687 I13.6458 J-0.1939
G01 X89.7134 Y354.3102
G02 X90.3150 Y354.3133 I0.4228 J-23.6988
G01 Y325.3984
G01 X89.5525
G01 Y339.5626
G03 X88.4675 Y340.6476 I-1.0850 J0.0000
G01 X76.7373
G03 X75.6523 Y339.5626 I0.0000 J-1.0850
G01 Y325.3984
G01 X74.8898
G01 Y354.3133
G01 X75.6523
G01 Y343.0392
G03 X76.7692 Y341.9546 I1.0850 J0.0000
G01 X82.4876 Y342.1225
G00 Z20.0000


(No. 2: Engraving 2)
G00 X110.2969 Y338.8399 Z20.0000
G00 Z0.5000
G01 Z0.0000 F1000
G01 Z-34.0000
G03 X108.8910 Y343.1452 I-13.1396 J-1.9087 F1400
G02 X107.9708 Y344.6671 I28.0050 J17.9720
G02 X107.2269 Y346.4766 I7.1803 J4.0096
G01 X107.2743 Y346.4507
G01 X107.2655 Y346.4559
G02 X109.8944 Y343.3601 I-3.4733 J-5.6135
G02 X111.0281 Y338.4387 I-14.0078 J-5.8183
G02 X110.9221 Y331.9991 I-34.3014 J-2.6560
G02 X108.7765 Y327.0168 I-10.8325 J1.7117
G02 X105.6489 Y324.8994 I-4.6786 J3.5422
G02 X101.6771 Y325.5906 I-1.1831 J4.9588
G02 X97.9890 Y330.8658 I4.2693 J6.9118
G02 X97.5285 Y336.0436 I22.6376 J4.6224
G02 X97.9961 Y341.2508 I22.7792 J0.5793
G02 X100.8120 Y345.8806 I8.1057 J-1.7587
G01 X101.2809 Y346.2917
G02 X100.1893 Y343.9418 I-7.2107 J1.9212
G03 X99.0506 Y341.4616 I8.5333 J-5.4193
G03 X98.3108 Y335.3619 I19.2595 J-5.4306
G03 X99.0494 Y330.4550 I18.5593 J0.2846
G03 X100.1592 Y328.0518 I8.0289 J2.2499
G03 X102.1442 Y326.5110 I3.0829 J1.9228
G03 X105.0872 Y326.1701 I2.7240 J10.6408
G03 X108.1437 Y327.7618 I-0.2582 J4.2262
G03 X109.8517 Y331.0778 I-7.1825 J5.7975
G03 X110.3087 Y338.7673 I-17.1743 J4.8789
G00 Z20.0000


(No. 3: Engraving 3)
G00 X119.0539 Y342.5124 Z20.0000
G00 Z0.5000
G01 Z0.0000 F1000
G01 Z-34.0000
G01 Y325.3984 F1400
G01 X118.2914
G01 Y336.0535
G01 Y346.6837
G02 X119.0500 Y346.6601 I0.2974 J-2.6466
G01 X119.0530 Y346.6160
G01 X119.0519 Y346.6321
G03 X119.1625 Y345.4998 I3.5959 J-0.2204
G03 X120.9971 Y344.7755 I1.2098 J0.3787
G03 X122.3912 Y345.8010 I-3.7878 J6.6096
G02 X124.8607 Y347.1986 I3.9941 J-4.1771
G02 X127.9884 Y346.2632 I0.7841 J-3.0752
G01 X128.2284 Y345.9987
G01 X129.6017 Y344.3666
G03 X131.0688 Y344.1868 I0.8302 J0.6986
G01 X133.3321 Y345.8279
G02 X136.7250 Y347.2290 I4.2070 J-5.3790
G02 X139.5293 Y346.4662 I0.4314 J-3.9501
G02 X140.5368 Y344.8176 I-2.3799 J-2.5867
G02 X141.0899 Y341.7145 I-15.0882 J-4.2903
G02 X141.3412 Y333.7147 I-94.4982 J-6.9725
G01 Y325.3984
G01 X140.5787
G03 X140.5595 Y337.5741 I-790.2267 J4.8440
G03 X140.3299 Y341.8074 I-31.4597 J0.4161
G03 X139.6418 Y343.7786 I-4.4208 J-0.4375
G03 X136.9869 Y345.7411 I-4.1381 J-2.8211
G03 X134.1021 Y345.3332 I-0.9274 J-3.8462
G03 X132.3953 Y344.1586 I4.5551 J-8.4466
G01 X130.5840 Y342.6345
G03 X130.1976 Y341.8043 I0.6986 J-0.8302
G01 Y325.3984
G01 X129.4945
G03 X129.2243 Y338.0555 I-845.0280 J-11.7069
G03 X128.9164 Y342.3713 I-33.7117 J-0.2364
G03 X128.3173 Y344.1056 I-4.0296 J-0.4213
G03 X127.0301 Y345.2397 I-3.0379 J-2.1506
G03 X123.4424 Y345.5896 I-2.1311 J-3.2829
G03 X121.4849 Y344.6038 I4.2760 J-10.9269
G01 X119.5741 Y343.4388
G00 Z20.0000


(No. 4: Engraving 4)
G00 X154.7959 Y336.5822 Z20.0000
G00 Z0.5000
G01 Z0.0000 F1000
G01 Z-34.0000
G02 X154.0715 Y336.6622 I0.0224 J3.5187 F1400
G02 X154.0758 Y337.2192 I7.5453 J0.2201
G01 X154.1995 Y337.2390
G01 X154.1817 Y337.2362
G02 X156.5799 Y337.3046 I1.8926 J-24.2765
G01 X160.1750
G03 X161.2465 Y338.5602 I0.0000 J1.0850
G01 X160.8931 Y340.7796
G03 X157.2682 Y345.9607 I-7.5764 J-1.4421
G03 X155.1554 Y346.5058 I-1.9779 J-3.2993
G03 X153.2339 Y345.7701 I0.6714 J-4.6304
G03 X150.2202 Y343.1466 I5.8160 J-9.7239
G03 X149.2591 Y340.3391 I4.7796 J-3.2044
G03 X149.2935 Y332.6814 I29.9559 J-3.6947
G03 X153.0390 Y327.0520 I7.5662 J0.9735
G03 X158.9207 Y326.5881 I3.4732 J6.5182
G03 X161.2825 Y327.7416 I-3.1727 J9.4909
G02 X161.1872 Y326.3917 I-5.0738 J-0.3202
G02 X160.8396 Y326.0194 I-0.5818 J0.1948
G02 X154.7100 Y324.9969 I-4.4889 J8.0252
G02 X151.2899 Y326.8002 I1.4423 J6.8802
G02 X148.8586 Y330.9816 I5.4396 J5.9605
G02 X148.2728 Y336.1194 I21.9760 J5.1076
G02 X148.8112 Y341.0671 I16.7302 J0.6829
G02 X151.6602 Y345.6377 I9.5326 J-2.7688
G02 X153.2218 Y346.9056 I5.3446 J-4.9873
G02 X154.8833 Y347.2653 I1.5831 J-3.2949
G02 X157.6980 Y346.9666 I0.5967 J-7.7887
G02 X159.7301 Y345.3994 I-0.9830 J-3.3757
G02 X161.3758 Y341.3431 I-12.2787 J-7.3436
G02 X161.8690 Y336.5420 I-15.7781 J-4.0468
G02 X155.5809 Y336.5552 I-2.5036 J305.7530
G01 X155.1500 Y336.5667
G01 X154.7676 Y336.5838
G00 Z20.0000


(No. 5: Engraving 5)
G00 X189.5511 Y338.2643 Z20.0000
G00 Z0.5000
G01 Z0.0000 F1000
G01 Z-34.0000
G03 X186.2599 Y339.2680 I-9.0252 J-23.6965 F1400
G02 X182.3373 Y340.7116 I3.9473 J16.7771
G02 X180.0068 Y343.3026 I2.2598 J4.3762
G02 X180.4277 Y351.5758 I8.9377 J3.6926
G02 X183.2400 Y354.2132 I5.2081 J-2.7354
G02 X187.2865 Y354.9118 I3.9658 J-10.9022
G02 X191.9965 Y354.1605 I0.4534 J-12.2977
G02 X193.4941 Y353.3046 I-2.1141 J-5.4368
G02 X193.9432 Y352.3054 I-1.0923 J-1.0914
G02 X194.0503 Y351.2062 I-12.3761 J-1.7607
G03 X192.6513 Y352.1335 I-7.7907 J-10.2350
G03 X187.9700 Y353.4093 I-5.4243 J-10.6768
G03 X184.9010 Y353.4718 I-1.8735 J-16.6127
G03 X182.2043 Y352.1365 I0.3432 J-4.0839
G03 X180.2807 Y346.5439 I4.4385 J-4.6538
G03 X181.5720 Y343.6119 I5.8787 J0.8388
G03 X184.1224 Y341.9713 I4.6060 J4.3577
G03 X188.4805 Y340.6709 I13.1111 J35.9876
G02 X191.8790 Y339.3710 I-3.4776 J-14.1839
G02 X193.9603 Y337.0783 I-2.0970 J-3.9947
G02 X194.3480 Y331.1661 I-9.1264 J-3.5673
G02 X191.9708 Y326.7517 I-8.8368 J1.9114
G02 X188.5974 Y325.0824 I-4.3793 J4.6067
G02 X181.1332 Y325.8772 I-2.4108 J12.8061
G02 X179.6244 Y326.6673 I2.8016 J7.1854
G02 X179.3379 Y327.2133 I0.3805 J0.5478
G02 X179.2882 Y328.9168 I15.8856 J1.3153
G03 X182.4298 Y327.1884 I26.7371 J44.8777
G03 X185.2533 Y326.2760 I3.8933 J7.2235
G03 X189.8654 Y326.8575 I0.8874 J11.5431
G03 X193.5192 Y330.8878 I-1.8603 J5.3579
G03 X193.7319 Y333.9210 I-6.5097 J1.9806
G03 X191.6058 Y337.1666 I-4.9106 J-0.8976
G03 X189.5967 Y338.2458 I-5.5449 J-7.9132
G00 Z20.0000


(No. 6: Engraving 6)
G00 X202.6614 Y336.9156 Z20.0000
G00 Z0.5000
G01 Z0.0000 F1000
G01 Z-34.0000
G03 X203.9167 Y331.3325 I52.4829 J8.8675 F1400
G03 X204.4217 Y330.4084 I1.9122 J0.4450
G03 X206.2989 Y330.9137 I0.7800 J0.8420
G03 X207.5354 Y335.1275 I-39.1433 J13.7739
G03 X209.4898 Y343.0713 I-585.3512 J148.2263
G02 X210.3724 Y346.0683 I23.1938 J-5.2020
G02 X210.6899 Y346.6862 I2.0335 J-0.6545
G01 X210.7347 Y346.6880
G01 X210.7689 Y346.6842
G02 X211.3458 Y345.2710 I-5.1574 J-2.9297
G02 X213.0660 Y338.3263 I-130.9785 J-36.1272
G03 X214.9745 Y331.0898 I93.0525 J20.6720
G03 X215.3912 Y330.1529 I2.7772 J0.6741
G03 X217.4025 Y330.5046 I0.9203 J0.6637
G03 X218.2336 Y334.0495 I-25.8056 J7.9201
G03 X219.6388 Y342.3062 I-263.1540 J49.0361
G02 X220.3599 Y345.9845 I34.0780 J-4.7702
G02 X220.6168 Y346.6811 I2.6277 J-0.5734
G01 X220.7223 Y346.6876
G01 X220.7056 Y346.6866
G01 X220.8711 Y346.6886
G01 X221.0019 Y346.6832
G02 X220.3854 Y343.4542 I-6873.2947 J1310.6537
G03 X218.4534 Y333.2661 I8303.8726 J-1580.0183
G02 X217.0374 Y326.5192 I-96.7358 J16.7803
G02 X216.6399 Y325.4329 I-4.8316 J1.1519
G01 X216.6164 Y325.4011
G02 X216.2127 Y325.4072 I-0.1684 J2.2360
G02 X215.5026 Y327.4189 I9.5000 J4.4846
G02 X213.2575 Y336.3954 I551.0943 J142.6043
G03 X211.7741 Y341.1846 I-36.0785 J-8.5505
G03 X211.1214 Y342.0972 I-1.7551 J-0.5656
G03 X209.3708 Y341.4959 I-0.6531 J-0.9477
G03 X207.9590 Y336.4275 I73.4005 J-23.1760
G02 X205.9169 Y328.2724 I-2232.5182 J554.6970
G02 X205.2001 Y325.9768 I-18.8441 J4.6247
G02 X204.8963 Y325.4052 I-1.8690 J0.6267
G02 X204.3886 Y325.4779 I-0.1534 J0.7375
G02 X204.1930 Y325.9934 I0.6703 J0.5491
G02 X200.8689 Y342.9085 I8950.8325 J1767.8134
G03 X200.0992 Y346.5998 I-199.1547 J-39.6006
G02 X200.6847 Y346.5063 I-0.1001 J-2.5073
G02 X201.0948 Y345.4089 I-3.0151 J-1.7521
G02 X202.3035 Y338.9247 I-100.5871 J-22.1046
G03 X202.6604 Y336.9210 I138.0806 J23.5584
G00 Z20.0000


(No. 7: Engraving 7)
G00 X236.2074 Y337.3537 Z20.0000
G00 Z0.5000
G01 Z0.0000 F1000
G01 Z-34.0000
G03 X238.0115 Y337.6903 I-0.1366 J5.7352 F1400
G03 X239.5332 Y340.0370 I-0.6827 J2.1094
G03 X238.9975 Y342.0678 I-6.4022 J-0.6029
G03 X237.1613 Y345.0017 I-7.0474 J-2.3689
G03 X231.2974 Y345.6892 I-3.3696 J-3.3890
G03 X228.5015 Y342.5812 I3.9278 J-6.3448
G03 X227.3052 Y337.7874 I8.5554 J-4.6812
G03 X227.6666 Y332.9345 I29.1267 J-0.2708
G03 X228.9083 Y329.2985 I10.6581 J1.6098
G03 X233.7301 Y326.2650 I5.1556 J2.8459
G03 X239.4013 Y327.5086 I0.7341 J10.2052
G03 X239.8726 Y327.8527 I-1.9905 J3.2214
G02 X239.7812 Y326.5729 I-4.0462 J-0.3541
G02 X239.4655 Y326.2612 I-0.5797 J0.2713
G02 X235.0163 Y324.8831 I-5.7291 J10.6253
G02 X230.3298 Y326.1594 I-0.5847 J7.0956
G02 X227.5011 Y329.8901 I6.1159 J7.5750
G02 X226.8619 Y332.7346 I6.3433 J2.9196
G02 X227.0819 Y339.1297 I59.0013 J1.1711
G02 X227.8639 Y342.9102 I15.3845 J-1.2109
G02 X229.8348 Y345.8264 I5.9742 J-1.9136
G02 X233.6776 Y347.3490 I4.5329 J-5.8296
G02 X237.4361 Y345.8924 I0.3261 J-4.7360
G02 X239.2921 Y342.7128 I-6.0564 J-5.6668
G02 X239.9847 Y338.8976 I-13.9262 J-4.4985
G01 X240.1035 Y336.8353
G02 X233.9586 Y336.8522 I-2.4090 J240.8941
G02 X232.3929 Y336.9616 I-0.0722 J10.2239
G01 X232.2481 Y336.9927
G01 X232.2052 Y337.0117
G01 X232.1884 Y337.0952
G01 X232.1911 Y337.0817
G01 X232.1689 Y337.2242
G01 X232.1710 Y337.2429
G02 X235.0990 Y337.3091 I2.1996 J-32.4851
G01 X235.6651 Y337.3243
G01 X236.1687 Y337.3510
G00 Z20.0000


(No. 8: Engraving 8)
G00 X255.3295 Y336.5420 Z20.0000
G00 Z0.5000
G01 Z0.0000 F1000
G01 Z-34.0000
G02 X251.5919 Y336.6314 I-0.9915 J36.7522 F1400
G01 X251.4319 Y336.6622
G02 X251.4361 Y337.2209 I7.6885 J0.2218
G01 X251.5455 Y337.2389
G01 X251.5271 Y337.2358
G02 X254.8087 Y337.3071 I2.4741 J-38.3535
G03 X256.8187 Y337.4401 I0.3755 J9.5786
G03 X258.3384 Y338.7272 I-0.2535 J1.8399
G03 X258.4582 Y340.0359 I-4.0376 J1.0294
G03 X257.5921 Y343.5145 I-6.9825 J0.1088
G03 X250.3431 Y345.5383 I-4.6006 J-2.4844
G03 X247.1571 Y341.6943 I3.8566 J-6.4388
G03 X246.3340 Y336.8892 I13.3488 J-4.7598
G03 X247.5158 Y330.4352 I16.8602 J-0.2479
G03 X249.1115 Y327.9336 I6.9416 J2.6680
G03 X252.8965 Y326.2509 I4.2433 J4.4466
G03 X258.8544 Y327.7665 I0.8618 J9.0803
G02 X259.2237 Y327.9781 I3.6723 J-5.9826
G02 X259.1561 Y326.6354 I-5.6066 J-0.3907
G02 X258.8203 Y326.2612 I-0.5481 J0.1541
G02 X254.1686 Y324.8884 I-5.5639 J10.2855
G02 X249.9676 Y325.7875 I-0.4832 J8.0069
G02 X247.2652 Y328.6948 I3.8048 J6.2461
G02 X245.7100 Y334.3413 I12.5050 J6.4816
G02 X246.9327 Y342.5914 I18.5123 J1.4720
G02 X249.0604 Y345.7467 I7.9829 J-3.0878
G02 X255.5996 Y346.6990 I3.9804 J-4.4048
G02 X258.0923 Y344.0414 I-2.7226 J-5.0515
G02 X259.1530 Y339.9152 I-11.1407 J-5.0633
G02 X259.2294 Y336.5420 I-38.6382 J-2.5626
G01 X255.3291
G00 Z20.0000


(No. 9: Engraving 9)
G00 X266.0803 Y339.5672 Z20.0000
G00 Z0.5000
G01 Z0.0000 F1000
G01 Z-34.0000
G03 X265.8757 Y343.8533 I-35.8360 J0.4377 F1400
G03 X265.4883 Y345.1251 I-3.1672 J-0.2699
G03 X264.3721 Y345.9081 I-1.3662 J-0.7607
G01 X264.3629 Y345.9452
G01 X264.3672 Y345.9275
G02 Y346.6873 I2.0142 J0.3799
G03 X265.5914 Y347.5254 I-0.2794 J1.7211
G03 X266.0268 Y349.2318 I-3.4818 J1.7972
G03 X266.0999 Y352.5778 I-51.9195 J2.8091
G02 X266.1782 Y353.7214 I6.2826 J0.1445
G02 X266.7703 Y353.7195 I0.2738 J-6.9339
G01 X266.7883 Y353.6100
G01 X266.7853 Y353.6284
G02 X266.8540 Y351.2920 I-22.9953 J-1.8457
G01 Y347.7737
G03 X267.9390 Y346.6887 I1.0850 J0.0000
G02 X272.1749 Y346.6688 I1.7453 J-79.2878
G02 X272.7127 Y346.6149 I0.0064 J-2.6468
G01 X272.7136 Y346.6040
G01 X272.7124 Y346.6178
G02 Y345.9970 I-7.3097 J-0.3104
G01 X272.5707 Y345.9750
G01 X272.5855 Y345.9771
G02 X270.8703 Y345.9262 I-1.4599 J20.2483
G01 X267.9390
G03 X266.8540 Y344.8412 I0.0000 J-1.0850
G03 X266.9020 Y333.7775 I299.8979 J-4.2303
G03 X267.2985 Y329.6253 I23.6370 J0.1620
G03 X267.9193 Y327.8641 I5.7544 J1.0382
G03 X270.5062 Y326.2697 I2.6677 J1.4326
G03 X272.4839 Y326.4410 I0.2655 J8.4364
G01 X272.6766 Y326.4660
G01 X272.7146 Y326.4703
G02 X272.6280 Y325.5624 I-2.0885 J-0.2588
G02 X271.8329 Y324.9058 I-1.0476 J0.4588
G02 X269.7129 Y324.9485 I-0.9757 J4.2051
G02 X268.0144 Y325.5858 I0.9743 J5.1785
G02 X266.9864 Y327.0469 I1.8799 J2.4148
G02 X266.3837 Y329.8540 I12.0887 J4.0636
G02 X266.0915 Y336.9074 I65.3302 J6.2400
G03 X266.0804 Y339.5618 I-248.1576 J0.2899
G00 Z20.0000


(No. 10: Engraving 10)
G00 X297.8509 Y340.6476 Z20.0000
G00 Z0.5000
G01 Z0.0000 F1000
G01 Z-34.0000
G01 X291.9858 F1400
G03 X290.9008 Y339.5626 I0.0000 J-1.0850
G01 Y325.3984
G01 X290.1383
G01 Y339.8658
G01 Y354.3083
G02 X290.7395 I0.3009 J-4.0417
G01 X290.7740 Y354.1552
G01 X290.7710 Y354.1687
G02 X290.9808 Y350.9673 I-27.4301 J-3.4050
G02 X291.1999 Y343.2628 I-6228.8220 J-181.0111
G03 X292.2472 Y342.2904 I1.0792 J0.1121
G01 X297.9657 Y342.1225
G01 X303.6842 Y341.9546
G03 X304.8010 Y343.0392 I0.0318 J1.0845
G01 Y354.3133
G01 X306.1500
G01 Y325.3984
G01 X304.8010
G01 Y339.5626
G03 X303.7160 Y340.6476 I-1.0850 J0.0000
G01 X297.8509
G00 Z20.0000


(No. 11: Engraving 11)
G00 X313.8173 Y335.5405 Z20.0000
G00 Z0.5000
G01 Z0.0000 F1000
G01 Z-34.0000
G03 X314.2592 Y331.5239 I21.0733 J0.2858 F1400
G03 X315.2327 Y328.9296 I8.3375 J1.6487
G03 X319.3207 Y326.4716 I4.2786 J2.4874
G03 X321.8792 Y326.7153 I0.6377 J6.8558
G03 X324.0083 Y328.3345 I-1.5292 J4.2201
G03 X325.4326 Y331.6570 I-4.8045 J4.0260
G03 X325.6220 Y336.0373 I-34.3286 J3.6791
G03 X325.4761 Y340.1219 I-37.2343 J0.7147
G03 X324.0625 Y343.6906 I-6.5919 J-0.5468
G02 X323.0734 Y346.2326 I3.3880 J2.7818
G01 X323.0762 Y346.2790
G02 X324.7653 Y344.4184 I-7.6820 J-8.6711
G02 X326.4181 Y340.0172 I-8.3576 J-5.6494
G02 X326.6104 Y333.9425 I-31.6770 J-4.0429
G02 X325.8282 Y329.6705 I-15.4182 J0.6153
G02 X322.9469 Y325.6628 I-8.6879 J3.2065
G02 X320.9672 Y324.8512 I-2.0835 J2.2617
G02 X318.0751 Y324.9368 I-1.0933 J11.9584
G02 X316.5804 Y325.8375 I0.7933 J3.0072
G02 X313.7814 Y330.3616 I6.6109 J7.2180
G02 X313.0439 Y337.3153 I19.5313 J5.5873
G02 X314.1100 Y342.6496 I16.2563 J-0.4751
G02 X317.1012 Y346.7062 I9.2917 J-3.7205
G01 X317.2332 Y346.8156
G01 X317.2578 Y346.8318
G01 X317.2529 Y346.7948
G01 X317.2545 Y346.8071
G02 X315.8194 Y343.9311 I-5.7230 J1.0598
G03 X313.9401 Y339.0903 I7.8474 J-5.8317
G03 X313.8166 Y335.5621 I22.3672 J-2.5494
G00 Z20.0000


(No. 12: Engraving 12)
G00 X344.6837 Y333.6075 Z20.0000
G00 Z0.5000
G01 Z0.0000 F1000
G01 Z-34.0000
G03 X344.5789 Y340.6014 I-139.1100 J1.4129 F1400
G03 X344.3061 Y342.8247 I-12.2499 J-0.3749
G03 X342.6733 Y345.1355 I-3.4988 J-0.7399
G03 X338.5462 Y345.4723 I-2.3548 J-3.3999
G03 X336.5012 Y344.1594 I3.6472 J-7.9300
G01 X334.6890 Y342.6345
G03 X334.3026 Y341.8043 I0.6986 J-0.8302
G01 Y325.3984
G01 X333.5400
G01 X333.5399 Y336.0435
G01 Y346.6887
G02 X334.2994 Y346.6627 I0.2668 J-3.3084
G01 X334.3017 Y346.6314
G01 X334.3004 Y346.6488
G03 X334.4289 Y345.5018 I3.2598 J-0.2154
G03 X336.2488 Y344.8009 I1.2121 J0.4340
G03 X337.9958 Y345.9929 I-5.2801 J9.6151
G02 X340.6649 Y347.2350 I3.7108 J-4.4852
G02 X343.6474 Y346.1966 I0.4606 J-3.4796
G01 X343.9180 Y345.9250
G01 X345.4771 Y344.2559
G03 X346.9653 Y344.1637 I0.7929 J0.7407
G01 X348.9634 Y345.8317
G02 X351.4926 Y347.1852 I4.0779 J-4.5803
G02 X355.4317 Y345.7560 I0.9229 J-3.5993
G02 X356.7964 Y342.0326 I-5.7866 J-4.2326
G02 X357.1623 Y332.6679 I-108.2858 J-8.9203
G01 X357.1745 Y325.3984
G01 X356.4134
G03 X356.3650 Y335.8086 I-330.8605 J3.6693
G03 X356.0580 Y340.4189 I-45.2760 J-0.6994
G03 X355.3135 Y343.4998 I-10.9257 J-1.0098
G03 X353.4952 Y345.4686 I-3.3183 J-1.2405
G03 X350.8362 Y345.6359 I-1.5832 J-3.9488
G03 X347.1435 Y343.6934 I2.3033 J-8.8595
G03 X345.7440 Y341.2814 I2.0614 J-2.8081
G03 X345.4813 Y337.6250 I26.0678 J-3.7102
G03 X345.4462 Y325.3984 I634.3506 J-7.9338
G01 X344.6837
G01 Y333.6066
G00 Z20.0000


(No. 13: Engraving 13)
G00 X371.6729 Y336.7347 Z20.0000
G00 Z0.5000
G01 Z0.0000 F1000
G01 Z-34.0000
G02 X369.6900 Y336.9266 I0.1213 J11.5979 F1400
G01 X369.5434 Y336.9635
G01 X369.4541 Y336.9930
G01 X369.4319 Y337.0883
G01 X369.4358 Y337.0702
G01 X369.4155 Y337.1962
G01 X369.4145 Y337.2241
G01 X369.5026 Y337.2413
G01 X369.4881 Y337.2385
G02 X371.9129 Y337.4235 I3.1698 J-25.5611
G01 X375.6146 Y337.5990
G03 X376.6417 Y338.8019 I-0.0514 J1.0838
G01 X376.4455 Y340.5793
G03 X375.0078 Y344.3228 I-7.1606 J-0.6021
G03 X369.8384 Y346.1843 I-4.0452 J-3.1250
G03 X366.1935 Y343.9949 I1.1113 J-5.9787
G03 X364.9446 Y341.1807 I5.8467 J-4.2789
G03 X364.5558 Y335.9388 I21.0373 J-4.1958
G03 X365.2499 Y331.0339 I18.8344 J0.1638
G03 X367.1776 Y327.6826 I7.2472 J1.9386
G03 X370.5625 Y326.2319 I3.7554 J4.0881
G03 X376.7425 Y327.7665 I0.9142 J9.5294
G02 X377.1119 Y327.9781 I3.6714 J-5.9811
G02 X377.0442 Y326.6354 I-5.6067 J-0.3907
G02 X376.7084 Y326.2612 I-0.5481 J0.1541
G02 X372.2904 Y324.8865 I-5.7348 J10.6435
G02 X367.3887 Y326.1918 I-0.6321 J7.4826
G02 X365.5037 Y328.4699 I4.6302 J5.7500
G02 X364.0070 Y333.0976 I12.7012 J6.6637
G02 X364.7410 Y342.1395 I18.3452 J3.0614
G02 X366.9985 Y345.6967 I8.2076 J-2.7138
G02 X371.8154 Y347.1925 I4.1100 J-4.7315
G02 X376.1428 Y343.9988 I-0.8389 J-5.6653
G02 X376.8040 Y341.9087 I-6.4612 J-3.1937
G02 X377.1175 Y338.6726 I-18.4202 J-3.4177
G01 Y336.5335
G02 X371.6631 Y336.7352 I10.0446 J345.3321
G00 Z20.0000


(No. 14: Engraving 14)
G00 X134.4852 Y83.2303 Z20.0000
G00 Z0.5000
G01 Z0.0000 F1000
G01 Z-34.0000
G03 X127.7701 Y109.7049 I-2072.1337 J-511.4928 F1400
G03 X125.4547 Y118.0644 I-171.9018 J-43.1129
G03 X124.9445 Y118.8839 I-1.3824 J-0.2920
G03 X123.3016 Y118.4945 I-0.6470 J-0.9306
G03 X122.5940 Y116.5157 I11.6579 J-5.2848
G03 X118.8632 Y102.2759 I338.9628 J-96.4174
G01 X118.5071 Y100.8142
G01 X114.3717 Y83.7570
G02 X110.5777 Y83.8193 I-1.3216 J35.0725
G02 X109.6793 Y83.9405 I0.2132 J4.9723
G02 X102.1008 Y112.4068 I1906.5961 J522.8297
G01 X101.7128 Y113.8834
G03 X98.6517 Y125.4799 I-3282.9473 J-860.3884
G01 X98.6411 Y125.5385
G02 X102.1311 Y125.5751 I2.2119 J-44.5284
G02 X109.4711 Y96.8552 I-2287.9426 J-600.0248
G03 X111.1375 Y91.3121 I55.9164 J13.7884
G03 X111.6485 Y90.3433 I2.6804 J0.7945
G03 X113.6414 Y90.7944 I0.8833 J0.7254
G03 X115.9791 Y99.6773 I-220.7304 J62.8399
G03 X122.3420 Y125.5789 I-2913.0237 J729.3349
G01 X124.4149 Y125.4577
G01 X126.5916 Y125.3304
G03 X132.3124 Y102.2292 I1648.7549 J396.0337
G03 X135.2435 Y91.6358 I192.7094 J47.6203
G03 X135.8110 Y90.2790 I5.1771 J1.3682
G03 X137.8423 Y90.6894 I0.9275 J0.6413
G03 X142.4695 Y108.8029 I-884.4761 J235.5963
G01 X146.5810 Y125.3355
G02 X149.8927 Y125.4960 I3.0904 J-29.5238
G01 X149.9146 Y125.4924
G02 X140.9805 Y90.8685 I-5517.3999 J1405.1998
G03 X139.1852 Y83.8374 I974.0136 J-252.4392
G02 X136.8121 Y83.8729 I-0.7815 J27.1071
G01 X133.4904 Y84.0487
G00 Z20.0000


(No. 15: Engraving 15)
G00 X177.7963 Y104.2858 Z20.0000
G00 Z0.5000
G01 Z0.0000 F1000
G01 Z-34.0000
G03 X177.6076 Y107.1601 I-20.9376 J0.0686 F1400
G03 X176.1341 Y110.0026 I-4.5098 J-0.5346
G03 X174.2639 Y111.5111 I-5.5863 J-5.0125
G03 X171.3959 Y112.2509 I-3.3651 J-7.1162
G03 X160.3952 Y111.3492 I-3.1878 J-28.6636
G02 X158.2684 Y110.8638 I-12.9570 J51.8660
G02 X158.1739 Y112.2467 I9.1568 J1.3200
G01 Y113.9558
G02 X166.1180 Y114.9695 I8.3736 J-33.9853
G02 X173.1508 Y114.6939 I1.7066 J-46.3235
G02 X175.4193 Y114.1427 I-0.7334 J-7.9621
G02 X180.3485 Y109.2136 I-3.9663 J-8.8955
G02 X180.7885 Y107.2961 I-5.7115 J-2.3200
G02 X181.2019 Y97.5360 I-126.5006 J-10.2465
G02 X181.2235 Y83.7571 I-880.4349 J-8.2705
G02 X178.4849 Y83.7763 I-1.0360 J47.5319
G01 X178.2894 Y83.7900
G01 X178.1373 Y83.8070
G01 X178.1265 Y83.8444
G01 X178.1279 Y83.8296
G02 X178.1113 Y86.1969 I57.8291 J1.5911
G03 X176.5287 Y87.0664 I-1.0810 J-0.0926
G02 X171.3634 Y84.3981 I-69.7215 J128.6326
G02 X168.4371 Y83.3702 I-5.0721 J9.7604
G02 X165.0072 Y83.1755 I-2.7943 J18.9211
G02 X161.5219 Y83.5701 I-0.2691 J13.2129
G02 X159.5261 Y84.6314 I1.5759 J5.3707
G02 X155.5412 Y90.9064 I5.8156 J8.0960
G02 X159.5032 Y99.9605 I8.8642 J1.5151
G02 X164.2228 Y101.8676 I7.7654 J-12.4244
G02 X168.8881 Y102.6261 I8.6082 J-38.2192
G01 X171.8397 Y102.9415
G01 Y100.7768
G03 X167.4990 Y100.1688 I3.7761 J-42.7628
G03 X162.0230 Y98.2538 I3.5052 J-18.8092
G03 X160.1541 Y96.8230 I3.1379 J-6.0352
G03 X159.0268 Y94.1372 I4.2287 J-3.3543
G03 X160.3437 Y88.3469 I7.7453 J-1.2834
G03 X162.1235 Y86.6432 I5.4063 J3.8664
G03 X164.5994 Y86.0329 I2.5014 J4.8207
G03 X169.5922 Y86.0862 I2.0626 J40.6774
G03 X173.6904 Y87.4957 I-0.8846 J9.2350
G03 X177.3843 Y89.7760 I-83.2428 J138.9772
G03 X177.8220 Y90.6467 I-0.6473 J0.8708
G03 X177.8089 Y103.4822 I-1091.0107 J5.3097
G01 X177.7966 Y104.2742
G00 Z20.0000


(No. 16: Engraving 16)
G00 X196.9747 Y115.4998 Z20.0000
G00 Z0.5000
G01 Z0.0000 F1000
G01 Z-34.0000
G03 X197.2694 Y97.5560 I1639.1338 J17.9435 F1400
G03 X197.5160 Y92.4893 I63.2571 J0.5395
G03 X197.9607 Y90.1899 I9.5313 J0.6509
G03 X201.4658 Y86.6167 I5.9185 J2.3000
G03 X205.8351 Y85.9815 I3.4443 J8.3466
G03 X212.1802 Y88.0675 I-1.4117 J14.9875
G01 X212.9502 Y88.5441
G01 X215.1612 Y89.9921
G03 X215.6517 Y90.8998 I-0.5944 J0.9077
G01 Y114.4315
G01 X219.3468
G01 Y83.7570
G02 X216.1461 Y83.7741 I-1.2296 J69.5632
G02 X215.6644 Y83.8184 I-0.0486 J2.1118
G01 X215.6621 Y83.8437
G01 X215.6635 Y83.8284
G02 X215.6475 Y86.2386 I67.2461 J1.6522
G03 X213.9939 Y87.0641 I-1.0807 J-0.0960
G02 X209.9639 Y84.5877 I-45.7046 J69.8627
G02 X206.1152 Y83.4245 I-4.3396 J7.4095
G02 X200.4090 Y83.4746 I-2.6306 J25.3735
G02 X198.2479 Y84.1757 I0.6255 J5.6092
G02 X196.3432 Y85.5382 I2.9423 J6.1256
G02 X194.9219 Y88.3121 I4.9284 J4.2764
G02 X194.2771 Y92.4197 I22.4556 J5.6295
G02 X193.9870 Y100.8486 I122.3714 J8.4313
G01 X193.9767 Y103.0568
G01 X193.9532 Y114.4315
G01 X198.0596
G00 Z20.0000


(No. 17: Engraving 17)
G00 X232.0737 Y99.0942 Z20.0000
G00 Z0.5000
G01 Z0.0000 F1000
G01 Z-34.0000
G01 X232.0740 Y114.4315 F1400
G02 X235.2918 Y114.4156 I1.2446 J-73.9822
G02 X235.7537 Y114.3757 I0.0393 J-2.2401
G01 X235.7599 Y114.2977
G01 X235.7589 Y114.3099
G03 X235.8204 Y112.3761 I19.7665 J-0.3392
G03 X236.5608 Y111.2358 I1.3815 J0.0865
G03 X238.0595 Y111.4753 I0.5636 J1.2824
G03 X239.1149 Y112.3595 I-67.2899 J81.3853
G02 X243.1403 Y114.3179 I7.9966 J-11.3211
G02 X250.1963 Y115.0654 I5.3036 J-16.3855
G02 X253.1444 Y114.0567 I-0.6953 J-6.8439
G02 X255.1007 Y112.5774 I-3.6867 J-6.9090
G02 X256.5263 Y109.7869 I-5.0403 J-4.3344
G02 X257.1575 Y105.7222 I-22.0740 J-5.5089
G02 X257.4344 Y97.3381 I-124.7999 J-8.3187
G01 X257.4441 Y95.1318
G01 X257.4676 Y83.7570
G01 X254.3610
G03 X254.3292 Y97.9647 I-729.8940 J5.4747
G03 X254.0200 Y104.4315 I-76.4534 J-0.4155
G03 X253.1505 Y108.5849 I-15.9987 J-1.1816
G03 X251.0593 Y111.2579 I-4.9055 J-1.6831
G03 X248.1220 Y112.1191 I-3.2883 J-5.7764
G03 X243.7829 Y111.9797 I-1.6017 J-17.7559
G03 X239.4162 Y110.3422 I2.5719 J-13.4991
G01 X236.3335 Y108.6575
G03 X235.7688 Y107.7054 I0.5203 J-0.9521
G01 Y83.7570
G01 X232.0737
G01 Y99.0942
G00 Z20.0000


(No. 18: Engraving 18)
G00 X283.7748 Y101.5283 Z20.0000
G00 Z0.5000
G01 Z0.0000 F1000
G01 Z-34.0000
G01 X291.3994 F1400
G03 X292.4844 Y102.6149 I0.0000 J1.0850
G01 X292.4814 Y104.5640
G01 X292.3472 Y106.0215
G03 X288.9373 Y111.2087 I-7.7910 J-1.4071
G03 X281.6689 Y112.9478 I-6.0792 J-9.3492
G03 X274.5698 Y109.5301 I0.8950 J-10.9408
G03 X272.1598 Y104.9758 I7.6375 J-6.9564
G03 X272.0341 Y94.6243 I22.8382 J-5.4538
G03 X273.8504 Y90.4060 I11.4996 J2.4513
G03 X279.7746 Y86.2934 I8.5867 J6.0459
G03 X285.0670 Y85.8157 I4.0343 J15.1399
G03 X292.8098 Y87.6869 I-2.3242 J26.5726
G01 X294.4640 Y88.3898
G01 X294.9637 Y88.6290
G02 X295.0057 Y85.2791 I-35.5557 J-2.1218
G01 X291.9064 Y84.3218
G02 X285.6024 Y83.2854 I-7.7618 J27.5203
G02 X279.4194 Y83.5365 I-2.0207 J26.4942
G02 X275.5026 Y85.0865 I2.1765 J11.2235
G02 X270.5843 Y89.6573 I8.0800 J13.6258
G02 X269.2174 Y92.8759 I9.5098 J5.9385
G02 X268.8591 Y103.9543 I25.7775 J6.3787
G02 X278.3591 Y114.6138 I13.4209 J-2.3980
G02 X288.7193 Y114.2520 I4.6469 J-15.4496
G02 X294.6790 Y108.1192 I-3.5894 J-9.4502
G02 X295.5872 Y102.4518 I-16.1233 J-5.4903
G01 X295.5914 Y99.5927
G01 X277.2352
G01 Y101.5283
G01 X283.7748
G00 Z20.0000


(No. 19: Engraving 19)
G00 X309.6692 Y110.8197 Z20.0000
G00 Z0.5000
G01 Z0.0000 F1000
G01 Z-34.0000
G03 X309.7568 Y98.8799 I483.8753 J-2.4203 F1400
G03 X310.2878 Y91.5795 I57.3603 J0.5028
G03 X311.0087 Y88.8022 I11.8517 J1.5941
G03 X312.3874 Y86.9638 I3.6185 J1.2775
G03 X314.3665 Y86.2487 I2.8201 J4.7087
G03 X320.6183 Y86.2666 I3.0792 J16.3529
G01 X321.0890 Y86.3859
G01 X321.3863 Y86.4734
G02 X321.3457 Y83.9065 I-19.6752 J-0.9725
G01 X321.3262 Y83.8096
G01 X321.3193 Y83.7914
G02 X320.1128 Y83.5332 I-1.9646 J6.2315
G02 X312.9996 Y83.4693 I-3.7511 J21.5991
G02 X310.3313 Y84.4863 I1.2030 J7.1654
G02 X307.8322 Y87.4225 I2.7086 J4.8371
G02 X307.0550 Y90.6417 I13.3146 J4.9179
G02 X306.6252 Y97.1715 I59.5633 J7.1998
G02 X306.5570 Y110.9121 I845.1109 J11.0607
G03 X305.4756 Y111.9094 I-1.0814 J-0.0877
G02 X303.1449 Y111.9224 I-0.9709 J34.9431
G01 X303.0843 Y111.9314
G01 X303.0743 Y112.0049
G01 X303.0765 Y111.9886
G02 X303.0932 Y114.4138 I15.6971 J1.1045
G01 X303.1576 Y114.4197
G01 X303.1449 Y114.4185
G02 X305.5607 Y114.4348 I1.6005 J-58.1091
G03 X306.5606 Y115.5165 I-0.0851 J1.0817
G01 Y123.8156
G01 X309.6692
G01 Y115.5165
G03 X310.7542 Y114.4315 I1.0850 J0.0000
G01 X321.3994
G01 Y111.9094
G01 X310.7542
G00 Z20.0000


(No. 20: Engraving 20)
G00 X335.8692 Y101.5047 Z20.0000
G00 Z0.5000
G01 Z0.0000 F1000
G01 Z-34.0000
G02 X340.9354 Y102.5906 I7.7107 J-23.6127 F1400
G01 X344.2732 Y102.9436
G01 Y100.7791
G01 X341.8472 Y100.4896
G03 X337.0330 Y99.4061 I2.1560 J-20.8157
G03 X333.6295 Y97.4475 I3.1939 J-9.4868
G03 X331.5861 Y91.5496 I4.1892 J-4.7543
G03 X334.4748 Y87.1010 I5.9137 J0.6779
G03 X339.0226 Y85.8140 I4.7676 J8.1684
G03 X346.8028 Y87.7589 I0.3608 J15.0912
G03 X348.6716 Y88.9144 I-4.6467 J9.6040
G03 X350.2360 Y91.5499 I-2.8300 J3.4620
G03 X350.5159 Y95.1439 I-18.5053 J3.2491
G03 X350.2302 Y105.7005 I-218.8691 J-0.6414
G03 X349.8588 Y107.9845 I-9.8556 J-0.4308
G03 X348.5667 Y110.0032 I-4.4283 J-1.4116
G03 X346.6971 Y111.5113 I-5.5672 J-4.9886
G03 X343.8292 Y112.2509 I-3.3657 J-7.1203
G03 X332.8287 Y111.3492 I-3.1877 J-28.6631
G02 X330.7019 Y110.8638 I-12.9471 J51.8238
G02 X330.6074 Y112.2467 I9.1561 J1.3200
G01 Y113.9558
G02 X338.5189 Y114.9675 I8.3759 J-34.0587
G02 X345.5167 Y114.7115 I1.7928 J-46.7562
G02 X350.1227 Y112.7898 I-0.9318 J-8.7142
G02 X352.6980 Y109.8426 I-5.6830 J-7.5646
G02 X353.2037 Y108.1667 I-3.4213 J-1.9468
G02 X353.6058 Y99.7158 I-109.4357 J-9.4416
G02 X353.6569 Y83.7569 I-698.2075 J-10.2148
G02 X350.9808 Y83.7779 I-1.0097 J42.0270
G02 X350.5464 Y83.8269 I0.1022 J2.8547
G01 X350.5285 Y83.8882
G01 X350.5319 Y83.8752
G02 X350.2358 Y86.5136 I41.3959 J5.9809
G03 X348.4976 Y87.1601 I-1.0655 J-0.2048
G01 X346.9405 Y85.9295
G02 X343.5701 Y84.1505 I-7.2403 J9.6351
G02 X335.4010 Y83.2827 I-5.8873 J16.5354
G02 X332.9275 Y84.0334 I1.0722 J7.9826
G02 X331.2128 Y85.3003 I5.2249 J8.8657
G02 X329.3602 Y87.3467 I6.3598 J7.6193
G02 X328.1587 Y91.7146 I8.2650 J4.6228
G02 X329.1105 Y96.9238 I10.6764 J0.7409
G02 X331.2834 Y99.3233 I5.4763 J-2.7757
G02 X335.9002 Y101.5149 I9.9424 J-14.9858
G00 Z20.0000


(No. 21: Engraving 21)
G00 X95.3176 Y223.7528 Z20.0000
G00 Z0.5000
G01 Z0.0000 F1000
G01 Z-34.0000
G03 X92.5612 Y227.5822 I-14.9213 J-7.8337 F1400
G03 X88.0744 Y231.1708 I-12.0184 J-10.4274
G03 X83.0656 Y232.6996 I-7.2839 J-14.8950
G03 X76.3576 Y233.2023 I-7.4650 J-54.5983
G03 X69.7585 Y232.7114 I-1.2152 J-28.2639
G03 X64.9191 Y231.4992 I15.8152 J-73.4017
G01 Y237.7368
G01 X68.1270 Y238.8092
G02 X75.0087 Y240.1780 I9.9766 J-32.1739
G02 X85.4446 Y240.1256 I4.9959 J-44.3133
G02 X93.9389 Y237.4443 I-3.6119 J-26.2374
G02 X104.8515 Y224.9749 I-10.4376 J-20.1441
G02 X106.5335 Y214.8643 I-27.1295 J-9.7085
G02 X105.5445 Y207.0307 I-31.7518 J0.0294
G02 X80.1150 Y186.5575 I-26.6765 J7.1051
G02 X70.3333 Y187.2945 I-2.3300 J34.3562
G02 X56.5955 Y195.8695 I5.8226 J24.6204
G02 X50.9824 Y205.8756 I26.2923 J21.3266
G01 X50.3993 Y207.5806
G02 X49.2211 Y213.2117 I24.2649 J8.0158
G02 X48.5743 Y226.8322 I128.1048 J12.9085
G02 X48.9405 Y235.3329 I83.1263 J0.6778
G02 X52.3784 Y249.3123 I53.4184 J-5.7249
G02 X58.3151 Y259.5972 I37.0431 J-14.5261
G02 X72.8240 Y270.2082 I26.9332 J-21.6023
G02 X78.0545 Y271.8253 I12.2818 J-30.4573
G02 X86.1828 Y272.7234 I10.4319 J-57.1825
G02 X94.8054 Y272.7132 I4.2261 J-72.3338
G02 X97.9396 Y272.2510 I-1.3136 J-19.7674
G01 Y263.5000
G02 X94.4962 Y264.5225 I7.6355 J32.0247
G03 X89.8418 Y265.2872 I-5.7725 J-20.5862
G03 X76.9642 Y263.6998 I-2.4897 J-32.8296
G03 X64.5858 Y254.4163 I7.8751 J-23.3948
G03 X60.9586 Y247.8133 I29.4376 J-20.4687
G03 X58.7636 Y241.5261 I39.0425 J-17.1575
G03 X58.3181 Y237.9582 I23.0562 J-4.6907
G03 X57.9238 Y223.6194 I208.3779 J-12.9050
G03 X58.2060 Y213.5733 I144.5830 J-0.9654
G03 X58.5638 Y210.7019 I16.7421 J0.6284
G03 X61.2062 Y203.8235 I27.6680 J6.6822
G03 X67.2005 Y197.0108 I17.3336 J9.2078
G03 X76.9173 Y193.7455 I10.6379 J15.5661
G03 X83.7744 Y194.2275 I1.8589 J22.5710
G03 X92.9680 Y200.3651 I-3.3718 J15.0050
G03 X95.2256 Y204.2671 I-22.7504 J15.7670
G03 X96.5342 Y207.7736 I-12.5024 J6.6633
G03 X96.8483 Y211.4273 I-20.4953 J3.6024
G03 X96.7052 Y218.3299 I-70.4525 J1.9926
G03 X95.6011 Y223.1390 I-15.3280 J-0.9879
G01 X95.3436 Y223.7001
G00 Z20.0000


(No. 22: Engraving 22)
G00 X130.8599 Y224.3597 Z20.0000
G00 Z0.5000
G01 Z0.0000 F1000
G01 Z-34.0000
G02 X123.9150 Y232.7987 I15.1823 J19.5712 F1400
G02 X122.4054 Y237.9244 I14.0742 J6.9304
G02 X122.1764 Y248.7158 I53.1541 J6.5258
G02 X122.9605 Y253.9916 I31.9555 J-2.0528
G02 X124.1138 Y257.0674 I15.0845 J-3.9019
G02 X139.9142 Y271.2658 I24.8046 J-11.7126
G02 X154.2405 Y272.8135 I10.5232 J-30.3271
G02 X164.4440 Y269.7394 I-2.7171 J-27.4891
G02 X174.3140 Y260.2638 I-12.2299 J-22.6171
G02 X178.6839 Y248.7047 I-30.6444 J-18.1909
G02 X179.9021 Y233.7617 I-70.8483 J-13.2966
G02 X177.7579 Y216.3674 I-77.2398 J0.6919
G02 X174.4775 Y207.6037 I-48.7585 J13.2555
G02 X169.8896 Y199.7486 I-42.7608 J19.7077
G02 X165.2625 Y195.1341 I-20.1424 J15.5700
G02 X155.9679 Y189.5107 I-26.0126 J32.5023
G02 X148.5681 Y187.4290 I-13.6223 J34.2298
G02 X136.9557 Y186.5220 I-9.8648 J51.5127
G02 X133.1504 Y186.9597 I2.2898 J36.6716
G02 X130.0216 Y187.4607 I95.9792 J609.3963
G02 X130.0385 Y194.6588 I317.8824 J2.8526
G02 X130.1142 Y196.1482 I15.3914 J-0.0361
G03 X142.4033 Y194.2640 I11.0437 J31.0106
G03 X153.4218 Y196.5773 I-0.8032 J31.2234
G03 X164.5964 Y206.0086 I-9.9981 J23.1818
G03 X168.5286 Y214.6140 I-28.8004 J18.3614
G03 X170.0563 Y221.2389 I-36.9002 J11.9979
G03 X170.4582 Y228.0796 I-60.8879 J7.0088
G03 X170.3703 Y239.4514 I-245.7024 J3.7872
G03 X169.7904 Y246.6828 I-74.8152 J-2.3601
G03 X168.5773 Y252.2596 I-32.2443 J-4.0939
G03 X163.6302 Y260.2953 I-18.2783 J-5.7123
G03 X159.5052 Y263.5207 I-14.0466 J-13.7139
G03 X138.6194 Y262.4508 I-9.6135 J-16.7260
G03 X131.7520 Y250.7093 I9.8933 J-13.6655
G03 X131.6132 Y240.3486 I47.3768 J-5.8160
G03 X132.2820 Y237.1520 I12.5486 J0.9575
G03 X134.9126 Y232.8898 I14.7717 J6.1741
G03 X139.8567 Y228.4843 I15.5209 J12.4413
G03 X142.6452 Y227.3744 I5.2765 J9.1984
G03 X148.8414 Y226.5465 I7.7000 J34.0284
G03 X159.1304 Y227.1136 I2.6406 J45.7139
G03 X163.6286 Y228.2915 I-9.5912 J45.8028
G01 Y222.0669
G02 X158.9636 Y220.4130 I-35.8299 J93.6555
G02 X154.2621 Y219.6377 I-5.2049 J16.9206
G02 X143.7727 Y219.6089 I-5.7721 J191.6449
G02 X139.5573 Y219.9843 I0.1561 J25.6053
G02 X135.1343 Y221.6219 I3.8760 J17.2607
G02 X130.8270 Y224.3856 I11.6758 J22.9352
G00 Z20.0000


(No. 23: Engraving 23)
G00 X207.4543 Y224.5658 Z20.0000
G00 Z0.5000
G01 Z0.0000 F1000
G01 Z-34.0000
G03 X208.2186 Y213.2082 I119.0436 J2.3056 F1400
G03 X209.4365 Y207.0893 I33.1932 J3.4262
G03 X211.9888 Y201.1738 I23.8273 J6.7724
G03 X217.1269 Y195.9273 I13.0367 J7.6280
G03 X221.3478 Y194.2274 I7.6613 J12.9334
G01 X223.4524 Y193.7226
G02 X223.4467 Y187.9662 I-525.2814 J-2.3533
G02 X223.3186 Y186.5534 I-6.1511 J-0.1548
G01 X223.2837 Y186.4588
G02 X221.5901 Y186.6112 I-0.3109 J6.0315
G02 X217.4803 Y187.5223 I6.5063 J39.0734
G02 X203.6387 Y198.7667 I7.1208 J22.9071
G02 X199.1161 Y213.2296 I38.8411 J20.0843
G02 X198.2641 Y224.0670 I104.6580 J13.6804
G02 X198.3325 Y239.8719 I176.0678 J7.1401
G02 X199.0007 Y245.7251 I53.2802 J-3.1175
G02 X201.3282 Y255.3456 I56.6771 J-8.6201
G02 X204.8703 Y262.7397 I31.3113 J-10.4542
G02 X211.0442 Y269.0499 I18.2653 J-11.6954
G02 X219.3638 Y272.3980 I12.7453 J-19.6593
G01 X221.3293 Y272.7310
G01 X223.4524 Y273.0221
G02 X223.4393 Y267.0339 I-286.9571 J-2.3674
G02 X223.3311 Y265.5778 I-6.7384 J-0.2313
G03 X216.8225 Y263.4927 I-0.1017 J-10.8836
G03 X211.8711 Y258.0239 I10.4827 J-14.4666
G03 X208.7920 Y249.8511 I22.0045 J-12.9567
G03 X207.8217 Y241.9757 I69.3123 J-12.5371
G03 X207.4539 Y224.5812 I178.6085 J-12.4774
G00 Z20.0000


(No. 24: Engraving 24)
G00 X244.9437 Y221.3016 Z20.0000
G00 Z0.5000
G01 Z0.0000 F1000
G01 Z-34.0000
G03 X244.9238 Y240.7382 I-221.2108 J9.4912 F1400
G03 X244.4254 Y246.1842 I-54.1068 J-2.2053
G03 X242.7149 Y253.3262 I-44.4127 J-6.8615
G03 X240.1520 Y258.8871 I-24.0334 J-7.7052
G03 X236.6777 Y262.8346 I-13.0012 J-7.9400
G03 X232.3126 Y265.0313 I-7.4828 J-9.4337
G01 X230.3145 Y265.5658
G01 Y272.7887
G02 X234.0271 Y272.2732 I0.1788 J-12.3400
G02 X241.4454 Y269.0906 I-7.7332 J-28.2622
G02 X246.4802 Y264.2272 I-10.7647 J-16.1819
G02 X250.9215 Y255.8456 I-28.3738 J-20.4023
G02 X253.5258 Y246.7963 I-54.7982 J-20.6699
G02 X254.1104 Y240.2025 I-74.9302 J-9.9661
G02 X254.2698 Y220.4760 I-221.1989 J-11.6512
G02 X253.5947 Y214.0492 I-48.8495 J1.8829
G02 X251.2883 Y204.4282 I-57.4087 J8.6750
G02 X247.7767 Y197.0280 I-31.4684 J10.3994
G02 X241.6090 Y190.6438 I-18.6923 J11.8872
G02 X233.2050 Y187.0865 I-13.7439 J20.7635
G01 X231.2089 Y186.6898
G01 X230.3125 Y186.5391
G01 X230.4362 Y190.0202
G01 X230.5792 Y194.0461
G01 X232.5287 Y194.6133
G03 X239.4264 Y199.5934 I-3.7631 J12.4792
G03 X242.0581 Y204.4797 I-17.9265 J12.8068
G03 X244.6307 Y216.1399 I-39.1137 J14.7435
G03 X244.9432 Y221.2903 I-134.2190 J10.7301
G00 Z20.0000


(No. 25: Engraving 25)
G00 X291.6410 Y240.3878 Z20.0000
G00 Z0.5000
G01 Z0.0000 F1000
G01 Z-34.0000
G01 X275.4034 Y221.5020 F1400
G03 X276.2140 Y219.7097 I0.8227 J-0.7074
G01 X290.2522 Y219.5527
G01 X303.2175 Y219.4076
G01 Y212.2023
G01 X269.0240
G01 Y223.7274
G01 X289.5915 Y247.7084
G01 X310.0956 Y271.6156
G01 X319.0532
G01 Y220.5014
G03 X320.1382 Y219.4164 I1.0850 J0.0000
G01 X331.3699
G01 Y212.2023
G01 X320.1382
G03 X319.0532 Y211.1173 I0.0000 J-1.0850
G01 Y188.1555
G01 X310.0840
G01 X309.9374 Y222.8228
G01 X309.7863 Y258.5708
G03 X307.8786 Y259.2736 I-1.0850 J-0.0046
G01 X291.6410 Y240.3878
G00 Z20.0000


(No. 26: Engraving 26)
G00 X368.7306 Y231.4476 Z20.0000
G00 Z0.5000
G01 Z0.0000 F1000
G01 Z-34.0000
G03 X354.0677 Y229.8855 I1.5758 J-84.3922 F1400
G01 Y271.6156
G01 X402.9239
G01 Y263.8150
G01 X364.1263
G03 X363.0413 Y262.7300 I0.0000 J-1.0850
G01 Y239.6805
G03 X364.2028 Y238.5982 I1.0850 J0.0000
G01 X369.3245 Y238.9600
G02 X381.5541 Y238.5947 I4.4765 J-55.0371
G02 X389.5309 Y236.4925 I-4.9752 J-35.0641
G02 X397.0690 Y231.7702 I-8.4086 J-21.8000
G02 X402.9659 Y220.8447 I-13.9941 J-14.6073
G02 X402.9735 Y207.8292 I-36.9928 J-6.5293
G02 X400.6957 Y201.3357 I-23.1903 J4.4885
G02 X396.0585 Y194.5198 I-27.2425 J13.5491
G02 X392.5872 Y191.6771 I-12.9517 J12.2747
G02 X383.2693 Y187.7094 I-16.6211 J26.1088
G02 X370.0728 Y186.5028 I-10.6825 J44.0635
G02 X363.4911 Y187.2257 I1.9116 J47.7218
G02 X352.5381 Y190.0716 I17.7043 J90.6390
G02 X351.0063 Y190.6908 I2.6660 J8.8004
G02 X350.7612 Y191.0220 I0.1571 J0.3726
G02 X350.5655 Y193.4199 I11.7778 J2.1680
G02 X350.6565 Y200.1262 I84.4207 J2.2089
G01 X350.6795 Y200.4567
G01 X350.7051 Y200.7520
G03 X354.5450 Y198.6064 I14.1747 J20.8599
G03 X365.2077 Y195.2163 I22.3782 J51.9217
G03 X372.3259 Y194.2200 I9.3489 J40.8644
G03 X381.6816 Y195.4281 I1.2915 J26.8274
G03 X389.6025 Y200.6547 I-5.2755 J16.6104
G03 X392.2331 Y204.7378 I-14.4884 J12.2234
G03 X393.7116 Y208.4898 I-15.0218 J8.0865
G03 X394.1459 Y212.6310 I-19.5580 J4.1445
G03 X393.7088 Y218.8915 I-26.3242 J1.3074
G03 X389.7035 Y225.9958 I-12.9044 J-2.5940
G03 X385.6247 Y228.8774 I-13.1678 J-14.3107
G03 X381.1234 Y230.5555 I-7.4887 J-13.2121
G03 X374.7825 Y231.3516 I-8.5205 J-42.2132
G03 X368.7504 Y231.4480 I-4.2259 J-75.6313
G00 Z20.0000


(No. 27: Engraving 27)
G00 X432.2590 Y227.7749 Z20.0000
G00 Z0.5000
G01 Z0.0000 F1000
G01 Z-34.0000
G03 X430.7813 Y251.7921 I-212.4851 J-1.0196 F1400
G03 X423.6618 Y285.2060 I-197.1625 J-24.5440
G03 X419.1307 Y299.1090 I-234.5957 J-68.7663
G03 X418.2208 Y301.1563 I-10.3288 J-3.3646
G03 X416.8968 Y301.9689 I-1.8051 J-1.4563
G03 X414.2175 Y302.2928 I-3.0515 J-13.9998
G03 X403.9812 Y302.4949 I-10.3325 J-263.9613
G03 X369.1176 Y302.5039 I-19.9049 J-9617.2538
G02 X351.9984 Y302.6333 I-3.5104 J668.0436
G02 X348.0135 Y302.8561 I0.7901 J49.8692
G02 X346.6867 Y303.1418 I0.2075 J4.1874
G02 X344.9758 Y306.3396 I2.4173 J3.3499
G02 X345.4192 Y308.4633 I5.9605 J-0.1363
G02 X345.8730 Y309.4201 I2.4948 J-0.5972
G02 X346.8060 Y309.9816 I1.5296 J-1.4856
G02 X349.5070 Y310.4798 I3.8796 J-13.4640
G02 X357.0675 Y310.8251 I8.1526 J-95.5474
G02 X380.2264 Y310.9117 I18.7160 J-1909.3535
G03 X410.6131 Y311.1196 I4.6382 J1542.4619
G03 X412.4558 Y311.2406 I0.2094 J10.9065
G03 X413.1901 Y312.8237 I-0.2504 J1.0780
G03 X406.9944 Y325.1939 I-174.1457 J-79.4850
G03 X385.7128 Y357.0106 I-186.1385 J-101.4788
G02 X382.6326 Y361.5525 I25.9454 J20.9110
G02 X381.3153 Y365.0581 I9.4663 J5.5574
G02 X381.9375 Y369.2176 I6.7936 J1.1103
G02 X383.2823 Y371.3632 I7.6157 J-3.2795
G02 X387.4221 Y373.6648 I5.8876 J-5.7157
G02 X392.1930 Y373.4685 I2.0558 J-8.1072
G02 X393.7954 Y372.4911 I-1.2486 J-3.8492
G02 X396.9597 Y369.0380 I-33.1392 J-33.5442
G02 X424.0213 Y328.2042 I-174.8185 J-145.2407
G02 X444.5225 Y270.6028 I-200.5051 J-103.8121
G02 X447.6305 Y251.9060 I-244.3633 J-50.2275
G02 X448.8613 Y232.4102 I-182.8279 J-21.3287
G02 X448.6826 Y211.6373 I-388.3524 J-7.0457
G02 X446.5266 Y190.7770 I-166.0742 J6.6227
G02 X443.0435 Y173.1275 I-246.3521 J39.4485
G02 X413.7228 Y104.3772 I-219.3352 J52.9148
G02 X393.2769 Y77.1798 I-192.1397 J123.1590
G02 X389.2849 Y72.8763 I-49.3910 J41.8134
G02 X386.5820 Y70.7399 I-9.5456 J9.2982
G02 X383.2472 Y69.8200 I-3.6304 J6.6566
G02 X380.8775 Y69.8280 I-1.1536 J9.2950
G02 X378.8726 Y70.7564 I1.0147 J4.8203
G02 X376.0861 Y73.3764 I5.6087 J8.7568
G02 X374.7702 Y77.2996 I6.4829 J4.3569
G02 X374.7961 Y79.4288 I7.5349 J0.9729
G02 X375.6220 Y81.4917 I6.2230 J-1.2947
G02 X377.9642 Y84.7277 I25.1640 J-15.7476
G02 X384.0928 Y91.9400 I377.2245 J-314.3343
G03 X413.3589 Y138.1282 I-159.0410 J133.1386
G03 X415.5434 Y143.0937 I-65.0852 J31.5961
G03 X415.4374 Y144.2894 I-1.0723 J0.5075
G03 X414.3904 Y144.8378 I-1.1365 J-0.8959
G03 X410.7080 Y145.0853 I-4.4618 J-38.8643
G03 X388.0801 Y145.3345 I-20.5774 J-841.1291
G03 X376.6999 Y145.3412 I-10.2128 J-7649.4108
G02 X358.4584 Y145.4307 I-3.2890 J1188.5521
G02 X350.4706 Y145.7200 I1.1246 J141.4846
G02 X347.3212 Y146.1273 I1.0670 J20.6309
G02 X345.9466 Y146.6408 I0.5598 J3.5948
G02 X345.1925 Y147.6057 I1.4270 J1.8925
G02 X345.7730 Y152.6786 I4.2369 J2.0849
G01 X346.7752 Y153.8438
G01 X382.7274 Y153.7590
G01 X419.1792 Y153.6730
G03 X420.2142 Y154.4243 I0.0026 J1.0850
G01 X422.2615 Y160.7603
G03 X431.0715 Y201.7767 I-190.6513 J62.4047
G03 X432.2591 Y227.7636 I-222.1110 J23.1708
G00 Z20.0000


(No. 28: Engraving 32)
G00 X157.0732 Y423.0389 Z20.0000
G00 Z0.5000
G01 Z0.0000 F1000
G01 Z-34.0000
G03 X112.7684 Y402.1473 I66.1006 J-197.6033 F1400
G03 X92.4570 Y387.4744 I103.6478 J-164.8729
G01 X92.0550 Y387.1444
G01 X91.6465 Y386.8091
G01 X91.2335 Y386.4701
G01 X90.8180 Y386.1289
G01 X90.4018 Y385.7873
G01 X89.9869 Y385.4468
G01 X89.5753 Y385.1089
G01 X89.1690 Y384.7753
G01 X88.7698 Y384.4476
G01 X88.3797 Y384.1274
G01 X88.0006 Y383.8163
G01 X87.6346 Y383.5159
G01 X87.2835 Y383.2277
G01 X86.9493 Y382.9534
G01 X86.6339 Y382.6946
G01 X86.3394 Y382.4528
G02 X83.8261 Y380.5509 I-13.5103 J15.2409
G02 X81.5942 Y379.9649 I-2.2211 J3.9161
G02 X78.6890 Y380.0328 I-1.0266 J18.2484
G02 X76.6988 Y380.9173 I0.4699 J3.7386
G02 X73.6719 Y385.1642 I4.7277 J6.5717
G02 X73.6495 Y389.1897 I6.5528 J2.0493
G02 X74.9768 Y391.2472 I6.5864 J-2.7920
G02 X78.4857 Y394.6078 I29.5569 J-27.3490
G02 X93.8546 Y406.7117 I164.0888 J-192.5419
G02 X173.5569 Y443.2341 I131.8711 J-182.5523
G01 X178.8991 Y444.4237
G01 X184.2589 Y445.4746
G01 X193.8395 Y447.0155
G01 X203.4286 Y448.1418
G01 X213.0181 Y448.8574
G01 X222.5953 Y449.1653
G01 X232.1473 Y449.0688
G01 X241.6616 Y448.5709
G01 X251.1252 Y447.6748
G01 X260.5255 Y446.3838
G01 X269.8496 Y444.7008
G01 X279.0850 Y442.6291
G01 X288.2187 Y440.1718
G01 X297.2380 Y437.3321
G01 X306.1302 Y434.1132
G01 X314.8826 Y430.5181
G01 X323.4823 Y426.5501
G01 X331.9167 Y422.2122
G01 X340.1730 Y417.5077
G01 X348.2384 Y412.4397
G01 X356.1003 Y407.0112
G01 X363.7547 Y401.2190
G02 X373.0809 Y393.5290 I-132.0960 J-169.7023
G02 X376.1486 Y390.5290 I-23.8531 J-27.4607
G02 X377.5823 Y388.5251 I-6.4385 J-6.1213
G02 X378.1425 Y385.7039 I-6.5361 J-2.7640
G02 X373.3210 Y378.2254 I-8.3818 J0.1104
G02 X369.9828 Y377.6437 I-3.3507 J9.3593
G02 X367.1287 Y377.9852 I-0.4016 J8.7419
G02 X366.1296 Y378.5944 I1.4916 J3.5702
G02 X358.6182 Y384.6335 I149.0945 J193.1338
G03 X337.4849 Y400.2724 I-148.0282 J-177.9360
G03 X309.6347 Y415.6234 I-113.8029 J-173.5259
G03 X267.6581 Y429.3947 I-84.0791 J-185.4234
G03 X240.5978 Y433.4046 I-46.0267 J-217.2906
G03 X226.0108 Y433.8725 I-14.6301 J-228.4766
G03 X208.5949 Y433.4993 I-2.6143 J-284.5249
G01 X207.0646 Y433.3987
G03 X157.1029 Y423.0489 I17.7813 J-211.6012
G00 Z20.0000


(No. 29: Engraving 30)
G00 X66.0771 Y153.7275 Z20.0000
G00 Z0.5000
G01 Z0.0000 F1000
G01 Z-34.0000
G01 X103.2999 Y153.4383 F1400
G01 X104.0814 Y152.4730
G02 X104.8637 Y150.3915 I-3.6391 J-2.5555
G02 X104.6983 Y147.6967 I-5.7015 J-1.0025
G02 X103.6029 Y146.4040 I-2.5105 J1.0170
G02 X102.1581 Y145.9701 I-2.2756 J4.9542
G02 X97.4159 Y145.5611 I-5.5632 J36.8103
G02 X84.8212 Y145.3623 I-12.6380 J401.6004
G02 X64.5600 Y145.3388 I-18.1522 J6912.4224
G03 X36.6026 Y145.0870 I-2.1852 J-1309.6058
G03 X33.1100 Y144.9448 I1.3745 J-76.6979
G03 X32.1902 Y144.7180 I-0.0518 J-1.7690
G03 X31.6921 Y143.5435 I0.5590 J-0.9299
G01 X31.8138 Y143.0659
G03 X33.4742 Y139.3372 I37.3033 J14.3775
G03 X45.0009 Y117.7031 I353.9718 J174.7085
G03 X57.0592 Y99.8388 I159.1715 J94.4379
G03 X64.3033 Y90.8044 I302.9813 J235.5198
G02 X68.2777 Y85.5599 I-52.9192 J-44.2323
G02 X69.4487 Y83.4012 I-8.8719 J-6.2095
G02 X69.7414 Y80.7028 I-5.2492 J-1.9344
G02 X64.3218 Y74.6218 I-7.0754 J0.8503
G02 X57.9051 Y76.2943 I-1.6333 J6.8791
G02 X54.4448 Y79.9584 I22.0179 J24.2590
G02 X44.3803 Y92.7572 I212.0298 J177.0902
G01 X39.8949 Y99.1065
G01 X35.6376 Y105.6120
G01 X31.6115 Y112.2644
G01 X27.8197 Y119.0543
G01 X24.2653 Y125.9724
G01 X20.9515 Y133.0093
G01 X17.8814 Y140.1555
G01 X15.0582 Y147.4018
G01 X12.4849 Y154.7386
G01 X10.1646 Y162.1567
G01 X8.1006 Y169.6467
G01 X6.2958 Y177.1990
G01 X4.7534 Y184.8044
G01 X3.4765 Y192.4535
G01 X2.4681 Y200.1368
G01 X1.7314 Y207.8450
G01 X1.2694 Y215.5687
G01 X1.0852 Y223.2985
G02 X4.5879 Y264.4034 I233.2573 J0.8248
G02 X19.6676 Y314.6373 I218.2987 J-38.1509
G02 X42.3186 Y354.5935 I201.9150 J-88.0657
G02 X51.6297 Y367.1940 I288.3341 J-203.3241
G02 X55.4376 Y371.7327 I48.6895 J-36.9837
G02 X56.8081 Y372.9880 I6.7639 J-6.0088
G02 X59.2726 Y373.6025 I2.7534 J-5.7934
G02 X63.4236 Y373.1223 I0.9329 J-10.1171
G02 X66.7419 Y369.8500 I-2.2846 J-5.6353
G02 X65.9156 Y362.2301 I-6.8998 J-3.1065
G02 X62.3584 Y357.6495 I-40.8631 J28.0621
G03 X50.0840 Y341.0558 I155.4854 J-127.8488
G03 X42.4451 Y328.6192 I182.1829 J-120.4668
G03 X36.1466 Y317.0749 I206.8059 J-120.3223
G03 X34.0472 Y312.3307 I52.1019 J-25.8929
G03 X35.0795 Y310.9117 I1.0323 J-0.3340
G01 X101.4714
G01 X102.9563 Y309.6622
G02 X103.2536 Y303.6305 I-2.4879 J-3.1458
G01 X102.1476 Y302.5245
G01 X30.4875
G03 X29.4716 Y301.8207 I0.0000 J-1.0850
G03 X25.1845 Y289.7432 I199.7623 J-77.7081
G03 X16.4974 Y250.4668 I212.9957 J-67.7093
G03 X15.6369 Y237.8782 I203.5853 J-20.2388
G03 X15.4800 Y213.5745 I335.1638 J-14.3162
G03 X16.2549 Y203.2275 I126.7658 J4.2909
G03 X23.2050 Y167.5388 I220.7675 J24.4718
G03 X25.1617 Y161.2171 I144.6205 J41.2994
G01 X27.3215 Y154.7615
G03 X28.3420 Y154.0208 I1.0289 J0.3442
G01 X66.0772 Y153.7275
G00 Z20.0000


(No. 30: Engraving 28)
G00 X261.0490 Y19.9824 Z20.0000
G00 Z0.5000
G01 Z0.0000 F1000
G01 Z-34.0000
G03 X311.3333 Y35.9736 I-36.8533 J202.9404 F1400
G03 X346.7286 Y56.7156 I-87.1539 J189.2949
G03 X353.4787 Y61.8952 I-139.2132 J188.4119
G02 X359.4821 Y66.0861 I33.2961 J-41.3014
G02 X360.9084 Y66.6268 I2.1238 J-3.4504
G02 X366.2931 Y65.5449 I1.3943 J-7.0014
G02 X369.6622 Y55.9986 I-4.4763 J-6.9475
G02 X368.1057 Y53.3137 I-8.6730 J3.2344
G02 X364.8176 Y50.0083 I-19.6302 J16.2391
G02 X357.5475 Y44.4383 I-67.8264 J80.9998
G02 X344.9723 Y35.9565 I-183.3850 J258.3251
G01 X338.6416 Y32.0972
G01 X332.2011 Y28.4557
G01 X325.6567 Y25.0336
G01 X319.0144 Y21.8325
G01 X312.2802 Y18.8541
G02 X291.5859 Y11.2716 I-87.8388 J207.7013
G02 X263.0693 Y4.3796 I-67.0177 J214.8549
G01 X255.8149 Y3.2423
G01 X248.5225 Y2.3425
G01 X241.1980 Y1.6820
G01 X233.8473 Y1.2623
G01 X226.4765 Y1.0851
G01 X219.0914 Y1.1521
G01 X211.6928 Y1.4651
G02 X192.4325 Y3.6036 I14.6645 J219.8782
G02 X168.7349 Y8.3728 I34.2106 J231.2478
G02 X115.7484 Y29.7153 I56.4936 J216.7008
G02 X82.6873 Y52.2717 I116.7752 J206.6655
G02 X77.7470 Y56.4094 I60.1373 J76.8200
G02 X76.2552 Y58.0088 I6.7960 J7.8344
G02 X75.5856 Y59.6519 I3.1963 J2.2605
G02 X76.0899 Y64.9518 I8.2274 J1.8911
G02 X80.6428 Y68.8208 I6.4824 J-3.0148
G02 X82.8574 Y69.2039 I2.3648 J-7.0776
G02 X85.8131 Y68.3320 I-0.1826 J-6.0643
G02 X88.7953 Y66.2765 I-11.9483 J-20.5263
G02 X91.1525 Y64.3312 I-50.2125 J-63.2452
G03 X109.2868 Y50.8542 I114.3927 J134.9848
G03 X160.7551 Y26.4065 I118.2940 J182.6370
G03 X179.3363 Y21.4685 I61.3975 J193.6042
G03 X203.3135 Y17.6885 I40.6906 J180.1714
G03 X223.6583 Y16.8775 I19.1856 J225.7015
G03 X249.9951 Y18.3343 I1.0538 J219.7497
G03 X261.0332 Y19.9796 I-22.1065 J186.1611
G00 Z20.0000


(No. 31: Engraving 29)
G00 X134.5550 Y145.4496 Z20.0000
G00 Z0.5000
G01 Z0.0000 F1000
G01 Z-34.0000
G02 X121.0313 Y145.6689 I1.5309 J511.6753 F1400
G02 X117.0284 Y145.9429 I0.4332 J35.7011
G01 X116.4760 Y146.0458
G02 X115.5988 Y146.5945 I0.3644 J1.5580
G02 X116.1337 Y153.0213 I3.0025 J2.9857
G01 X116.3703 Y153.1646
G02 X118.7236 Y153.2883 I2.8522 J-31.8073
G02 X143.5778 Y153.5791 I28.4958 J-1373.4851
G02 X177.6122 Y153.6985 I51.6659 J-9870.8612
G01 X186.0751 Y153.7137
G01 X195.0951 Y153.7261
G01 X204.6745 Y153.7356
G01 X214.8156 Y153.7422
G01 X225.5206 Y153.7460
G01 X333.4264 Y153.7699
G01 X334.4049 Y152.6426
G02 X334.2299 Y147.1213 I-2.9551 J-2.6698
G02 X332.6912 Y146.0985 I-2.9937 J2.8350
G02 X330.4104 Y145.8411 I-3.0264 J16.5805
G02 X318.1161 Y145.5317 I-13.8278 J305.0952
G02 X261.7250 Y145.3492 I-48.3109 J6213.8454
G01 X250.3442 Y145.3440
G01 X237.8170 Y145.3413
G01 X224.0879 Y145.3405
G01 X208.8003 Y145.3406
G01 X195.0371 Y145.3417
G01 X182.7170 Y145.3445
G01 X171.7589 Y145.3501
G02 X134.5518 Y145.4497 I-3.5435 J5626.0261
G00 Z20.0000


(No. 32: Engraving 31)
G00 X115.9431 Y310.9117 Z20.0000
G00 Z0.5000
G01 Z0.0000 F1000
G01 Z-34.0000
G01 X224.2281 F1400
G01 X237.8134 Y310.9108
G01 X250.2408 Y310.9078
G01 X261.5615 Y310.9024
G01 X271.8266 Y310.8941
G01 X281.0870 Y310.8826
G02 X322.0642 Y310.6763 I3.5760 J-3359.7266
G02 X331.2076 Y310.4259 I-2.0199 J-240.7645
G01 X332.3662 Y310.3458
G01 X333.1587 Y310.2611
G02 X334.3203 Y309.7218 I-0.1161 J-1.7707
G02 X335.7863 Y305.9797 I-3.3228 J-3.4599
G02 X335.6022 Y305.1921 I-2.9563 J0.2755
G01 X335.4507 Y304.6718
G01 X335.3652 Y304.3116
G01 X335.3192 Y304.2055
G01 X335.2613 Y304.1466
G01 X334.9308 Y303.9835
G01 X334.1332 Y303.7722
G01 X332.7973 Y303.5672
G01 X330.8554 Y303.3854
G02 X320.5256 Y302.9909 I-14.0894 J233.4742
G02 X292.6280 Y302.7225 I-32.3657 J1914.1399
G01 X282.4668 Y302.6811
G01 X270.8298 Y302.6438
G01 X257.6164 Y302.6073
G01 X242.7258 Y302.5686
G01 X226.0573 Y302.5245
G01 X217.2309 Y302.5012
G01 X208.5865 Y302.4796
G01 X200.1526 Y302.4597
G01 X191.9579 Y302.4416
G01 X184.0312 Y302.4253
G01 X176.4011 Y302.4108
G01 X169.0963 Y302.3982
G01 X162.1455 Y302.3874
G01 X155.5774 Y302.3786
G01 X149.4207 Y302.3717
G01 X143.7040 Y302.3668
G01 X138.4562 Y302.3639
G02 X116.9177 Y302.4126 I-6.8885 J1716.2665
G02 X115.5078 Y303.2762 I0.8944 J3.0428
G02 X113.6492 Y306.3611 I4.3765 J4.7392
G02 X114.1563 Y308.4924 I2.8540 J0.4469
G02 X115.0011 Y309.5202 I5.2592 J-3.4616
G01 X116.7104 Y311.2295
G00 Z20.0000
G00 X0.0000 Y0.0000

M05
M30
