(Project sws-oxford)
(Created by Estlcam version 11 build 11.244)
(Machining time about 00:10:01 hours)

(Required tools:)
(Thin ball nose)
G21
G90
G94
M03 S30000
G00 Z20.0000


(No. 1: Engraving 34)
G00 X109.4981 Y341.5454
G00 Z0.5000
G01 Z0.0000 F1000 S30000
G01 Z-34.0000
G02 X112.8766 Y340.5871 I-141.2348 J-504.3449 F1600
G02 X116.8068 Y338.5990 I-3.3995 J-11.5991
G02 X119.6523 Y333.7993 I-4.7260 J-6.0452
G02 X117.9221 Y324.5156 I-13.6597 J-2.2573
G02 X116.2177 Y322.5655 I-6.0730 J3.5882
G02 X113.1402 Y321.0973 I-6.2892 J9.2233
G02 X106.6477 Y320.3343 I-5.1649 J15.9436
G02 X103.9547 Y321.0901 I0.9612 J8.6009
G02 X99.4236 Y323.0650 I55.0936 J132.5835
G02 X99.4526 Y326.7526 I58.7926 J1.3825
G01 X99.4591 Y326.8232
G03 X103.4364 Y324.0699 I7.6955 J6.8669
G03 X111.6397 Y322.9815 I6.1623 J14.9878
G03 X115.4961 Y324.5751 I-0.8692 J7.5667
G03 X117.6245 Y327.8535 I-4.2733 J5.1043
G03 X117.9579 Y332.2230 I-9.5002 J2.9224
G03 X115.5524 Y336.0008 I-5.6794 J-0.9615
G03 X112.5303 Y337.4946 I-6.7233 J-9.7983
G03 X109.0064 Y338.4660 I-12.0217 J-36.7340
G02 X104.4189 Y340.1649 I5.0882 J20.7828
G02 X101.6670 Y342.3222 I3.7433 J7.6089
G02 X100.1287 Y345.9378 I6.1853 J4.7667
G02 X100.3549 Y352.1343 I15.7850 J2.5260
G02 X103.2051 Y356.8011 I8.4957 J-1.9849
G02 X107.3920 Y358.8480 I6.4752 J-7.9391
G02 X112.0748 Y358.8572 I2.3715 J-15.3344
G02 X118.3956 Y356.8812 I-2.1540 J-17.9878
G02 X118.7733 Y356.5796 I-0.3640 J-0.8433
G02 X118.9295 Y355.5316 I-2.3411 J-0.8846
G02 X118.9035 Y353.1799 I-27.0390 J-0.8765
G02 X117.4836 Y354.1863 I620.2278 J876.5246
G03 X108.4554 Y356.5290 I-8.1551 J-12.8607
G03 X105.1741 Y355.6651 I0.4231 J-8.2706
G03 X102.5626 Y353.0460 I3.2481 J-5.8503
G03 X103.3625 Y344.4567 I6.6670 J-3.7110
G03 X106.9554 Y342.2769 I5.1583 J4.4516
G03 X109.4974 Y341.5456 I101.5118 J348.0524
G00 Z20.0000


(No. 2: Engraving 35)
G00 X127.4510 Y349.2219 Z20.0000
G00 Z0.5000
G01 Z0.0000 F1000
G01 Z-34.0000
G03 X130.9171 Y330.1000 I1190.9510 J206.0013 F1600
G03 X131.4640 Y327.5065 I29.0474 J4.7701
G03 X133.4859 Y327.3056 I1.0566 J0.3595
G03 X134.0900 Y328.8758 I-6.5409 J3.4179
G03 X136.4349 Y337.9838 I-145.5263 J42.3227
G02 X138.6067 Y346.7732 I228.1138 J-51.7010
G02 X139.2159 Y348.5231 I10.0271 J-2.5097
G01 X139.2777 Y348.6245
G03 X140.0462 Y348.6327 I0.2845 J9.3593
G02 X140.8469 Y346.1698 I-14.1165 J-5.9509
G02 X143.7580 Y334.2577 I-1206.8059 J-301.2340
G03 X145.2321 Y328.9826 I61.9935 J14.4802
G03 X145.8571 Y327.6476 I4.3349 J1.2156
G03 X148.0198 Y328.0269 I0.9982 J0.6640
G03 X148.8165 Y331.9221 I-47.9670 J11.8394
G03 X151.5958 Y348.6209 I-733.1253 J130.6029
G01 X152.4384
G01 X152.7673 Y348.6307
G01 X152.7909 Y348.6279
G02 X152.2382 Y344.7006 I-33.6227 J2.7297
G02 X147.6681 Y320.8999 I-3766.5354 J710.8888
G02 X146.3146 Y320.8928 I-2.9919 J439.5648
G02 X145.7032 Y322.5118 I6.5077 J3.3824
G02 X143.5132 Y331.1153 I253.9120 J69.2111
G03 X141.1461 Y339.9284 I-121.3671 J-27.8738
G03 X140.5293 Y341.5832 I-12.9382 J-3.8798
G03 X139.5503 Y342.4451 I-1.2712 J-0.4570
G03 X138.2647 Y341.6435 I-0.1737 J-1.1532
G03 X136.5458 Y335.3383 I114.4334 J-34.5817
G03 X134.0831 Y325.4521 I2835.7599 J-711.6539
G02 X133.0925 Y321.9488 I-42.0949 J10.0120
G02 X132.6397 Y320.9478 I-3.7388 J1.0883
G01 X132.6114 Y320.9162
G01 X132.5519 Y320.9073
G01 X132.5623 Y320.9088
G02 X131.5075 Y321.0384 I-0.2959 J1.9487
G02 X131.3687 Y321.2271 I0.0726 J0.1988
G02 X127.9238 Y338.7145 I868.6998 J180.2112
G03 X125.9804 Y348.5618 I-686.8727 J-130.4396
G02 X128.4158 Y348.3328 I-12.0673 J-141.3782
G00 Z20.0000


(No. 3: Engraving 36)
G00 X169.5495 Y336.8989 Z20.0000
G00 Z0.5000
G01 Z0.0000 F1000
G01 Z-34.0000
G03 X172.7143 Y336.9481 I0.8415 J47.7672 F1600
G03 X174.3135 Y337.2605 I-0.0372 J4.4398
G03 X175.5787 Y339.1413 I-0.7525 J1.8721
G03 X175.3305 Y341.1314 I-7.9300 J0.0216
G03 X172.1904 Y346.1991 I-7.2264 J-0.9709
G03 X167.9501 Y347.2472 I-3.5545 J-5.2791
G03 X164.5240 Y346.1423 I0.3353 J-6.9039
G03 X161.9716 Y342.8308 I4.0051 J-5.7264
G03 X161.0289 Y338.5645 I14.9519 J-5.5411
G03 X161.2307 Y330.7665 I33.2751 J-3.0404
G03 X162.2584 Y327.1756 I13.9964 J2.0633
G03 X164.7868 Y324.0137 I6.9572 J2.9713
G03 X168.4562 Y322.6749 I4.5173 J6.6835
G03 X175.6913 Y324.3920 I1.3982 J10.2098
G01 X176.3768 Y324.8456
G02 X176.3325 Y322.7899 I-16.0741 J-0.6824
G02 X176.1770 Y322.2841 I-0.7783 J-0.0375
G02 X175.1567 Y321.6662 I-2.2779 J2.6103
G02 X167.7530 Y320.5706 I-5.2657 J10.0195
G02 X163.2415 Y322.7177 I1.7410 J9.4717
G02 X161.5339 Y325.1316 I6.7783 J6.6060
G02 X160.0006 Y328.5020 I18.5857 J10.4893
G02 X159.5271 Y332.0740 I12.4972 J3.4740
G02 X159.6071 Y338.8712 I77.9559 J2.4812
G02 X160.6433 Y342.6785 I10.0679 J-0.6954
G02 X162.8407 Y346.4022 I15.5428 J-6.6615
G02 X167.3622 Y348.9359 I5.3741 J-4.2891
G02 X170.5493 Y348.9618 I1.6703 J-9.4256
G02 X174.6568 Y346.2964 I-1.0209 J-6.0708
G02 X176.2289 Y342.6845 I-9.5630 J-6.3104
G02 X176.8425 Y338.6350 I-21.1592 J-5.2776
G01 X177.0438 Y335.5524
G01 X165.6526
G01 Y336.8989
G01 X169.5494
G00 Z20.0000


(No. 4: Engraving 37)
G00 X195.4148 Y335.5524 Z20.0000
G00 Z0.5000
G01 Z0.0000 F1000
G01 Z-34.0000
G01 X189.6826 F1600
G01 Y336.8989
G03 X196.2340 Y336.9224 I2.6061 J187.3389
G03 X197.9703 Y337.1314 I-0.0304 J7.5675
G03 X199.6087 Y339.1413 I-0.4117 J2.0083
G03 X199.3605 Y341.1314 I-7.9300 J0.0216
G03 X197.9414 Y344.6810 I-7.9186 J-1.1073
G03 X192.8595 Y347.2750 I-5.0642 J-3.6463
G03 X189.8505 Y346.7887 I-0.2039 J-8.2901
G03 X186.2932 Y343.4946 I2.2384 J-5.9852
G03 X185.1720 Y339.5238 I11.9471 J-5.5170
G03 X184.9427 Y334.6550 I33.4195 J-4.0141
G03 X185.2357 Y330.3533 I26.0427 J-0.3870
G03 X187.0095 Y326.1888 I10.6402 J2.0720
G03 X189.3505 Y323.6844 I8.6128 J5.7047
G03 X192.5825 Y322.6299 I3.7571 J6.0345
G03 X200.4067 Y324.8456 I0.9898 J11.4270
G02 X200.3625 Y322.7898 I-16.0740 J-0.6824
G02 X200.2070 Y322.2841 I-0.7783 J-0.0375
G02 X199.1867 Y321.6662 I-2.2779 J2.6103
G02 X192.7369 Y320.4239 I-5.2730 J10.0118
G02 X187.4629 Y322.5969 I1.0692 J10.0814
G02 X185.5531 Y325.1535 I6.0891 J6.5402
G02 X184.0263 Y328.4473 I17.6698 J10.1916
G02 X183.5564 Y332.0065 I12.2978 J3.4341
G02 X183.6366 Y338.8612 I79.7557 J2.4949
G02 X184.6727 Y342.6773 I10.0561 J-0.6815
G02 X186.8706 Y346.4022 I15.5480 J-6.6636
G02 X191.3922 Y348.9359 I5.3741 J-4.2891
G02 X194.5793 Y348.9618 I1.6703 J-9.4256
G02 X198.6868 Y346.2965 I-1.0209 J-6.0708
G02 X200.2589 Y342.6845 I-9.5630 J-6.3104
G02 X200.8725 Y338.6350 I-21.1592 J-5.2776
G01 X201.0738 Y335.5524
G01 X195.4148
G00 Z20.0000


(No. 5: Engraving 38)
G00 X210.3704 Y336.7909 Z20.0000
G00 Z0.5000
G01 Z0.0000 F1000
G01 Z-34.0000
G03 X210.5701 Y329.3891 I91.3309 J-1.2394 F1600
G03 X211.1163 Y326.0630 I15.7747 J0.8824
G03 X211.9573 Y324.1168 I11.6699 J3.8883
G03 X214.1632 Y322.8426 I2.1406 J1.1595
G03 X216.2486 Y322.9701 I-0.2116 J20.5837
G01 X217.9897 Y323.1374
G02 X217.9627 Y321.2522 I-18.6969 J-0.6750
G02 X217.9016 Y320.8989 I-1.4920 J0.0760
G02 X217.0307 Y320.6592 I-1.3951 J3.3668
G02 X214.2392 Y320.3583 I-2.5852 J10.8853
G02 X211.8755 Y321.3615 I0.2802 J3.9466
G02 X209.9854 Y323.8002 I3.1542 J4.3963
G02 X209.3483 Y326.7350 I11.9904 J4.1397
G02 X209.0436 Y333.0883 I71.3862 J6.6074
G03 X208.9838 Y342.1930 I-616.5236 J0.5059
G03 X208.7926 Y344.7982 I-17.5485 J0.0212
G03 X208.3106 Y346.0248 I-2.5236 J-0.2836
G03 X206.7319 Y346.6937 I-1.4569 J-1.2412
G01 X206.7176 Y346.7912
G01 X206.7198 Y346.7773
G02 X206.7319 Y348.6154 I8.8119 J0.8612
G03 X208.3496 Y349.2232 I0.1647 J2.0184
G03 X208.9411 Y350.8927 I-2.3014 J1.7550
G03 X209.0238 Y353.8076 I-33.8828 J2.4196
G01 Y356.8262
G01 X210.3704
G01 Y349.7059
G03 X211.4554 Y348.6209 I1.0850 J0.0000
G01 X217.9897
G01 Y346.6882
G01 X211.4554
G03 X210.3704 Y345.6032 I0.0000 J-1.0850
G01 Y336.7929
G00 Z20.0000


(No. 6: Engraving 39)
G00 X259.6026 Y339.7794 Z20.0000
G00 Z0.5000
G01 Z0.0000 F1000
G01 Z-34.0000
G01 Y320.8999 F1600
G01 X257.6699
G01 Y339.1561
G03 X256.5849 Y340.2411 I-1.0850 J0.0000
G01 X241.9324
G03 X240.8474 Y339.1561 I0.0000 J-1.0850
G01 Y320.8999
G01 X239.5009
G01 Y358.5845
G01 X240.8474
G01 Y343.8449
G03 X241.9324 Y342.7599 I1.0850 J0.0000
G01 X256.5509
G03 X257.6356 Y343.8221 I0.0000 J1.0850
G01 X257.7991 Y351.5879
G01 X257.9424 Y358.3891
G01 X259.0543 Y358.4963
G01 X259.6026 Y358.5492
G01 Y339.7794
G00 Z20.0000


(No. 7: Engraving 40)
G00 X269.5856 Y333.7236 Z20.0000
G00 Z0.5000
G01 Z0.0000 F1000
G01 Z-34.0000
G03 X270.2062 Y328.5285 I22.8075 J0.0898 F1600
G03 X271.5371 Y325.3202 I10.0892 J2.3050
G03 X278.0511 Y322.3667 I5.5262 J3.5282
G03 X281.2913 Y324.3138 I-1.0766 J5.4614
G03 X283.3517 Y328.2344 I-8.3680 J6.8992
G03 X284.1464 Y333.8213 I-21.1360 J5.8565
G03 X283.1524 Y341.6829 I-25.4887 J0.7707
G03 X281.9732 Y344.3723 I-10.6805 J-3.0795
G03 X280.2884 Y346.1093 I-4.3209 J-2.5056
G02 X279.9502 Y347.6166 I2.9269 J1.4484
G02 X279.9416 Y348.5395 I20.4329 J0.6521
G02 X283.0326 Y345.6872 I-3.8374 J-7.2596
G02 X285.5130 Y339.1766 I-14.3706 J-9.2026
G02 X285.7115 Y332.2537 I-24.0736 J-4.1545
G02 X284.8287 Y327.1526 I-25.9442 J1.8629
G02 X282.2083 Y322.7307 I-10.2508 J3.0871
G02 X280.4961 Y321.1483 I-7.4398 J6.3327
G02 X278.6487 Y320.6069 I-2.0255 J3.4886
G02 X274.0360 Y320.6668 I-2.0863 J16.9652
G02 X273.0764 Y321.1125 I0.4083 J2.1351
G02 X270.7534 Y323.6032 I5.5867 J7.5394
G02 X268.4367 Y328.6254 I14.0512 J9.5271
G02 X268.0113 Y332.8624 I20.7709 J4.2254
G02 X268.0867 Y338.9893 I66.8997 J2.2405
G02 X269.1729 Y342.8344 I9.8153 J-0.6968
G02 X273.4098 Y348.4523 I13.9141 J-6.0871
G02 X274.2126 Y348.9796 I3.0320 J-3.7412
G02 X274.0875 Y346.9472 I-4.9229 J-0.7171
G02 X273.0733 Y345.6278 I-3.0121 J1.2659
G03 X270.2887 Y341.3569 I5.1691 J-6.4135
G03 X269.5981 Y336.3323 I19.5359 J-5.2447
G03 X269.5849 Y333.7521 I45.5968 J-1.5242
G00 Z20.0000


(No. 8: Engraving 41)
G00 X308.1424 Y319.8317 Z20.0000
G00 Z0.5000
G01 Z0.0000 F1000
G01 Z-34.0000
G03 X307.8606 Y336.7703 I-1384.6389 J-14.5634 F1600
G03 X307.5634 Y342.0823 I-53.5584 J-0.3326
G03 X307.0756 Y344.0564 I-6.6735 J-0.6015
G03 X303.1228 Y346.6885 I-4.2577 J-2.1099
G03 X299.5310 Y345.8250 I-0.3371 J-6.5000
G03 X297.8058 Y344.6087 I4.6378 J-8.4100
G01 X295.7236 Y342.7805
G03 X295.3545 Y341.9652 I0.7159 J-0.8153
G01 Y320.8999
G01 X294.0079
G01 Y334.7604
G01 Y348.6209
G02 X295.3135 Y348.5948 I0.4598 J-9.6807
G01 X295.3393 Y348.5826
G01 X295.3411 Y348.5678
G01 X295.3391 Y348.5843
G02 X295.3579 Y346.5502 I-29.3520 J-1.2886
G03 X297.0975 Y345.7736 I1.0816 J0.0860
G02 X299.5490 Y347.6265 I21.1440 J-25.4265
G02 X303.5245 Y349.0919 I5.0237 J-7.5034
G02 X305.1570 Y349.0293 I0.6644 J-3.9923
G02 X306.5434 Y348.1842 I-1.5000 J-4.0202
G02 X308.2445 Y346.2917 I-3.8209 J-5.1453
G03 X310.1671 Y345.1029 I1.3347 J0.0094
G03 X311.9430 Y346.3311 I-3.0679 J6.3338
G02 X314.9813 Y348.4528 I9.1254 J-9.8316
G02 X318.0782 Y349.2372 I3.1502 J-5.9320
G02 X321.7728 Y347.2389 I-0.0567 J-4.5195
G02 X323.2680 Y343.6799 I-8.0817 J-5.4888
G02 X323.6850 Y339.2259 I-26.6073 J-4.7378
G02 X323.7741 Y331.5358 I-250.2853 J-6.7444
G01 X323.7796 Y321.0933
G01 X322.8562 Y321.0043
G01 X322.1405 Y320.9353
G03 X322.1120 Y334.9158 I-665.8838 J5.6308
G03 X321.7936 Y341.8621 I-78.1546 J-0.1024
G03 X321.4455 Y343.7594 I-8.7185 J-0.6187
G03 X317.1494 Y346.6425 I-4.1699 J-1.5711
G03 X313.2364 Y345.4833 I0.1400 J-7.6561
G03 X311.6220 Y344.3396 I5.9305 J-10.0836
G01 X309.8072 Y342.8126
G03 X309.4208 Y341.9824 I0.6986 J-0.8302
G01 Y320.8999
G01 X307.0575
G00 Z20.0000


(No. 9: Engraving 42)
G00 X348.0092 Y324.3956 Z20.0000
G00 Z0.5000
G01 Z0.0000 F1000
G01 Z-34.0000
G01 X348.6893 Y324.8456 F1600
G02 X348.6451 Y322.7898 I-16.0742 J-0.6824
G02 X348.4896 Y322.2841 I-0.7783 J-0.0375
G02 X347.4693 Y321.6662 I-2.2778 J2.6103
G02 X341.0195 Y320.4239 I-5.2730 J10.0118
G02 X335.7454 Y322.5970 I1.0694 J10.0821
G02 X333.8358 Y325.1540 I6.0886 J6.5385
G02 X332.3085 Y328.4487 I17.6937 J10.2034
G02 X331.8422 Y332.0047 I12.2430 J3.4139
G02 X331.9300 Y338.8562 I79.5854 J2.4074
G02 X332.9648 Y342.6811 I10.1676 J-0.6985
G02 X335.1507 Y346.3944 I15.4249 J-6.5800
G02 X339.6800 Y348.9491 I5.4338 J-4.3413
G02 X342.8498 Y348.9913 I1.7075 J-9.1980
G02 X346.9612 Y346.3281 I-1.0277 J-6.0918
G02 X348.5427 Y342.7292 I-9.4962 J-6.3198
G02 X349.1547 Y338.7152 I-20.5518 J-5.1874
G01 X349.3577 Y335.5524
G01 X337.9652
G01 Y336.8989
G03 X344.2994 Y336.9122 I2.5118 J312.7025
G03 X346.2153 Y337.0595 I0.1352 J10.7762
G03 X347.5424 Y337.8128 I-0.2872 J2.0517
G03 X347.9279 Y339.2408 I-1.9588 J1.2948
G03 X347.2476 Y342.7319 I-9.3621 J-0.0123
G03 X345.3890 Y345.8370 I-8.6890 J-3.0922
G03 X343.2206 Y347.0430 I-3.3225 J-3.4217
G03 X335.3456 Y344.2415 I-2.0353 J-6.7480
G03 X333.5687 Y339.9792 I10.4788 J-6.8700
G03 X334.1192 Y328.6929 I21.2216 J-4.6214
G03 X335.6759 Y325.5640 I11.2824 J3.6618
G03 X339.8132 Y322.8077 I5.4127 J3.6415
G03 X346.5737 Y323.6026 I2.1564 J10.8076
G03 X347.9842 Y324.3795 I-4.1919 J9.2791
G00 Z20.0000


(No. 10: Engraving 33)
G00 X278.3467 Y389.6477 Z20.0000
G00 Z0.5000
G01 Z0.0000 F1000
G01 Z-34.0000
G01 X283.6978 F1600
G03 X284.7760 Y390.8542 I0.0000 J1.0850
G01 X284.4691 Y393.5770
G03 X282.9112 Y398.0562 I-9.6180 J-0.8347
G03 X277.8073 Y401.0276 I-5.4424 J-3.4791
G03 X273.0768 Y399.6473 I-0.2054 J-8.0921
G03 X269.8735 Y395.2995 I4.4891 J-6.6614
G03 X269.0777 Y390.8361 I18.2717 J-5.5607
G03 X269.3357 Y383.2498 I35.8001 J-2.5802
G03 X270.3950 Y379.4518 I15.3484 J2.2345
G03 X272.9666 Y376.0647 I7.6807 J3.1616
G03 X277.6019 Y374.4405 I5.0077 J6.8651
G03 X281.2008 Y374.6588 I1.0283 J12.8250
G03 X284.5615 Y376.1178 I-2.6068 J10.6044
G01 X284.8874 Y376.3211
G01 X285.9769 Y377.0121
G02 X285.9566 Y374.6690 I-41.9680 J-0.8071
G02 X285.8380 Y373.9701 I-1.7494 J-0.0627
G02 X285.3998 Y373.6172 I-0.8669 J0.6281
G02 X282.0418 Y372.3563 I-6.7246 J12.8061
G02 X275.3496 Y372.1509 I-3.8900 J17.6188
G02 X271.8161 Y373.9025 I0.9900 J6.4370
G02 X268.2173 Y378.8006 I9.5516 J10.7891
G02 X267.6870 Y381.0731 I7.9632 J3.0564
G02 X267.3609 Y389.0160 I57.6011 J6.3426
G02 X267.5940 Y393.1567 I32.7831 J0.2313
G02 X268.5991 Y396.4248 I11.0756 J-1.6176
G02 X270.7724 Y400.0941 I14.9415 J-6.3714
G02 X274.6575 Y402.7616 I5.9646 J-4.5242
G02 X279.8179 Y402.8556 I2.7702 J-10.3835
G02 X284.1334 Y399.6449 I-1.7686 J-6.8826
G02 X285.6783 Y395.7161 I-10.7121 J-6.4804
G02 X286.1599 Y391.4823 I-21.4469 J-4.5842
G01 X286.2442 Y387.9829
G01 X280.1504 Y387.8432
G01 X274.0806 Y387.7041
G01 Y389.6477
G01 X278.3467
G00 Z20.0000


(No. 11: Engraving 32)
G00 X243.1918 Y383.3544 Z20.0000
G00 Z0.5000
G01 Z0.0000 F1000
G01 Z-34.0000
G01 Y372.4765 F1600
G01 X241.2592
G03 X241.2343 Y388.3714 I-1014.5911 J6.3626
G03 X240.9881 Y394.5765 I-78.8095 J-0.0195
G03 X240.5292 Y397.0490 I-10.1373 J-0.6029
G03 X237.9575 Y399.9485 I-4.7204 J-1.5965
G03 X234.2941 Y400.1162 I-2.0653 J-5.0180
G03 X230.7606 Y398.3919 I3.6833 J-12.0305
G03 X228.3274 Y396.6068 I19.1393 J-28.6378
G03 X227.9533 Y395.7871 I0.7109 J-0.8196
G01 Y372.4765
G01 X226.0206
G01 Y387.5092
G01 Y402.5418
G02 X227.8403 Y402.5189 I0.6651 J-19.4779
G01 X227.9300 Y402.5050
G01 X227.9319 Y402.4901
G01 X227.9296 Y402.5080
G02 X227.9570 Y399.8011 I-45.6072 J-1.8163
G03 X229.7784 Y399.0975 I1.0813 J0.0899
G02 X232.2903 Y401.3906 I29.8924 J-30.2226
G02 X234.8465 Y402.8720 I4.9193 J-5.5426
G02 X240.9437 Y401.3398 I1.7639 J-5.8785
G02 X241.8726 Y399.9117 I-5.2626 J-4.4394
G03 X242.7144 Y398.9557 I2.0945 J0.9955
G03 X244.4420 Y399.1291 I0.7309 J1.4106
G03 X245.7952 Y400.2980 I-22.6530 J27.5934
G02 X250.8422 Y402.9197 I8.0522 J-9.3323
G02 X254.2202 Y402.8960 I1.6460 J-6.1542
G02 X255.4531 Y402.2524 I-0.8216 J-3.0761
G02 X257.8313 Y398.2785 I-6.7609 J-6.7447
G02 X258.2650 Y394.9186 I-16.5377 J-3.8430
G02 X258.4175 Y384.4307 I-237.6534 J-8.6996
G01 X258.4293 Y372.4765
G01 X257.1972
G03 X256.8785 Y388.8364 I-1169.3156 J-14.5936
G03 X256.5078 Y395.0028 I-65.9742 J-0.8723
G03 X255.9205 Y397.3329 I-7.4543 J-0.6399
G03 X253.0794 Y400.0452 I-4.9449 J-2.3357
G03 X249.4014 Y400.0619 I-1.8624 J-5.1450
G03 X246.0254 Y398.1873 I3.9370 J-11.0674
G03 X243.5199 Y396.0946 I24.2922 J-31.6306
G03 X243.1918 Y395.3173 I0.7570 J-0.7773
G01 Y383.3544
G00 Z20.0000


(No. 12: Engraving 31)
G00 X200.6234 Y380.5548 Z20.0000
G00 Z0.5000
G01 Z0.0000 F1000
G01 Z-34.0000
G03 X202.3483 Y376.7004 I9.8195 J2.0812 F1600
G03 X208.6407 Y374.0738 I5.3995 J4.0846
G03 X212.7849 Y376.5578 I-1.1718 J6.6539
G03 X215.1095 Y382.1406 I-8.9024 J6.9823
G03 X215.2131 Y392.3009 I-45.0900 J5.5403
G03 X214.6775 Y394.8575 I-10.1326 J-0.7883
G03 X211.8592 Y399.1737 I-13.0131 J-5.4187
G02 X210.7836 Y402.1998 I2.8982 J2.7343
G02 X210.8291 Y402.8826 I6.1782 J-0.0686
G01 X211.0397 Y402.7598
G01 X211.0284 Y402.7663
G02 X213.8318 Y400.0863 I-7.1940 J-10.3315
G02 X216.5320 Y395.2565 I-14.9750 J-11.5420
G02 X217.0383 Y392.0380 I-9.9378 J-3.2124
G02 X216.9785 Y383.1188 I-139.2459 J-3.5263
G02 X216.5460 Y379.5527 I-20.9611 J0.7330
G02 X214.3829 Y375.2173 I-9.8172 J2.1909
G02 X212.4767 Y373.1771 I-9.8075 J7.2527
G02 X206.0805 Y371.6232 I-4.7889 J5.7709
G02 X202.4172 Y373.5281 I1.1581 J6.7018
G02 X198.6949 Y379.4833 I10.3164 J10.5891
G02 X198.2449 Y383.3129 I16.0121 J3.8228
G02 X198.2479 Y391.9536 I172.2143 J4.2605
G02 X198.7626 Y395.2064 I10.9117 J-0.0594
G02 X201.5326 Y400.3202 I19.3138 J-7.1543
G02 X203.9490 Y402.4636 I5.9941 J-4.3238
G02 X205.0374 Y403.0119 I2.6518 J-3.9100
G02 X204.9147 Y400.8820 I-4.6242 J-0.8021
G02 X203.8886 Y399.5192 I-3.6243 J1.6611
G03 X202.2976 Y397.9119 I7.8342 J-9.3458
G03 X200.3187 Y393.5193 I8.1576 J-6.3171
G03 X199.8727 Y388.1029 I25.3245 J-4.8121
G03 X200.4634 Y381.2639 I37.1672 J-0.2347
G01 X200.6127 Y380.5985
G00 Z20.0000


(No. 13: Engraving 30)
G00 X166.8248 Y371.3915 Z20.0000
G00 Z0.5000
G01 Z0.0000 F1000
G01 Z-34.0000
G01 Y413.0916 F1600
G01 X168.7575
G01 Y397.1798
G03 X169.8425 Y396.0948 I1.0850 J0.0000
G01 X185.6671
G03 X186.7521 Y397.1798 I0.0000 J1.0850
G01 Y413.0916
G01 X188.6848
G01 Y372.4765
G01 X186.7521
G01 Y392.4910
G03 X185.6671 Y393.5760 I-1.0850 J0.0000
G01 X169.8425
G03 X168.7575 Y392.4910 I0.0000 J-1.0850
G01 Y372.4765
G01 X165.7398
G00 Z20.0000


(No. 14: Engraving 43)
G00 X94.3111 Y272.3786 Z20.0000
G00 Z0.5000
G01 Z0.0000 F1000
G01 Z-34.0000
G01 X94.4636 Y246.1288 F1600
G01 X94.6162 Y219.8790
G03 X95.6726 Y218.8007 I1.0850 J0.0063
G01 X107.2173 Y218.4959
G01 Y211.8858
G01 X95.4081
G03 X94.3231 Y210.8008 I0.0000 J-1.0850
G01 Y187.8559
G01 X85.9354
G02 X85.9276 Y234.6773 I2916.2021 J23.8981
G03 X85.8704 Y257.1025 I-823.2082 J9.1115
G03 X85.7351 Y258.5903 I-6.1614 J0.1900
G03 X83.9717 Y259.0817 I-1.0381 J-0.3156
G01 X83.6403 Y258.7838
G03 X76.7332 Y251.0125 I243.7906 J-223.6355
G03 X53.4827 Y223.7895 I1360.6949 J-1185.6729
G01 X52.3946 Y222.4589
G03 X51.3074 Y221.0125 I7.6307 J-6.8672
G03 X51.2932 Y219.7210 I1.1618 J-0.6586
G03 X52.2491 Y218.9702 I1.3195 J0.6961
G03 X53.8072 Y218.7037 I1.8972 J6.4056
G03 X61.3531 Y218.5166 I6.5096 J110.2991
G03 X79.6707 Y218.5073 I10.9507 J3512.6162
G01 Y211.8858
G01 X44.9166
G01 Y223.7392
G01 X65.2173 Y247.3878
G01 X85.4687 Y270.9790
G01 X90.2113 Y271.1320
G01 X95.4310 Y271.3004
G00 Z20.0000


(No. 15: Engraving 44)
G00 X134.3248 Y249.0659 Z20.0000
G00 Z0.5000
G01 Z0.0000 F1000
G01 Z-34.0000
G03 X137.9808 Y243.5311 I12.8222 J4.4949 F1600
G03 X143.5722 Y239.5721 I18.4402 J20.1153
G03 X151.5488 Y236.0368 I28.2197 J52.9060
G03 X155.7093 Y234.6138 I84.3625 J239.8555
G02 X163.9148 Y231.1350 I-37.4895 J-99.8444
G02 X171.9825 Y226.6562 I-21.8866 J-48.9298
G02 X176.6101 Y222.4829 I-12.3139 J-18.3067
G02 X180.0977 Y214.4261 I-12.6205 J-10.2464
G02 X178.7867 Y201.9488 I-23.4637 J-3.8422
G02 X170.5374 Y191.5995 I-21.7290 J8.8575
G02 X159.7266 Y186.7888 I-17.6900 J25.2009
G02 X154.2162 Y186.2145 I-6.9470 J39.9381
G02 X143.6149 Y186.5793 I-3.1304 J63.2579
G02 X139.1219 Y187.6924 I2.7191 J20.5989
G02 X127.9487 Y194.8424 I8.7400 J25.9632
G02 X123.5966 Y201.9522 I14.6647 J13.8635
G02 X122.6487 Y214.8441 I25.5457 J8.3591
G02 X124.4453 Y219.7288 I15.6958 J-3.0002
G02 X129.1597 Y226.0691 I23.1265 J-12.2730
G02 X132.0380 Y228.4538 I28.1165 J-31.0073
G02 X137.7404 Y226.3505 I-43.0410 J-125.4748
G02 X136.2793 Y224.5976 I-29.5263 J23.1257
G03 X131.6293 Y212.1874 I15.3897 J-12.8426
G03 X132.4671 Y205.0996 I21.5605 J-1.0449
G03 X137.2718 Y197.6588 I15.7827 J4.9196
G03 X141.6352 Y194.4090 I14.7328 J15.2270
G03 X148.0481 Y192.5952 I7.5670 J14.5098
G03 X154.3300 Y192.4643 I4.4052 J60.6417
G03 X158.0486 Y192.9474 I-0.0128 J14.6523
G03 X161.6322 Y194.4510 I-6.5035 J20.5220
G03 X166.6816 Y197.9749 I-7.6583 J16.3534
G03 X170.7070 Y206.5730 I-10.2458 J10.0382
G03 X170.2118 Y214.5114 I-22.0085 J2.6117
G03 X166.3240 Y220.6454 I-11.8165 J-3.1904
G03 X159.5527 Y224.8979 I-17.5209 J-20.3813
G03 X148.7302 Y229.3316 I-93.9911 J-214.0022
G02 X141.0197 Y232.3437 I561.6959 J1449.2275
G02 X133.3885 Y236.2184 I17.1668 J43.2619
G02 X128.9383 Y239.7571 I13.1590 J21.1163
G02 X125.1434 Y246.0718 I10.1764 J10.4134
G02 X124.6316 Y250.7722 I18.0870 J4.3472
G02 X125.6386 Y258.2259 I26.8372 J0.1693
G02 X126.2491 Y259.8283 I10.0615 J-2.9160
G01 X127.6923 Y262.2918
G01 X129.4562 Y264.4868
G01 X131.5216 Y266.4360
G01 X133.8553 Y268.1378
G01 X136.4222 Y269.5893
G01 X139.1856 Y270.7871
G01 X142.1071 Y271.7282
G01 X145.1478 Y272.4098
G01 X148.2680 Y272.8303
G01 X151.4280 Y272.9884
G01 X154.5878 Y272.8835
G01 X157.7075 Y272.5155
G01 X160.7473 Y271.8852
G01 X163.6675 Y270.9938
G01 X166.4291 Y269.8432
G01 X168.9940 Y268.4361
G01 X171.3253 Y266.7753
G01 X173.3882 Y264.8633
G01 X175.1500 Y262.7009
G01 X176.5987 Y260.2528
G02 X177.7646 Y255.7597 I-9.1724 J-4.7780
G02 X177.7674 Y248.8460 I-78.4800 J-3.4885
G02 X176.6983 Y245.0501 I-8.6471 J0.3868
G02 X171.8284 Y238.1113 I-25.7688 J12.9074
G02 X169.0561 Y235.4961 I-52.9547 J53.3574
G03 X163.4839 Y237.7724 I-40.0515 J-90.0838
G03 X165.8638 Y240.7530 I-16.0722 J15.2731
G03 X168.8891 Y249.4518 I-16.5834 J10.6430
G03 X168.7660 Y255.2763 I-18.9988 J2.5118
G03 X165.2501 Y261.6541 I-11.6288 J-2.2526
G03 X158.6738 Y265.6629 I-11.8843 J-12.0974
G03 X153.2258 Y266.5499 I-6.2173 J-21.0114
G03 X147.5599 Y266.5185 I-2.5696 J-47.5002
G03 X143.0981 Y265.3161 I1.0070 J-12.6170
G03 X138.5700 Y262.7351 I8.6586 J-20.4527
G03 X134.5432 Y257.6532 I7.2716 J-9.8983
G03 X133.8319 Y251.1779 I11.5125 J-4.5413
G01 X134.0378 Y250.0804
G01 X134.2912 Y249.1697
G00 Z20.0000


(No. 16: Engraving 45)
G00 X226.5313 Y229.1713 Z20.0000
G00 Z0.5000
G01 Z0.0000 F1000
G01 Z-34.0000
G01 X224.5599 Y229.3024 F1600
G01 X218.9875 Y229.5886
G01 Y236.5677
G01 X223.3994 Y236.8344
G03 X231.3445 Y238.1444 I-1.5125 J33.9208
G03 X236.2068 Y240.3498 I-5.2100 J17.9495
G03 X241.6345 Y247.9978 I-6.7033 J10.5073
G03 X241.7515 Y255.5632 I-17.3667 J4.0523
G03 X238.2273 Y261.1372 I-9.3855 J-2.0329
G03 X234.5058 Y263.3717 I-12.0459 J-15.8464
G03 X231.2265 Y264.5697 I-6.2721 J-12.0809
G03 X227.0022 Y264.8947 I-3.8037 J-21.8260
G03 X220.3904 Y264.7827 I-1.6600 J-97.1785
G03 X214.3120 Y263.5726 I1.5490 J-23.6529
G03 X204.0663 Y259.4712 I21.6466 J-68.9219
G03 X201.9906 Y258.3012 I25.2187 J-47.1692
G01 Y267.9627
G02 X213.5886 Y271.4616 I22.7109 J-54.3092
G02 X225.3835 Y272.8098 I13.3181 J-64.2444
G02 X231.9166 Y272.3152 I0.3413 J-38.8839
G02 X238.9241 Y270.5943 I-4.9373 J-35.2321
G02 X245.2524 Y267.1067 I-6.9567 J-20.1084
G02 X250.5818 Y259.7960 I-11.0287 J-13.6377
G02 X251.6009 Y253.1244 I-19.1297 J-6.3357
G02 X250.6843 Y247.4407 I-17.3057 J-0.1249
G02 X247.8248 Y242.7888 I-15.4665 J6.3025
G02 X239.4492 Y236.4537 I-18.2171 J15.3803
G02 X237.1533 Y235.6153 I-16.6013 J41.9013
G03 X235.7568 Y234.9001 I1.5442 J-4.7363
G03 X235.0904 Y233.5513 I0.8094 J-1.2389
G03 X235.9145 Y232.3656 I1.4586 J0.1346
G03 X237.3866 Y231.8572 I2.2704 J4.1884
G02 X243.7170 Y229.3955 I-3.4673 J-18.2868
G02 X250.2449 Y223.7762 I-11.8853 J-20.4084
G02 X252.5984 Y218.8752 I-9.5609 J-7.6068
G02 X253.1484 Y208.1459 I-27.7208 J-6.7999
G02 X248.1195 Y196.3687 I-24.7138 J3.5906
G02 X239.1292 Y189.2139 I-20.2236 J16.1860
G02 X234.1409 Y187.2763 I-13.2497 J26.7200
G02 X229.5156 Y186.6034 I-7.1274 J32.7611
G02 X216.1088 Y186.5915 I-6.7760 J82.0085
G02 X210.6587 Y187.5382 I3.4379 J35.9535
G02 X204.0041 Y189.4116 I19.8068 J83.1122
G01 X199.9178 Y190.7821
G02 X199.7454 Y197.8952 I180.6960 J7.9396
G02 X199.8260 Y200.5337 I34.2900 J0.2721
G02 X203.1299 Y198.8560 I-42.7990 J-88.3769
G03 X213.0010 Y195.0802 I27.5760 J57.3016
G03 X218.5523 Y194.3153 I6.1730 J24.2726
G03 X227.8142 Y194.3020 I4.8281 J137.7775
G03 X231.8388 Y195.0181 I-0.3230 J13.4837
G03 X237.3403 Y198.1967 I-5.6264 J16.0879
G03 X242.2328 Y203.8882 I-13.5068 J16.5595
G03 X243.5008 Y207.7917 I-9.3310 J5.1886
G03 X243.7160 Y215.7133 I-35.0245 J4.9152
G03 X242.4258 Y220.9667 I-16.7068 J-1.3179
G03 X237.2663 Y226.4978 I-10.4998 J-4.6223
G03 X231.8269 Y228.4227 I-9.3102 J-17.6615
G03 X226.5680 Y229.1683 I-8.5871 J-41.6486
G00 Z20.0000


(No. 17: Engraving 46)
G00 X302.9188 Y226.6774 Z20.0000
G00 Z0.5000
G01 Z0.0000 F1000
G01 Z-34.0000
G01 X304.3657 Y229.3293 F1600
G01 X321.9554 Y261.5646
G03 X321.0098 Y263.1693 I-0.9524 J0.5197
G01 X296.7131 Y263.3223
G01 X273.4945 Y263.4684
G01 Y271.2613
G01 X301.5622 Y271.1150
G01 X329.6705 Y270.9685
G01 X329.8095 Y265.9320
G01 X329.9695 Y260.1325
G01 X310.6503 Y223.8331
G01 X291.5026 Y187.8559
G01 X281.7707
G02 X293.4264 Y209.2741 I7660.9255 J-4155.1582
G01 X294.6765 Y211.5668
G01 X295.9710 Y213.9405
G01 X297.3043 Y216.3853
G01 X298.6712 Y218.8913
G01 X300.0661 Y221.4486
G01 X301.4838 Y224.0472
G01 X302.9188 Y226.6775
G00 Z20.0000


(No. 18: Engraving 47)
G00 X373.1310 Y224.2811 Z20.0000
G00 Z0.5000
G01 Z0.0000 F1000
G01 Z-34.0000
G01 Y252.9998 F1600
G03 X372.0460 Y254.0848 I-1.0850 J0.0000
G01 X355.5481
G01 Y259.4523
G03 X361.6721 Y260.0412 I-4.0577 J74.3322
G03 X366.6451 Y261.0958 I-3.5085 J28.7959
G03 X373.9198 Y267.2623 I-4.5659 J12.7608
G03 X374.8892 Y270.8171 I-6.6222 J3.7155
G01 X374.8902 Y271.0403
G01 X374.8936 Y271.1481
G01 X375.0094 Y271.1685
G01 X374.9982 Y271.1666
G02 X378.4933 Y271.2561 I2.5633 J-31.8148
G01 X382.0969
G01 Y195.5623
G03 X383.1819 Y194.4773 I1.0850 J0.0000
G01 X399.0937
G01 Y187.8559
G01 X355.5481
G01 Y191.1766
G01 Y194.4723
G01 X372.0460 Y194.4773
G03 X373.1310 Y195.5623 I0.0000 J1.0850
G01 Y224.2811
G00 Z20.0000


(No. 19: Engraving 56)
G00 X327.4155 Y72.4819 Z20.0000
G00 Z0.5000
G01 Z0.0000 F1000
G01 Z-34.0000
G01 Y121.8013 F1600
G01 X331.1064
G01 Y73.5669
G01 X326.3305
G00 Z20.0000


(No. 20: Engraving 55)
G00 X301.8131 Y87.0006 Z20.0000
G00 Z0.5000
G01 Z0.0000 F1000
G01 Z-34.0000
G02 X302.2628 Y96.1068 I35.0807 J2.8319 F1600
G02 X305.8359 Y103.3524 I14.7204 J-2.7554
G02 X309.4017 Y106.5439 I11.8826 J-9.6882
G02 X315.2012 Y108.2805 I6.2773 J-10.4118
G02 X319.9372 Y108.2013 I1.7744 J-35.5845
G02 X320.8275 Y107.9746 I-0.1904 J-2.6081
G02 X321.0733 Y107.5122 I-0.3245 J-0.4690
G02 X321.1428 Y105.0044 I-16.7314 J-1.7185
G01 X319.6361 Y105.1242
G03 X314.6424 Y104.8251 I-1.5251 J-16.3735
G03 X307.3062 Y98.9040 I2.1208 J-10.1329
G03 X305.9305 Y94.0670 I15.2609 J-6.9547
G03 X306.1377 Y85.0231 I28.8037 J-3.8644
G03 X307.9028 Y80.1251 I14.6472 J2.5113
G03 X310.9778 Y77.2443 I6.1775 J3.5125
G03 X315.3919 Y76.2452 I4.6997 J10.5135
G03 X320.0801 Y76.8979 I0.5829 J12.9770
G01 X321.1428 Y77.2668
G02 X321.1149 Y75.0781 I-26.5437 J-0.7569
G02 X320.9820 Y74.4101 I-1.4250 J-0.0638
G02 X320.5178 Y74.0760 I-0.8210 J0.6512
G02 X315.5758 Y72.7903 I-6.2127 J13.7402
G02 X311.8569 Y72.8362 I-1.6973 J13.1737
G02 X304.5746 Y77.9757 I2.4167 J11.1533
G02 X302.4288 Y83.1571 I14.7040 J9.1245
G02 X301.8088 Y87.0518 I25.0706 J5.9879
G00 Z20.0000


(No. 21: Engraving 54)
G00 X279.5297 Y90.7797 Z20.0000
G00 Z0.5000
G01 Z0.0000 F1000
G01 Z-34.0000
G03 X279.5299 Y85.2848 I2655.6016 J-2.6466 F1600
G01 Y73.5669
G01 X275.8389
G01 Y107.7349
G01 X279.5299
G01 Y103.4652
G03 X281.2398 Y102.5783 I1.0850 J0.0000
G02 X284.8059 Y104.9596 I22.5276 J-29.8759
G02 X291.3108 Y107.4368 I10.3781 J-17.4727
G02 X295.2451 Y107.4195 I1.9269 J-9.1741
G02 X295.8234 Y107.2415 I-0.3715 J-2.2358
G02 X295.9363 Y106.0174 I-4.5475 J-1.0365
G02 X295.9406 Y103.5673 I-204.2509 J-1.5827
G03 X290.4954 Y103.6090 I-3.4510 J-95.1016
G03 X286.7655 Y103.0488 I-0.0378 J-12.4462
G03 X284.1065 Y101.8545 I5.7098 J-16.2696
G03 X281.7794 Y100.5283 I6.5733 J-14.2389
G03 X280.0392 Y97.9403 I2.7672 J-3.7396
G03 X279.6049 Y94.6380 I14.3301 J-3.5645
G03 X279.5297 Y90.7861 I100.8287 J-3.8948
G00 Z20.0000


(No. 22: Engraving 53)
G00 X259.9729 Y89.9642 Z20.0000
G00 Z0.5000
G01 Z0.0000 F1000
G01 Z-34.0000
G03 X259.2001 Y96.7651 I-26.8685 J0.3912 F1600
G03 X254.6484 Y103.7392 I-14.1365 J-4.2540
G03 X252.1300 Y105.0328 I-3.9201 J-4.5333
G02 X251.9617 Y105.1047 I0.2011 J0.7038
G02 X251.8353 Y105.8141 I1.7885 J0.6846
G02 X251.8089 Y108.2291 I38.3461 J1.6272
G02 X258.2439 Y105.0376 I-2.1856 J-12.4902
G02 X263.5017 Y94.5374 I-10.9650 J-12.0570
G02 X262.9185 Y83.9679 I-34.0415 J-3.4225
G02 X261.8274 Y80.7493 I-13.3668 J2.7371
G02 X255.8388 Y74.4148 I-14.1600 J7.3889
G02 X253.1232 Y73.3558 I-5.4350 J9.9252
G02 X251.8699 Y73.0747 I-2.0552 J6.2302
G01 X251.8550 Y73.1801
G01 X251.8568 Y73.1672
G02 X251.9305 Y75.8819 I11.3612 J1.0498
G02 X252.3362 Y76.3618 I0.7067 J-0.1860
G02 X253.4229 Y76.9219 I5.2588 J-8.8687
G03 X257.5115 Y80.6509 I-4.4867 J9.0254
G03 X259.4347 Y85.4038 I-13.2724 J8.1361
G03 X259.9720 Y89.9114 I-21.1815 J4.8105
G00 Z20.0000


(No. 23: Engraving 52)
G00 X236.8287 Y91.3583 Z20.0000
G00 Z0.5000
G01 Z0.0000 F1000
G01 Z-34.0000
G03 X237.6697 Y83.9902 I26.7594 J-0.6777 F1600
G03 X240.3250 Y79.1307 I10.9056 J2.8037
G03 X244.0741 Y76.5815 I8.4923 J8.4580
G02 X245.7722 Y75.6311 I-3.3125 J-7.9111
G02 X246.0855 Y75.0067 I-0.4492 J-0.6162
G02 X246.0876 Y73.0122 I-14.4885 J-1.0130
G01 X246.0678 Y73.0015
G01 X246.0859 Y73.0038
G02 X243.5168 Y73.3044 I-0.5350 J6.5553
G02 X239.6266 Y75.2442 I2.4618 J9.8080
G02 X234.9554 Y80.4233 I10.0412 J13.7526
G02 X233.2655 Y86.3030 I13.2381 J6.9875
G02 X233.2801 Y93.8328 I45.5036 J3.6766
G02 X234.4361 Y99.6245 I21.7179 J-1.3235
G02 X240.3845 Y106.4523 I11.9356 J-4.3934
G02 X244.7332 Y108.1952 I8.0974 J-13.9067
G02 X246.0743 Y108.2981 I1.0136 J-4.4195
G01 X246.0748 Y108.2864
G01 X246.0742 Y108.3000
G02 X245.8469 Y105.6901 I-16.0040 J0.0791
G02 X245.4852 Y105.2781 I-0.4419 J0.0232
G02 X243.9136 Y104.7860 I-22.1448 J67.9629
G03 X239.9780 Y101.7734 I3.3649 J-8.4727
G03 X237.5639 Y96.7112 I11.9846 J-8.8223
G03 X236.8298 Y91.4064 I21.6586 J-5.7004
G00 Z20.0000


(No. 24: Engraving 51)
G00 X216.2314 Y103.5450 Z20.0000
G00 Z0.5000
G01 Z0.0000 F1000
G01 Z-34.0000
G01 Y73.5669 F1600
G01 X212.5404
G01 Y103.5450
G03 X211.4554 Y104.6300 I-1.0850 J0.0000
G02 X208.5009 Y104.6488 I-1.2526 J35.3937
G01 X208.4789 Y104.6592
G01 X208.4653 Y104.7775
G01 X208.4671 Y104.7624
G02 X208.4830 Y107.7142 I26.8569 J1.3311
G01 X208.5184 Y107.7181
G01 X208.5008 Y107.7162
G02 X211.6246 Y107.7482 I2.6476 J-105.8976
G03 X212.5404 Y108.8149 I-0.1692 J1.0717
G01 X212.5532 Y111.5868
G02 X215.5708 Y119.2786 I11.4665 J-0.0606
G02 X220.0807 Y121.6505 I5.7838 J-5.5238
G02 X225.5223 Y121.9766 I4.3116 J-26.3827
G02 X229.1255 Y121.8459 I-4.0763 J-162.1096
G01 Y118.4083
G03 X221.4005 Y118.6677 I-4.4665 J-17.8590
G03 X218.6980 Y117.4754 I0.9648 J-5.8461
G03 X216.8591 Y114.8213 I4.2008 J-4.8744
G03 X215.9137 Y111.2080 I16.9960 J-6.3775
G01 X215.5308 Y109.0057
G03 X216.5998 Y107.7349 I1.0690 J-0.1858
G01 X226.7811
G01 Y104.6300
G01 X217.3164
G00 Z20.0000


(No. 25: Engraving 50)
G00 X188.0905 Y91.9108 Z20.0000
G00 Z0.5000
G01 Z0.0000 F1000
G01 Z-34.0000
G03 X188.1183 Y90.4607 I1.7051 J-0.6927 F1600
G03 X189.6020 Y87.8796 I12.7591 J5.6176
G03 X193.8753 Y82.2144 I98.7505 J70.0433
G02 X200.5364 Y73.5669 I-1091.6770 J-847.7987
G01 X195.7629
G03 X188.4994 Y83.4094 I-302.3966 J-215.5579
G03 X185.9501 Y86.5142 I-31.0393 J-22.8872
G03 X184.9512 Y87.0332 I-1.0707 J-0.8400
G03 X183.9202 Y86.5312 I0.0343 J-1.3804
G03 X180.5981 Y82.5012 I39.3088 J-35.7873
G03 X173.9182 Y73.5669 I423.7569 J-323.7959
G01 X169.6983
G01 X174.8654 Y80.1648
G01 X175.4016 Y80.8495
G01 X175.9299 Y81.5240
G01 X176.4483 Y82.1860
G01 X176.9550 Y82.8329
G01 X177.4482 Y83.4626
G01 X177.9260 Y84.0726
G01 X178.3865 Y84.6604
G01 X178.8278 Y85.2239
G01 X179.2482 Y85.7605
G01 X179.6457 Y86.2678
G01 X180.0185 Y86.7437
G01 X180.3647 Y87.1855
G02 X181.8870 Y89.1276 I2781.2214 J-2178.4351
G03 X182.1412 Y90.6130 I-1.1255 J0.9570
G03 X181.0836 Y92.6616 I-8.3512 J-3.0138
G03 X176.4081 Y99.1162 I-88.4098 J-59.1215
G02 X169.9111 Y107.6883 I282.5903 J220.9276
G02 X174.5571 Y107.7349 I2.9171 J-59.2272
G03 X182.0259 Y97.8684 I348.4108 J255.9826
G03 X184.5847 Y94.7885 I34.4835 J26.0452
G03 X185.5430 Y94.2756 I1.0575 J0.8242
G03 X186.4586 Y94.6580 I0.0222 J1.2341
G03 X189.4668 Y98.3563 I-35.5968 J32.0271
G03 X196.4304 Y107.7349 I-429.8527 J326.4421
G02 X200.5746 Y107.7172 I1.6991 J-87.0624
G02 X191.1141 Y95.7890 I-7717.6661 J6111.3566
G03 X188.2160 Y92.1178 I499.2920 J-397.1234
G00 Z20.0000


(No. 26: Engraving 49)
G00 X160.1079 Y90.9117 Z20.0000
G00 Z0.5000
G01 Z0.0000 F1000
G01 Z-34.0000
G02 X157.5121 Y82.9618 I-25.8799 J4.0516 F1600
G02 X151.8304 Y76.2432 I-16.8967 J8.5274
G02 X143.8342 Y73.1461 I-9.9044 J13.7004
G01 X142.2087 Y72.9536
G02 X142.2339 Y75.5111 I34.4080 J0.9408
G02 X142.3017 Y76.0999 I4.1289 J-0.1774
G03 X144.2868 Y76.5973 I-0.5753 J6.5059
G03 X150.1109 Y79.7247 I-9.4185 J24.5268
G03 X151.9976 Y81.7807 I-4.2594 J5.8020
G03 X155.1275 Y87.9715 I-27.4984 J17.7894
G03 X155.9034 Y92.6166 I-14.6850 J4.8401
G03 X155.8228 Y101.0899 I-84.6855 J3.4321
G03 X153.8067 Y108.5220 I-18.3156 J-0.9788
G03 X146.3512 Y115.8846 I-14.9179 J-7.6503
G03 X143.1813 Y116.9341 I-5.6545 J-11.7660
G02 X142.5944 Y117.1224 I0.1314 J1.4182
G02 X142.4223 Y117.8444 I1.6790 J0.7818
G02 X142.2245 Y120.5435 I51.3717 J5.1212
G02 X146.4801 Y119.6284 I-2.8981 J-23.8300
G02 X156.7800 Y111.5107 I-5.5734 J-17.6648
G02 X159.7759 Y103.9156 I-21.3454 J-12.8083
G02 X160.0975 Y90.8497 I-34.8515 J-7.3947
G00 Z20.0000


(No. 27: Engraving 48)
G00 X123.6523 Y87.9301 Z20.0000
G00 Z0.5000
G01 Z0.0000 F1000
G01 Z-34.0000
G03 X127.5407 Y80.9042 I17.0533 J4.8488 F1600
G03 X135.1781 Y76.4538 I11.1611 J10.3753
G02 X136.3552 Y76.0571 I-0.8762 J-4.5440
G01 X136.4027 Y76.0263
G01 X136.4194 Y76.0124
G02 X136.5184 Y75.0625 I-2.7514 J-0.7669
G02 X136.4804 Y73.0156 I-19.5663 J-0.6603
G02 X133.0937 Y73.4383 I-0.3147 J11.2574
G02 X121.3590 Y82.4069 I4.4182 J17.9421
G02 X119.5846 Y86.3175 I19.4211 J11.1701
G02 X118.6127 Y91.2535 I29.3539 J8.3434
G02 X118.3656 Y101.0467 I49.0829 J6.1380
G02 X119.8465 Y107.3482 I23.9607 J-2.3058
G02 X125.4346 Y115.6915 I19.8886 J-7.2779
G02 X135.3395 Y120.3535 I12.8021 J-14.3463
G01 X136.5062 Y120.5414
G02 X136.3086 Y117.8444 I-40.4893 J1.6115
G02 X136.1605 Y117.1621 I-2.2494 J0.1308
G02 X135.8799 Y117.0180 I-0.3326 J0.3025
G03 X134.0616 Y116.5466 I7.0557 J-30.9570
G03 X127.6442 Y112.4175 I5.5360 J-15.6556
G03 X123.5439 Y105.1124 I10.8849 J-10.9127
G03 X122.5094 Y95.9890 I33.5163 J-8.4211
G03 X123.6387 Y87.9752 I29.7547 J0.1068
G00 Z20.0000


(No. 28: Engraving 57)
G00 X274.7863 Y153.5551 Z20.0000
G00 Z0.5000
G01 Z0.0000 F1000
G01 Z-34.0000
G02 X321.0597 Y153.4516 I12.6701 J-4677.3916 F1600
G02 X330.6713 Y153.2652 I-2.1833 J-360.4400
G01 X331.8814 Y153.2048
G01 X332.6213 Y153.1428
G02 X333.4277 Y152.8264 I-0.4179 J-2.2509
G02 X335.1230 Y148.4152 I-2.0811 J-3.3312
G02 X334.4897 Y146.9018 I-6.5083 J1.8343
G02 X334.0045 Y146.3823 I-0.7906 J0.2521
G01 X333.4191 Y146.1835
G01 X332.3840 Y145.9789
G01 X330.8307 Y145.7920
G02 X322.2734 Y145.3797 I-11.4688 J149.0204
G02 X298.4240 Y145.1243 I-24.8593 J1207.8294
G01 X289.6188 Y145.0979
G01 X279.4879 Y145.0817
G01 X267.9367 Y145.0733
G01 X254.8705 Y145.0703
G01 X240.1948 Y145.0702
G01 X223.8150 Y145.0707
G01 X116.9754
G01 X115.6689 Y146.1946
G02 X114.3441 Y149.8259 I2.8465 J3.0958
G02 X115.4180 Y152.1720 I3.8412 J-0.3395
G01 X116.4046 Y153.1587
G01 X223.6360 Y153.4505
G01 X235.4053 Y153.4812
G01 X246.3836 Y153.5072
G01 X256.5923 Y153.5282
G01 X266.0528 Y153.5442
G01 X274.7869 Y153.5551
G00 Z20.0000


(No. 29: Engraving 58)
G00 X254.2932 Y310.4410 Z20.0000
G00 Z0.5000
G01 Z0.0000 F1000
G01 Z-34.0000
G01 X263.4650 Y310.4455 F1600
G01 X272.0198 Y310.4459
G01 X279.9675 Y310.4423
G02 X322.8484 Y310.2621 I3.9830 J-4154.3530
G02 X331.4630 Y310.0682 I-1.9903 J-279.8208
G01 X332.3458 Y310.0114
G02 X333.3114 Y309.7363 I-0.3949 J-3.2174
G02 X335.1980 Y307.8576 I-1.2684 J-3.1603
G02 X335.7317 Y305.9019 I-3.7006 J-2.0607
G02 X335.0957 Y304.3152 I-2.8659 J0.2281
G02 X333.1745 Y302.1155 I-17.0949 J12.9916
G01 X225.8135 Y301.9839
G01 X216.9979 Y301.9738
G01 X208.3640 Y301.9650
G01 X199.9404 Y301.9577
G01 X191.7558 Y301.9517
G01 X183.8388 Y301.9472
G01 X176.2180 Y301.9440
G01 X168.9221 Y301.9422
G01 X161.9798 Y301.9418
G01 X155.4197 Y301.9427
G01 X149.2705 Y301.9449
G01 X143.5608 Y301.9484
G01 X138.3193 Y301.9532
G02 X116.8066 Y302.0328 I-4.3454 J1731.1619
G02 X115.4123 Y302.8921 I0.9245 J3.0611
G02 X113.6024 Y305.6802 I4.5718 J4.9493
G02 X113.6984 Y307.2909 I2.2116 J0.6764
G02 X114.6490 Y308.9727 I5.2904 J-1.8807
G01 X115.7325 Y310.2323
G01 X222.9817 Y310.4039
G01 X234.0615 Y310.4202
G01 X244.4955 Y310.4326
G01 X254.2936 Y310.4410
G00 Z20.0000


(No. 30: Engraving 59)
G00 X347.5199 Y310.5246 Z20.0000
G00 Z0.5000
G01 Z0.0000 F1000
G01 Z-34.0000
G01 X411.9796 F1600
G03 X413.0208 Y311.9148 I0.0000 J1.0850
G03 X411.6780 Y315.6575 I-19.8947 J-5.0258
G03 X407.8437 Y322.9634 I-92.4722 J-43.8714
G03 X391.2142 Y349.0834 I-285.8267 J-163.6209
G03 X386.1579 Y355.7363 I-103.2687 J-73.2389
G02 X382.6426 Y360.7459 I34.0077 J27.6009
G02 X381.2634 Y363.7709 I12.0460 J7.3195
G02 X381.5970 Y368.5673 I6.1527 J1.9818
G02 X382.9436 Y370.7842 I7.9991 J-3.3413
G02 X387.1571 Y373.2171 I6.0551 J-5.6215
G02 X391.9961 Y373.0031 I2.0744 J-7.9070
G02 X393.7344 Y371.8775 I-1.4651 J-4.1679
G02 X397.4357 Y367.7283 I-42.3749 J-41.5262
G02 X411.2491 Y349.1115 I-194.4597 J-158.7188
G01 X416.5146 Y340.8276
G01 X421.3889 Y332.3607
G01 X425.8746 Y323.7174
G01 X429.9695 Y314.9124
G01 X433.6712 Y305.9601
G01 X436.9775 Y296.8752
G01 X439.8860 Y287.6721
G01 X442.3944 Y278.3656
G01 X444.5005 Y268.9701
G01 X446.2019 Y259.5003
G01 X447.4963 Y249.9707
G01 X448.3815 Y240.3958
G01 X448.8551 Y230.7904
G01 X448.9149 Y221.1690
G01 X448.5586 Y211.5460
G01 X447.7838 Y201.9362
G01 X446.5885 Y192.3541
G01 X444.9701 Y182.8141
G01 X442.9266 Y173.3309
G01 X440.4534 Y163.9109
G02 X428.3414 Y131.0019 I-217.5714 J61.3927
G02 X408.5240 Y96.6014 I-204.9495 J95.1587
G02 X394.1596 Y77.9743 I-196.9441 J137.0228
G02 X388.5664 Y72.0073 I-57.0082 J47.8320
G01 X387.7387 Y71.2724
G02 X386.2041 Y70.2210 I-4.0446 J4.2577
G02 X382.5365 Y69.5196 I-3.4782 J8.2477
G02 X378.9951 Y70.2577 I-0.1658 J8.0701
G02 X375.1990 Y74.1060 I4.2180 J7.9573
G02 X375.0256 Y80.4629 I7.0959 J3.3743
G02 X377.5125 Y84.1670 I16.7316 J-8.5463
G02 X380.4412 Y87.4223 I61.8763 J-52.7238
G03 X396.1665 Y107.7725 I-140.7453 J125.0100
G03 X411.2031 Y133.8363 I-181.1456 J121.8747
G01 X415.7743 Y143.2174
G03 X414.8084 Y144.7777 I-0.9754 J0.4753
G01 X380.9774 Y145.0707
G02 X357.6171 Y145.3454 I7.7364 J1651.0553
G02 X349.7563 Y145.6670 I2.1793 J149.5439
G02 X346.7502 Y146.0586 I1.0578 J19.8491
G02 X345.5343 Y146.5167 I0.4435 J3.0201
G02 X344.8897 Y147.3918 I1.3973 J1.7040
G02 X344.6291 Y150.7573 I4.1571 J2.0147
G02 X345.4941 Y152.3949 I4.1565 J-1.1481
G01 X346.4885 Y153.5510
G01 X381.9684 Y153.4776
G02 X416.3773 Y153.2250 I0.3821 J-2291.1010
G02 X418.2285 Y153.1477 I0.1116 J-19.5334
G03 X419.3873 Y153.6547 I0.1253 J1.2916
G03 X420.1129 Y155.0744 I-6.1273 J4.0269
G03 X423.1334 Y164.0414 I-110.3503 J42.1622
G03 X430.1117 Y194.9501 I-196.5740 J60.6230
G03 X431.9410 Y219.6416 I-198.8460 J27.1451
G03 X431.5040 Y241.4633 I-278.1241 J5.3461
G03 X427.6379 Y268.4649 I-174.5158 J-11.2101
G03 X419.9546 Y295.7301 I-230.7321 J-50.3045
G03 X417.5419 Y301.6596 I-72.2436 J-25.9402
G03 X416.6158 Y302.1767 I-0.9245 J-0.5679
G01 X381.5825 Y302.1260
G01 X347.0480 Y302.0759
G01 X346.0677 Y303.2152
G02 X345.1165 Y307.3386 I3.1598 J2.9003
G02 X346.4317 Y309.2759 I3.9518 J-1.2677
G01 X348.2185 Y310.7794
G00 Z20.0000


(No. 31: Engraving 60)
G00 X91.9653 Y386.6514 Z20.0000
G00 Z0.5000
G01 Z0.0000 F1000
G01 Z-34.0000
G02 X84.6652 Y380.7493 I-703.1726 J862.2535 F1600
G02 X82.8456 Y379.7371 I-3.4641 J4.0858
G02 X80.4033 Y379.5097 I-2.0645 J8.9429
G02 X78.1837 Y379.6754 I-0.3674 J10.0233
G02 X76.4019 Y380.6524 I1.1392 J4.1909
G02 X73.9584 Y383.5617 I5.1591 J6.8139
G02 X74.1758 Y389.5652 I5.8875 J2.7925
G02 X76.3228 Y392.1436 I14.0269 J-9.4972
G02 X82.5666 Y397.6938 I57.4229 J-58.3115
G02 X95.7947 Y407.7752 I176.2452 J-217.5370
G02 X153.2282 Y436.8733 I126.7697 J-178.9865
G02 X202.3030 Y447.6749 I75.7105 J-227.0953
G02 X216.6436 Y448.4502 I18.7895 J-214.5111
G02 X243.3143 Y448.0183 I8.2890 J-311.7740
G02 X249.4089 Y447.4709 I-6.4881 J-106.4400
G02 X286.3544 Y440.1172 I-29.1412 J-242.8948
G02 X331.2006 Y422.0665 I-59.4871 J-212.5280
G02 X363.5228 Y400.7519 I-103.9172 J-192.7473
G02 X371.5159 Y394.3003 I-139.2393 J-180.6861
G02 X375.2912 Y390.7919 I-32.0383 J-38.2607
G02 X377.2327 Y388.2865 I-9.3095 J-9.2194
G02 X377.6976 Y383.5635 I-5.0713 J-2.8836
G02 X375.2161 Y379.1006 I-11.7916 J3.6351
G02 X373.2905 Y377.8976 I-2.8798 J2.4670
G02 X367.5060 Y377.3758 I-4.1741 J13.9510
G02 X366.4262 Y377.6922 I0.3129 J3.0689
G02 X361.4405 Y381.6767 I51.3939 J69.4194
G03 X338.9012 Y398.8151 I-144.7869 J-167.0234
G03 X306.3523 Y416.3991 I-119.5704 J-182.4145
G03 X260.6058 Y430.3050 I-80.7818 J-183.5505
G03 X248.4143 Y432.1690 I-39.5927 J-218.1571
G03 X233.5208 Y433.1240 I-21.2116 J-214.1767
G03 X212.1145 Y433.1902 I-11.6877 J-318.6163
G03 X206.5733 Y432.8750 I3.5298 J-110.9394
G03 X134.8720 Y413.7568 I17.8101 J-210.8098
G03 X93.4486 Y387.8559 I84.9249 J-181.8952
G02 X91.9652 Y386.6514 I-4134.5113 J5090.1184
G00 Z20.0000


(No. 32: Engraving 61)
G00 X40.8523 Y325.5455 Z20.0000
G00 Z0.5000
G01 Z0.0000 F1000
G01 Z-34.0000
G03 X33.9456 Y312.3155 I455.4745 J-246.1963 F1600
G03 X34.9395 Y310.8177 I1.0034 J-0.4128
G01 X68.6389 Y310.5246
G01 X101.9139 Y310.2352
G01 X103.0995 Y309.1211
G02 X103.1496 Y303.2493 I-2.9042 J-2.9609
G01 X102.0452 Y302.1448
G01 X66.4856
G03 X39.1836 Y302.0605 I-6.3059 J-2377.9658
G03 X32.3450 Y301.8309 I0.0591 J-103.7340
G03 X30.1203 Y301.4389 I0.2445 J-7.8958
G03 X29.0443 Y300.4247 I0.5911 J-1.7049
G03 X24.9443 Y288.5955 I129.4568 J-51.4949
G03 X17.9406 Y259.6614 I255.1738 J-77.0810
G03 X16.0287 Y244.3225 I141.5711 J-25.4345
G03 X15.3736 Y214.0860 I281.4374 J-21.2229
G03 X16.8635 Y197.8059 I159.7812 J6.4137
G03 X23.0295 Y167.4905 I241.0582 J33.2453
G03 X25.6186 Y159.1613 I123.2918 J33.7582
G01 X27.2770 Y154.4671
G03 X28.2915 Y153.7436 I1.0230 J0.3614
G01 X65.5086 Y153.4505
G02 X90.9284 Y153.1784 I-9.2908 J-2055.0332
G02 X99.5581 Y152.8732 I-2.6346 J-196.6463
G02 X102.8801 Y152.5076 I-1.1638 J-25.8546
G01 X103.5103 Y152.3622
G02 X104.3093 Y151.9880 I-0.2366 J-1.5453
G02 X104.6752 Y151.2112 I-1.6074 J-1.2317
G02 X104.1781 Y146.7344 I-5.4825 J-1.6572
G02 X103.7365 Y146.1760 I-2.6516 J1.6429
G01 X102.6313 Y145.0707
G01 X67.8879
G03 X36.6124 Y144.8285 I-4.2493 J-1470.3372
G03 X33.0693 Y144.6927 I1.3942 J-82.6778
G03 X32.1491 Y144.4761 I-0.0645 J-1.7893
G03 X31.6415 Y143.2823 I0.5467 J-0.9372
G03 X32.2176 Y141.7325 I9.4649 J2.6366
G03 X37.8116 Y130.2997 I256.7627 J118.5460
G03 X43.2823 Y120.0744 I217.3328 J109.7010
G03 X60.0925 Y95.5824 I189.0483 J111.7390
G02 X67.0030 Y86.9114 I-204.0275 J-169.6937
G02 X68.9648 Y83.9315 I-18.3889 J-14.2416
G02 X69.7043 Y81.0792 I-4.6926 J-2.7387
G02 X61.3854 Y74.2411 I-6.9295 J-0.0492
G02 X58.7613 Y75.2992 I1.2961 J6.9972
G02 X56.0221 Y77.8792 I13.8019 J17.3978
G02 X48.5275 Y86.8739 I98.8933 J90.0193
G02 X38.4064 Y100.9683 I206.2070 J158.7566
G01 X32.9311 Y109.5936
G01 X27.8858 Y118.4293
G01 X23.2676 Y127.4669
G01 X19.0786 Y136.6891
G01 X15.3213 Y146.0784
G01 X11.9981 Y155.6175
G01 X9.1112 Y165.2891
G01 X6.6630 Y175.0756
G01 X4.6559 Y184.9598
G01 X3.0922 Y194.9242
G01 X1.9744 Y204.9514
G01 X1.3046 Y215.0240
G01 X1.0853 Y225.1245
G01 X1.3187 Y235.2356
G01 X2.0072 Y245.3399
G01 X3.1532 Y255.4200
G01 X4.7588 Y265.4585
G01 X6.8264 Y275.4379
G01 X9.3584 Y285.3411
G01 X12.3592 Y295.1577
G02 X26.0903 Y327.5588 I215.5382 J-72.2319
G02 X44.4866 Y357.4036 I200.8328 J-103.2009
G02 X49.7224 Y364.2258 I205.0333 J-151.9339
G03 X53.9050 Y369.8473 I-76.1036 J60.9916
G02 X54.3446 Y370.5700 I42.5294 J-25.3736
G02 X56.6625 Y372.3945 I4.7103 J-3.5992
G02 X62.8967 Y372.8609 I3.7470 J-8.1862
G02 X66.3794 Y369.8960 I-1.7790 J-5.6174
G02 X67.0929 Y364.0442 I-6.8128 J-3.8002
G02 X66.0915 Y362.1706 I-5.7795 J1.8847
G02 X61.0934 Y355.6587 I-123.2222 J89.4025
G03 X40.8574 Y325.5548 I157.9599 J-128.0349
G00 Z20.0000


(No. 33: Engraving 62)
G00 X103.7898 Y54.2937 Z20.0000
G00 Z0.5000
G01 Z0.0000 F1000
G01 Z-34.0000
G03 X116.1744 Y46.1609 I98.1566 J135.9768 F1600
G03 X182.7992 Y20.4377 I107.7483 J179.9322
G03 X203.8358 Y17.2073 I43.9141 J215.8636
G03 X214.4450 Y16.7019 I13.7863 J177.7796
G03 X242.1093 Y17.1825 I7.8071 J347.0050
G03 X247.6334 Y17.6752 I-5.5711 J93.6880
G03 X293.2034 Y28.3306 I-26.1443 J214.5842
G03 X354.1073 Y62.2190 I-69.6270 J196.8053
G02 X359.6510 Y65.9412 I25.3224 J-31.7247
G02 X361.0282 Y66.3908 I1.8081 J-3.2042
G02 X366.2603 Y65.1143 I1.0475 J-7.0676
G02 X369.8687 Y57.6386 I-4.8278 J-6.9390
G02 X369.3408 Y54.8723 I-7.1761 J-0.0640
G02 X367.5194 Y52.2996 I-8.2458 J3.9069
G02 X363.4851 Y48.7804 I-32.2280 J32.8727
G02 X288.8645 Y10.1935 I-137.3592 J174.1842
G02 X251.6156 Y2.3963 I-66.5260 J224.9374
G02 X238.0364 Y1.4760 I-22.8735 J236.8467
G02 X212.0816 Y1.1919 I-17.0931 J375.9030
G02 X206.6811 Y1.4845 I2.1714 J90.0565
G02 X116.0672 Y29.1060 I20.4524 J229.5379
G02 X100.2562 Y38.7357 I104.3328 J189.0998
G02 X80.8843 Y53.3487 I147.5142 J215.6999
G02 X76.8673 Y56.9364 I43.9273 J53.2263
G01 X76.2904 Y57.5379
G02 X75.6832 Y58.5677 I1.2586 J1.4360
G02 X77.1940 Y66.4192 I8.5489 J2.4261
G02 X82.9260 Y68.8276 I5.0660 J-4.0318
G02 X86.6112 Y67.5476 I-1.3400 J-9.8028
G02 X89.9848 Y65.0001 I-9.4054 J-15.9633
G03 X96.3003 Y59.8283 I67.1486 J75.5542
G03 X103.7847 Y54.2973 I167.0510 J218.2234
G00 Z20.0000
G00 X0.0000 Y0.0000

M05
M30
