(Project sws-knoxville)
(Created by Estlcam version 11 build 11.244)
(Machining time about 00:11:59 hours)

(Required tools:)
(Thin ball nose)
G21
G90
G94
M03 S30000
G00 Z20.0000


(No. 1: Engraving 1)
G00 X105.2759 Y106.7483
G00 Z0.5000
G01 Z0.0000 F1000 S30000
G01 Z-34.0000
G03 X105.2503 Y105.4462 I1.0017 J-0.6710 F1400
G03 X106.4191 Y103.7719 I10.6686 J6.2021
G03 X114.6024 Y94.1405 I166.0903 J132.8278
G02 X123.7267 Y83.7570 I-1126.3832 J-998.9830
G01 X119.1387
G02 X104.3125 Y100.5173 I1342.4397 J1202.4610
G02 X102.1144 Y103.1176 I134.8495 J116.2240
G03 X100.6460 Y103.0737 I-0.7103 J-0.8202
G01 X98.2833 Y100.7666
G01 X95.9206 Y98.4594
G03 X95.5936 Y97.6831 I0.7580 J-0.7763
G01 Y83.7570
G01 X92.4851
G01 Y104.6660
G01 X92.4850 Y125.5751
G01 X95.5955
G01 X95.6141 Y115.0647
G01 X95.6345 Y103.5011
G03 X97.5117 Y102.7516 I1.0850 J-0.0080
G02 X119.1297 Y125.6194 I1222.0959 J-1133.6505
G01 X121.8475 Y125.4656
G01 X122.7189 Y125.4163
G03 X109.3743 Y111.3489 I817.9967 J-789.3301
G03 X105.4635 Y107.0066 I72.3343 J-69.0793
G01 X105.3434 Y106.8483
G00 Z20.0000


(No. 2: Engraving 2)
G00 X133.5406 Y99.0942 Z20.0000
G00 Z0.5000
G01 Z0.0000 F1000
G01 Z-34.0000
G01 Y114.4315 F1400
G02 X136.2849 Y114.4126 I1.0400 J-48.3484
G01 X136.4804 Y114.3990
G01 X136.6319 Y114.3820
G01 X136.6382 Y114.3287
G01 X136.6369 Y114.3425
G02 X136.6534 Y111.9124 I-64.7045 J-1.6548
G03 X138.3028 Y111.0842 I1.0808 J0.0958
G01 X141.0935 Y112.8013
G02 X147.4166 Y115.1838 I8.7629 J-13.6749
G02 X152.3175 Y114.7872 I1.5462 J-11.3728
G02 X155.1221 Y113.5197 I-1.8603 J-7.8528
G02 X157.1854 Y110.8774 I-4.8671 J-5.9273
G02 X158.2656 Y108.0548 I-8.4701 J-4.8596
G02 X158.6637 Y103.5026 I-31.7327 J-5.0686
G02 X158.8396 Y95.4116 I-462.0579 J-14.0899
G01 X159.0188 Y83.7570
G01 X155.2414
G03 X155.2106 Y100.0231 I-1000.3400 J6.2356
G03 X154.9108 Y105.9806 I-57.5605 J0.0897
G03 X154.2176 Y108.9707 I-11.0193 J-0.9792
G03 X151.9408 Y111.3727 I-4.1424 J-1.6463
G03 X147.7621 Y112.4374 I-4.7816 J-10.0342
G03 X144.0475 Y111.7204 I-0.0827 J-9.5514
G03 X141.2965 Y110.4740 I10.6869 J-27.2477
G01 X137.5365 Y108.5662
G03 X136.9425 Y107.6124 I0.4910 J-0.9676
G01 X136.7842 Y95.1491
G01 X136.6395 Y83.7570
G01 X133.5406
G01 Y99.0942
G00 Z20.0000


(No. 3: Engraving 3)
G00 X173.3368 Y104.4458 Z20.0000
G00 Z0.5000
G01 Z0.0000 F1000
G01 Z-34.0000
G03 X173.0733 Y100.9829 I15.1929 J-2.8977 F1400
G03 X173.3960 Y94.3493 I74.2161 J0.2858
G03 X175.0962 Y89.8184 I9.1060 J0.8325
G03 X178.8000 Y86.4689 I7.8940 J5.0067
G02 X180.1150 Y85.9370 I-7.6080 J-20.6996
G02 X180.4980 Y85.6838 I-0.2282 J-0.7616
G02 X180.6210 Y85.0458 I-1.3151 J-0.5843
G02 X180.5784 Y83.1941 I-9.8322 J-0.7005
G01 X180.5382 Y83.1927
G01 X180.5488 Y83.1931
G02 X178.2759 Y83.6915 I0.5330 J7.8615
G02 X173.8038 Y86.7049 I4.3445 J11.2731
G02 X169.9618 Y93.8274 I10.2440 J10.1232
G02 X169.6549 Y97.8274 I24.0988 J3.8608
G02 X169.9693 Y103.8582 I34.7171 J1.2141
G02 X171.7854 Y109.0992 I13.9948 J-1.9144
G02 X174.4206 Y112.2279 I10.7994 J-6.4217
G02 X179.3117 Y114.8166 I9.3375 J-11.7275
G02 X180.5406 Y115.0044 I1.1950 J-3.7050
G01 X180.5789 Y114.9947
G01 X180.5892 Y114.9164
G01 X180.5874 Y114.9302
G02 X180.5272 Y112.7644 I-9.4290 J-0.8215
G02 X180.1141 Y112.2428 I-0.7793 J0.1926
G02 X178.4536 Y111.3695 I-7.7161 J12.6567
G03 X174.5733 Y107.5184 I3.7526 J-7.6615
G03 X173.3469 Y104.4909 I9.9727 J-5.8022
G00 Z20.0000


(No. 4: Engraving 4)
G00 X193.6566 Y100.2149 Z20.0000
G00 Z0.5000
G01 Z0.0000 F1000
G01 Z-34.0000
G03 X193.4607 Y104.5940 I-33.1296 J0.7121 F1400
G03 X192.1316 Y107.9675 I-7.7709 J-1.1130
G03 X188.6831 Y111.4817 I-9.7521 J-6.1208
G03 X187.6619 Y111.9766 I-4.1912 J-7.3460
G02 X187.0918 Y112.3426 I0.4181 J1.2786
G02 X186.9435 Y112.9461 I1.1326 J0.5982
G02 X186.9312 Y114.9235 I19.7470 J1.1122
G02 X191.9789 Y112.5444 I-1.4508 J-9.6225
G02 X196.2230 Y106.3470 I-10.4453 J-11.7051
G02 X197.4876 Y98.6425 I-18.8944 J-7.0574
G02 X194.8347 Y88.9899 I-19.6363 J0.2060
G02 X191.1893 Y84.9820 I-11.2000 J6.5251
G02 X186.9266 Y83.2776 I-5.7213 J8.1263
G02 X186.9762 Y85.2826 I13.2015 J0.6763
G02 X187.5491 Y86.1513 I1.1702 J-0.1484
G02 X189.1847 Y87.1628 I14.6840 J-21.9148
G03 X192.8679 Y91.9234 I-4.2013 J7.0556
G03 X193.5225 Y95.6008 I-17.0485 J4.9320
G03 X193.6566 Y100.2105 I-54.6643 J3.8964
G00 Z20.0000


(No. 5: Engraving 5)
G00 X221.5033 Y99.6994 Z20.0000
G00 Z0.5000
G01 Z0.0000 F1000
G01 Z-34.0000
G03 X221.8609 Y98.4042 I2.8433 J0.0880 F1400
G03 X223.4479 Y96.0071 I19.7098 J11.3257
G03 X231.4570 Y85.6667 I381.1414 J286.9344
G01 X232.9604 Y83.7570
G01 X228.7671
G03 X222.1205 Y92.7311 I-267.6968 J-191.3207
G03 X219.7710 Y95.5715 I-27.3218 J-20.2073
G03 X218.6878 Y96.0583 I-1.0177 J-0.8160
G03 X217.6261 Y95.3909 I0.3085 J-1.6689
G03 X213.0995 Y89.4739 I67.9859 J-56.7010
G01 X209.0220 Y83.7960
G02 X205.3774 Y83.7891 I-1.9529 J69.0996
G02 X216.2407 Y97.8208 I743.5967 J-564.4702
G03 X216.3321 Y99.3601 I-1.6953 J0.8731
G03 X214.9607 Y101.8625 I-10.1654 J-3.9441
G03 X210.5814 Y107.7386 I-111.4933 J-78.5236
G02 X205.4998 Y114.4155 I876.1427 J672.0821
G01 X206.7314 Y114.4066
G01 X209.6193 Y114.3856
G01 X213.8810 Y108.6469
G01 X218.4651 Y102.4741
G03 X220.2030 Y102.4684 I0.8711 J0.6469
G01 X224.8692 Y108.6661
G01 X229.2098 Y114.4315
G01 X232.8832
G01 X228.3094 Y108.7164
G03 X221.7397 Y100.4541 I607.9557 J-490.1514
G03 X221.5445 Y99.9912 I1.2969 J-0.8195
G00 Z20.0000


(No. 6: Engraving 6)
G00 X247.5412 Y96.8124 Z20.0000
G00 Z0.5000
G01 Z0.0000 F1000
G01 Z-34.0000
G01 X247.0724 Y97.9750 F1400
G02 X240.5931 Y114.3636 I654.0264 J268.0486
G02 X241.9896 Y114.4314 I1.3361 J-13.0938
G01 X244.0280
G03 X250.3314 Y98.1916 I908.9026 J343.4454
G03 X253.6062 Y90.5411 I114.5380 J44.5021
G03 X254.2495 Y89.4764 I4.2593 J1.8469
G03 X256.1423 Y89.7583 I0.8571 J0.7408
G03 X258.6150 Y95.6891 I-95.4339 J43.2702
G03 X265.7784 Y114.1739 I-4945.6935 J1927.2235
G02 X267.9722 Y114.4315 I1.9266 J-6.9374
G01 X269.1933
G01 X263.2056 Y99.6482
G01 X256.8692 Y84.0039
G02 X253.6295 Y83.8196 I-4.1632 J44.6127
G02 X252.8025 Y83.9117 I-0.2145 J1.8327
G02 X252.4960 Y84.5243 I1.2319 J0.9994
G01 X252.3944 Y84.7762
G01 X252.2572 Y85.1165
G01 X252.0861 Y85.5410
G01 X251.8827 Y86.0455
G01 X251.6487 Y86.6258
G01 X251.3858 Y87.2777
G01 X251.0958 Y87.9971
G01 X250.7802 Y88.7796
G01 X250.4409 Y89.6212
G01 X250.0794 Y90.5177
G01 X249.6975 Y91.4647
G01 X249.2970 Y92.4582
G01 X248.8793 Y93.4939
G01 X248.4464 Y94.5676
G01 X247.9998 Y95.6752
G01 X247.5412 Y96.8124
G00 Z20.0000


(No. 7: Engraving 7)
G00 X282.6897 Y99.0942 Z20.0000
G00 Z0.5000
G01 Z0.0000 F1000
G01 Z-34.0000
G01 Y83.7570 F1400
G01 X279.5811
G01 Y114.4315
G01 X282.6897
G01 Y99.0942
G00 Z20.0000


(No. 8: Engraving 8)
G00 X283.7747 Y122.4665 Z20.0000
G00 Z0.5000
G01 Z0.0000 F1000
G01 Z-34.0000
G01 X278.9946 F1400
G01 Y125.5751
G01 X282.6897
G01 Y121.3815
G00 Z20.0000


(No. 9: Engraving 9)
G00 X299.1119 Y128.4196 Z20.0000
G00 Z0.5000
G01 Z0.0000 F1000
G01 Z-34.0000
G01 Y83.7570 F1400
G01 X296.0034
G01 Y127.3346
G01 X300.1969
G00 Z20.0000


(No. 10: Engraving 10)
G00 X312.4256 Y105.5458 Z20.0000
G00 Z0.5000
G01 Z0.0000 F1000
G01 Z-34.0000
G01 Y127.3346 F1400
G01 X315.5342
G01 Y83.7570
G01 X312.4256
G01 Y105.5458
G00 Z20.0000


(No. 11: Engraving 11)
G00 X355.3287 Y99.5927 Z20.0000
G00 Z0.5000
G01 Z0.0000 F1000
G01 Z-34.0000
G01 X337.6454 F1400
G01 Y101.5283
G01 X350.0501
G03 X351.1351 Y102.6133 I0.0000 J1.0850
G01 Y104.1251
G03 X350.1342 Y107.8109 I-8.4869 J-0.3258
G03 X347.0067 Y111.5526 I-9.0321 J-4.3717
G03 X343.9863 Y112.8000 I-5.2083 J-8.3306
G03 X332.8965 Y109.4059 I-2.6889 J-11.0285
G03 X331.1268 Y106.7576 I8.2025 J-7.3966
G03 X330.4091 Y103.4410 I9.6505 J-3.8244
G03 X330.2812 Y97.9781 I44.0481 J-3.7640
G03 X331.0757 Y93.3569 I17.7205 J0.6674
G03 X336.1089 Y87.3050 I9.6351 J2.8943
G03 X343.7629 Y85.7517 I6.5207 J12.4972
G03 X350.8305 Y87.4393 I-2.0688 J24.3077
G03 X353.6151 Y88.6296 I-16.5638 J42.6017
G02 X353.6571 Y85.2791 I-35.5829 J-2.1224
G01 X350.5573 Y84.3217
G02 X341.6567 Y83.2417 I-7.8592 J27.5555
G02 X336.2768 Y84.0231 I0.3039 J21.0032
G02 X330.6821 Y87.6468 I4.1560 J12.5475
G02 X327.3021 Y94.1561 I9.4389 J9.0334
G02 X327.4797 Y104.7200 I24.0301 J4.8794
G02 X330.5338 Y110.3956 I13.0946 J-3.3868
G02 X335.2402 Y114.1323 I11.6217 J-9.8055
G02 X338.1875 Y114.9490 I4.1648 J-9.3032
G02 X345.9086 Y114.8503 I3.5554 J-23.9124
G02 X350.3075 Y112.3448 I-1.9193 J-8.4842
G02 X353.5940 Y106.4237 I-10.0325 J-9.4410
G02 X354.2437 Y101.6124 I-17.1753 J-4.7688
G01 Y98.5077
G00 Z20.0000


(No. 12: Engraving 12)
G00 X360.0420 Y196.2494 Z20.0000
G00 Z0.5000
G01 Z0.0000 F1000
G01 Z-34.0000
G01 X382.7516 Y195.9562 F1400
G01 X404.4272 Y195.6763
G01 X404.5615 Y191.8610
G01 X404.6918 Y188.1616
G01 X348.7891 Y188.1554
G01 Y193.0949
G01 Y198.5894
G03 X361.9016 Y209.8800 I-459.8418 J547.3026
G03 X376.8233 Y223.9946 I-180.0445 J205.2843
G03 X384.0420 Y232.0930 I-77.0796 J75.9727
G03 X387.7047 Y237.3604 I-33.5687 J27.2502
G03 X391.1621 Y248.6632 I-23.4931 J13.3664
G03 X390.3941 Y255.5820 I-18.2186 J1.4795
G03 X387.0667 Y260.9924 I-11.9159 J-3.5998
G03 X379.8959 Y264.6710 I-9.9744 J-10.6149
G03 X373.2113 Y265.2521 I-6.0030 J-30.3195
G03 X361.4664 Y263.4805 I-0.3075 J-37.7788
G03 X353.7749 Y260.1373 I14.6047 J-44.1202
G01 X351.1449 Y258.7298
G01 X351.2617 Y263.1315
G01 X351.4080 Y268.6462
G01 X354.6007 Y269.7406
G02 X372.0187 Y273.0686 I20.0604 J-57.7474
G02 X382.4615 Y272.2958 I2.0507 J-43.2354
G02 X389.6556 Y269.8640 I-5.2323 J-27.3361
G02 X394.3343 Y266.3616 I-10.0822 J-18.3445
G02 X398.5116 Y261.0728 I-15.7266 J-16.7156
G02 X399.8294 Y258.0258 I-14.2408 J-7.9677
G02 X400.2389 Y254.4907 I-14.1209 J-3.4272
G02 X400.1625 Y245.3671 I-141.9842 J-3.3730
G02 X398.9809 Y240.0912 I-14.7386 J0.5307
G02 X395.3417 Y233.4764 I-33.1155 J13.9101
G02 X389.1303 Y225.6726 I-64.1960 J44.7232
G02 X377.9925 Y214.4771 I-133.5684 J121.7425
G02 X368.1810 Y205.7449 I-233.1075 J252.0394
G01 X359.3490 Y198.1574
G00 Z20.0000


(No. 13: Engraving 13)
G00 X308.0021 Y196.0958 Z20.0000
G00 Z0.5000
G01 Z0.0000 F1000
G01 Z-34.0000
G01 X329.6104 Y195.9496 F1400
G01 Y188.1554
G01 X273.7161
G01 Y198.2288
G01 X283.7549 Y206.9554
G03 X304.8259 Y227.0302 I-199.7133 J230.7195
G03 X309.6284 Y232.4814 I-65.2021 J62.2843
G03 X314.8187 Y241.2763 I-26.1921 J21.3860
G03 X316.2561 Y252.9238 I-22.5909 J8.7004
G03 X313.0904 Y259.7580 I-12.7950 J-1.7766
G03 X308.7754 Y263.3856 I-12.0643 J-9.9700
G03 X303.1152 Y265.0359 I-6.9869 J-13.4321
G03 X295.4364 Y265.1383 I-4.4670 J-47.0225
G03 X283.5894 Y262.3048 I2.1585 J-35.2079
G03 X276.0621 Y258.7107 I44.8515 J-103.6151
G01 Y268.3448
G02 X281.6254 Y270.3237 I27.0649 J-67.2776
G02 X300.4119 Y273.1288 I19.0451 J-63.2378
G02 X307.0358 Y272.5515 I0.2549 J-35.3659
G02 X315.1800 Y269.6009 I-5.7618 J-28.6183
G02 X321.5458 Y264.3349 I-9.9455 J-18.5031
G02 X325.8024 Y253.8475 I-15.9995 J-12.6014
G02 X325.5077 Y245.5145 I-29.7305 J-3.1202
G02 X321.1700 Y234.2553 I-31.0702 J5.5048
G02 X315.3046 Y226.5954 I-40.6237 J25.0310
G02 X303.9250 Y215.2094 I-163.8155 J152.3443
G02 X292.7842 Y205.1874 I-238.1641 J253.5450
G01 X284.6158 Y198.1567
G03 X285.3162 Y196.2494 I0.7078 J-0.8223
G01 X308.0021 Y196.0958
G00 Z20.0000


(No. 14: Engraving 14)
G00 X244.6477 Y200.0169 Z20.0000
G00 Z0.5000
G01 Z0.0000 F1000
G01 Z-34.0000
G02 X227.8114 Y188.4182 I-27.0645 J21.2671 F1400
G02 X222.6627 Y187.2684 I-8.3897 J25.4654
G02 X210.4461 Y186.6773 I-9.9600 J79.3123
G02 X204.8393 Y187.6005 I0.6258 J21.2879
G02 X204.5156 Y191.5692 I22.6509 J3.8456
G02 X204.5658 Y196.1704 I73.3718 J1.5004
G01 X204.5770 Y196.2649
G03 X212.0791 Y194.4682 I14.8567 J45.4743
G03 X221.4826 Y194.6388 I4.1728 J29.2408
G03 X233.2268 Y199.5509 I-3.8292 J25.6508
G03 X240.9426 Y208.7968 I-16.8331 J21.8897
G03 X243.6700 Y215.7350 I-29.3100 J15.5269
G03 X244.4045 Y220.5931 I-44.2594 J9.1768
G03 X245.2017 Y240.8065 I-164.1404 J16.5954
G03 X243.5620 Y251.2784 I-40.2323 J-0.9352
G03 X240.4501 Y257.9772 I-23.2792 J-6.7422
G03 X229.5172 Y265.4164 I-14.7487 J-9.9217
G03 X219.5839 Y265.3938 I-4.9216 J-19.8023
G03 X207.6811 Y255.3082 I4.5433 J-17.4283
G03 X206.3746 Y250.2359 I18.4112 J-7.4468
G03 X205.9549 Y243.5173 I41.2877 J-5.9518
G03 X207.1753 Y237.0367 I19.5953 J0.3351
G03 X213.6700 Y229.2754 I14.6829 J5.6886
G03 X216.7067 Y227.6166 I13.2735 J20.6912
G03 X220.3925 Y226.8436 I3.8526 J9.1959
G03 X227.1660 Y226.7874 I4.4617 J129.4028
G03 X233.6137 Y227.0786 I0.4873 J60.7275
G03 X238.1151 Y228.2492 I-1.2749 J14.1430
G01 Y221.9985
G02 X233.5833 Y220.4747 I-13.1917 J31.7313
G02 X217.2013 Y219.5348 I-10.7837 J44.7186
G02 X205.1928 Y224.6775 I2.8542 J23.2562
G02 X197.9831 Y235.2167 I15.3577 J18.2417
G02 X196.5764 Y247.1402 I27.5208 J9.2917
G02 X200.3685 Y259.5669 I29.6748 J-2.2636
G02 X211.1373 Y269.8135 I23.1215 J-13.5177
G02 X216.3442 Y271.9821 I14.3084 J-27.0202
G02 X224.0414 Y273.0318 I8.0303 J-30.1379
G02 X233.1073 Y272.1805 I1.2097 J-35.8168
G02 X245.3916 Y265.1573 I-6.6407 J-25.8700
G02 X250.9934 Y256.8365 I-20.9546 J-20.1532
G02 X253.4052 Y249.8413 I-34.7822 J-15.9054
G02 X254.0377 Y244.4347 I-44.7811 J-7.9790
G02 X253.9095 Y223.9725 I-149.4984 J-9.2949
G02 X253.1869 Y218.6882 I-40.1952 J2.8050
G02 X249.2472 Y207.3705 I-50.7984 J11.3383
G02 X244.6093 Y199.9685 I-36.4726 J17.6989
G00 Z20.0000


(No. 15: Engraving 15)
G00 X142.6051 Y207.0078 Z20.0000
G00 Z0.5000
G01 Z0.0000 F1000
G01 Z-34.0000
G01 X144.0269 Y209.6206 F1400
G01 X145.5056 Y212.3364
G01 X147.0358 Y215.1457
G01 X148.6124 Y218.0387
G01 X150.2299 Y221.0055
G03 X171.0908 Y259.6156 I-2959.1991 J1623.7879
G03 X172.1720 Y261.7836 I-24.1285 J13.3867
G03 X171.3208 Y263.2963 I-1.0716 J0.3929
G03 X168.7299 Y263.5312 I-2.9810 J-18.4732
G03 X151.2767 Y263.8085 I-16.3997 J-482.8090
G03 X124.1565 Y263.8150 I-15.6391 J-8723.4418
G01 Y271.6156
G01 X180.0508
G01 Y259.5494
G01 X160.9698 Y223.6872
G01 X142.0676 Y188.1612
G02 X132.8313 Y188.2037 I-3.4687 J249.9101
G01 X132.4974 Y188.2137
G01 X132.4226 Y188.2213
G02 X142.6052 Y207.0081 I3947.6967 J-2127.5233
G00 Z20.0000


(No. 16: Engraving 16)
G00 X89.6881 Y199.9241 Z20.0000
G00 Z0.5000
G01 Z0.0000 F1000
G01 Z-34.0000
G03 X93.6587 Y207.0356 I-11.4371 J11.0501 F1400
G03 X94.3711 Y214.8510 I-24.6291 J6.1852
G03 X93.2031 Y220.5730 I-18.3120 J-0.7578
G03 X86.8868 Y227.3426 I-11.6467 J-4.5355
G03 X80.8153 Y229.2170 I-9.4336 J-19.7859
G03 X73.0326 Y229.7975 I-7.3205 J-45.6835
G01 X69.6112
G01 Y236.9081
G03 X76.7783 Y237.4668 I-4.6607 J106.0435
G03 X83.2929 Y239.0214 I-2.6645 J25.5928
G03 X89.3688 Y243.2334 I-6.4633 J15.8118
G03 X91.4127 Y245.9127 I-7.4545 J7.8057
G03 X92.4368 Y249.1386 I-11.3083 J5.3657
G03 X92.6797 Y254.5656 I-14.8910 J3.3853
G03 X88.6573 Y261.5671 I-10.7341 J-1.5106
G03 X85.1337 Y263.7205 I-10.6071 J-13.3970
G03 X81.5268 Y264.9644 I-6.0581 J-11.7150
G03 X77.3394 Y265.2559 I-3.8984 J-25.7803
G03 X68.6378 Y264.7593 I-1.5695 J-48.9815
G03 X58.0339 Y261.4596 I6.4254 J-39.3367
G03 X52.6025 Y258.7770 I74.9482 J-158.5912
G01 Y268.3448
G02 X58.3512 Y270.4183 I39.9920 J-101.8716
G02 X73.3434 Y272.9732 I16.1037 J-49.2333
G02 X83.1194 Y272.5738 I2.3538 J-62.2331
G02 X90.1923 Y270.8246 I-3.2128 J-28.1653
G02 X99.8207 Y262.8925 I-7.5726 J-19.0018
G02 X101.8959 Y256.5573 I-12.7350 J-7.6789
G02 X101.9074 Y250.7365 I-28.3254 J-2.9667
G02 X100.7781 Y247.1702 I-11.2536 J1.6018
G02 X93.1076 Y238.5361 I-17.8711 J8.1522
G02 X87.1248 Y235.8666 I-12.9141 J20.9038
G03 X85.8447 Y234.8920 I0.6430 J-2.1725
G03 X86.3697 Y232.8830 I1.3706 J-0.7149
G03 X88.3868 Y232.1103 I2.6928 J4.0103
G02 X95.5762 Y229.0399 I-4.0074 J-19.3357
G02 X102.0821 Y222.0337 I-11.0450 J-16.7799
G02 X103.1557 Y219.4770 I-8.8125 J-5.2044
G02 X103.4669 Y216.3583 I-16.0207 J-3.1732
G02 X103.3940 Y207.2422 I-148.7917 J-3.3693
G02 X102.7908 Y203.8197 I-11.7781 J0.3114
G02 X85.1354 Y187.8517 I-24.8438 J9.7246
G02 X78.0532 Y186.7896 I-9.9136 J41.9621
G02 X66.7220 Y186.9207 I-4.9810 J59.2470
G02 X62.4949 Y187.6982 I8.0412 J55.5937
G02 X53.0192 Y190.2242 I16.7298 J81.7966
G02 X50.2564 Y191.3278 I12.1700 J34.4753
G01 Y201.0580
G03 X71.2780 Y194.3758 I24.9266 J42.0100
G03 X82.3807 Y195.5968 I2.2857 J30.3066
G03 X88.7015 Y199.0054 I-5.1282 J17.0745
G01 X89.6121 Y199.8479
G00 Z20.0000


(No. 17: Engraving 17)
G00 X123.1409 Y153.3861 Z20.0000
G00 Z0.5000
G01 Z0.0000 F1000
G01 Z-34.0000
G02 X169.7043 Y153.6804 I49.7455 J-4186.1975 F1400
G01 X177.6122 Y153.6985
G01 X186.0751 Y153.7137
G01 X195.0951 Y153.7261
G01 X204.6745 Y153.7356
G01 X214.8156 Y153.7422
G01 X225.5206 Y153.7460
G01 X333.4263 Y153.7698
G01 X334.4049 Y152.6425
G02 X334.2299 Y147.1212 I-2.9550 J-2.6698
G02 X332.6912 Y146.0984 I-2.9937 J2.8350
G02 X330.4103 Y145.8410 I-3.0264 J16.5806
G02 X318.1161 Y145.5316 I-13.8278 J305.0954
G02 X261.7250 Y145.3491 I-48.3114 J6213.7146
G01 X250.3442 Y145.3439
G01 X237.8170 Y145.3412
G01 X224.0879 Y145.3404
G01 X208.8003 Y145.3405
G01 X195.0371 Y145.3416
G01 X182.7170 Y145.3445
G01 X171.7589 Y145.3502
G02 X134.5534 Y145.4503 I-3.4872 J5616.0314
G02 X121.0313 Y145.6698 I1.5446 J511.8487
G02 X117.0282 Y145.9437 I0.4353 J35.7494
G01 X116.4756 Y146.0465
G02 X115.5989 Y146.5945 I0.3624 J1.5554
G02 X116.1337 Y153.0213 I3.0025 J2.9858
G01 X116.3703 Y153.1646
G02 X118.7236 Y153.2883 I2.8522 J-31.8094
G01 X120.6663 Y153.3387
G01 X123.1456 Y153.3862
G00 Z20.0000


(No. 18: Engraving 18)
G00 X155.5775 Y302.3786 Z20.0000
G00 Z0.5000
G01 Z0.0000 F1000
G01 Z-34.0000
G01 X149.4207 Y302.3717 F1400
G01 X143.7040 Y302.3668
G01 X138.4562 Y302.3639
G02 X116.9177 Y302.4126 I-6.8885 J1716.2530
G02 X115.5078 Y303.2762 I0.8944 J3.0429
G02 X113.6492 Y306.3611 I4.3765 J4.7391
G02 X114.1563 Y308.4924 I2.8540 J0.4469
G02 X115.0011 Y309.5202 I5.2592 J-3.4616
G01 X116.3926 Y310.9117
G01 X224.2281
G01 X237.8134 Y310.9108
G01 X250.2408 Y310.9078
G01 X261.5615 Y310.9024
G01 X271.8266 Y310.8941
G01 X281.0871 Y310.8826
G02 X322.0642 Y310.6763 I3.5760 J-3359.7276
G02 X331.2076 Y310.4259 I-2.0199 J-240.7640
G01 X332.3662 Y310.3458
G01 X333.1587 Y310.2611
G02 X334.3203 Y309.7218 I-0.1161 J-1.7707
G02 X335.7863 Y305.9797 I-3.3228 J-3.4599
G02 X335.6022 Y305.1921 I-2.9563 J0.2755
G01 X335.4506 Y304.6718
G01 X335.3652 Y304.3116
G01 X335.3192 Y304.2055
G01 X335.2613 Y304.1466
G01 X334.9308 Y303.9835
G01 X334.1332 Y303.7722
G01 X332.7973 Y303.5672
G01 X330.8554 Y303.3854
G02 X320.5256 Y302.9909 I-14.0894 J233.4739
G02 X292.6280 Y302.7225 I-32.3657 J1914.1375
G01 X282.4668 Y302.6811
G01 X270.8298 Y302.6438
G01 X257.6164 Y302.6073
G01 X242.7258 Y302.5686
G01 X226.0573 Y302.5245
G01 X217.2309 Y302.5012
G01 X208.5865 Y302.4796
G01 X200.1526 Y302.4597
G01 X191.9579 Y302.4416
G01 X184.0312 Y302.4253
G01 X176.4011 Y302.4108
G01 X169.0963 Y302.3982
G01 X162.1455 Y302.3874
G01 X155.5773 Y302.3786
G00 Z20.0000


(No. 19: Engraving 19)
G00 X333.3288 Y332.6271 Z20.0000
G00 Z0.5000
G01 Z0.0000 F1000
G01 Z-34.0000
G03 X334.8137 Y327.9152 I14.8432 J2.0878 F1400
G03 X337.0474 Y325.0475 I7.9329 J3.8750
G03 X341.7937 Y323.3119 I4.8645 J5.9454
G03 X347.2167 Y324.6645 I0.1528 J10.9349
G03 X348.9651 Y325.7495 I-9.0456 J16.5285
G02 X348.9204 Y323.7642 I-15.2742 J-0.6489
G02 X348.7647 Y323.2650 I-0.7684 J-0.0342
G02 X347.7423 Y322.6457 I-2.2919 J2.6301
G02 X339.0816 Y321.6140 I-5.7800 J11.6533
G02 X336.5680 Y322.8347 I1.3970 J6.0750
G02 X332.6047 Y328.6274 I6.3683 J8.6093
G02 X331.7969 Y334.4943 I22.4402 J6.0787
G02 X332.4172 Y341.6631 I27.6618 J1.2177
G02 X334.2453 Y346.0852 I12.7834 J-2.6955
G02 X340.4698 Y349.9664 I7.3862 J-4.9139
G02 X345.7486 Y348.3899 I0.9495 J-6.4468
G02 X347.8961 Y345.3635 I-5.3629 J-6.0805
G02 X349.1823 Y340.3018 I-18.1066 J-7.2954
G02 X349.6146 Y335.9555 I-110.9400 J-13.2288
G01 X342.3375
G01 Y337.8911
G01 X347.0883
G03 X348.1554 Y339.1721 I0.0000 J1.0850
G01 X347.8022 Y341.0944
G03 X346.1688 Y345.2463 I-10.3547 J-1.6765
G03 X342.5424 Y347.9725 I-5.5188 J-3.5663
G03 X336.3644 Y346.2473 I-1.5993 J-6.1972
G03 X334.1654 Y342.5623 I7.6450 J-7.0607
G03 X333.0828 Y335.2093 I19.2424 J-6.5894
G01 X333.1636 Y333.9283
G01 X333.3177 Y332.6970
G00 Z20.0000


(No. 20: Engraving 20)
G00 X322.3903 Y331.7540 Z20.0000
G00 Z0.5000
G01 Z0.0000 F1000
G01 Z-34.0000
G03 X321.9593 Y342.1564 I-116.1973 J0.3956 F1400
G03 X320.6001 Y345.8649 I-6.7202 J-0.3597
G03 X315.9646 Y347.4824 I-3.5842 J-2.8208
G03 X313.0532 Y346.2220 I1.6570 J-7.8201
G03 X309.9971 Y343.7546 I19.9834 J-27.8783
G03 X309.6691 Y342.9774 I0.7570 J-0.7773
G01 Y321.8793
G01 X308.3128
G03 X308.2012 Y334.3297 I-795.3375 J-0.9061
G03 X307.9393 Y340.0774 I-83.7149 J-0.9345
G03 X307.3392 Y343.6360 I-16.8828 J-1.0171
G03 X302.9568 Y347.4975 I-5.0936 J-1.3632
G03 X300.1570 Y346.9338 I-0.4444 J-5.0284
G03 X297.7901 Y345.3312 I5.7108 J-10.9832
G01 X295.9794 Y343.8076
G03 X295.5929 Y342.9774 I0.6986 J-0.8302
G01 Y321.8793
G01 X293.6574
G01 X293.6573 Y335.4570
G01 Y349.0347
G02 X295.3701 Y349.0083 I0.6197 J-15.3562
G01 X295.4972 Y348.9942
G01 X295.5894 Y348.9803
G03 X295.9229 Y347.7007 I1.9579 J-0.1729
G03 X297.6592 Y347.3122 I1.1281 J0.9674
G03 X299.7708 Y348.4681 I-5.3197 J12.2246
G02 X302.4815 Y349.8285 I6.1296 J-8.8329
G02 X305.1992 Y349.8055 I1.3289 J-3.5679
G02 X307.3795 Y347.9878 I-2.5675 J-5.2962
G01 X308.9506 Y346.0188
G03 X310.5043 Y345.8713 I0.8481 J0.6767
G01 X312.8295 Y347.8616
G02 X315.9119 Y349.7465 I6.5820 J-7.3008
G02 X320.0090 Y349.5302 I1.7997 J-4.8209
G02 X321.5811 Y348.5726 I-2.6953 J-6.1940
G02 X322.6733 Y346.7898 I-2.6109 J-2.8255
G02 X323.2288 Y343.7832 I-14.3516 J-4.2066
G02 X323.5692 Y337.0608 I-94.9693 J-8.1778
G02 X323.8122 Y321.8793 I-2132.1977 J-41.7264
G01 X322.3959
G01 X322.3928 Y330.9133
G01 X322.3904 Y331.7488
G00 Z20.0000


(No. 21: Engraving 21)
G00 X284.1897 Y335.9574 Z20.0000
G00 Z0.5000
G01 Z0.0000 F1000
G01 Z-34.0000
G03 X283.4159 Y341.9894 I-26.5251 J-0.3373 F1400
G03 X281.7820 Y345.5791 I-9.8315 J-2.3082
G03 X280.2287 Y346.9434 I-3.9660 J-2.9490
G01 X280.2438 Y346.9343
G02 X279.8166 Y347.5016 I0.6428 J0.9285
G02 X279.5844 Y349.5357 I3.3225 J1.4097
G02 X281.7694 Y347.8467 I-3.8821 J-7.2804
G02 X284.5724 Y343.8622 I-9.3366 J-9.5462
G02 X285.2042 Y340.9716 I-7.9164 J-3.2446
G02 X285.3228 Y334.2830 I-93.6962 J-5.0073
G02 X285.0674 Y329.5940 I-40.8375 J-0.1271
G02 X284.3432 Y326.4818 I-12.3305 J1.2290
G02 X282.2419 Y323.4280 I-7.8778 J3.1707
G02 X279.8824 Y321.5467 I-8.9618 J8.8198
G01 X279.6925 Y321.4482
G01 X279.6229 Y321.4195
G02 X280.3211 Y324.0123 I3.2390 J0.5181
G02 X281.3391 Y325.1531 I10.8248 J-8.6351
G03 X283.4924 Y329.4091 I-8.4483 J6.9472
G03 X284.1905 Y335.9289 I-21.9809 J5.6506
G00 Z20.0000


(No. 22: Engraving 22)
G00 X268.1462 Y335.8452 Z20.0000
G00 Z0.5000
G01 Z0.0000 F1000
G01 Z-34.0000
G02 X268.4207 Y341.0790 I39.5097 J0.5524 F1400
G02 X269.9318 Y345.5327 I10.5360 J-1.0918
G02 X273.2804 Y349.2120 I11.2869 J-6.9090
G01 X273.5430 Y349.3787
G01 X273.7719 Y349.5011
G01 X273.8316 Y349.5188
G01 X273.8708 Y349.3446
G01 X273.8683 Y349.3557
G02 X273.6261 Y347.2290 I-3.3925 J-0.6908
G01 X273.6005 Y347.1955
G03 X271.5235 Y345.2332 I2.0136 J-4.2116
G03 X269.9431 Y340.5948 I12.0855 J-6.7062
G03 X269.6009 Y333.6285 I31.1965 J-5.0242
G03 X270.3973 Y328.5574 I19.7276 J0.5001
G03 X273.0081 Y324.4545 I8.6466 J2.6200
G02 X273.8893 Y321.8520 I-2.4128 J-2.2675
G01 X273.8806 Y321.6324
G02 X272.0653 Y322.8865 I4.2732 J8.1268
G02 X268.5857 Y328.4775 I9.4261 J9.7445
G02 X268.1710 Y332.2270 I15.1918 J3.5778
G02 X268.1463 Y335.8522 I143.0834 J2.7904
G00 Z20.0000


(No. 23: Engraving 23)
G00 X249.4640 Y343.7562 Z20.0000
G00 Z0.5000
G01 Z0.0000 F1000
G01 Z-34.0000
G01 X256.7953 F1400
G03 X257.8803 Y344.8412 I0.0000 J1.0850
G01 Y359.0054
G01 X259.2294
G01 Y321.8793
G01 X257.8803
G01 Y340.1491
G03 X256.7953 Y341.2341 I-1.0850 J0.0000
G01 X242.1326
G03 X241.0476 Y340.1491 I0.0000 J-1.0850
G01 Y321.8793
G01 X239.1121
G01 Y359.0054
G01 X241.0476
G01 Y344.8412
G03 X242.1326 Y343.7562 I1.0850 J0.0000
G01 X249.4640
G00 Z20.0000


(No. 24: Engraving 24)
G00 X209.2039 Y334.4756 Z20.0000
G00 Z0.5000
G01 Z0.0000 F1000
G01 Z-34.0000
G01 X209.2002 Y336.0260 F1400
G01 Y346.0142
G03 X208.1152 Y347.0992 I-1.0850 J0.0000
G02 X206.3079 Y347.1150 I-0.7971 J12.1686
G01 X206.3036 Y347.1406
G01 X206.3067 Y347.1223
G02 X206.3568 Y349.0872 I6.5168 J0.8167
G02 X207.0945 Y349.2323 I3.2873 J-14.7604
G03 X208.7515 Y350.9721 I-0.4905 J2.1262
G03 X209.0546 Y354.0576 I-16.9588 J3.2233
G01 X209.0783 Y354.6203
G01 X209.2085 Y357.8323
G01 X210.5492
G01 Y350.1197
G03 X211.6342 Y349.0347 I1.0850 J0.0000
G01 X218.1738
G01 Y347.0992
G01 X211.6342
G03 X210.5492 Y346.0142 I0.0000 J-1.0850
G03 X210.5796 Y333.7402 I440.8315 J-5.0468
G03 X210.9583 Y327.4773 I55.7232 J0.2268
G03 X211.3565 Y325.8832 I5.4165 J0.5062
G03 X215.0916 Y323.3633 I3.9195 J1.7816
G03 X218.1700 Y323.8946 I0.2708 J7.6149
G02 X218.1088 Y322.0521 I-10.8168 J-0.5627
G02 X218.0169 Y321.7652 I-0.4570 J-0.0118
G02 X217.3355 Y321.5463 I-0.9088 J1.6584
G02 X212.4837 Y321.6940 I-2.1434 J9.3513
G02 X210.1520 Y323.9808 I1.4274 J3.7877
G02 X209.5200 Y326.7859 I10.7290 J3.8909
G02 X209.2158 Y333.0552 I68.8056 J6.4807
G01 X209.2038 Y334.4821
G00 Z20.0000


(No. 25: Engraving 25)
G00 X202.4185 Y335.9555 Z20.0000
G00 Z0.5000
G01 Z0.0000 F1000
G01 Z-34.0000
G01 X193.9509 F1400
G01 Y337.8911
G01 X198.7017
G03 X199.7688 Y339.1721 I0.0000 J1.0850
G01 X199.4157 Y341.0944
G03 X197.7822 Y345.2463 I-10.3547 J-1.6765
G03 X194.1558 Y347.9725 I-5.5188 J-3.5663
G03 X187.9779 Y346.2473 I-1.5993 J-6.1972
G03 X185.7789 Y342.5623 I7.6450 J-7.0607
G03 X184.6962 Y335.2093 I19.2424 J-6.5894
G03 X185.9236 Y329.0116 I18.0098 J0.3462
G03 X188.1698 Y325.4894 I9.6969 J3.7068
G03 X193.4071 Y323.3119 I5.3609 J5.5068
G03 X198.8301 Y324.6645 I0.1528 J10.9348
G03 X200.5786 Y325.7495 I-9.0461 J16.5293
G02 X200.5338 Y323.7642 I-15.2743 J-0.6489
G02 X200.3781 Y323.2650 I-0.7684 J-0.0342
G02 X199.3557 Y322.6457 I-2.2919 J2.6300
G02 X190.6950 Y321.6140 I-5.7800 J11.6533
G02 X188.1814 Y322.8347 I1.3970 J6.0750
G02 X184.2181 Y328.6274 I6.3683 J8.6092
G02 X183.4104 Y334.4943 I22.4400 J6.0786
G02 X184.0306 Y341.6631 I27.6612 J1.2179
G02 X185.8587 Y346.0852 I12.7832 J-2.6954
G02 X192.0833 Y349.9664 I7.3863 J-4.9140
G02 X197.3620 Y348.3899 I0.9495 J-6.4467
G02 X199.5095 Y345.3635 I-5.3629 J-6.0805
G02 X200.7957 Y340.3018 I-18.1067 J-7.2954
G02 X201.3382 Y334.7701 I-141.1552 J-16.6344
G00 Z20.0000


(No. 26: Engraving 26)
G00 X171.7370 Y337.8911 Z20.0000
G00 Z0.5000
G01 Z0.0000 F1000
G01 Z-34.0000
G01 X174.6549 F1400
G03 X175.7220 Y339.1721 I0.0000 J1.0850
G01 X175.3688 Y341.0944
G03 X173.7354 Y345.2463 I-10.3547 J-1.6765
G03 X170.1090 Y347.9725 I-5.5188 J-3.5663
G03 X164.6319 Y346.8760 I-1.6145 J-6.1629
G03 X161.9701 Y343.2203 I5.6026 J-6.8765
G03 X160.7601 Y338.2956 I15.9165 J-6.5216
G03 X161.4447 Y330.2759 I20.6419 J-2.2769
G03 X163.0421 Y326.7494 I12.5891 J3.5776
G03 X164.9256 Y324.6757 I6.6050 J4.1067
G03 X168.0964 Y323.5237 I3.8519 J5.6628
G03 X175.7513 Y325.3135 I1.2821 J11.7808
G01 X176.5317 Y325.8300
G02 X176.4874 Y323.7712 I-16.0953 J-0.6836
G02 X176.3316 Y323.2647 I-0.7796 J-0.0374
G02 X175.3104 Y322.6462 I-2.2799 J2.6123
G02 X168.8541 Y321.3211 I-5.8298 J12.0126
G02 X165.2116 Y322.0927 I0.0490 J9.2147
G02 X160.4573 Y327.7323 I4.8507 J8.9130
G02 X159.4058 Y333.4694 I19.4317 J6.5262
G02 X159.7915 Y340.7568 I30.6111 J2.0337
G02 X161.4304 Y345.4683 I14.3394 J-2.3470
G02 X168.8161 Y350.0306 I7.7586 J-4.3008
G02 X173.5988 Y348.1377 I0.1368 J-6.6432
G02 X175.7797 Y344.5371 I-6.2220 J-6.2295
G02 X176.8609 Y338.9670 I-24.2134 J-7.5898
G01 X177.1576 Y335.9555
G01 X169.9041
G01 Y337.8911
G01 X171.7370
G00 Z20.0000


(No. 27: Engraving 27)
G00 X142.8843 Y334.0250 Z20.0000
G00 Z0.5000
G01 Z0.0000 F1000
G01 Z-34.0000
G03 X140.8822 Y341.8982 I-387.0839 J-94.2436 F1400
G03 X140.3655 Y342.8694 I-1.9035 J-0.3896
G03 X138.4539 Y342.6275 I-0.8577 J-0.8961
G03 X137.8550 Y341.2513 I4.2781 J-2.6801
G03 X135.9325 Y333.9526 I128.9224 J-37.8620
G01 X135.5694 Y332.4805
G01 X133.0124 Y322.0918
G01 X132.0083 Y321.9924
G01 X131.2265 Y321.9150
G01 X128.9014 Y334.0205
G01 X128.6951 Y335.0945
G01 X128.4911 Y336.1559
G01 X128.2903 Y337.2009
G01 X128.0932 Y338.2255
G01 X127.9008 Y339.2261
G01 X127.7137 Y340.1986
G01 X127.5326 Y341.1392
G01 X127.3584 Y342.0441
G02 X126.0119 Y349.0278 I4757.7234 J920.9214
G02 X127.2756 Y349.0160 I0.5256 J-11.3822
G02 X127.7576 Y347.6253 I-4.0767 J-2.1917
G02 X129.1032 Y340.2076 I-144.9341 J-30.1215
G03 X131.0903 Y329.5171 I184.3475 J28.7360
G03 X131.4649 Y328.3441 I4.2094 J0.6981
G03 X133.4878 Y328.4449 I0.9858 J0.5645
G03 X134.1845 Y330.3854 I-10.9822 J5.0381
G03 X137.1219 Y341.9486 I-203.8308 J57.9343
G02 X138.5207 Y347.4444 I88.9376 J-19.7106
G02 X139.0611 Y348.8743 I7.2604 J-1.9268
G01 X139.1376 Y348.9930
G01 X139.1659 Y349.0206
G02 X139.9340 Y349.0169 I0.3666 J-3.5998
G02 X140.5465 Y347.5285 I-4.8010 J-2.8460
G02 X142.5636 Y339.4583 I-158.6756 J-43.9479
G03 X145.2748 Y328.7319 I251.5977 J57.8871
G03 X145.5905 Y327.9450 I2.1478 J0.4048
G03 X147.5192 Y328.0704 I0.9270 J0.6375
G03 X148.0794 Y329.8455 I-6.9146 J3.1582
G03 X149.8595 Y339.5977 I-141.8981 J30.9395
G02 X151.0845 Y346.8315 I175.4046 J-25.9836
G02 X151.5992 Y348.7928 I11.3886 J-1.9407
G01 X151.6877 Y348.9776
G01 X151.7281 Y349.0295
G02 X152.8999 Y349.0105 I0.4521 J-8.2387
G02 X147.6544 Y322.0881 I-3498.6593 J667.7010
G01 X146.6957 Y321.9935
G01 X145.8696 Y321.9121
G03 X142.8845 Y334.0245 I-3709.8506 J-907.8645
G00 Z20.0000


(No. 28: Engraving 28)
G00 X117.6112 Y333.0597 Z20.0000
G00 Z0.5000
G01 Z0.0000 F1000
G01 Z-34.0000
G03 X117.2242 Y335.0408 I-7.1855 J-0.3756 F1400
G03 X115.7046 Y336.6606 I-3.6986 J-1.9470
G03 X111.5708 Y338.5678 I-9.3323 J-14.7938
G03 X107.7991 Y339.5586 I-12.1529 J-38.5889
G02 X103.7902 Y341.1822 I3.0054 J13.1816
G02 X100.0315 Y346.4042 I4.3435 J7.0901
G02 X99.8827 Y352.1998 I11.8736 J3.2046
G02 X104.8979 Y358.8271 I10.0439 J-2.3894
G02 X107.3841 Y359.4993 I2.6961 J-5.0382
G02 X115.2777 Y358.8888 I1.9826 J-25.7027
G02 X117.7952 Y357.9261 I-3.6556 J-13.3326
G02 X118.1839 Y357.3350 I-0.2944 J-0.6170
G02 X118.4087 Y354.4949 I-27.0607 J-3.5704
G03 X111.2968 Y357.3152 I-9.3702 J-13.2514
G03 X105.8021 Y356.6849 I-1.5860 J-10.4389
G03 X102.0282 Y353.0126 I2.5035 J-6.3481
G03 X103.0133 Y345.3303 I7.5373 J-2.9378
G03 X104.5289 Y343.9418 I3.9330 J2.7717
G03 X107.9106 Y342.7351 I8.7112 J19.0701
G03 X111.1254 Y341.8931 I56.3208 J208.4806
G02 X115.8376 Y339.9946 I-5.3562 J-20.0920
G02 X118.4444 Y337.7235 I-3.6710 J-6.8452
G02 X119.3573 Y335.4075 I-5.8617 J-3.6483
G02 X119.2385 Y328.9211 I-15.4145 J-2.9619
G02 X117.7737 Y325.1512 I-11.4446 J2.2772
G02 X114.9882 Y322.6704 I-5.9794 J3.9095
G02 X108.7442 Y321.2440 I-6.1502 J12.5426
G02 X101.9595 Y322.6438 I-0.2641 J15.8628
G01 X99.5231 Y323.7781
G01 Y327.3910
G03 X102.6464 Y325.2672 I12.7102 J15.3334
G03 X108.4953 Y323.4937 I6.9409 J12.3591
G03 X113.6862 Y324.4147 I0.9329 J9.8310
G03 X117.6400 Y330.0350 I-3.0590 J6.3529
G03 X117.6123 Y333.0480 I-16.5017 J1.3550
G00 Z20.0000


(No. 29: Engraving 29)
G00 X168.9071 Y382.6709 Z20.0000
G00 Z0.5000
G01 Z0.0000 F1000
G01 Z-34.0000
G01 Y373.4920 F1400
G01 X166.9716
G01 Y414.1371
G01 X168.9071
G01 Y398.2134
G03 X169.9921 Y397.1284 I1.0850 J0.0000
G01 X185.8278
G03 X186.9128 Y398.2134 I0.0000 J1.0850
G01 Y414.1371
G01 X188.8484
G01 Y373.4920
G01 X186.9128
G01 Y392.9348
G03 X185.8278 Y394.0198 I-1.0850 J0.0000
G01 X169.9921
G03 X168.9071 Y392.9348 I0.0000 J-1.0850
G01 Y382.6709
G00 Z20.0000


(No. 30: Engraving 30)
G00 X197.8475 Y384.6474 Z20.0000
G00 Z0.5000
G01 Z0.0000 F1000
G01 Z-34.0000
G02 X198.7478 Y395.9182 I28.6141 J3.3857 F1400
G02 X201.4523 Y401.2167 I14.3018 J-3.9606
G02 X205.2570 Y403.8493 I6.2985 J-5.0369
G02 X205.1753 Y401.5636 I-10.7208 J-0.7610
G02 X204.7093 Y400.9870 I-0.7195 J0.1049
G03 X202.8142 Y399.4991 I2.1635 J-4.7067
G03 X199.8174 Y391.7053 I9.6203 J-8.1721
G03 X199.8859 Y384.7223 I61.1991 J-2.8917
G03 X200.6308 Y380.6663 I16.5900 J0.9505
G03 X204.0766 Y376.0379 I8.4226 J2.6736
G02 X205.0187 Y375.0549 I-1.8715 J-2.7364
G02 X205.2705 Y373.7951 I-2.3174 J-1.1184
G02 X205.2027 Y372.7206 I-4.7114 J-0.2417
G01 X205.0406 Y372.7689
G01 X205.0504 Y372.7660
G02 X200.9847 Y375.8194 I2.6363 J7.7439
G02 X198.8051 Y380.1972 I12.6525 J9.0310
G02 X197.8417 Y384.6967 I22.2391 J7.1144
G00 Z20.0000


(No. 31: Engraving 31)
G00 X217.5120 Y386.5536 Z20.0000
G00 Z0.5000
G01 Z0.0000 F1000
G01 Z-34.0000
G02 X216.2991 Y380.0226 I-25.2476 J1.3105 F1400
G02 X213.5681 Y375.0627 I-13.5720 J4.2411
G02 X211.1970 Y373.1085 I-7.5118 J6.6989
G01 X211.0430 Y373.0328
G02 X211.1134 Y375.6045 I6.4487 J1.1101
G02 X211.6413 Y376.1990 I0.8415 J-0.2156
G03 X213.2338 Y377.9566 I-2.7704 J4.1103
G03 X214.6751 Y381.9740 I-13.1574 J6.9880
G03 X215.1253 Y393.1736 I-31.6301 J6.8801
G03 X213.9355 Y397.2548 I-13.4504 J-1.7070
G03 X211.8417 Y400.1741 I-9.6007 J-4.6756
G03 X211.2150 Y400.5856 I-2.7690 J-3.5339
G02 X210.9775 Y401.7027 I2.4417 J1.1028
G02 X211.0449 Y403.4540 I7.7805 J0.5778
G02 X214.3814 Y400.3913 I-4.9726 J-8.7659
G02 X216.7506 Y394.9350 I-14.1391 J-9.3819
G02 X217.5081 Y386.4890 I-27.2465 J-6.7007
G00 Z20.0000


(No. 32: Engraving 32)
G00 X241.3538 Y384.6225 Z20.0000
G00 Z0.5000
G01 Z0.0000 F1000
G01 Z-34.0000
G03 X241.1067 Y393.6557 I-238.5665 J-2.0060 F1400
G03 X240.7293 Y397.0219 I-20.4721 J-0.5911
G03 X238.5951 Y400.3483 I-4.9797 J-0.8472
G03 X234.6874 Y401.0092 I-2.7641 J-4.4596
G03 X230.4714 Y399.0439 I2.2441 J-10.3188
G01 X228.0001 Y397.2265
G03 X227.5579 Y396.3524 I0.6428 J-0.8741
G01 Y373.4920
G01 X226.2089
G01 Y388.2528
G01 Y402.9885
G02 X227.5080 Y402.9672 I0.5042 J-8.8984
G01 X227.5451 Y402.9538
G01 X227.5517 Y402.8739
G01 X227.5507 Y402.8859
G03 X227.7726 Y401.1533 I4.8794 J-0.2556
G03 X230.0342 Y400.3491 I1.4548 J0.5091
G03 X231.5420 Y401.6373 I-2.7650 J4.7626
G02 X236.1963 Y404.1365 I5.8571 J-5.3242
G02 X238.6640 Y403.6527 I0.3701 J-4.6470
G02 X241.0070 Y402.0255 I-2.7241 J-6.4229
G02 X241.4622 Y401.2016 I-1.3752 J-1.2974
G03 X242.3651 Y399.8698 I2.6482 J0.8236
G03 X244.7335 Y400.1022 I1.0612 J1.3694
G03 X245.1640 Y400.6419 I-3.5534 J3.2755
G02 X249.2893 Y403.4130 I13.5042 J-15.6474
G02 X252.4875 Y404.1560 I3.0710 J-5.9645
G02 X255.8337 Y402.5731 I-0.4173 J-5.2105
G02 X257.6546 Y399.4515 I-4.5523 J-4.7474
G02 X258.3499 Y395.1608 I-22.6019 J-5.8640
G02 X258.6382 Y386.2890 I-130.9017 J-8.6941
G01 X258.6429 Y384.3227
G01 Y373.4920
G01 X256.7566
G03 X256.4928 Y390.6755 I-1564.8209 J-15.4275
G03 X256.1993 Y396.3539 I-60.6778 J-0.2896
G03 X255.6892 Y398.4563 I-6.7442 J-0.5233
G03 X252.6229 Y400.9236 I-4.2500 J-2.1428
G03 X248.6917 Y400.6180 I-1.5069 J-6.0539
G03 X245.8804 Y398.8961 I3.6333 J-9.0878
G01 X243.6700 Y396.9806
G03 X243.2956 Y396.1542 I0.7106 J-0.8199
G01 X243.3662 Y384.2774
G01 X243.4305 Y373.4920
G01 X241.5263
G01 X241.3538 Y384.6217
G00 Z20.0000


(No. 33: Engraving 33)
G00 X267.3409 Y383.6653 Z20.0000
G00 Z0.5000
G01 Z0.0000 F1000
G01 Z-34.0000
G02 X267.5229 Y393.2999 I27.3420 J4.3027 F1400
G02 X269.1241 Y398.4635 I18.7182 J-2.9746
G02 X273.2861 Y403.0032 I9.7126 J-4.7267
G02 X283.6794 Y401.0209 I4.0705 J-6.8956
G02 X285.6251 Y396.6985 I-8.1223 J-6.2553
G02 X286.2088 Y391.3570 I-28.6511 J-5.8334
G01 Y388.7413
G01 X277.8216
G01 Y390.6768
G03 X281.7728 Y390.6889 I1.4763 J162.5157
G03 X283.4119 Y390.9159 I0.1628 J4.8562
G03 X284.7483 Y392.8498 I-0.5854 J1.8332
G03 X284.4316 Y394.8235 I-7.7745 J-0.2350
G03 X283.6595 Y397.4364 I-14.9000 J-2.9827
G03 X280.8801 Y400.7346 I-6.0700 J-2.2950
G03 X276.9799 Y401.6451 I-3.6492 J-6.8224
G03 X271.1983 Y398.7509 I-0.0599 J-7.1020
G03 X269.3152 Y394.6882 I8.8712 J-6.5798
G03 X268.7192 Y389.2494 I20.6810 J-5.0182
G03 X269.5396 Y382.6866 I26.8595 J0.0247
G03 X271.2314 Y378.7643 I12.3078 J2.9828
G03 X276.8516 Y375.2679 I6.5463 J4.2575
G03 X284.4835 Y376.9338 I1.4507 J11.6685
G02 X286.1760 Y377.8842 I24.2525 J-41.2087
G02 X286.1421 Y375.2108 I-18.5234 J-1.1017
G02 X285.7779 Y374.6878 I-0.6310 J0.0512
G02 X276.9124 Y372.5956 I-8.1080 J14.5272
G02 X271.5051 Y375.0149 I0.5488 J8.4793
G02 X268.6614 Y379.1827 I9.1217 J9.2778
G02 X267.3307 Y383.7256 I17.6554 J7.6380
G00 Z20.0000


(No. 34: Engraving 34)
G00 X297.9975 Y420.4760 Z20.0000
G00 Z0.5000
G01 Z0.0000 F1000
G01 Z-34.0000
G03 X261.3525 Y430.6372 I-73.4858 J-193.8587 F1400
G03 X240.5978 Y433.4046 I-39.7928 J-219.2252
G03 X226.0108 Y433.8725 I-14.6301 J-228.4767
G03 X208.5949 Y433.4993 I-2.6143 J-284.5250
G01 X207.0646 Y433.3987
G03 X123.2691 Y408.2986 I17.9193 J-212.2465
G03 X97.9180 Y391.8312 I93.0776 J-171.0381
G03 X88.7698 Y384.4476 I320.7438 J-406.7596
G01 X88.3797 Y384.1274
G01 X88.0006 Y383.8163
G01 X87.6346 Y383.5159
G01 X87.2835 Y383.2277
G01 X86.9493 Y382.9534
G01 X86.6339 Y382.6946
G01 X86.3394 Y382.4528
G02 X83.8261 Y380.5509 I-13.5103 J15.2410
G02 X81.5942 Y379.9648 I-2.2211 J3.9161
G02 X78.6890 Y380.0328 I-1.0266 J18.2484
G02 X76.6988 Y380.9173 I0.4699 J3.7386
G02 X73.6719 Y385.1642 I4.7277 J6.5717
G02 X73.6495 Y389.1897 I6.5528 J2.0493
G02 X74.9768 Y391.2472 I6.5864 J-2.7920
G02 X78.4857 Y394.6078 I29.5570 J-27.3491
G02 X93.8546 Y406.7117 I164.0893 J-192.5425
G02 X173.5569 Y443.2341 I131.8711 J-182.5523
G01 X178.8991 Y444.4237
G01 X184.2589 Y445.4745
G01 X193.8395 Y447.0155
G01 X203.4286 Y448.1418
G01 X213.0181 Y448.8574
G01 X222.5953 Y449.1653
G01 X232.1473 Y449.0688
G01 X241.6615 Y448.5709
G01 X251.1252 Y447.6748
G01 X260.5255 Y446.3838
G01 X269.8496 Y444.7008
G01 X279.0850 Y442.6291
G01 X288.2187 Y440.1718
G01 X297.2380 Y437.3321
G01 X306.1302 Y434.1132
G01 X314.8826 Y430.5181
G01 X323.4823 Y426.5501
G01 X331.9167 Y422.2122
G01 X340.1730 Y417.5077
G01 X348.2384 Y412.4397
G01 X356.1003 Y407.0112
G01 X363.7547 Y401.2190
G02 X373.0809 Y393.5290 I-132.0934 J-169.6992
G02 X376.1486 Y390.5290 I-23.8531 J-27.4607
G02 X377.5823 Y388.5251 I-6.4387 J-6.1214
G02 X378.1425 Y385.7039 I-6.5360 J-2.7639
G02 X373.3210 Y378.2254 I-8.3818 J0.1104
G02 X369.9828 Y377.6437 I-3.3507 J9.3594
G02 X367.1287 Y377.9852 I-0.4016 J8.7420
G02 X366.1296 Y378.5944 I1.4916 J3.5701
G02 X358.6182 Y384.6335 I149.0874 J193.1247
G03 X337.4849 Y400.2724 I-148.0281 J-177.9358
G03 X309.6347 Y415.6234 I-113.8029 J-173.5259
G01 X303.8599 Y418.1387
G01 X298.0292 Y420.4640
G00 Z20.0000


(No. 35: Engraving 35)
G00 X35.0795 Y310.9117 Z20.0000
G00 Z0.5000
G01 Z0.0000 F1000
G01 Z-34.0000
G01 X101.4714 F1400
G01 X102.9563 Y309.6622
G02 X103.2536 Y303.6305 I-2.4879 J-3.1458
G01 X102.1476 Y302.5245
G01 X30.4875
G03 X29.4716 Y301.8207 I0.0000 J-1.0850
G03 X25.1845 Y289.7432 I199.7611 J-77.7077
G03 X16.4974 Y250.4668 I212.9958 J-67.7093
G03 X15.6369 Y237.8782 I203.5853 J-20.2388
G03 X15.4800 Y213.5744 I335.1639 J-14.3162
G03 X16.2549 Y203.2275 I126.7655 J4.2908
G03 X23.2050 Y167.5388 I220.7680 J24.4718
G03 X25.1617 Y161.2171 I144.6211 J41.2995
G01 X27.3215 Y154.7615
G03 X28.3420 Y154.0208 I1.0289 J0.3442
G01 X66.0771 Y153.7275
G01 X103.2999 Y153.4383
G01 X104.0814 Y152.4730
G02 X104.8637 Y150.3915 I-3.6392 J-2.5555
G02 X104.6983 Y147.6967 I-5.7015 J-1.0025
G02 X103.6029 Y146.4040 I-2.5105 J1.0170
G02 X102.1581 Y145.9701 I-2.2756 J4.9542
G02 X97.4159 Y145.5611 I-5.5632 J36.8102
G02 X84.8212 Y145.3623 I-12.6379 J401.6035
G02 X64.5600 Y145.3388 I-18.1522 J6912.9418
G03 X36.6026 Y145.0870 I-2.1852 J-1309.6266
G03 X33.1100 Y144.9448 I1.3745 J-76.6993
G03 X32.1902 Y144.7180 I-0.0518 J-1.7690
G03 X31.6921 Y143.5435 I0.5590 J-0.9299
G01 X31.8138 Y143.0660
G03 X33.4742 Y139.3372 I37.3033 J14.3775
G03 X45.0009 Y117.7031 I353.9668 J174.7059
G03 X57.0592 Y99.8388 I159.1736 J94.4392
G03 X64.3033 Y90.8044 I302.9665 J235.5078
G02 X68.2777 Y85.5599 I-52.9190 J-44.2321
G02 X69.4487 Y83.4012 I-8.8720 J-6.2095
G02 X69.7414 Y80.7028 I-5.2492 J-1.9344
G02 X64.3218 Y74.6218 I-7.0754 J0.8503
G02 X57.9051 Y76.2943 I-1.6333 J6.8791
G02 X54.4448 Y79.9584 I22.0183 J24.2594
G02 X44.3803 Y92.7572 I212.0253 J177.0868
G01 X39.8949 Y99.1065
G01 X35.6376 Y105.6120
G01 X31.6115 Y112.2644
G01 X27.8197 Y119.0543
G01 X24.2653 Y125.9724
G01 X20.9515 Y133.0093
G01 X17.8814 Y140.1555
G01 X15.0582 Y147.4018
G01 X12.4849 Y154.7386
G01 X10.1646 Y162.1567
G01 X8.1006 Y169.6467
G01 X6.2958 Y177.1990
G01 X4.7534 Y184.8045
G01 X3.4765 Y192.4535
G01 X2.4681 Y200.1368
G01 X1.7314 Y207.8450
G01 X1.2694 Y215.5687
G01 X1.0852 Y223.2985
G02 X4.5879 Y264.4034 I233.2573 J0.8248
G02 X19.6676 Y314.6373 I218.2987 J-38.1509
G02 X42.3186 Y354.5935 I201.9150 J-88.0657
G02 X51.6297 Y367.1940 I288.3340 J-203.3240
G02 X55.4376 Y371.7327 I48.6894 J-36.9837
G02 X56.8081 Y372.9880 I6.7639 J-6.0088
G02 X59.2726 Y373.6025 I2.7534 J-5.7934
G02 X63.4236 Y373.1223 I0.9329 J-10.1171
G02 X66.7419 Y369.8500 I-2.2846 J-5.6353
G02 X65.9156 Y362.2301 I-6.8998 J-3.1065
G02 X62.3584 Y357.6495 I-40.8632 J28.0622
G03 X50.0840 Y341.0558 I155.4860 J-127.8492
G03 X42.4451 Y328.6192 I182.1827 J-120.4667
G03 X36.1466 Y317.0749 I206.8069 J-120.3229
G03 X34.0780 Y312.4140 I46.8555 J-23.5854
G00 Z20.0000


(No. 36: Engraving 36)
G00 X138.5411 Y34.9413 Z20.0000
G00 Z0.5000
G01 Z0.0000 F1000
G01 Z-34.0000
G03 X169.6867 Y23.7862 I84.6278 J187.2290 F1400
G03 X193.8919 Y18.7891 I56.9431 J214.7006
G03 X218.2320 Y16.9247 I26.8707 J190.9914
G03 X244.3768 Y17.7484 I5.4735 J241.6259
G03 X280.4407 Y24.4836 I-17.4881 J193.5617
G03 X326.1311 Y43.5269 I-58.4945 J204.6781
G03 X353.9331 Y62.2503 I-95.2815 J171.4849
G02 X359.4821 Y66.0861 I31.0173 J-38.9393
G02 X360.9084 Y66.6268 I2.1238 J-3.4505
G02 X366.2931 Y65.5449 I1.3943 J-7.0014
G02 X369.6622 Y55.9986 I-4.4762 J-6.9474
G02 X368.1057 Y53.3138 I-8.6730 J3.2344
G02 X364.8176 Y50.0083 I-19.6302 J16.2391
G02 X357.5475 Y44.4383 I-67.8263 J80.9997
G02 X344.9723 Y35.9565 I-183.3889 J258.3309
G01 X338.6416 Y32.0972
G01 X332.2011 Y28.4557
G01 X325.6567 Y25.0336
G01 X319.0144 Y21.8325
G01 X312.2802 Y18.8541
G02 X291.5859 Y11.2716 I-87.8388 J207.7011
G02 X263.0692 Y4.3796 I-67.0176 J214.8547
G01 X255.8149 Y3.2423
G01 X248.5225 Y2.3425
G01 X241.1980 Y1.6820
G01 X233.8473 Y1.2623
G01 X226.4765 Y1.0851
G01 X219.0914 Y1.1521
G01 X211.6928 Y1.4651
G02 X192.4325 Y3.6036 I14.6647 J219.8801
G02 X168.7349 Y8.3728 I34.2103 J231.2464
G02 X115.7484 Y29.7153 I56.4934 J216.7003
G02 X82.6873 Y52.2717 I116.7756 J206.6660
G02 X77.7470 Y56.4094 I60.1376 J76.8205
G02 X76.2552 Y58.0088 I6.7960 J7.8344
G02 X75.5856 Y59.6519 I3.1963 J2.2605
G02 X76.0899 Y64.9518 I8.2274 J1.8911
G02 X80.6428 Y68.8208 I6.4823 J-3.0147
G02 X82.8574 Y69.2039 I2.3648 J-7.0777
G02 X85.8131 Y68.3320 I-0.1826 J-6.0643
G02 X88.7953 Y66.2765 I-11.9481 J-20.5261
G02 X91.1525 Y64.3312 I-50.2116 J-63.2442
G03 X109.2868 Y50.8542 I114.3927 J134.9848
G03 X138.5196 Y34.9509 I117.8104 J181.7356
G00 Z20.0000


(No. 37: Engraving 37)
G00 X407.8711 Y127.1188 Z20.0000
G00 Z0.5000
G01 Z0.0000 F1000
G01 Z-34.0000
G03 X415.3674 Y142.6228 I-175.4417 J94.3921 F1400
G03 X415.6474 Y143.5545 I-2.4646 J1.2487
G03 X414.7459 Y144.7577 I-1.1937 J0.0450
G03 X412.6518 Y144.9982 I-2.2612 J-10.4535
G03 X398.7096 Y145.2871 I-14.4049 J-358.6187
G03 X368.1257 Y145.3541 I-26.9667 J-5327.6569
G02 X353.8467 Y145.5426 I-1.3674 J437.3712
G02 X348.1442 Y145.9731 I0.9990 J51.2224
G02 X346.2518 Y146.4692 I0.6729 J6.4241
G02 X345.1926 Y147.6057 I0.9864 J1.9812
G02 X345.7730 Y152.6786 I4.2368 J2.0849
G01 X346.7752 Y153.8438
G01 X382.7275 Y153.7590
G01 X419.1792 Y153.6730
G03 X420.2142 Y154.4243 I0.0026 J1.0850
G01 X422.2615 Y160.7603
G03 X431.0715 Y201.7767 I-190.6504 J62.4045
G03 X432.2184 Y230.5884 I-227.7879 J23.4960
G03 X429.6998 Y259.3878 I-199.3372 J-2.9225
G03 X423.2208 Y286.6679 I-201.1144 J-33.3553
G03 X419.1307 Y299.1090 I-211.6529 J-62.6899
G03 X418.2208 Y301.1563 I-10.3293 J-3.3647
G03 X416.8968 Y301.9689 I-1.8051 J-1.4563
G03 X414.2175 Y302.2928 I-3.0515 J-13.9998
G03 X403.9812 Y302.4949 I-10.3326 J-263.9621
G03 X369.1176 Y302.5039 I-19.9051 J-9616.8957
G02 X351.9984 Y302.6333 I-3.5104 J668.0424
G02 X348.0135 Y302.8561 I0.7901 J49.8692
G02 X346.6867 Y303.1418 I0.2075 J4.1874
G02 X344.9758 Y306.3396 I2.4173 J3.3499
G02 X345.4192 Y308.4633 I5.9605 J-0.1363
G02 X345.8730 Y309.4201 I2.4948 J-0.5972
G02 X346.8059 Y309.9816 I1.5296 J-1.4856
G02 X349.5070 Y310.4798 I3.8796 J-13.4640
G02 X357.0675 Y310.8251 I8.1526 J-95.5475
G02 X380.2264 Y310.9117 I18.7161 J-1909.3536
G03 X410.6131 Y311.1196 I4.6382 J1542.4556
G03 X412.4558 Y311.2406 I0.2094 J10.9064
G03 X413.1901 Y312.8237 I-0.2504 J1.0780
G03 X406.9944 Y325.1939 I-174.1462 J-79.4853
G03 X385.7128 Y357.0106 I-186.1382 J-101.4784
G02 X382.6326 Y361.5525 I25.9455 J20.9111
G02 X381.3153 Y365.0581 I9.4663 J5.5574
G02 X381.9374 Y369.2176 I6.7935 J1.1103
G02 X383.2823 Y371.3632 I7.6155 J-3.2793
G02 X387.4221 Y373.6648 I5.8876 J-5.7157
G02 X392.1930 Y373.4685 I2.0558 J-8.1072
G02 X393.7954 Y372.4911 I-1.2486 J-3.8492
G02 X396.9597 Y369.0380 I-33.1390 J-33.5440
G02 X424.0213 Y328.2042 I-174.8195 J-145.2413
G02 X444.5225 Y270.6028 I-200.5048 J-103.8120
G02 X447.6305 Y251.9060 I-244.3648 J-50.2279
G02 X448.8613 Y232.4102 I-182.8271 J-21.3287
G02 X448.6826 Y211.6373 I-388.3514 J-7.0457
G02 X446.5266 Y190.7770 I-166.0734 J6.6227
G02 X443.0435 Y173.1275 I-246.3579 J39.4497
G02 X413.7228 Y104.3772 I-219.3352 J52.9147
G02 X393.2769 Y77.1798 I-192.1380 J123.1578
G02 X389.2849 Y72.8763 I-49.3915 J41.8138
G02 X386.5820 Y70.7399 I-9.5456 J9.2983
G02 X383.2472 Y69.8200 I-3.6304 J6.6565
G02 X380.8775 Y69.8280 I-1.1536 J9.2949
G02 X378.8726 Y70.7564 I1.0147 J4.8203
G02 X376.0861 Y73.3764 I5.6087 J8.7568
G02 X374.7702 Y77.2996 I6.4829 J4.3569
G02 X374.7961 Y79.4288 I7.5349 J0.9729
G02 X375.6220 Y81.4917 I6.2229 J-1.2947
G02 X377.9642 Y84.7277 I25.1638 J-15.7474
G02 X384.0928 Y91.9400 I377.2053 J-314.3176
G03 X407.8644 Y127.1063 I-157.6312 J132.1727
G00 Z20.0000
G00 X0.0000 Y0.0000

M05
M30
