(Project sws-oxford-notab)
(Created by Estlcam version 11 build 11.244)
(Machining time about 00:12:51 hours)

(Required tools:)
(Thin ball nose)
G21
G90
G94
M03 S30000
G00 Z10.0000


(No. 1: Engraving 1)
G00 X82.4876 Y339.9352
G00 Z0.5000
G01 Z0.0000 F500 S30000
G01 Z-33.0000
G01 X76.7692 Y340.1031 F1300
G03 X75.6523 Y339.0185 I-0.0318 J-1.0845
G01 Y324.2254
G01 X74.8898
G01 Y338.9861
G01 Y353.7218
G01 X75.6523 Y353.7268
G01 Y342.4951
G03 X76.7373 Y341.4101 I1.0850 J0.0000
G01 X88.4675
G03 X89.5525 Y342.4951 I0.0000 J1.0850
G01 Y353.7268
G01 X90.3150
G01 Y324.2254
G01 X89.5639
G01 X89.4226 Y330.9344
G01 X89.2590 Y338.7057
G03 X88.2061 Y339.7674 I-1.0848 J-0.0228
G01 X82.4876 Y339.9352
G00 Z10.0000


(No. 2: Engraving 2)
G00 X109.9893 Y330.7795 Z10.0000
G00 Z0.5000
G01 Z0.0000 F500
G01 Z-33.0000
G03 X110.3813 Y336.3517 I-16.8797 J3.9876 F1300
G03 X109.2310 Y341.6059 I-17.5676 J-1.0932
G03 X108.1990 Y343.3474 I-5.4422 J-2.0484
G02 X107.2646 Y345.0546 I2.0882 J2.2523
G02 X107.1432 Y345.7690 I4.7593 J1.1764
G01 X107.1482 Y345.7891
G01 X107.2782 Y345.6933
G01 X107.2695 Y345.6997
G02 X109.9977 Y341.9945 I-6.8718 J-7.9169
G02 X111.0128 Y337.6364 I-14.5042 J-5.6756
G02 X110.6770 Y330.1142 I-23.9738 J-2.6983
G02 X109.4400 Y327.1136 I-8.6173 J1.7972
G02 X107.8027 Y324.9351 I-10.2689 J6.0132
G02 X106.1870 Y324.1857 I-2.7151 J3.7368
G02 X102.6855 Y323.8596 I-2.5179 J8.0739
G02 X101.2493 Y324.6101 I0.9185 J3.5070
G02 X98.8320 Y327.7042 I6.6248 J7.6672
G02 X97.9525 Y330.1282 I7.6698 J4.1545
G02 X97.5412 Y336.8938 I24.2829 J4.8716
G02 X98.4723 Y341.6629 I16.7442 J-0.7937
G02 X101.3369 Y345.6997 I9.6073 J-3.7829
G01 X101.4650 Y345.7933
G02 X100.7408 Y343.6942 I-4.2358 J0.2868
G03 X99.0208 Y340.8775 I4.7056 J-4.8070
G03 X98.2388 Y336.2855 I16.1314 J-5.1096
G03 X99.0709 Y329.6033 I19.1654 J-1.0065
G03 X100.2304 Y327.2430 I8.1483 J2.5380
G03 X103.6223 Y325.0330 I4.3672 J2.9948
G03 X107.4078 Y326.2512 I0.6006 J4.6242
G03 X109.7372 Y329.9341 I-5.7980 J6.2453
G01 X109.9700 Y330.7066
G00 Z10.0000


(No. 3: Engraving 3)
G00 X129.4264 Y331.7948 Z10.0000
G00 Z0.5000
G01 Z0.0000 F500
G01 Z-33.0000
G03 X129.1478 Y339.6971 I-84.8637 J0.9638 F1300
G03 X128.6792 Y342.1370 I-9.7889 J-0.6149
G03 X124.7741 Y344.6646 I-3.8501 J-1.6678
G03 X120.8300 Y343.1596 I0.0611 J-6.0805
G03 X119.2773 Y340.4733 I2.2448 J-3.0894
G03 X119.0147 Y336.7258 I33.9720 J-4.2629
G03 X118.8554 Y328.9889 I3115.5254 J-68.0104
G02 X118.6675 Y325.0967 I-40.4777 J0.0040
G02 X118.5293 Y324.3528 I-3.5604 J0.2767
G01 X118.5186 Y324.3430
G01 X118.4985 Y324.3388
G01 X118.5168 Y324.3426
G01 X118.3668 Y324.3195
G01 X118.2914 Y324.3087
G01 Y334.8297
G01 Y345.5157
G02 X119.0548 Y345.4825 I0.2603 J-2.8097
G01 X119.0605 Y345.4728
G03 X120.5434 Y344.0782 I1.3567 J-0.0431
G03 X121.8742 Y344.6776 I-0.5892 J3.0855
G02 X123.0402 Y345.4380 I7.6845 J-10.5079
G02 X127.1349 Y345.8551 I2.5595 J-4.8193
G02 X128.6213 Y344.7370 I-1.0563 J-2.9515
G02 X129.0461 Y344.0094 I-1.3024 J-1.2480
G03 X130.5976 Y343.0902 I1.1760 J0.2160
G03 X132.4795 Y344.1446 I-2.0431 J5.8535
G02 X134.2098 Y345.4379 I18.0113 J-22.2932
G02 X136.5369 Y346.0256 I1.9774 J-2.9288
G02 X138.5327 Y345.7662 I-0.0204 J-7.9651
G02 X139.9077 Y344.7530 I-0.7632 J-2.4751
G02 X140.8326 Y342.5199 I-3.0635 J-2.5770
G02 X141.1288 Y337.9943 I-43.7700 J-5.1374
G02 X141.3971 Y324.2254 I-1223.2315 J-30.7219
G01 X140.5787
G03 X140.5536 Y335.8361 I-553.2567 J4.6114
G03 X140.2919 Y340.5149 I-41.1816 J0.0424
G03 X139.6230 Y342.7491 I-5.7857 J-0.5148
G03 X135.4357 Y344.6594 I-3.4758 J-2.0745
G03 X132.3673 Y343.3466 I1.1892 J-7.0217
G01 X130.6532 Y342.1261
G03 X130.1976 Y341.2422 I0.6293 J-0.8838
G01 Y324.2254
G01 X129.4340
G01 X129.4264 Y331.7924
G00 Z10.0000


(No. 4: Engraving 4)
G00 X157.3392 Y335.9558 Z10.0000
G00 Z0.5000
G01 Z0.0000 F500
G01 Z-33.0000
G02 X154.2446 Y336.0446 I-0.7781 J26.8404 F1300
G01 X154.0728 Y336.0712
G02 X154.0757 Y336.6344 I6.8845 J0.2459
G01 X154.1851 Y336.6523
G01 X154.1668 Y336.6493
G02 X157.3822 Y336.7227 I2.4931 J-38.7681
G03 X159.5507 Y336.9005 I0.2897 J9.7803
G03 X161.0106 Y338.2006 I-0.3119 J1.8200
G03 X161.1071 Y339.0267 I-2.6901 J0.7331
G03 X159.3542 Y343.5157 I-6.2733 J0.1370
G03 X150.8205 Y343.0972 I-4.0832 J-3.9553
G03 X149.5068 Y340.5114 I4.8757 J-4.1035
G03 X148.9803 Y335.0660 I19.2741 J-4.6119
G03 X149.8351 Y329.6950 I18.5785 J0.2034
G03 X154.8248 Y325.2952 I6.3146 J2.1320
G03 X160.1473 Y326.1948 I1.4637 J7.5358
G02 X161.2782 Y326.7614 I22.2141 J-42.9279
G02 X161.1617 Y325.4087 I-3.7329 J-0.3596
G02 X160.6850 Y324.9379 I-0.8114 J0.3446
G02 X156.5185 Y323.9371 I-4.5726 J9.8636
G02 X153.5042 Y324.2077 I-0.7162 J8.9472
G02 X150.0976 Y326.9310 I1.8526 J5.8095
G02 X148.4837 Y331.6884 I10.6966 J6.2813
G02 X148.8665 Y339.9415 I23.4969 J3.0455
G02 X150.2057 Y343.2753 I10.5753 J-2.3124
G02 X154.8340 Y346.0768 I4.9320 J-2.9242
G02 X157.5634 Y345.8260 I0.6906 J-7.4626
G02 X160.2539 Y343.6159 I-1.2783 J-4.2989
G02 X161.2962 Y340.7072 I-9.3537 J-4.9928
G02 X161.6736 Y338.2830 I-22.3758 J-4.7247
G01 X161.9168 Y335.9555
G01 X158.0525
G01 X157.3369 Y335.9558
G00 Z10.0000


(No. 5: Engraving 32)
G00 X181.6461 Y340.2154 Z10.0000
G00 Z0.5000
G01 Z0.0000 F500
G01 Z-33.0000
G02 X179.6234 Y343.3457 I3.2543 J4.3215 F1300
G02 X179.4406 Y348.2387 I12.8499 J2.9300
G02 X181.9432 Y352.5732 I6.7045 J-0.9813
G02 X185.3561 Y353.9989 I4.5480 J-6.0895
G02 X189.9708 Y353.7933 I1.7645 J-12.2861
G01 X191.0295 Y353.5215
G01 X193.5405 Y352.7915
G01 Y350.5090
G03 X186.2400 Y352.7793 I-7.4130 J-10.9641
G03 X182.0888 Y351.0056 I0.0372 J-5.8316
G03 X180.0681 Y346.9733 I4.5515 J-4.8033
G03 X182.0438 Y342.4630 I5.2179 J-0.4022
G03 X186.0227 Y340.4030 I7.3042 J9.2357
G03 X188.2343 Y339.7691 I65.1904 J223.2676
G02 X192.0452 Y338.3594 I-5.9291 J-21.8850
G02 X194.3350 Y335.0695 I-2.9204 J-4.4744
G02 X194.0319 Y329.0280 I-10.5068 J-2.5013
G02 X188.5202 Y324.0526 I-7.3132 J2.5609
G02 X183.1776 Y324.1340 I-2.5046 J10.9765
G02 X179.2199 Y325.7135 I3.5422 J14.6241
G02 X178.7512 Y327.5684 I5.0887 J2.2725
G02 X178.6807 Y328.4403 I6.6088 J0.9734
G03 X179.9539 Y327.4428 I28.5479 J35.1275
G03 X185.7993 Y325.0927 I8.8437 J13.5521
G03 X187.2089 Y325.0121 I0.9470 J4.1947
G03 X189.9599 Y325.9441 I-2.4397 J11.7270
G03 X193.7169 Y332.1792 I-2.6783 J5.8632
G03 X191.1496 Y336.6165 I-5.3263 J-0.1204
G03 X189.2884 Y337.3601 I-4.9565 J-9.7046
G03 X184.8052 Y338.7050 I-37.1308 J-115.6282
G02 X182.0226 Y339.9524 I3.0146 J10.4519
G01 X181.5788 Y340.2673
G00 Z10.0000


(No. 6: Engraving 5)
G00 X213.9248 Y332.5118 Z10.0000
G00 Z0.5000
G01 Z0.0000 F500
G01 Z-33.0000
G03 X212.1095 Y339.2556 I-81.2101 J-18.2440 F1300
G03 X211.4357 Y340.8486 I-5.9914 J-1.5953
G03 X209.3464 Y340.5438 I-0.9768 J-0.6174
G03 X207.9833 Y335.6430 I56.3036 J-18.3002
G03 X205.9410 Y327.1767 I7994.9481 J-1933.0452
G02 X205.2271 Y324.7990 I-19.4731 J4.5512
G02 X204.9292 Y324.2327 I-1.6172 J0.4890
G02 X204.3641 Y324.2405 I-0.2285 J3.9277
G03 X200.1008 Y345.4271 I-1735.4582 J-338.1953
G02 X200.6836 Y345.3338 I-0.0765 J-2.3450
G02 X201.0975 Y344.2167 I-3.1746 J-1.8115
G02 X202.3035 Y337.7517 I-100.7201 J-22.1338
G03 X203.7344 Y330.7520 I82.6401 J13.2472
G03 X204.1711 Y329.5386 I4.6715 J0.9959
G03 X206.2891 Y329.7496 I1.0156 J0.5414
G03 X207.4989 Y333.9594 I-40.2986 J13.8597
G03 X209.4313 Y341.9662 I-586.6838 J145.8264
G02 X210.2996 Y344.9530 I21.7631 J-4.7069
G02 X210.5926 Y345.5101 I1.6239 J-0.4985
G02 X210.8174 Y345.5071 I0.0994 J-0.9665
G02 X211.3718 Y344.1652 I-4.6625 J-2.7116
G02 X213.1071 Y337.1507 I-132.9408 J-36.6094
G03 X214.9369 Y330.4156 I73.4962 J16.3523
G03 X215.3366 Y329.5152 I4.1657 J1.3101
G03 X217.4250 Y329.7237 I0.9969 J0.5774
G03 X218.1419 Y332.5988 I-17.1364 J5.7997
G03 X219.0083 Y337.8944 I-123.2198 J22.8802
G02 X220.0347 Y343.8648 I107.4457 J-15.3980
G02 X220.4700 Y345.4161 I8.2312 J-1.4730
G01 X220.5263 Y345.5113
G01 X220.6139 Y345.5153
G01 X220.6016 Y345.5148
G01 X220.8042 Y345.5157
G01 X220.8458 Y345.5173
G01 X220.8313 Y345.2535
G01 X220.8323 Y345.2712
G02 X220.1988 Y341.3306 I-49.8835 J5.9978
G02 X217.3864 Y327.2649 I-569.0401 J106.4629
G02 X216.7414 Y324.9226 I-17.6442 J3.5988
G02 X216.4521 Y324.3506 I-1.7936 J0.5482
G02 X216.1565 Y324.2955 I-0.2643 J0.5974
G01 X216.0955 Y324.4142
G01 X216.1012 Y324.4030
G02 X215.3257 Y326.8818 I18.5318 J7.1580
G02 X213.9247 Y332.5121 I347.8220 J89.5363
G00 Z10.0000


(No. 7: Engraving 7)
G00 X254.0000 Y335.9574 Z10.0000
G00 Z0.5000
G01 Z0.0000 F500
G01 Z-33.0000
G02 X251.5919 Y336.0448 I-0.5452 J18.1896 F1300
G01 X251.4319 Y336.0757
G02 X251.4361 Y336.6343 I7.6885 J0.2218
G01 X251.5455 Y336.6523
G01 X251.5271 Y336.6493
G02 X253.8635 Y336.7180 I1.8457 J-22.9955
G01 X257.3818
G03 X258.4668 Y337.8030 I0.0000 J1.0850
G01 Y339.6171
G03 X257.0785 Y343.1348 I-5.7861 J-0.2509
G03 X254.0482 Y345.2212 I-4.6767 J-3.5485
G03 X250.7201 Y344.7772 I-1.0311 J-4.9662
G03 X247.7639 Y341.7805 I3.1573 J-6.0711
G03 X246.3542 Y336.1485 I11.6184 J-5.9005
G03 X247.0350 Y330.7122 I15.1541 J-0.8629
G03 X249.4987 Y326.7728 I8.4756 J2.5605
G03 X255.5326 Y325.2626 I4.4471 J4.9593
G03 X259.2294 Y326.9808 I-2.6018 J10.4342
G02 X259.1298 Y325.8025 I-4.1919 J-0.2391
G02 X258.7559 Y325.4053 I-0.7402 J0.3223
G02 X254.9115 Y323.8736 I-6.7337 J11.3104
G02 X250.3014 Y324.5025 I-1.3353 J7.4233
G02 X247.7662 Y326.8815 I3.4849 J6.2540
G02 X245.9436 Y331.7141 I11.0320 J6.9205
G02 X246.2965 Y339.8070 I20.1416 J3.1758
G02 X247.5940 Y342.8711 I7.9566 J-1.5624
G02 X250.2938 Y345.5668 I11.8368 J-9.1550
G02 X252.1257 Y346.0817 I1.7807 J-2.8194
G02 X254.7162 Y346.0167 I0.9168 J-15.1237
G02 X256.4489 Y345.1241 I-0.3389 J-2.7860
G02 X258.9199 Y340.5577 I-5.8144 J-6.0982
G02 X259.2294 Y337.3600 I-15.1090 J-3.0760
G01 Y335.9555
G02 X253.9951 Y335.9574 I-2.2314 J1047.2262
G00 Z10.0000


(No. 8: Engraving 6)
G00 X233.7303 Y335.9690 Z10.0000
G00 Z0.5000
G01 Z0.0000 F500
G01 Z-33.0000
G02 X232.1725 Y336.0581 I-0.1731 J10.6418 F1300
G01 X232.1919 Y336.1791
G01 X232.1893 Y336.1632
G01 X232.2090 Y336.2568
G01 X232.2252 Y336.3014
G02 X233.4139 Y336.5023 I1.3472 J-4.3533
G02 X238.8389 Y336.7858 I13.9655 J-215.1855
G03 X239.7556 Y338.0855 I-0.1449 J1.0753
G01 X239.3557 Y339.9773
G03 X236.4270 Y344.5131 I-7.0378 J-1.3308
G03 X232.8219 Y345.2145 I-2.5811 J-3.6508
G03 X229.7033 Y343.4033 I2.1155 J-7.2330
G03 X227.6714 Y340.4581 I4.7888 J-5.4772
G03 X227.4638 Y338.9779 I4.9127 J-1.4438
G03 X227.3128 Y335.1013 I149.8562 J-7.7768
G03 X228.1837 Y329.9369 I14.2317 J-0.2558
G03 X230.6581 Y326.4203 I7.3743 J2.5601
G03 X235.9097 Y325.2630 I3.8645 J5.0421
G03 X239.8746 Y326.8890 I-2.2273 J11.0779
G02 X239.7887 Y325.3940 I-6.1212 J-0.3981
G02 X239.5954 Y325.1972 I-0.3358 J0.1365
G02 X237.4009 Y324.3606 I-5.8113 J11.9475
G02 X234.6306 Y323.7230 I-3.9742 J10.9317
G02 X232.0399 Y324.2368 I-0.2429 J5.5637
G02 X229.0541 Y326.1731 I2.9076 J7.7539
G02 X227.3488 Y329.4704 I5.5296 J4.9495
G02 X226.8166 Y334.0894 I21.1578 J4.7777
G02 X227.1337 Y339.2552 I26.6238 J0.9585
G02 X228.3634 Y343.0029 I11.2448 J-1.6141
G02 X232.6460 Y345.9949 I5.0249 J-2.6315
G02 X235.8974 Y345.9846 I1.5909 J-11.0009
G02 X237.2953 Y345.2166 I-0.5304 J-2.6215
G02 X238.8664 Y343.3715 I-6.4533 J-7.0865
G02 X239.6362 Y341.0527 I-6.2077 J-3.3479
G02 X240.3807 Y335.9555 I-88.1325 J-15.4771
G02 X233.7189 Y335.9692 I-2.6279 J341.9420
G00 Z10.0000


(No. 9: Engraving 8)
G00 X266.8549 Y335.0462 Z10.0000
G00 Z0.5000
G01 Z0.0000 F500
G01 Z-33.0000
G03 X267.0072 Y329.7151 I60.3966 J-0.9426 F1300
G03 X267.5207 Y327.6033 I5.7529 J0.2804
G03 X269.0383 Y325.8686 I4.7219 J2.5998
G03 X271.8757 Y325.2315 I2.1313 J2.8551
G03 X272.7142 Y325.3934 I-9.1718 J49.7516
G02 X272.6667 Y324.2254 I-5.0924 J-0.3781
G03 X270.3996 Y323.9293 I0.0908 J-9.5225
G02 X267.9811 Y324.6641 I0.1009 J4.6789
G02 X266.8881 Y326.3074 I2.1538 J2.6178
G02 X266.3115 Y329.3592 I13.5981 J4.1494
G02 X266.0903 Y336.6598 I82.1064 J6.1413
G03 X265.9605 Y341.9097 I-74.3882 J0.7875
G03 X265.6327 Y343.6553 I-5.8795 J-0.2008
G03 X264.3721 Y344.7350 I-1.5293 J-0.5098
G01 X264.3629 Y344.7722
G01 X264.3672 Y344.7545
G02 Y345.5143 I2.0142 J0.3799
G03 X265.5914 Y346.3524 I-0.2794 J1.7211
G03 X266.0268 Y348.0588 I-3.4818 J1.7972
G03 X266.0999 Y351.4048 I-51.9194 J2.8091
G02 X266.1782 Y352.5484 I6.2826 J0.1445
G02 X266.7703 Y352.5465 I0.2738 J-6.9339
G01 X266.7883 Y352.4370
G01 X266.7853 Y352.4554
G02 X266.8540 Y350.1190 I-22.9953 J-1.8457
G01 Y346.6007
G03 X267.9390 Y345.5157 I1.0850 J0.0000
G02 X272.1749 Y345.4958 I1.7453 J-79.2878
G02 X272.7127 Y345.4419 I0.0064 J-2.6468
G01 X272.7136 Y345.4310
G01 X272.7124 Y345.4448
G02 Y344.8240 I-7.3096 J-0.3104
G01 X272.5707 Y344.8020
G01 X272.5855 Y344.8041
G02 X270.8703 Y344.7531 I-1.4599 J20.2483
G01 X267.9390
G03 X266.8540 Y343.6681 I0.0000 J-1.0850
G01 Y336.0430
G01 X266.8549 Y335.0491
G00 Z10.0000


(No. 10: Engraving 9)
G00 X305.8568 Y338.9761 Z10.0000
G00 Z0.5000
G01 Z0.0000 F500
G01 Z-33.0000
G01 Y324.4009 F1300
G01 X305.2049 Y324.3259
G01 X304.8010 Y324.2794
G01 Y339.0185
G03 X303.6842 Y340.1031 I-1.0850 J0.0000
G01 X297.9657 Y339.9352
G01 X292.2472 Y339.7674
G03 X291.1943 Y338.7057 I0.0318 J-1.0845
G01 X290.8894 Y324.2254
G01 X290.1383
G01 Y338.9861
G01 Y353.7218
G01 X290.9008 Y353.7268
G01 Y342.4951
G03 X291.9858 Y341.4101 I1.0850 J0.0000
G01 X303.7160
G03 X304.8010 Y342.4951 I0.0000 J1.0850
G01 Y353.6727
G01 X305.2049 Y353.6262
G01 X305.8568 Y353.5512
G01 Y338.9761
G00 Z10.0000


(No. 11: Engraving 10)
G00 X325.8819 Y335.5135 Z10.0000
G00 Z0.5000
G01 Z0.0000 F500
G01 Z-33.0000
G03 X324.8554 Y341.3810 I-20.1567 J-0.5027 F1300
G03 X323.8267 Y343.3227 I-8.3101 J-3.1596
G02 X323.1262 Y345.0572 I4.2977 J2.7442
G02 X324.8457 Y343.1220 I-7.2117 J-8.1393
G02 X326.4173 Y338.8057 I-8.4593 J-5.5243
G02 X326.4983 Y332.7785 I-27.4398 J-3.3831
G02 X325.6481 Y328.5473 I-17.4801 J1.3114
G02 X324.0828 Y325.6386 I-8.5943 J2.7496
G02 X319.2165 Y323.7122 I-4.0856 J3.2110
G02 X316.6194 Y324.7392 I1.2649 J6.9959
G02 X314.3762 Y327.4863 I5.3869 J6.6880
G02 X313.6111 Y330.0839 I10.9810 J4.6460
G02 X313.2476 Y338.7661 I30.6714 J5.6328
G02 X313.6481 Y340.7338 I9.8118 J-0.9724
G02 X315.7105 Y344.2078 I12.1588 J-4.8692
G02 X317.2891 Y345.8104 I6.7799 J-5.0993
G01 X317.2585 Y345.5872
G01 X317.2602 Y345.5996
G02 X316.1843 Y343.3929 I-3.9745 J0.5723
G03 X314.7783 Y341.1459 I5.2160 J-4.8270
G03 X313.7202 Y335.6360 I16.3373 J-5.9938
G03 X314.3642 Y329.9153 I17.2125 J-0.9591
G03 X316.1970 Y326.7054 I7.4518 J2.1267
G03 X320.8046 Y325.1740 I3.6878 J3.3984
G03 X324.3887 Y327.7643 I-1.2859 J5.5540
G03 X325.7158 Y331.6452 I-7.8039 J4.8359
G03 X325.8832 Y335.4797 I-22.0683 J2.8843
G00 Z10.0000


(No. 12: Engraving 33)
G00 X344.9544 Y326.2044 Z10.0000
G00 Z0.5000
G01 Z0.0000 F500
G01 Z-33.0000
G02 X344.6121 Y335.1509 I360.7008 J18.2807 F1300
G03 X344.2653 Y340.8604 I-79.4813 J-1.9613
G03 X343.9011 Y342.7481 I-9.1543 J-0.7876
G03 X342.7370 Y344.1710 I-2.1391 J-0.5624
G03 X339.0918 Y344.4628 I-2.1537 J-3.9910
G03 X336.7985 Y343.3740 I3.1914 J-9.6821
G01 X334.8170 Y342.1494
G03 X334.3024 Y341.2264 I0.5704 J-0.9230
G01 Y324.2254
G01 X333.5399
G01 Y345.5157
G02 X334.2985 Y345.4871 I0.2740 J-2.8102
G01 X334.3015 Y345.4429
G01 X334.3004 Y345.4591
G03 X334.4110 Y344.3267 I3.5958 J-0.2204
G03 X336.2456 Y343.6025 I1.2098 J0.3787
G03 X337.6397 Y344.6280 I-3.7878 J6.6096
G02 X340.6682 Y346.1417 I3.9332 J-4.0829
G02 X343.9902 Y344.7849 I0.5673 J-3.3562
G01 X345.2604 Y343.0669
G03 X346.8487 Y342.8966 I0.8724 J0.6450
G02 X349.3690 Y345.0762 I24.2337 J-25.4744
G02 X351.9158 Y346.0988 I2.8428 J-3.3977
G02 X354.3256 Y345.8742 I0.4364 J-8.3601
G02 X355.9211 Y344.3636 I-0.6692 J-2.3047
G02 X356.6038 Y341.4431 I-10.6140 J-4.0211
G02 X357.0255 Y334.7384 I-75.7629 J-8.1309
G01 X357.0718 Y332.9381
G01 X357.2696 Y324.2254
G01 X356.5126
G03 X356.2204 Y336.0744 I-522.8301 J-6.9642
G03 X355.8104 Y341.2848 I-44.8532 J-0.9084
G03 X355.3533 Y342.9352 I-5.7419 J-0.7018
G03 X353.5048 Y344.4655 I-2.8939 J-1.6141
G03 X350.3133 Y344.4537 I-1.5781 J-4.7947
G03 X347.6487 Y342.9898 I2.2661 J-7.2813
G01 X345.8325 Y341.4615
G03 X345.4461 Y340.6313 I0.6986 J-0.8302
G02 X345.4353 Y327.5735 I-1352.0572 J-5.4122
G02 X345.3305 Y324.6544 I-32.3152 J-0.3011
G01 X345.2926 Y324.3524
G01 X345.2897 Y324.3321
G01 X345.2236 Y324.3424
G02 X344.9530 Y326.2232 I8.6678 J2.2069
G00 Z10.0000


(No. 13: Engraving 11)
G00 X377.0843 Y326.9571 Z10.0000
G00 Z0.5000
G01 Z0.0000 F500
G01 Z-33.0000
G01 X377.0088 Y326.9033 F1300
G02 X376.7261 Y325.5404 I-3.6910 J0.0547
G02 X375.9276 Y324.8746 I-1.4229 J0.8949
G02 X371.5490 Y323.8323 I-4.2078 J7.9585
G02 X366.3703 Y326.1272 I0.4205 J7.9395
G02 X364.4108 Y329.7160 I6.0608 J5.6387
G02 X363.8111 Y334.5353 I18.0872 J4.6976
G02 X364.3133 Y339.5580 I20.8560 J0.4510
G02 X365.7879 Y343.1996 I11.0184 J-2.3421
G02 X369.0861 Y345.8299 I5.1700 J-3.1000
G02 X372.1394 Y346.0105 I1.9394 J-6.8893
G02 X374.2873 Y345.4043 I-0.7415 J-6.7362
G02 X375.5401 Y344.0227 I-2.3211 J-3.3633
G02 X377.0792 Y338.7913 I-10.6686 J-5.9810
G02 X377.1175 Y335.9555 I-37.3908 J-1.9231
G02 X370.8294 Y335.9687 I-2.5036 J305.7541
G02 X369.3200 Y336.0757 I-0.2002 J7.8719
G02 X369.3253 Y336.6297 I6.8206 J0.2115
G01 X369.4776 Y336.6529
G01 X369.4609 Y336.6503
G02 X371.9830 Y336.7181 I1.9864 J-26.9687
G01 X375.7330
G03 X376.7914 Y338.0417 I0.0000 J1.0850
G01 X376.2910 Y340.2616
G03 X374.5545 Y343.6892 I-6.9466 J-1.3657
G03 X368.5596 Y344.6225 I-3.5799 J-3.2744
G03 X365.0665 Y340.4530 I3.7274 J-6.6706
G03 X364.3238 Y335.4389 I12.9900 J-4.4862
G03 X364.8591 Y331.1217 I19.8990 J0.2758
G03 X367.0196 Y327.3977 I7.6951 J1.9756
G03 X368.9417 Y325.6869 I9.3968 J8.6221
G03 X371.5746 Y325.0612 I2.1881 J3.3550
G03 X376.4910 Y326.5796 I-0.9295 J11.7281
G03 X377.0674 Y326.9453 I-3.3968 J5.9912
G00 Z10.0000


(No. 14: Engraving 12)
G00 X137.5738 Y118.2899 Z10.0000
G00 Z0.5000
G01 Z0.0000 F500
G01 Z-33.0000
G03 X135.5463 Y117.8113 I10.5675 J-49.3069 F1300
G03 X128.7987 Y113.1430 I4.2794 J-13.3959
G03 X125.8514 Y107.0838 I11.8919 J-9.5309
G03 X125.2245 Y94.1884 I33.1773 J-8.0758
G03 X126.3057 Y90.0857 I16.4378 J2.1381
G03 X132.4252 Y82.6248 I16.0639 J6.9356
G03 X136.0396 Y81.1018 I5.4675 J7.9254
G02 X136.8096 Y80.8385 I-0.5991 J-3.0095
G02 X136.9602 Y80.5907 I-0.1368 J-0.2527
G02 X137.1675 Y78.0204 I-15.3214 J-2.5294
G01 X137.1521 Y77.9481
G02 X134.2526 Y78.5380 I1.7961 J16.2502
G02 X129.5015 Y80.8164 I5.8881 J18.3705
G02 X125.5901 Y84.1329 I9.1774 J14.7887
G02 X121.7286 Y93.1028 I15.1992 J11.8591
G02 X121.3321 Y101.0112 I38.0117 J5.8701
G02 X121.7345 Y106.3690 I47.6617 J-0.8859
G02 X122.9751 Y110.3922 I13.7533 J-2.0382
G02 X127.8042 Y117.0113 I17.5639 J-7.7428
G02 X136.1625 Y120.7138 I10.1100 J-11.5375
G01 X137.8222 Y120.9104
G02 X137.7977 Y118.7529 I-26.0104 J-0.7839
G02 X137.7318 Y118.3513 I-1.3626 J0.0175
G01 X137.7139 Y118.3419
G01 X137.7229 Y118.3466
G01 X137.6536 Y118.3180
G01 X137.5193 Y118.2733
G00 Z10.0000


(No. 15: Engraving 13)
G00 X154.4823 Y114.9405 Z10.0000
G00 Z0.5000
G01 Z0.0000 F500
G01 Z-33.0000
G02 X157.5472 Y110.0325 I-11.5109 J-10.5992 F1300
G02 X159.3573 Y101.2066 I-25.3167 J-9.7907
G02 X157.4468 Y89.1544 I-30.3912 J-1.3600
G02 X153.9697 Y83.2331 I-18.2961 J6.7624
G02 X150.7520 Y80.6895 I-10.3491 J9.7848
G02 X144.9167 Y78.2307 I-10.7463 J17.3495
G01 X144.4244 Y78.1319
G01 X143.5112 Y77.9703
G02 X143.5337 Y80.4754 I37.3944 J0.9173
G02 X143.6080 Y81.0035 I2.2880 J-0.0524
G01 X143.6174 Y81.0159
G02 X144.5478 Y81.2568 I1.8319 J-5.1595
G03 X150.5195 Y84.6965 I-2.3329 J10.9538
G03 X153.7333 Y89.5902 I-13.8422 J12.5923
G03 X155.0580 Y93.0155 I-14.7101 J7.6581
G03 X155.4540 Y96.9324 I-17.8088 J3.7788
G03 X155.2687 Y103.7550 I-55.7888 J1.8985
G03 X153.8278 Y109.4870 I-18.1700 J-1.5203
G03 X147.9728 Y116.3833 I-15.5191 J-7.2422
G03 X144.5039 Y117.8902 I-5.7773 J-8.5531
G02 X143.6801 Y118.1922 I0.8199 J3.5114
G01 X143.6325 Y118.2231
G01 X143.6138 Y118.2386
G02 X143.5162 Y119.0642 I2.1961 J0.6782
G02 X143.5661 Y120.8739 I12.8920 J0.5498
G02 X147.2631 Y120.1205 I0.0839 J-9.0361
G02 X153.8699 Y115.5936 I-7.8360 J-18.5209
G01 X154.5160 Y114.9028
G00 Z10.0000


(No. 16: Engraving 14)
G00 X176.6401 Y103.4651 Z10.0000
G00 Z0.5000
G01 Z0.0000 F500
G01 Z-33.0000
G01 X181.2479 Y97.3449 F1300
G03 X182.9852 Y97.3500 I0.8668 J0.6526
G01 X187.5375 Y103.4701
G01 X191.7643 Y109.1529
G01 X195.4292
G03 X185.7973 Y97.0551 I454.2479 J-371.5416
G03 X184.5163 Y95.2297 I11.8784 J-9.6983
G03 X184.4713 Y93.9490 I1.1512 J-0.6816
G03 X186.1640 Y91.1763 I16.9690 J8.4563
G03 X191.9851 Y83.3824 I136.2212 J95.6704
G02 X195.6728 Y78.5070 I-187.1866 J-145.4164
G02 X191.6507 Y78.4784 I-2.5149 J70.9371
G01 X187.2087 Y84.5254
G01 X182.4415 Y91.0150
G03 X180.6911 Y91.0129 I-0.8744 J-0.6423
G01 X175.9478 Y84.5233
G01 X171.5295 Y78.4784
G01 X167.9253
G02 X174.2808 Y86.6705 I388.6180 J-294.9347
G01 X179.5792 Y93.3930
G03 X179.5721 Y94.7452 I-0.8521 J0.6716
G02 X168.4273 Y109.1297 I334.1527 J270.4042
G02 X172.3578 Y109.1529 I2.4422 J-80.7385
G01 X176.6400 Y103.4651
G00 Z10.0000


(No. 17: Engraving 15)
G00 X209.9627 Y106.1323 Z10.0000
G00 Z0.5000
G01 Z0.0000 F500
G01 Z-33.0000
G01 Y78.4784 F1300
G01 X206.8631
G01 X206.7179 Y91.6282
G01 X206.5608 Y105.8510
G03 X205.5800 Y106.9190 I-1.0849 J-0.0120
G02 X202.9259 Y107.2014 I0.9549 J21.5914
G01 X202.8224 Y107.2257
G01 X202.7974 Y107.2374
G01 X202.7864 Y107.2947
G01 X202.7891 Y107.2807
G02 X202.8057 Y109.1394 I8.2358 J0.8558
G02 X204.4700 Y109.3628 I3.2022 J-17.5423
G03 X206.1239 Y110.2877 I-0.1931 J2.2864
G03 X206.7126 Y112.0813 I-3.5392 J2.1552
G02 X207.1510 Y115.2659 I47.6750 J-4.9404
G02 X208.6221 Y118.9674 I10.0504 J-1.8513
G02 X212.5650 Y121.8702 I5.9504 J-3.9532
G02 X220.6363 Y122.2902 I4.9094 J-16.5800
G02 X221.6385 Y122.0633 I-0.2802 J-3.5637
G02 X221.6929 Y120.8321 I-8.5262 J-0.9935
G01 Y119.7000
G03 X216.2246 Y119.7659 I-4.5055 J-146.9331
G03 X214.0489 Y119.5380 I-0.2281 J-8.3199
G03 X211.8506 Y118.0400 I1.2252 J-4.1601
G03 X209.9918 Y113.7322 I4.6687 J-4.5695
G03 X209.9660 Y110.1528 I52.3267 J-2.1659
G03 X211.0477 Y109.1529 I1.0817 J0.0851
G01 X219.9333
G01 Y107.2173
G01 X211.0477
G00 Z10.0000


(No. 18: Engraving 16)
G00 X229.9845 Y101.6911 Z10.0000
G00 Z0.5000
G01 Z0.0000 F500
G01 Z-33.0000
G03 X228.8271 Y96.2684 I16.3341 J-6.3214 F1300
G03 X229.2853 Y88.9049 I26.6239 J-2.0392
G03 X231.4112 Y84.0518 I12.1077 J2.4117
G03 X235.6294 Y80.9234 I7.5306 J5.7459
G02 X236.1966 Y80.5370 I-0.3517 J-1.1256
G02 X236.3481 Y79.5916 I-1.9793 J-0.8022
G02 X236.3085 Y78.0076 I-9.9505 J-0.5432
G02 X234.2143 Y78.6394 I2.6348 J12.5209
G02 X228.0806 Y83.3296 I3.7612 J11.2745
G02 X225.9439 Y88.5999 I13.3568 J8.4835
G02 X225.3912 Y94.9533 I28.4182 J5.6726
G02 X225.7219 Y99.1079 I22.0303 J0.3371
G02 X227.2512 Y103.1428 I13.6128 J-2.8524
G02 X232.4982 Y108.6000 I11.9943 J-6.2812
G02 X236.3423 Y110.0489 I6.7960 J-12.2065
G02 X236.2847 Y107.8236 I-11.9611 J-0.8041
G02 X235.8484 Y107.2746 I-0.6608 J0.0773
G02 X234.4854 Y106.6383 I-11.5844 J23.0388
G03 X230.0098 Y101.7515 I4.2159 J-8.3540
G00 Z10.0000


(No. 19: Engraving 17)
G00 X249.1647 Y99.2797 Z10.0000
G00 Z0.5000
G01 Z0.0000 F500
G01 Z-33.0000
G03 X248.2607 Y102.0546 I-9.4746 J-1.5520 F1300
G03 X244.4781 Y106.4302 I-11.0239 J-5.7071
G03 X242.7442 Y107.1908 I-2.6149 J-3.6043
G01 X242.7287 Y107.2593
G01 X242.7316 Y107.2464
G02 X242.6311 Y108.7131 I7.7936 J1.2709
G01 Y109.8914
G02 X244.7798 Y109.2556 I-1.9184 J-10.4326
G02 X248.9224 Y106.1825 I-5.3829 J-11.5848
G02 X252.2157 Y100.8495 I-11.2035 J-10.6019
G02 X252.9476 Y89.7916 I-21.7831 J-6.9950
G02 X250.5574 Y83.7094 I-16.6997 J3.0521
G02 X242.8755 Y78.1244 I-10.7595 J6.7236
G01 X242.6872 Y78.0788
G01 X242.6449 Y78.0759
G02 X242.7225 Y80.4767 I11.8206 J0.8191
G02 X243.1470 Y80.9834 I0.5489 J-0.0287
G03 X245.9964 Y82.9756 I-3.2434 J7.6725
G03 X248.9489 Y87.5517 I-8.9593 J9.0212
G03 X249.5543 Y90.8214 I-14.9422 J4.4573
G03 X249.1726 Y99.2403 I-32.0437 J2.7653
G00 Z10.0000


(No. 20: Engraving 18)
G00 X267.4405 Y101.2768 Z10.0000
G00 Z0.5000
G01 Z0.0000 F500
G01 Z-33.0000
G01 Y78.4784 F1300
G01 X264.3319
G01 Y109.1529
G01 X267.4405
G01 Y105.4861
G03 X269.1835 Y104.6234 I1.0850 J0.0000
G02 X272.3978 Y106.9944 I23.8883 J-29.0205
G02 X279.1679 Y109.1248 I7.2573 J-11.2404
G02 X282.6897 Y109.1529 I2.2989 J-67.3897
G01 Y105.7758
G03 X277.8346 Y106.0131 I-6.3301 J-79.7210
G03 X273.3236 Y105.0217 I-0.3428 J-9.1991
G03 X268.0152 Y102.2343 I53.7014 J-108.7205
G00 Z10.0000


(No. 21: Engraving 19)
G00 X288.1685 Y96.0001 Z10.0000
G00 Z0.5000
G01 Z0.0000 F500
G01 Z-33.0000
G02 X289.1855 Y101.6282 I19.6711 J-0.6487 F1300
G02 X296.9101 Y109.3128 I12.2175 J-4.5564
G02 X303.1971 Y110.1857 I4.8926 J-12.1617
G02 X304.8615 Y109.8335 I-0.6450 J-7.1575
G01 X304.8968 Y109.8141
G02 X304.9770 Y108.4499 I-5.2071 J-0.9905
G01 Y107.2173
G01 X302.4494
G03 X297.6099 Y106.3851 I-0.3030 J-12.7253
G03 X292.6673 Y101.5804 I3.2705 J-8.3089
G03 X291.4503 Y96.6065 I14.7217 J-6.2380
G03 X291.8044 Y88.4630 I31.3098 J-2.7179
G03 X293.0069 Y84.9601 I12.0089 J2.1647
G03 X297.9980 Y81.2567 I6.3360 J3.3241
G03 X301.7077 Y81.0333 I2.7203 J14.2575
G03 X304.9691 Y81.5385 I-0.3977 J13.3457
G02 X304.9179 Y79.1375 I-18.0084 J-0.8165
G02 X304.8534 Y78.9195 I-0.4570 J0.0167
G02 X303.8670 Y78.5525 I-1.7282 J3.1356
G02 X296.3464 Y78.2275 I-4.4617 J16.0682
G02 X293.4254 Y79.5928 I1.4623 J6.9362
G02 X288.6792 Y86.3186 I8.6757 J11.1597
G02 X288.1565 Y90.1012 I15.4353 J4.0603
G02 X288.1700 Y96.0263 I70.9706 J2.8002
G00 Z10.0000


(No. 22: Engraving 20)
G00 X311.2526 Y77.3934 Z10.0000
G00 Z0.5000
G01 Z0.0000 F500
G01 Z-33.0000
G01 Y122.0560 F1300
G01 X314.3612
G01 Y78.4784
G01 X310.1676
G00 Z10.0000


(No. 23: Engraving 21)
G00 X55.5503 Y219.5184 Z10.0000
G00 Z0.5000
G01 Z0.0000 F500
G01 Z-33.0000
G03 X66.4730 Y219.4164 I10.2255 J510.2345 F1300
G01 X79.7579
G01 Y212.2023
G01 X44.9779
G01 Y224.1059
G01 X65.3655 Y247.8979
G01 X85.6895 Y271.6156
G01 X94.4206
G01 Y220.5014
G03 X95.5056 Y219.4164 I1.0850 J0.0000
G01 X107.3238
G01 Y212.2023
G01 X95.5056
G03 X94.4206 Y211.1173 I0.0000 J-1.0850
G01 Y188.1555
G01 X86.0255
G02 X86.0177 Y235.0105 I2918.2572 J23.9156
G03 X85.9583 Y256.7916 I-804.9471 J8.6976
G03 X85.8881 Y258.4083 I-30.0713 J-0.4956
G03 X85.5480 Y259.3637 I-1.3578 J0.0548
G03 X84.0117 Y259.4160 I-0.7942 J-0.7393
G01 X83.6947 Y259.1188
G03 X76.7132 Y251.2510 I309.1496 J-281.3567
G03 X53.2322 Y223.9314 I1686.2436 J-1473.0648
G01 X52.1671 Y222.6464
G03 X51.1643 Y221.3344 I6.6710 J-6.1380
G03 X51.9855 Y219.6960 I0.9591 J-0.5443
G03 X55.5463 Y219.5185 I3.5164 J34.7396
G00 Z10.0000


(No. 24: Engraving 22)
G00 X123.6168 Y202.5716 Z10.0000
G00 Z0.5000
G01 Z0.0000 F500
G01 Z-33.0000
G02 X122.4609 Y209.9481 I22.5312 J7.3094 F1300
G02 X122.8613 Y215.6477 I32.6389 J0.5711
G02 X124.5686 Y220.1040 I16.4166 J-3.7344
G02 X129.2389 Y226.4430 I22.6588 J-11.8043
G02 X132.1607 Y228.8310 I26.5263 J-29.4741
G02 X137.1104 Y227.1212 I-40.9604 J-126.5920
G02 X137.9779 Y226.7412 I-1.6700 J-4.9928
G01 X137.8767 Y226.6164
G01 X137.8850 Y226.6266
G03 X136.0775 Y224.6145 I133.2539 J-121.5235
G03 X133.0895 Y204.2072 I16.0904 J-12.7783
G03 X139.7839 Y196.0735 I16.5400 J6.7915
G03 X153.2789 Y192.6022 I11.7134 J17.5695
G03 X161.4970 Y194.5928 I-1.9000 J25.8036
G03 X166.7271 Y198.4778 I-6.6958 J14.4767
G03 X170.9558 Y208.1550 I-10.9082 J10.5292
G03 X170.5518 Y214.2523 I-22.5798 J1.5657
G03 X167.2372 Y220.2601 I-11.6338 J-2.5004
G03 X162.6176 Y223.6595 I-15.3900 J-16.0754
G03 X155.5482 Y227.0848 I-31.8020 J-56.6276
G03 X144.2125 Y231.4698 I-104.4760 J-253.2410
G02 X136.4645 Y234.7807 I25.6164 J70.6669
G02 X130.3335 Y238.9234 I11.6162 J23.7995
G02 X127.1286 Y242.4483 I14.4161 J16.3267
G02 X125.1147 Y247.9181 I9.9586 J6.7721
G02 X124.9745 Y255.4836 I32.9356 J4.3946
G02 X127.9542 Y262.8501 I14.1399 J-1.4336
G02 X138.0022 Y270.7845 I21.0484 J-16.3258
G02 X147.7350 Y273.1352 I11.7312 J-27.2483
G02 X158.9307 Y272.6244 I3.5045 J-46.1368
G02 X166.6027 Y270.2821 I-5.0083 J-30.1404
G02 X173.4176 Y265.4057 I-8.5927 J-19.2086
G02 X177.9930 Y256.3785 I-13.7496 J-12.6421
G02 X177.1282 Y246.5756 I-19.2479 J-3.2417
G02 X171.5523 Y238.0808 I-19.3468 J6.6217
G01 X169.1333 Y235.9059
G02 X163.5815 Y238.2723 I223.3786 J531.7623
G02 X165.0335 Y239.8961 I248.2551 J-220.5264
G03 X168.5432 Y246.9910 I-15.0770 J11.8739
G03 X169.0994 Y254.8333 I-18.8832 J5.2799
G03 X164.9482 Y262.4547 I-12.4346 J-1.8316
G03 X158.2389 Y266.1770 I-12.0986 J-13.8993
G03 X141.0767 Y264.7911 I-6.8159 J-22.5517
G03 X135.9649 Y260.5006 I5.7583 J-12.0508
G03 X133.9574 Y255.1713 I10.1176 J-6.8540
G03 X134.4563 Y249.1819 I12.3367 J-1.9878
G03 X137.0802 Y244.8975 I11.7089 J4.2253
G03 X141.6622 Y241.2071 I15.9219 J15.0788
G03 X148.3147 Y237.8132 I25.5127 J41.7920
G03 X154.7652 Y235.3289 I41.0608 J96.9964
G02 X164.4644 Y231.4262 I-32.7816 J-95.4756
G02 X171.6314 Y227.3415 I-19.9372 J-43.3112
G02 X176.4996 Y222.9260 I-13.9920 J-20.3182
G02 X180.3770 Y213.7875 I-13.3573 J-11.0593
G02 X179.1098 Y202.6590 I-23.1814 J-2.9966
G02 X171.7009 Y192.7764 I-21.5662 J8.4495
G02 X165.5124 Y189.0041 I-18.7809 J23.8480
G02 X158.4904 Y187.0180 I-12.0661 J29.2539
G02 X143.4967 Y187.0173 I-7.4988 J44.7575
G02 X132.2671 Y191.4361 I4.8896 J28.9048
G02 X124.6894 Y199.9799 I12.2405 J18.4887
G01 X124.1048 Y201.2716
G01 X123.5935 Y202.6411
G00 Z10.0000


(No. 25: Engraving 23)
G00 X241.4300 Y223.0689 Z10.0000
G00 Z0.5000
G01 Z0.0000 F500
G01 Z-33.0000
G03 X235.2985 Y227.8412 I-11.0890 J-7.9221 F1300
G03 X229.6856 Y229.3280 I-9.0351 J-22.7715
G03 X222.5896 Y229.7975 I-6.7715 J-48.4795
G01 X219.1708
G01 Y236.9094
G03 X226.2502 Y237.4596 I-5.6858 J118.9880
G03 X232.5242 Y238.8530 I-2.6598 J26.7982
G03 X238.9590 Y243.1352 I-6.2363 J16.3470
G03 X241.6387 Y247.7442 I-7.4233 J7.3995
G03 X242.3782 Y253.8194 I-14.6307 J4.8636
G03 X238.3980 Y261.4039 I-11.1130 J-0.9954
G03 X234.7308 Y263.7022 I-10.3617 J-12.4582
G03 X231.0982 Y264.9625 I-6.1426 J-11.8401
G03 X226.9033 Y265.2559 I-3.8968 J-25.5734
G03 X218.1974 Y264.7593 I-1.5716 J-49.0028
G03 X207.5935 Y261.4596 I6.4254 J-39.3367
G03 X202.1621 Y258.7770 I74.9483 J-158.5915
G01 Y268.3448
G01 X204.8143 Y269.3371
G02 X228.7249 Y273.0234 I20.9703 J-56.6317
G02 X237.4075 Y271.6149 I-1.8510 J-38.8748
G02 X242.1264 Y269.7157 I-6.2215 J-22.2699
G02 X249.5825 Y262.7107 I-11.1862 J-19.3773
G02 X250.9553 Y259.7545 I-8.3167 J-5.6588
G02 X251.4357 Y256.1663 I-18.7739 J-4.3402
G02 X251.5604 Y251.4373 I-47.2987 J-3.6130
G02 X250.7169 Y247.9589 I-9.0142 J0.3443
G02 X246.9536 Y241.8941 I-22.7230 J9.9002
G02 X243.5762 Y239.2454 I-12.9605 J13.0480
G02 X237.4297 Y236.0970 I-17.0078 J25.6304
G03 X236.2525 Y235.6480 I1.1430 J-4.7646
G03 X235.2146 Y234.0018 I0.8087 J-1.6602
G03 X236.4277 Y232.4877 I1.7199 J0.1350
G03 X237.5505 Y232.3082 I1.1741 J3.7420
G02 X240.7542 Y231.1949 I-5.0668 J-19.7457
G02 X244.8900 Y229.1411 I-12.4199 J-30.2024
G02 X249.5807 Y225.1620 I-9.1380 J-15.5263
G02 X253.0345 Y217.5595 I-13.0709 J-10.5239
G02 X253.4067 Y210.3055 I-29.0528 J-5.1271
G02 X251.1524 Y201.3240 I-23.4050 J1.1008
G02 X247.3946 Y195.4454 I-21.7466 J9.7607
G02 X243.0122 Y191.8332 I-17.7617 J17.0844
G02 X235.4476 Y188.0675 I-17.5306 J25.7353
G02 X230.9522 Y187.1404 I-8.2230 J28.5084
G02 X217.2790 Y186.8125 I-8.3745 J63.9634
G02 X212.8575 Y187.5281 I3.6589 J36.6232
G02 X202.5788 Y190.2242 I17.1599 J86.3635
G02 X199.8160 Y191.3278 I12.1711 J34.4782
G01 Y201.0580
G03 X205.9425 Y197.9569 I25.1228 J42.0297
G03 X222.3452 Y194.3517 I18.0618 J43.0597
G03 X229.9268 Y194.9789 I1.1971 J31.6639
G03 X233.8791 Y196.2356 I-3.4992 J17.8494
G03 X241.9593 Y203.7350 I-8.0377 J16.7628
G03 X243.8788 Y209.8242 I-15.3134 J8.1745
G03 X243.5192 Y218.4345 I-22.9661 J3.3534
G03 X241.4749 Y223.0048 I-12.7810 J-2.9744
G00 Z10.0000


(No. 26: Engraving 24)
G00 X298.1719 Y218.0386 Z10.0000
G00 Z0.5000
G01 Z0.0000 F500
G01 Z-33.0000
G01 X299.7895 Y221.0055 F1300
G03 X320.6504 Y259.6157 I-2959.3017 J1623.8433
G03 X321.7316 Y261.7836 I-24.1285 J13.3868
G03 X320.8803 Y263.2963 I-1.0716 J0.3929
G03 X318.2895 Y263.5312 I-2.9810 J-18.4732
G03 X300.8363 Y263.8085 I-16.3997 J-482.8103
G03 X273.7161 Y263.8150 I-15.6391 J-8723.4951
G01 Y271.6156
G01 X329.6104
G01 Y259.4856
G01 X310.5296 Y223.6549
G01 X291.6275 Y188.1599
G02 X282.3909 Y188.2038 I-3.4282 J250.6311
G01 X282.0570 Y188.2138
G01 X281.9822 Y188.2213
G02 X298.1720 Y218.0388 I6113.2559 J-3299.9611
G00 Z10.0000


(No. 27: Engraving 25)
G00 X373.4224 Y195.8986 Z10.0000
G00 Z0.5000
G01 Z0.0000 F500
G01 Z-33.0000
G01 Y253.3459 F1300
G03 X372.3374 Y254.4309 I-1.0850 J0.0000
G01 X355.2407
G01 Y259.8878
G03 X363.7027 Y260.7792 I0.3479 J37.3067
G03 X368.2970 Y262.1468 I-4.8284 J24.6213
G03 X374.2109 Y267.8748 I-5.0893 J11.1715
G03 X374.9478 Y270.2124 I-7.8797 J3.7687
G01 X375.1722 Y271.6157
G01 X382.3961
G01 Y195.8681
G03 X383.4811 Y194.7831 I1.0850 J0.0000
G01 X399.4048
G01 Y188.1555
G01 X355.2342
G01 X355.3607 Y191.2787
G01 X355.4916 Y194.5085
G01 X363.4128 Y194.6519
G01 X372.3571 Y194.8138
G00 Z10.0000


(No. 28: Engraving 26)
G00 X292.6287 Y302.7225 Z10.0000
G00 Z0.5000
G01 Z0.0000 F500
G01 Z-33.0000
G01 X282.4668 Y302.6811 F1300
G01 X270.8298 Y302.6438
G01 X257.6164 Y302.6073
G01 X242.7258 Y302.5686
G01 X226.0573 Y302.5245
G01 X217.2309 Y302.5012
G01 X208.5865 Y302.4796
G01 X200.1526 Y302.4597
G01 X191.9579 Y302.4416
G01 X184.0312 Y302.4253
G01 X176.4011 Y302.4108
G01 X169.0963 Y302.3982
G01 X162.1455 Y302.3874
G01 X155.5774 Y302.3786
G01 X149.4207 Y302.3717
G01 X143.7040 Y302.3668
G01 X138.4562 Y302.3639
G02 X116.9177 Y302.4126 I-6.8885 J1716.2665
G02 X115.5078 Y303.2762 I0.8944 J3.0428
G02 X113.6492 Y306.3611 I4.3765 J4.7392
G02 X114.1563 Y308.4924 I2.8540 J0.4469
G02 X115.0011 Y309.5202 I5.2592 J-3.4616
G01 X116.3926 Y310.9117
G01 X224.2281
G01 X237.8134 Y310.9108
G01 X250.2408 Y310.9078
G01 X261.5615 Y310.9024
G01 X271.8266 Y310.8941
G01 X281.0870 Y310.8826
G02 X322.0642 Y310.6763 I3.5760 J-3359.7266
G02 X331.2076 Y310.4259 I-2.0199 J-240.7645
G01 X332.3662 Y310.3458
G01 X333.1587 Y310.2611
G02 X334.3203 Y309.7218 I-0.1161 J-1.7707
G02 X335.7863 Y305.9797 I-3.3228 J-3.4599
G02 X335.6022 Y305.1921 I-2.9563 J0.2755
G01 X335.4507 Y304.6718
G01 X335.3652 Y304.3116
G01 X335.3192 Y304.2055
G01 X335.2613 Y304.1466
G01 X334.9308 Y303.9835
G01 X334.1332 Y303.7722
G01 X332.7973 Y303.5672
G01 X330.8554 Y303.3854
G02 X320.5256 Y302.9909 I-14.0894 J233.4742
G02 X292.6272 Y302.7225 I-32.3662 J1914.1805
G00 Z10.0000


(No. 29: Engraving 27)
G00 X225.5205 Y153.7460 Z10.0000
G00 Z0.5000
G01 Z0.0000 F500
G01 Z-33.0000
G01 X333.4264 Y153.7699 F1300
G01 X334.4049 Y152.6426
G02 X334.2299 Y147.1213 I-2.9551 J-2.6698
G02 X332.6912 Y146.0985 I-2.9937 J2.8350
G02 X330.4104 Y145.8411 I-3.0264 J16.5805
G02 X318.1161 Y145.5317 I-13.8278 J305.0952
G02 X261.7250 Y145.3492 I-48.3109 J6213.8454
G01 X250.3442 Y145.3440
G01 X237.8170 Y145.3413
G01 X224.0879 Y145.3405
G01 X208.8003 Y145.3406
G01 X195.0371 Y145.3417
G01 X182.7170 Y145.3445
G01 X171.7589 Y145.3501
G02 X134.5534 Y145.4497 I-3.5434 J5626.0426
G02 X121.0313 Y145.6689 I1.5314 J511.6292
G02 X117.0284 Y145.9429 I0.4332 J35.7011
G01 X116.4760 Y146.0458
G02 X115.5988 Y146.5945 I0.3644 J1.5580
G02 X116.1337 Y153.0213 I3.0025 J2.9857
G01 X116.3703 Y153.1646
G02 X118.7236 Y153.2883 I2.8522 J-31.8073
G02 X143.5778 Y153.5791 I28.4958 J-1373.4851
G02 X177.6122 Y153.6985 I51.6659 J-9870.8612
G01 X186.0751 Y153.7137
G01 X195.0951 Y153.7261
G01 X204.6745 Y153.7356
G01 X214.8156 Y153.7422
G01 X225.5207 Y153.7460
G00 Z10.0000


(No. 30: Engraving 31)
G00 X121.4138 Y43.5408 Z10.0000
G00 Z0.5000
G01 Z0.0000 F500
G01 Z-33.0000
G03 X165.2261 Y25.0353 I105.0454 J187.5824 F1300
G03 X179.3363 Y21.4685 I58.2435 J200.7150
G03 X203.3135 Y17.6885 I40.6906 J180.1714
G03 X223.6583 Y16.8775 I19.1856 J225.7015
G03 X249.9951 Y18.3343 I1.0538 J219.7497
G03 X288.2373 Y26.8586 I-24.2377 J198.7803
G03 X343.4618 Y54.3792 I-66.9368 J203.4881
G03 X353.4787 Y61.8952 I-106.4075 J152.2465
G02 X359.4821 Y66.0861 I33.2961 J-41.3014
G02 X360.9084 Y66.6268 I2.1238 J-3.4504
G02 X366.2931 Y65.5449 I1.3943 J-7.0014
G02 X369.6622 Y55.9986 I-4.4763 J-6.9475
G02 X368.1057 Y53.3137 I-8.6730 J3.2344
G02 X364.8176 Y50.0083 I-19.6302 J16.2391
G02 X357.5475 Y44.4383 I-67.8264 J80.9998
G02 X344.9723 Y35.9565 I-183.3850 J258.3251
G01 X338.6416 Y32.0972
G01 X332.2011 Y28.4557
G01 X325.6567 Y25.0336
G01 X319.0144 Y21.8325
G01 X312.2802 Y18.8541
G02 X291.5859 Y11.2716 I-87.8388 J207.7013
G02 X263.0693 Y4.3796 I-67.0177 J214.8549
G01 X255.8149 Y3.2423
G01 X248.5225 Y2.3425
G01 X241.1980 Y1.6820
G01 X233.8473 Y1.2623
G01 X226.4765 Y1.0851
G01 X219.0914 Y1.1521
G01 X211.6928 Y1.4651
G02 X192.4325 Y3.6036 I14.6645 J219.8782
G02 X168.7349 Y8.3728 I34.2106 J231.2478
G02 X115.7484 Y29.7153 I56.4936 J216.7008
G02 X82.6873 Y52.2717 I116.7752 J206.6655
G02 X77.7470 Y56.4094 I60.1373 J76.8200
G02 X76.2552 Y58.0088 I6.7960 J7.8344
G02 X75.5856 Y59.6519 I3.1963 J2.2605
G02 X76.0899 Y64.9518 I8.2274 J1.8911
G02 X80.6428 Y68.8208 I6.4824 J-3.0148
G02 X82.8574 Y69.2039 I2.3648 J-7.0776
G02 X85.8131 Y68.3320 I-0.1826 J-6.0643
G02 X88.7953 Y66.2765 I-11.9483 J-20.5263
G02 X91.1525 Y64.3312 I-50.2125 J-63.2452
G03 X109.2868 Y50.8542 I114.3927 J134.9848
G03 X121.3929 Y43.5525 I113.6831 J174.7974
G00 Z10.0000


(No. 31: Engraving 28)
G00 X382.7274 Y153.7590 Z10.0000
G00 Z0.5000
G01 Z0.0000 F500
G01 Z-33.0000
G01 X419.1792 Y153.6730 F1300
G03 X420.2142 Y154.4243 I0.0026 J1.0850
G01 X422.2615 Y160.7603
G03 X431.0715 Y201.7767 I-190.6513 J62.4047
G03 X432.2184 Y230.5884 I-227.7859 J23.4959
G03 X429.6998 Y259.3878 I-199.3382 J-2.9226
G03 X423.2208 Y286.6679 I-201.1204 J-33.3566
G03 X419.1307 Y299.1090 I-211.6416 J-62.6863
G03 X418.2208 Y301.1563 I-10.3288 J-3.3646
G03 X416.8968 Y301.9689 I-1.8051 J-1.4563
G03 X414.2175 Y302.2928 I-3.0515 J-13.9998
G03 X403.9812 Y302.4949 I-10.3325 J-263.9613
G03 X369.1176 Y302.5039 I-19.9049 J-9617.2538
G02 X351.9984 Y302.6333 I-3.5104 J668.0436
G02 X348.0135 Y302.8561 I0.7901 J49.8692
G02 X346.6867 Y303.1418 I0.2075 J4.1874
G02 X344.9758 Y306.3396 I2.4173 J3.3499
G02 X345.4192 Y308.4633 I5.9605 J-0.1363
G02 X345.8730 Y309.4201 I2.4948 J-0.5972
G02 X346.8060 Y309.9816 I1.5296 J-1.4856
G02 X349.5070 Y310.4798 I3.8796 J-13.4640
G02 X357.0675 Y310.8251 I8.1526 J-95.5474
G02 X380.2264 Y310.9117 I18.7160 J-1909.3535
G03 X410.6131 Y311.1196 I4.6382 J1542.4619
G03 X412.4558 Y311.2406 I0.2094 J10.9065
G03 X413.1901 Y312.8237 I-0.2504 J1.0780
G03 X406.9944 Y325.1939 I-174.1457 J-79.4850
G03 X385.7128 Y357.0106 I-186.1385 J-101.4788
G02 X382.6326 Y361.5525 I25.9454 J20.9110
G02 X381.3153 Y365.0581 I9.4663 J5.5574
G02 X381.9375 Y369.2176 I6.7936 J1.1103
G02 X383.2823 Y371.3632 I7.6157 J-3.2795
G02 X387.4221 Y373.6648 I5.8876 J-5.7157
G02 X392.1930 Y373.4685 I2.0558 J-8.1072
G02 X393.7954 Y372.4911 I-1.2486 J-3.8492
G02 X396.9597 Y369.0380 I-33.1392 J-33.5442
G02 X424.0213 Y328.2042 I-174.8185 J-145.2407
G02 X444.5225 Y270.6028 I-200.5051 J-103.8121
G02 X447.6305 Y251.9060 I-244.3633 J-50.2275
G02 X448.8613 Y232.4102 I-182.8279 J-21.3287
G02 X448.6826 Y211.6373 I-388.3524 J-7.0457
G02 X446.5266 Y190.7770 I-166.0742 J6.6227
G02 X443.0435 Y173.1275 I-246.3521 J39.4485
G02 X413.7228 Y104.3772 I-219.3352 J52.9148
G02 X393.2769 Y77.1798 I-192.1397 J123.1590
G02 X389.2849 Y72.8763 I-49.3910 J41.8134
G02 X386.5820 Y70.7399 I-9.5456 J9.2982
G02 X383.2472 Y69.8200 I-3.6304 J6.6566
G02 X380.8775 Y69.8280 I-1.1536 J9.2950
G02 X378.8726 Y70.7564 I1.0147 J4.8203
G02 X376.0861 Y73.3764 I5.6087 J8.7568
G02 X374.7702 Y77.2996 I6.4829 J4.3569
G02 X374.7961 Y79.4288 I7.5349 J0.9729
G02 X375.6220 Y81.4917 I6.2230 J-1.2947
G02 X377.9642 Y84.7277 I25.1640 J-15.7476
G02 X384.0928 Y91.9400 I377.2245 J-314.3343
G03 X413.3589 Y138.1282 I-159.0410 J133.1386
G03 X415.5434 Y143.0937 I-65.0852 J31.5961
G03 X415.4374 Y144.2894 I-1.0723 J0.5075
G03 X414.3904 Y144.8378 I-1.1365 J-0.8959
G03 X410.7080 Y145.0853 I-4.4618 J-38.8643
G03 X388.0801 Y145.3345 I-20.5774 J-841.1291
G03 X376.6999 Y145.3412 I-10.2128 J-7649.4108
G02 X358.4584 Y145.4307 I-3.2890 J1188.5521
G02 X350.4706 Y145.7200 I1.1246 J141.4846
G02 X347.3212 Y146.1273 I1.0670 J20.6309
G02 X345.9466 Y146.6408 I0.5598 J3.5948
G02 X345.1925 Y147.6057 I1.4270 J1.8925
G02 X345.7730 Y152.6786 I4.2369 J2.0849
G01 X346.7752 Y153.8438
G01 X382.7274 Y153.7590
G00 Z10.0000


(No. 32: Engraving 29)
G00 X98.3702 Y409.8891 Z10.0000
G00 Z0.5000
G01 Z0.0000 F500
G01 Z-33.0000
G02 X173.5569 Y443.2341 I127.2710 J-185.5336 F1300
G01 X178.8991 Y444.4237
G01 X184.2589 Y445.4746
G01 X193.8395 Y447.0155
G01 X203.4286 Y448.1418
G01 X213.0181 Y448.8574
G01 X222.5953 Y449.1653
G01 X232.1473 Y449.0688
G01 X241.6616 Y448.5709
G01 X251.1252 Y447.6748
G01 X260.5255 Y446.3838
G01 X269.8496 Y444.7008
G01 X279.0850 Y442.6291
G01 X288.2187 Y440.1718
G01 X297.2380 Y437.3321
G01 X306.1302 Y434.1132
G01 X314.8826 Y430.5181
G01 X323.4823 Y426.5501
G01 X331.9167 Y422.2122
G01 X340.1730 Y417.5077
G01 X348.2384 Y412.4397
G01 X356.1003 Y407.0112
G01 X363.7547 Y401.2190
G02 X373.0809 Y393.5290 I-132.0960 J-169.7023
G02 X376.1486 Y390.5290 I-23.8531 J-27.4607
G02 X377.5823 Y388.5251 I-6.4385 J-6.1213
G02 X378.1425 Y385.7039 I-6.5361 J-2.7640
G02 X373.3210 Y378.2254 I-8.3818 J0.1104
G02 X369.9828 Y377.6437 I-3.3507 J9.3593
G02 X367.1287 Y377.9852 I-0.4016 J8.7419
G02 X366.1296 Y378.5944 I1.4916 J3.5702
G02 X358.6182 Y384.6335 I149.0945 J193.1338
G03 X337.4849 Y400.2724 I-148.0282 J-177.9360
G03 X309.6347 Y415.6234 I-113.8029 J-173.5259
G03 X267.6581 Y429.3947 I-84.0791 J-185.4234
G03 X240.5978 Y433.4046 I-46.0267 J-217.2906
G03 X226.0108 Y433.8725 I-14.6301 J-228.4766
G03 X208.5949 Y433.4993 I-2.6143 J-284.5249
G01 X207.0646 Y433.3987
G03 X123.2692 Y408.2986 I17.9193 J-212.2465
G03 X97.9180 Y391.8312 I93.0776 J-171.0381
G03 X88.7698 Y384.4476 I320.7471 J-406.7639
G01 X88.3797 Y384.1274
G01 X88.0006 Y383.8163
G01 X87.6346 Y383.5159
G01 X87.2835 Y383.2277
G01 X86.9493 Y382.9534
G01 X86.6339 Y382.6946
G01 X86.3394 Y382.4528
G02 X83.8261 Y380.5509 I-13.5103 J15.2409
G02 X81.5942 Y379.9649 I-2.2211 J3.9161
G02 X78.6890 Y380.0328 I-1.0266 J18.2484
G02 X76.6988 Y380.9173 I0.4699 J3.7386
G02 X73.6719 Y385.1642 I4.7277 J6.5717
G02 X73.6495 Y389.1897 I6.5528 J2.0493
G02 X74.9768 Y391.2472 I6.5864 J-2.7920
G02 X78.4857 Y394.6078 I29.5569 J-27.3490
G02 X93.8546 Y406.7117 I164.0888 J-192.5419
G01 X98.3923 Y409.9042
G00 Z10.0000


(No. 33: Engraving 30)
G00 X34.9944 Y314.6134 Z10.0000
G00 Z0.5000
G01 Z0.0000 F500
G01 Z-33.0000
G01 X34.0780 Y312.4140 F1300
G03 X35.0795 Y310.9117 I1.0015 J-0.4173
G01 X101.4714
G01 X102.9563 Y309.6622
G02 X103.2536 Y303.6305 I-2.4879 J-3.1458
G01 X102.1476 Y302.5245
G01 X30.4875
G03 X29.4716 Y301.8207 I0.0000 J-1.0850
G03 X25.1845 Y289.7432 I199.7623 J-77.7081
G03 X16.4974 Y250.4668 I212.9957 J-67.7093
G03 X15.6369 Y237.8782 I203.5853 J-20.2388
G03 X15.4800 Y213.5745 I335.1638 J-14.3162
G03 X16.2549 Y203.2275 I126.7658 J4.2909
G03 X23.2050 Y167.5388 I220.7675 J24.4718
G03 X25.1617 Y161.2171 I144.6205 J41.2994
G01 X27.3215 Y154.7615
G03 X28.3420 Y154.0208 I1.0289 J0.3442
G01 X66.0772 Y153.7275
G01 X103.2999 Y153.4383
G01 X104.0814 Y152.4730
G02 X104.8637 Y150.3915 I-3.6391 J-2.5555
G02 X104.6983 Y147.6967 I-5.7015 J-1.0025
G02 X103.6029 Y146.4040 I-2.5105 J1.0170
G02 X102.1581 Y145.9701 I-2.2756 J4.9542
G02 X97.4159 Y145.5611 I-5.5632 J36.8103
G02 X84.8212 Y145.3623 I-12.6380 J401.6004
G02 X64.5600 Y145.3388 I-18.1522 J6912.4224
G03 X36.6026 Y145.0870 I-2.1852 J-1309.6058
G03 X33.1100 Y144.9448 I1.3745 J-76.6979
G03 X32.1902 Y144.7180 I-0.0518 J-1.7690
G03 X31.6921 Y143.5435 I0.5590 J-0.9299
G01 X31.8138 Y143.0659
G03 X33.4742 Y139.3372 I37.3033 J14.3775
G03 X45.0009 Y117.7031 I353.9718 J174.7085
G03 X57.0592 Y99.8388 I159.1715 J94.4379
G03 X64.3033 Y90.8044 I302.9813 J235.5198
G02 X68.2777 Y85.5599 I-52.9192 J-44.2323
G02 X69.4487 Y83.4012 I-8.8719 J-6.2095
G02 X69.7414 Y80.7028 I-5.2492 J-1.9344
G02 X64.3218 Y74.6218 I-7.0754 J0.8503
G02 X57.9051 Y76.2943 I-1.6333 J6.8791
G02 X54.4448 Y79.9584 I22.0179 J24.2590
G02 X44.3803 Y92.7572 I212.0298 J177.0902
G01 X39.8949 Y99.1065
G01 X35.6376 Y105.6120
G01 X31.6115 Y112.2644
G01 X27.8197 Y119.0543
G01 X24.2653 Y125.9724
G01 X20.9515 Y133.0093
G01 X17.8814 Y140.1555
G01 X15.0582 Y147.4018
G01 X12.4849 Y154.7386
G01 X10.1646 Y162.1567
G01 X8.1006 Y169.6467
G01 X6.2958 Y177.1990
G01 X4.7534 Y184.8044
G01 X3.4765 Y192.4535
G01 X2.4681 Y200.1368
G01 X1.7314 Y207.8450
G01 X1.2694 Y215.5687
G01 X1.0852 Y223.2985
G02 X4.5879 Y264.4034 I233.2573 J0.8248
G02 X19.6676 Y314.6373 I218.2987 J-38.1509
G02 X42.3186 Y354.5935 I201.9150 J-88.0657
G02 X51.6297 Y367.1940 I288.3341 J-203.3241
G02 X55.4376 Y371.7327 I48.6895 J-36.9837
G02 X56.8081 Y372.9880 I6.7639 J-6.0088
G02 X59.2726 Y373.6025 I2.7534 J-5.7934
G02 X63.4236 Y373.1223 I0.9329 J-10.1171
G02 X66.7419 Y369.8500 I-2.2846 J-5.6353
G02 X65.9156 Y362.2301 I-6.8998 J-3.1065
G02 X62.3584 Y357.6495 I-40.8631 J28.0621
G03 X50.0840 Y341.0558 I155.4854 J-127.8488
G03 X42.4451 Y328.6192 I182.1829 J-120.4668
G03 X36.1466 Y317.0749 I206.8059 J-120.3223
G03 X35.0021 Y314.6314 I34.3317 J-17.5701
G00 Z10.0000
G00 X0.0000 Y0.0000

M05
M30
