(Project wauneta.)
(Created by Estlcam version 11 build 11.244)
(Machining time about 00:11:45 hours)

(Required tools:)
(Thin ball nose)
G21
G90
G94
M03 S30000
G00 Z20.0000


(No. 1: Engraving 1)
G00 X122.3116 Y99.4078
G00 Z0.5000
G01 Z0.0000 F1000 S30000
G01 Z-34.0000
G02 X121.3676 Y103.1835 I8447.1581 J2113.9235 F1400
G03 X117.2757 Y118.8482 I-489.6152 J-119.5283
G03 X116.9305 Y119.7623 I-3.0212 J-0.6187
G03 X115.0792 Y119.7854 I-0.9337 J-0.6334
G03 X114.4925 Y118.4351 I4.3459 J-2.6908
G03 X111.2980 Y106.9225 I190.5361 J-59.0691
G03 X107.1438 Y90.1596 I7755.4476 J-1930.8418
G02 X105.6832 Y84.3228 I-339.3961 J81.8317
G02 X103.8452 Y84.1229 I-1.6099 J6.2537
G02 X100.6039 Y84.1166 I-1.9860 J189.2568
G01 X95.0772 Y105.0593
G03 X89.2019 Y127.0264 I-1978.0210 J-517.2747
G02 X93.1204 Y127.0761 I2.5183 J-43.9857
G03 X99.2608 Y102.4951 I1986.9773 J483.2884
G03 X101.8745 Y93.0798 I172.8236 J42.9068
G03 X102.6089 Y91.2049 I10.6026 J3.0716
G03 X104.2992 Y90.6999 I1.0711 J0.5036
G03 X104.8229 Y91.4480 I-0.7041 J1.0502
G03 X108.1455 Y104.2185 I-407.2173 J112.7675
G03 X110.3241 Y112.9817 I-8044.6570 J2004.5593
G02 X113.8748 Y127.0854 I1118.2370 J-274.0319
G01 X116.0033 Y126.9610
G01 X118.2214 Y126.8314
G03 X125.1689 Y99.2113 I1974.3857 J481.9478
G03 X127.2975 Y91.4320 I216.4373 J55.0400
G03 X127.6648 Y90.4131 I4.8302 J1.1656
G03 X129.7300 Y90.6358 I0.9912 J0.4961
G03 X131.5191 Y97.2103 I-149.1779 J44.1244
G03 X137.0004 Y118.7704 I-6614.4212 J1693.1080
G02 X139.1949 Y126.9989 I264.6969 J-66.1848
G02 X142.4774 Y126.8765 I0.7973 J-22.6955
G01 X139.3753 Y114.9541
G01 X139.0870 Y113.8459
G01 X138.7890 Y112.7011
G01 X138.4830 Y111.5255
G01 X138.1704 Y110.3251
G01 X137.8529 Y109.1056
G01 X137.5319 Y107.8730
G01 X137.2090 Y106.6333
G01 X136.8856 Y105.3921
G01 X136.5635 Y104.1556
G01 X136.2439 Y102.9294
G01 X135.9286 Y101.7196
G01 X135.6191 Y100.5320
G01 X135.3168 Y99.3725
G01 X135.0233 Y98.2470
G01 X134.7402 Y97.1613
G01 X134.4690 Y96.1213
G01 X134.2111 Y95.1331
G01 X133.9682 Y94.2023
G01 X133.7418 Y93.3349
G01 X133.5334 Y92.5368
G01 X131.3341 Y84.1166
G01 X126.1802
G02 X122.3115 Y99.4079 I1664.4059 J429.2248
G00 Z20.0000


(No. 2: Engraving 2)
G00 X152.2660 Y100.5930 Z20.0000
G00 Z0.5000
G01 Z0.0000 F1000
G01 Z-34.0000
G02 X156.6134 Y102.4396 I8.8087 J-14.6970 F1400
G02 X162.5139 Y103.4623 I8.5438 J-31.7593
G01 X165.2209 Y103.7005
G01 X165.1386 Y102.6963
G01 X165.0247 Y101.3043
G03 X160.6469 Y100.7780 I4.8502 J-58.8162
G03 X156.4772 Y99.6633 I2.6895 J-18.4155
G03 X153.5108 Y97.7187 I2.8107 J-7.5225
G03 X151.7853 Y93.6436 I4.7694 J-4.4224
G03 X152.7024 Y89.3791 I6.9677 J-0.7324
G03 X154.4761 Y87.3171 I7.5604 J4.7095
G03 X156.7936 Y86.4483 I2.5988 J3.4068
G03 X161.1017 Y86.3501 I3.1511 J43.7019
G03 X164.3781 Y86.6778 I0.1961 J14.5832
G03 X167.4425 Y88.0580 I-2.9262 J10.5892
G01 X167.8196 Y88.2887
G01 X170.7066 Y90.0755
G03 X171.2205 Y90.9981 I-0.5710 J0.9226
G01 Y108.9184
G03 X170.8582 Y109.7277 I-1.0850 J0.0000
G03 X168.1635 Y112.0993 I-35.4792 J-37.5967
G03 X165.1482 Y113.3078 I-3.4315 J-4.1957
G03 X160.9675 Y113.4016 I-3.0029 J-40.6256
G03 X154.0416 Y112.5828 I1.0469 J-38.5569
G02 X151.0956 Y111.8450 I-19.5680 J71.8755
G02 X151.1126 Y113.2916 I12.4934 J0.5770
G01 X151.2370 Y115.2271
G02 X156.1905 Y116.1143 I13.5305 J-61.2762
G02 X166.1707 Y115.9166 I4.3442 J-32.6997
G02 X169.8267 Y114.7835 I-2.1593 J-13.4327
G02 X172.2998 Y113.0150 I-3.0455 J-6.8725
G02 X174.0769 Y109.7121 I-8.2454 J-6.5657
G02 X174.5153 Y106.1995 I-15.1959 J-3.6803
G02 X174.6185 Y96.0945 I-267.3330 J-7.7821
G01 Y84.1166
G02 X171.9244 Y84.1381 I-1.0103 J42.2891
G02 X171.5216 Y84.1772 I0.1171 J3.3026
G01 X171.5193 Y84.2061
G01 X171.5204 Y84.1928
G03 X171.2735 Y86.1999 I-5.8868 J0.2947
G03 X169.5487 Y86.9130 I-1.1655 J-0.3766
G03 X166.0428 Y85.0736 I20.1714 J-42.7085
G02 X157.3908 Y83.0182 I-7.7738 J13.4856
G02 X149.9765 Y86.8746 I0.5373 J10.0887
G02 X148.1798 Y92.0417 I7.5746 J5.5297
G02 X148.4637 Y95.6272 I13.4784 J0.7366
G02 X151.6284 Y100.1606 I7.5528 J-1.9012
G01 X152.3293 Y100.6325
G00 Z20.0000


(No. 3: Engraving 3)
G00 X187.9817 Y99.2749 Z20.0000
G00 Z0.5000
G01 Z0.0000 F1000
G01 Z-34.0000
G02 X187.9265 Y115.3542 I1563.8046 J13.4066 F1400
G01 X190.8981
G03 X191.3173 Y99.0450 I1061.8254 J19.1349
G03 X191.7247 Y93.1248 I66.7525 J1.6190
G03 X192.3579 Y90.1728 I14.1148 J1.4838
G03 X194.7631 Y87.2545 I4.9041 J1.5916
G03 X200.2882 Y86.1256 I4.4156 J7.5264
G03 X205.5568 Y87.7764 I-2.2402 J16.3827
G01 X206.1822 Y88.0898
G01 X209.9027 Y90.0154
G03 X210.4890 Y90.9656 I-0.4987 J0.9636
G01 X210.6469 Y103.6957
G01 X210.7916 Y115.3542
G01 X213.8870
G01 Y84.1166
G02 X211.1392 Y84.1351 I-1.0434 J49.2886
G01 X210.9438 Y84.1486
G01 X210.8059 Y84.1634
G01 X210.7927 Y84.2375
G01 X210.7938 Y84.2249
G02 X210.7776 Y86.7269 I73.8459 J1.7304
G03 X209.0677 Y87.5119 I-1.0805 J-0.0988
G02 X205.9160 Y85.3547 I-20.7359 J26.9146
G02 X199.3791 Y83.0704 I-8.5267 J13.9054
G02 X192.6972 Y84.3063 I-1.4063 J11.0776
G02 X190.4882 Y85.7747 I3.6632 J7.9064
G02 X188.9294 Y88.5368 I4.3918 J4.2996
G02 X188.2496 Y92.6770 I20.5377 J5.4979
G02 X187.9815 Y99.2846 I96.1718 J7.2110
G00 Z20.0000


(No. 4: Engraving 4)
G00 X231.1769 Y108.5053 Z20.0000
G00 Z0.5000
G01 Z0.0000 F1000
G01 Z-34.0000
G01 X231.0190 Y95.7752 F1400
G01 X230.8743 Y84.1166
G01 X227.7789
G01 Y99.7354
G01 Y115.3542
G02 X230.4730 Y115.3327 I1.0103 J-42.2890
G02 X230.8757 Y115.2936 I-0.1171 J-3.3025
G01 X230.8781 Y115.2647
G01 X230.8770 Y115.2780
G03 X231.1239 Y113.2709 I5.8869 J-0.2947
G03 X232.8421 Y112.5547 I1.1653 J0.3763
G03 X236.2447 Y114.3352 I-18.8730 J40.2076
G02 X244.6883 Y116.4840 I7.9789 J-13.6891
G02 X249.6211 Y114.9448 I-0.2032 J-9.3249
G02 X251.7549 Y112.9478 I-6.8286 J-9.4351
G02 X252.9388 Y110.5064 I-5.2124 J-4.0353
G02 X253.5447 Y106.0144 I-23.4975 J-5.4562
G02 X253.7236 Y98.1535 I-159.9995 J-7.5746
G01 X253.7287 Y96.0704
G01 X253.7405 Y84.1166
G01 X250.6367
G03 X250.5932 Y97.8504 I-549.7475 J5.1251
G03 X250.1056 Y105.7222 I-71.7795 J-0.4953
G03 X249.3364 Y109.2816 I-17.4377 J-1.9053
G03 X248.2821 Y111.2656 I-5.7793 J-1.7990
G03 X245.9329 Y112.7499 I-3.6035 J-3.1023
G03 X240.5145 Y113.2887 I-4.1950 J-14.6718
G03 X237.3382 Y112.3081 I1.4177 J-10.2269
G03 X231.7619 Y109.4548 I56.2895 J-116.8800
G00 Z20.0000


(No. 5: Engraving 5)
G00 X283.9234 Y100.5274 Z20.0000
G00 Z0.5000
G01 Z0.0000 F1000
G01 Z-34.0000
G01 X274.0806 F1400
G01 Y102.4600
G01 X289.2490
G03 X290.3163 Y103.7402 I0.0000 J1.0850
G01 X289.8895 Y106.0742
G03 X288.6731 Y109.6931 I-11.6250 J-1.8934
G03 X283.8964 Y113.4905 I-6.7854 J-3.6324
G03 X279.9920 Y113.9388 I-3.4649 J-12.9494
G03 X275.3795 Y113.2400 I-0.0065 J-15.5284
G03 X270.5734 Y109.4356 I2.7521 J-8.4147
G03 X268.7406 Y105.4141 I12.0487 J-7.9197
G03 X268.4219 Y101.7569 I13.8058 J-3.0457
G03 X268.8006 Y95.7047 I58.2410 J0.6066
G03 X270.5145 Y91.2868 I9.4877 J1.1393
G03 X274.2211 Y87.6271 I9.4985 J5.9133
G03 X278.6689 Y86.2493 I5.5290 J9.9806
G03 X284.2396 Y86.2860 I2.5943 J29.0645
G03 X289.1037 Y87.3092 I-1.1325 J17.4571
G03 X291.8736 Y88.6066 I-13.2806 J31.9578
G02 X292.9715 Y89.1379 I30.4052 J-61.4353
G02 X292.9655 Y86.6459 I-19.0121 J-1.2001
G02 X292.6661 Y85.6972 I-1.6835 J0.0098
G02 X291.6237 Y85.0249 I-1.8986 J1.7994
G02 X288.8413 Y84.1818 I-7.8784 J20.9864
G02 X283.9624 Y83.1970 I-9.5372 J34.6722
G02 X274.7411 Y84.1094 I-2.4723 J22.0666
G02 X266.9616 Y90.6194 I4.1582 J12.8725
G02 X265.3069 Y95.4472 I11.9387 J6.7892
G02 X265.4532 Y104.8089 I26.6433 J4.2657
G02 X267.5240 Y109.8168 I13.9168 J-2.8227
G02 X276.3536 Y116.0221 I11.5533 J-7.0549
G02 X283.8488 Y116.1612 I4.1140 J-19.6752
G02 X288.4739 Y114.2380 I-1.8574 J-10.9903
G02 X291.5936 Y110.5206 I-6.2961 J-8.4515
G02 X293.2759 Y104.8214 I-16.1267 J-7.8581
G01 X293.4290 Y103.4221
G01 X293.6715 Y100.5274
G01 X283.9234
G00 Z20.0000


(No. 6: Engraving 6)
G00 X304.6092 Y97.8427 Z20.0000
G00 Z0.5000
G01 Z0.0000 F1000
G01 Z-34.0000
G02 X304.5577 Y112.3365 I498.3456 J9.0197 F1400
G03 X303.4727 Y113.4215 I-1.0850 J0.0000
G02 X301.1589 Y113.4352 I-0.9650 J32.4062
G01 X301.0751 Y113.4487
G01 X301.0631 Y113.5579
G01 X301.0645 Y113.5452
G02 X301.0791 Y115.3331 I12.0955 J0.7956
G01 X301.1708 Y115.3416
G01 X301.1589 Y115.3405
G02 X303.5578 Y115.3575 I1.5748 J-52.8237
G03 X304.5577 Y116.4392 I-0.0851 J1.0817
G01 Y125.3178
G01 X308.2486
G01 Y116.4392
G03 X309.3336 Y115.3542 I1.0850 J0.0000
G01 X319.9706
G01 Y113.4215
G01 X309.3336
G03 X308.2486 Y112.3365 I0.0000 J-1.0850
G03 X308.2938 Y96.4121 I668.5985 J-6.0667
G03 X308.6241 Y91.4345 I43.5575 J0.3907
G03 X309.2961 Y88.8396 I9.4423 J1.0609
G03 X312.4729 Y86.2764 I3.8812 J1.5600
G03 X315.4964 Y86.0493 I2.5853 J14.1785
G03 X319.7655 Y86.6302 I0.0311 J15.7476
G01 X319.9253 Y86.6871
G01 X319.9619 Y86.7018
G02 X319.8884 Y84.1241 I-15.8370 J-0.8389
G02 X319.8316 Y83.9323 I-0.4434 J0.0270
G01 X319.7906 Y83.9159
G01 X319.8004 Y83.9201
G02 X312.2839 Y83.3763 I-5.5372 J24.3172
G02 X308.5911 Y84.5585 I0.4626 J7.8034
G02 X305.0042 Y90.5968 I4.3736 J6.6825
G02 X304.6091 Y97.8479 I98.3722 J8.9968
G00 Z20.0000


(No. 7: Engraving 7)
G00 X333.6039 Y98.9140 Z20.0000
G00 Z0.5000
G01 Z0.0000 F1000
G01 Z-34.0000
G03 X330.7238 Y94.7620 I3.3441 J-5.3945 F1400
G03 X330.7009 Y90.6656 I10.0985 J-2.1049
G03 X332.2599 Y88.2155 I4.5632 J1.1826
G03 X336.6643 Y86.1029 I5.5051 J5.8296
G03 X342.8500 Y86.6468 I1.9172 J13.6420
G03 X345.6565 Y87.8078 I-5.0856 J16.2668
G01 X348.8111 Y89.4543
G03 X349.3877 Y90.2989 I-0.5020 J0.9619
G03 X349.8814 Y95.2171 I-66.2388 J9.1322
G03 X349.8280 Y105.3575 I-83.4700 J4.6306
G03 X349.3258 Y108.5590 I-18.0003 J-1.1831
G03 X348.0338 Y111.2064 I-6.1217 J-1.3486
G03 X344.7125 Y113.0639 I-4.2921 J-3.7764
G03 X339.2208 Y113.3919 I-4.3469 J-26.6451
G03 X332.6839 Y112.6580 I0.2964 J-32.1165
G02 X329.8537 Y111.8614 I-29.3147 J98.7299
G02 X330.0728 Y114.9370 I14.6270 J0.5034
G02 X330.3990 Y115.3370 I0.4696 J-0.0499
G02 X332.0754 Y115.7474 I2.0062 J-4.5667
G02 X342.2578 Y116.1601 I8.6375 J-87.2836
G02 X345.8225 Y115.8867 I0.3555 J-18.7384
G02 X349.1464 Y114.4806 I-2.7064 J-11.0298
G02 X352.0779 Y111.5894 I-4.4154 J-7.4088
G02 X352.7980 Y109.5660 I-4.3641 J-2.6930
G02 X353.1054 Y105.3798 I-39.7269 J-5.0210
G02 X353.4412 Y84.1166 I-1297.5381 J-31.1273
G02 X350.2577 Y84.1368 I-1.2067 J60.8208
G02 X349.6934 Y84.1879 I0.1291 J4.5654
G02 X349.6832 Y85.9696 I43.7802 J1.1413
G03 X348.1048 Y86.8415 I-1.0811 J-0.0924
G01 X344.6674 Y85.0687
G02 X336.1160 Y83.0640 I-8.1391 J15.4778
G02 X331.2520 Y84.5010 I0.1534 J9.4698
G02 X328.1546 Y87.3908 I4.3349 J7.7512
G02 X326.8431 Y92.0569 I8.0900 J4.7911
G02 X327.3682 Y96.2132 I11.0939 J0.7098
G02 X330.8695 Y100.6060 I8.0131 J-2.7952
G02 X335.6217 Y102.5971 I8.5551 J-13.7520
G02 X340.8856 Y103.4453 I7.6837 J-30.9246
G01 X343.9810 Y103.7070
G01 X343.8984 Y102.6973
G01 X343.7841 Y101.3019
G03 X338.9092 Y100.7105 I5.3191 J-64.2384
G03 X334.8986 Y99.6016 I2.4187 J-16.5545
G01 X334.2463 Y99.2893
G01 X333.6824 Y98.9640
G00 Z20.0000


(No. 8: Engraving 8)
G00 X86.3265 Y231.6568 Z20.0000
G00 Z0.5000
G01 Z0.0000 F1000
G01 Z-34.0000
G03 X82.7818 Y232.4218 I-4.8917 J-14.0709 F1400
G03 X76.6504 Y232.6268 I-5.2856 J-66.2748
G03 X69.8068 Y232.3327 I-0.8489 J-60.0036
G03 X65.5638 Y231.2458 I1.4534 J-14.4991
G02 X64.9126 Y231.0074 I-27.6422 J74.5239
G02 X65.1063 Y237.2729 I101.6022 J-0.0069
G01 X68.1504 Y238.3563
G02 X78.4708 Y240.1026 I10.5800 J-31.1569
G02 X90.3287 Y238.4054 I0.8586 J-36.2756
G02 X100.0828 Y232.4018 I-7.1165 J-22.4876
G02 X105.0589 Y223.8376 I-15.8164 J-14.9175
G02 X105.3034 Y206.1142 I-29.9317 J-9.2763
G02 X89.5532 Y188.3566 I-26.3055 J7.4681
G02 X84.8168 Y186.8117 I-10.6449 J24.6030
G02 X77.6723 Y186.1698 I-6.7475 J35.0194
G02 X70.5781 Y186.8367 I-0.4024 J33.7847
G02 X54.8009 Y197.7803 I6.0642 J25.5873
G02 X49.9395 Y208.8751 I29.0240 J19.3298
G02 X48.6110 Y217.5795 I49.8395 J12.0607
G02 X49.5982 Y239.1967 I95.4853 J6.4703
G02 X51.0913 Y245.7367 I50.7854 J-8.1536
G02 X59.4823 Y260.5611 I39.1195 J-12.3557
G02 X78.3441 Y271.5729 I26.0663 J-22.9883
G02 X83.8301 Y272.2155 I8.0761 J-45.2128
G02 X94.4566 Y272.2243 I5.3779 J-77.8672
G02 X98.4258 Y271.4612 I-0.8456 J-15.1028
G02 X98.4130 Y264.4388 I-376.6365 J-2.8229
G02 X98.3395 Y263.0413 I-12.6388 J-0.0358
G03 X90.8875 Y264.6350 I-33.1483 J-136.7726
G03 X85.9150 Y265.0171 I-4.0845 J-20.6098
G03 X78.0268 Y263.5693 I2.7520 J-37.2073
G03 X72.5462 Y261.4815 I7.5634 J-28.0915
G03 X69.0573 Y258.9512 I10.2996 J-17.8721
G03 X61.9473 Y249.7476 I21.9176 J-24.2799
G03 X58.8871 Y241.7605 I31.7948 J-16.7620
G03 X58.2699 Y236.9881 I32.6460 J-6.6481
G03 X57.9971 Y214.9042 I200.7633 J-13.5232
G03 X58.5042 Y210.3286 I28.5428 J0.8471
G03 X64.2128 Y199.3250 I25.2095 J6.0960
G03 X70.7882 Y194.5509 I13.7123 J11.9709
G03 X77.1990 Y193.3367 I6.5459 J17.0304
G03 X86.1159 Y194.7482 I0.7982 J23.8295
G03 X93.0102 Y199.7708 I-5.9458 J15.4046
G03 X96.0293 Y206.3013 I-13.3422 J10.1314
G03 X96.7655 Y212.3637 I-30.1728 J6.7398
G03 X96.5485 Y218.4404 I-40.5840 J1.5933
G03 X94.8554 Y224.1122 I-15.0969 J-1.4181
G03 X91.6850 Y228.0047 I-13.6031 J-7.8421
G03 X88.7433 Y230.4122 I-16.4454 J-17.0933
G03 X86.3895 Y231.6334 I-6.2860 J-9.2374
G00 Z20.0000


(No. 9: Engraving 9)
G00 X135.5874 Y231.6378 Z20.0000
G00 Z0.5000
G01 Z0.0000 F1000
G01 Z-34.0000
G03 X140.2095 Y227.9184 I12.7214 J11.0773 F1400
G03 X143.8139 Y226.7343 I6.4136 J13.4458
G03 X153.3035 Y226.0814 I7.4455 J38.9246
G03 X161.5170 Y227.3078 I-1.0194 J34.9438
G01 X162.5006 Y227.6241
G01 X163.4826 Y227.9706
G01 Y221.6106
G01 X159.5327 Y220.3628
G02 X151.1278 Y218.9380 I-10.2923 J35.2124
G02 X141.2024 Y219.3624 I-3.1227 J43.2499
G02 X135.4058 Y221.1665 I4.1107 J23.4221
G02 X126.9025 Y227.5746 I8.7529 J20.4604
G02 X122.4019 Y237.3368 I18.3010 J14.3558
G02 X121.7850 Y246.8152 I35.4108 J7.0640
G02 X124.0168 Y256.4791 I28.6009 J-1.5156
G02 X131.3520 Y266.1043 I23.6747 J-10.4345
G02 X148.5376 Y272.6729 I18.1754 J-21.7864
G02 X159.2709 Y271.3919 I1.3869 J-33.9842
G01 X161.5832 Y270.6061
G02 X167.6944 Y267.2044 I-8.9760 J-23.3157
G02 X172.5862 Y262.2578 I-15.2657 J-19.9890
G02 X176.2565 Y255.7680 I-24.8078 J-18.3129
G02 X178.6628 Y247.7446 I-39.6057 J-16.2505
G02 X179.8073 Y234.7266 I-63.8049 J-12.1686
G02 X178.1997 Y218.6084 I-82.4663 J0.0857
G02 X174.5018 Y206.9238 I-52.7646 J10.2711
G02 X172.6965 Y203.4850 I-31.2253 J14.1992
G02 X169.0382 Y198.7767 I-35.3463 J23.6883
G02 X159.7033 Y190.9814 I-27.2498 J23.1449
G02 X150.6009 Y187.3860 I-17.2407 J30.3285
G02 X142.9335 Y186.4961 I-12.3668 J73.0765
G02 X135.1504 Y186.1925 I-7.1638 J83.7268
G01 X134.6162 Y186.2215
G02 X133.8989 Y186.3715 I0.1529 J2.5208
G03 X129.9007 Y187.1565 I-9.1122 J-35.8379
G02 X129.9174 Y194.3572 I320.9276 J2.8546
G02 X129.9826 Y195.8040 I19.9044 J-0.1726
G03 X139.2973 Y193.9541 I11.0190 J31.1083
G03 X149.2430 Y194.8281 I1.9953 J34.3222
G03 X160.5757 Y200.9811 I-5.6992 J24.0097
G03 X166.2075 Y208.7582 I-19.7217 J20.2094
G03 X169.3757 Y217.8867 I-35.4135 J17.4049
G03 X170.1359 Y225.0393 I-63.3603 J10.3509
G03 X170.1061 Y242.8521 I-148.0842 J8.6580
G03 X169.4752 Y248.0209 I-40.4647 J-2.3159
G03 X166.3980 Y256.1864 I-26.2537 J-5.2311
G03 X157.0104 Y264.3284 I-16.5038 J-9.5459
G03 X150.5941 Y265.4927 I-6.8888 J-19.7006
G03 X143.1850 Y264.6487 I-1.1593 J-22.7650
G03 X138.5642 Y262.1794 I4.6359 J-14.2333
G03 X132.9080 Y255.2463 I11.2610 J-14.9609
G03 X131.8848 Y251.5004 I16.1655 J-6.4283
G03 X131.3795 Y240.8609 I45.3182 J-7.4840
G03 X131.8815 Y237.7311 I17.1993 J1.1533
G03 X134.2530 Y233.2563 I13.7190 J4.4048
G03 X135.5646 Y231.6630 I17.5222 J13.0880
G00 Z20.0000


(No. 10: Engraving 10)
G00 X207.4095 Y226.3599 Z20.0000
G00 Z0.5000
G01 Z0.0000 F1000
G01 Z-34.0000
G03 X207.9893 Y213.5395 I164.4336 J1.0131 F1400
G03 X210.6343 Y203.3187 I33.2974 J3.1642
G03 X213.7481 Y198.3372 I18.5847 J8.1530
G03 X220.7495 Y193.8956 I10.3583 J8.5889
G01 X221.7515 Y193.6929
G01 X223.2645 Y193.4510
G01 Y186.1317
G02 X219.9383 Y186.5748 I0.7425 J18.2765
G02 X213.5231 Y188.6437 I5.9810 J29.5266
G02 X204.6486 Y196.4383 I8.5634 J18.6992
G02 X201.6490 Y202.6127 I27.3811 J17.1179
G02 X198.2477 Y218.9051 I54.2737 J19.8315
G02 X198.0644 Y232.4620 I144.2789 J8.7308
G02 X198.4249 Y241.7502 I202.2991 J-3.2009
G02 X199.8402 Y250.0857 I40.6218 J-2.6091
G02 X202.2120 Y257.3979 I54.1220 J-13.5147
G02 X205.1143 Y262.8964 I26.8693 J-10.6672
G02 X213.3639 Y269.9416 I17.1730 J-11.7562
G02 X219.4576 Y272.0810 I10.5453 J-20.2882
G02 X223.2645 Y272.4882 I5.7095 J-35.3807
G01 Y265.2392
G01 X221.7406 Y265.0348
G03 X214.2474 Y261.0691 I1.6950 J-12.2647
G03 X210.9173 Y255.9810 I14.6194 J-13.2021
G03 X208.6468 Y249.0891 I31.7579 J-14.2825
G03 X207.6593 Y242.0092 I38.2383 J-8.9426
G03 X207.4094 Y226.3678 I223.8596 J-11.3996
G00 Z20.0000


(No. 11: Engraving 11)
G00 X244.7121 Y218.1986 Z20.0000
G00 Z0.5000
G01 Z0.0000 F1000
G01 Z-34.0000
G03 X245.0873 Y233.6929 I-117.2416 J10.5912 F1400
G03 X244.0596 Y246.8161 I-136.2411 J-4.0682
G03 X243.0125 Y251.8776 I-28.3448 J-3.2245
G03 X239.5054 Y259.2317 I-23.7944 J-6.8341
G03 X234.2933 Y263.8275 I-12.0371 J-8.3979
G03 X231.9684 Y264.7183 I-5.4365 J-10.7097
G01 X230.1233 Y265.2118
G01 Y272.4566
G02 X233.2717 Y272.0149 I-1.4950 J-22.1002
G02 X239.8765 Y269.3756 I-6.2683 J-25.2700
G02 X244.7954 Y265.7865 I-10.6123 J-19.7091
G02 X249.1741 Y259.3369 I-19.4484 J-17.9151
G02 X252.4310 Y250.1183 I-40.2917 J-19.4194
G02 X253.9148 Y241.9232 I-66.9386 J-16.3523
G02 X254.2522 Y234.0270 I-98.2777 J-8.1543
G02 X253.5549 Y214.8202 I-207.0827 J-2.0976
G02 X252.8823 Y209.8606 I-42.9868 J3.3040
G02 X249.7660 Y200.4006 I-44.0656 J9.2726
G02 X245.2104 Y193.4623 I-24.2918 J10.9851
G02 X234.6716 Y187.1197 I-16.2444 J15.0647
G02 X230.1203 Y186.1853 I-10.7636 J40.8729
G01 X230.2445 Y189.6907
G01 X230.3880 Y193.7372
G01 X232.1664 Y194.2612
G03 X240.1719 Y200.4136 I-3.7090 J13.1107
G03 X242.6129 Y206.0516 I-20.4200 J12.1884
G03 X244.1933 Y213.6077 I-48.5452 J14.0969
G01 X244.4732 Y215.8270
G01 X244.7100 Y218.1752
G00 Z20.0000


(No. 12: Engraving 12)
G00 X304.6448 Y211.8858 Z20.0000
G00 Z0.5000
G01 Z0.0000 F1000
G01 Z-34.0000
G01 X268.8057 F1400
G01 Y223.3244
G01 X289.4095 Y247.3269
G01 X309.9503 Y271.2561
G01 X318.7984
G01 Y219.5923
G03 X319.8834 Y218.5073 I1.0850 J0.0000
G01 X331.6925
G01 Y211.8858
G01 X319.8834
G03 X318.7984 Y210.8008 I0.0000 J-1.0850
G01 Y187.8559
G01 X309.8370
G01 X309.6905 Y222.4588
G01 X309.5395 Y258.1421
G03 X307.6310 Y258.8440 I-1.0850 J-0.0046
G01 X291.5132 Y240.0576
G03 X275.6996 Y221.4284 I1133.9964 J-978.6396
G03 X275.0811 Y220.6158 I4.2953 J-3.9107
G03 X275.7356 Y219.0022 I0.9876 J-0.5389
G03 X277.4759 Y218.7730 I2.0183 J8.6041
G03 X290.2359 Y218.5073 I11.4903 J245.2663
G01 X303.5598
G01 Y210.8008
G00 Z20.0000


(No. 13: Engraving 13)
G00 X377.7537 Y230.7084 Z20.0000
G00 Z0.5000
G01 Z0.0000 F1000
G01 Z-34.0000
G03 X365.2334 Y231.0440 I-7.8542 J-59.2999 F1400
G03 X357.9892 Y230.1345 I6.8909 J-84.1865
G02 X354.1544 Y229.5642 I-22.8948 J140.7873
G02 X353.8824 Y235.2214 I65.7786 J5.9983
G02 X353.7898 Y250.3688 I838.8318 J12.7008
G01 Y271.2619
G01 X378.3401 Y271.1157
G01 X402.9406 Y270.9692
G01 X403.0742 Y267.1745
G01 X403.2049 Y263.4624
G01 X363.8407
G03 X362.7557 Y262.3774 I0.0000 J-1.0850
G01 Y239.6503
G03 X363.8121 Y238.5657 I1.0850 J0.0000
G02 X378.7083 Y238.1454 I-14.2081 J-767.8146
G02 X384.3241 Y237.6991 I-1.4133 J-53.3348
G02 X389.1369 Y236.2850 I-2.9031 J-18.7780
G02 X395.0582 Y232.9864 I-9.8003 J-24.5559
G02 X402.0610 Y223.1972 I-11.6035 J-15.7001
G02 X403.3640 Y215.2857 I-27.9995 J-8.6746
G02 X400.2234 Y200.4874 I-31.0243 J-1.1482
G02 X395.1628 Y193.6276 I-21.3362 J10.4437
G02 X389.0312 Y189.5222 I-19.0540 J21.8259
G02 X381.3909 Y186.8302 I-13.0594 J24.8767
G02 X374.7925 Y186.2557 I-8.1417 J55.3325
G02 X366.9281 Y186.3396 I-3.2110 J67.6705
G02 X363.0903 Y186.9575 I5.0487 J43.5868
G02 X353.0570 Y189.5081 I16.8041 J87.1101
G01 X352.6377 Y189.6584
G01 X350.2732 Y190.5392
G02 X350.3074 Y198.2872 I173.7492 J3.1076
G02 X350.4132 Y200.2672 I27.3872 J-0.4705
G03 X360.3389 Y195.9780 I36.1587 J70.0450
G03 X374.5130 Y194.0213 I11.9705 J34.3985
G03 X379.4752 Y194.4886 I-1.0217 J37.4354
G03 X383.8997 Y196.0017 I-2.8975 J15.6982
G03 X390.3599 Y201.2758 I-7.3218 J15.5621
G03 X393.5375 Y209.1682 I-14.8592 J10.5682
G03 X393.5746 Y217.9698 I-27.6332 J4.5174
G03 X390.8446 Y224.2612 I-13.4104 J-2.0810
G03 X385.9952 Y228.1872 I-12.3910 J-10.3474
G03 X381.2698 Y230.0222 I-9.1036 J-16.4414
G03 X377.7861 Y230.7037 I-8.4575 J-33.9899
G00 Z20.0000


(No. 14: Engraving 14)
G00 X110.2791 Y336.0709 Z20.0000
G00 Z0.5000
G01 Z0.0000 F1000
G01 Z-34.0000
G03 X106.9885 Y336.9214 I-8.9561 J-27.8620 F1400
G02 X102.7577 Y338.4691 I3.6796 J16.6146
G02 X99.8450 Y341.1346 I3.2911 J6.5205
G02 X98.7257 Y344.4226 I7.7478 J4.4721
G02 X98.9082 Y350.6526 I17.4566 J2.6062
G02 X101.9949 Y355.3193 I7.5887 J-1.6652
G02 X105.2188 Y356.7975 I4.5902 J-5.7566
G02 X114.5018 Y356.2898 I3.6416 J-18.5369
G01 X115.0982 Y356.0731
G01 X117.1809 Y355.2544
G02 X117.1712 Y351.8906 I-79.8475 J-1.4498
G03 X111.7732 Y354.3117 I-9.9113 J-14.8696
G03 X105.8296 Y354.7163 I-3.8533 J-12.7442
G03 X103.2520 Y353.3065 I1.2433 J-5.3341
G03 X101.2319 Y351.1505 I10.0633 J-11.4535
G03 X100.1970 Y347.9924 I4.3287 J-3.1673
G03 X100.6931 Y344.5382 I7.8245 J-0.6388
G03 X103.2396 Y341.6705 I5.6041 J2.4120
G03 X106.3521 Y340.3023 I7.2702 J12.3145
G03 X109.8361 Y339.3820 I14.2938 J47.0599
G02 X114.0868 Y337.7965 I-4.4847 J-18.5137
G02 X116.6885 Y335.7361 I-3.6886 J-7.3305
G02 X118.2702 Y331.6032 I-6.1293 J-4.7148
G02 X118.0105 Y326.4949 I-16.5158 J-1.7212
G02 X115.5648 Y321.9492 I-9.5800 J2.2235
G02 X109.5033 Y318.6942 I-7.3669 J6.4472
G02 X103.4622 Y319.1151 I-2.0078 J14.7492
G02 X99.1200 Y320.6830 I9.1436 J32.1179
G02 X98.5256 Y321.0956 I0.7393 J1.6995
G02 X98.2808 Y322.0225 I1.5267 J0.8990
G02 X98.2514 Y324.7156 I54.4539 J1.9413
G03 X107.1787 Y321.1048 I10.5863 J13.3323
G03 X111.7822 Y321.5985 I1.1799 J10.7095
G03 X115.6396 Y324.7492 I-1.9817 J6.3628
G03 X116.2692 Y327.4258 I-7.3473 J3.1408
G03 X116.0106 Y331.7904 I-14.4152 J1.3356
G03 X114.2733 Y334.1867 I-4.0240 J-1.0895
G03 X111.2244 Y335.7415 I-6.7043 J-9.3799
G03 X110.2928 Y336.0664 I-8.5801 J-23.0997
G00 Z20.0000


(No. 15: Engraving 15)
G00 X141.4449 Y336.1185 Z20.0000
G00 Z0.5000
G01 Z0.0000 F1000
G01 Z-34.0000
G03 X144.0252 Y326.2059 I210.4488 J49.4895 F1400
G03 X144.3556 Y325.4624 I2.0897 J0.4833
G03 X146.3006 Y325.7794 I0.8841 J0.7013
G03 X147.0029 Y328.5675 I-17.0952 J5.7884
G03 X148.8149 Y339.0654 I-232.2696 J45.4967
G02 X149.7781 Y344.6698 I144.1270 J-21.8858
G02 X150.2933 Y346.6240 I11.1906 J-1.9051
G01 X150.3815 Y346.8063
G01 X150.4164 Y346.8561
G02 X151.5718 Y346.8583 I0.6357 J-30.2924
G01 X151.5803 Y346.8509
G02 X146.3100 Y319.4347 I-3935.6886 J742.3629
G01 X144.6073
G01 X142.0892 Y329.4570
G03 X139.1936 Y340.7377 I-474.2873 J-115.7338
G03 X137.1205 Y340.6234 I-1.0160 J-0.4287
G03 X135.3256 Y334.0562 I123.9305 J-37.4017
G03 X131.6447 Y319.3524 I1802.3318 J-458.9996
G01 X130.6801 Y319.2548
G01 X129.9448 Y319.1805
G01 X127.3526 Y332.7384
G02 X124.7301 Y346.8366 I890.5161 J172.9472
G02 X125.8218 Y346.8461 I0.6036 J-6.6188
G02 X126.1791 Y346.0387 I-1.5966 J-1.1893
G02 X127.0178 Y342.1792 I-38.8858 J-10.4707
G02 X128.6946 Y332.3713 I-2449.6218 J-423.8603
G03 X129.9427 Y326.1755 I79.1669 J12.7239
G03 X130.4031 Y325.3200 I1.4777 J0.2436
G03 X132.1835 Y325.7719 I0.7233 J0.8834
G03 X133.1655 Y328.8289 I-20.9287 J8.4094
G03 X135.8217 Y339.5419 I-264.7455 J71.3270
G02 X137.2405 Y345.1342 I96.1504 J-21.4176
G02 X137.7983 Y346.6550 I8.5736 J-2.2820
G01 X137.8844 Y346.7993
G01 X137.9288 Y346.8523
G02 X138.4695 Y346.8509 I0.2630 J-2.7267
G02 X138.9822 Y345.7125 I-3.3978 J-2.2149
G02 X140.5457 Y339.8291 I-87.1450 J-26.3082
G01 X140.8720 Y338.4859
G01 X141.2322 Y336.9961
G01 X141.4444 Y336.1204
G00 Z20.0000


(No. 16: Engraving 16)
G00 X163.3954 Y335.1406 Z20.0000
G00 Z0.5000
G01 Z0.0000 F1000
G01 Z-34.0000
G03 X170.6882 Y335.1593 I2.9652 J265.8056 F1400
G03 X172.8013 Y335.3333 I0.1833 J10.6936
G03 X174.0092 Y336.0379 I-0.2897 J1.8845
G03 X174.1716 Y337.6255 I-1.5145 J0.9570
G02 X173.5348 Y340.4259 I52.5085 J13.4120
G03 X171.7077 Y343.8064 I-6.0935 J-1.1095
G03 X166.9128 Y345.3835 I-4.1674 J-4.5926
G03 X160.3585 Y340.6312 I0.7914 J-7.9874
G03 X159.6118 Y337.8747 I7.8733 J-3.6122
G03 X159.6491 Y330.6984 I34.6629 J-3.4085
G03 X160.4486 Y326.3863 I20.9545 J1.6550
G03 X166.5799 Y321.0040 I7.6069 J2.4820
G03 X171.8018 Y321.5172 I1.6808 J9.7222
G03 X174.1154 Y322.6075 I-4.7861 J13.1555
G01 X175.2046 Y323.2458
G02 X175.1797 Y321.3759 I-24.3152 J-0.6113
G02 X175.0656 Y320.8282 I-1.2040 J-0.0349
G02 X174.5310 Y320.4262 I-1.1483 J0.9707
G02 X170.4808 Y318.8778 I-8.7653 J16.8567
G02 X164.3180 Y319.5406 I-2.1584 J8.9138
G02 X160.3980 Y322.5981 I3.8005 J8.9143
G02 X158.7143 Y326.3723 I9.1622 J6.3501
G02 X158.0508 Y331.9868 I26.5079 J5.9788
G02 X158.4861 Y338.1764 I27.6091 J1.1685
G02 X160.2005 Y343.0249 I15.2580 J-2.6677
G02 X162.9624 Y346.1061 I7.9271 J-4.3273
G02 X168.7679 Y347.3664 I4.5462 J-6.9403
G02 X173.2328 Y344.5833 I-0.6798 J-6.0636
G02 X174.6241 Y341.4683 I-9.7471 J-6.2217
G02 X175.3444 Y337.9752 I-24.9932 J-6.9744
G02 X175.7789 Y335.1083 I-43.2136 J-8.0164
G02 X175.7636 Y334.1593 I-2.4927 J-0.4342
G02 X175.5767 Y333.9902 I-0.2014 J0.0347
G02 X173.8249 Y333.7950 I-1.5476 J5.9310
G02 X164.4804 Y333.7941 I-4.9168 J2415.1435
G01 Y336.2256
G00 Z20.0000


(No. 17: Engraving 17)
G00 X192.4761 Y335.1406 Z20.0000
G00 Z0.5000
G01 Z0.0000 F1000
G01 Z-34.0000
G03 X196.5035 Y335.2407 I1.0010 J40.8172 F1400
G03 X197.8075 Y335.7036 I-0.0854 J2.3087
G03 X198.3235 Y337.4045 I-1.0908 J1.2596
G02 X197.8623 Y340.1897 I12.3254 J3.4717
G03 X196.8888 Y342.2871 I-6.1939 J-1.6000
G03 X194.3271 Y344.8098 I-6.4327 J-3.9702
G03 X188.4171 Y344.8391 I-2.9828 J-5.6064
G03 X183.9974 Y339.3074 I3.9697 J-7.7032
G03 X183.5011 Y335.1674 I17.4046 J-4.1861
G03 X184.1641 Y327.5585 I33.0418 J-0.9543
G03 X184.9377 Y325.2786 I9.1283 J1.8263
G03 X189.9059 Y321.1676 I7.1488 J3.5819
G03 X195.8312 Y321.5171 I2.4188 J9.3976
G03 X198.1454 Y322.6075 I-4.7821 J13.1500
G01 X199.2345 Y323.2458
G02 X199.2096 Y321.3759 I-24.3152 J-0.6113
G02 X199.0956 Y320.8282 I-1.2040 J-0.0349
G02 X198.5610 Y320.4262 I-1.1483 J0.9707
G02 X194.5108 Y318.8778 I-8.7653 J16.8567
G02 X188.3480 Y319.5406 I-2.1584 J8.9138
G02 X184.4575 Y322.5741 I3.8246 J8.9168
G02 X182.5753 Y327.0505 I9.4760 J6.6182
G02 X182.0667 Y332.7458 I28.6635 J5.4298
G02 X182.7587 Y339.1283 I26.2851 J0.3790
G02 X184.7034 Y343.7421 I13.6575 J-3.0399
G02 X189.9240 Y347.2906 I6.7098 J-4.2569
G02 X193.5929 Y347.2159 I1.6620 J-8.5032
G02 X197.3724 Y344.4256 I-1.5432 J-6.0452
G02 X198.8908 Y340.8362 I-10.7475 J-6.6624
G02 X199.5733 Y336.8460 I-23.8035 J-6.1248
G01 X199.8639 Y333.7941
G01 X188.5104
G01 Y335.1406
G01 X192.4756
G00 Z20.0000


(No. 18: Engraving 18)
G00 X209.1982 Y343.8449 Z20.0000
G00 Z0.5000
G01 Z0.0000 F1000
G01 Z-34.0000
G03 X209.2321 Y329.7360 I671.5259 J-5.4398 F1400
G03 X209.4851 Y325.5028 I40.4806 J0.2954
G03 X210.0194 Y323.2919 I8.1806 J0.8068
G03 X212.7523 Y321.1826 I3.0335 J1.1051
G03 X215.1497 Y321.2188 I1.0401 J10.4975
G01 X216.8175 Y321.3791
G02 X216.7728 Y319.6619 I-11.1294 J-0.5695
G02 X216.6812 Y319.3511 I-0.5097 J-0.0187
G02 X216.0200 Y319.1046 I-0.9215 J1.4615
G02 X212.8830 Y318.7646 I-3.1534 J14.4527
G02 X210.0080 Y319.7126 I-0.0265 J4.7531
G02 X208.7146 Y321.5450 I1.6870 J2.5636
G02 X208.1898 Y324.8819 I17.0596 J4.3925
G02 X207.8096 Y334.2658 I206.4228 J13.0623
G03 X207.5304 Y341.2489 I-141.4406 J-2.1582
G03 X207.2252 Y343.2156 I-9.8865 J-0.5275
G03 X206.1931 Y344.5673 I-2.0139 J-0.4678
G03 X205.0382 Y344.8678 I-1.7044 J-4.1807
G01 X205.0088 Y344.8794
G02 X204.9601 Y346.8401 I7.1891 J1.1593
G01 X204.9654 Y346.8513
G01 X205.0287 Y346.8565
G01 X205.0164 Y346.8555
G03 X206.4136 Y346.9806 I0.2598 J4.9615
G03 X207.6846 Y348.4731 I-0.5941 J1.7934
G03 X207.8442 Y350.4886 I-10.0569 J1.8101
G03 X207.8516 Y355.0680 I-331.0788 J2.8291
G01 X209.1982
G01 Y347.9476
G03 X210.2832 Y346.8626 I1.0850 J0.0000
G01 X216.8175
G01 Y344.9299
G01 X210.2832
G00 Z20.0000


(No. 19: Engraving 19)
G00 X239.6753 Y337.3978 Z20.0000
G00 Z0.5000
G01 Z0.0000 F1000
G01 Z-34.0000
G01 Y319.1416 F1400
G01 X237.7426
G01 Y356.8262
G01 X239.6753
G01 Y342.0866
G03 X240.7603 Y341.0016 I1.0850 J0.0000
G01 X255.4127
G03 X256.4977 Y342.0866 I0.0000 J1.0850
G01 Y356.7909
G01 X257.2134 Y356.7219
G01 X258.1373 Y356.6328
G01 Y319.3351
G01 X257.1237 Y319.2374
G01 X256.4977 Y319.1770
G01 Y337.3978
G03 X255.4127 Y338.4828 I-1.0850 J0.0000
G01 X240.7603
G00 Z20.0000


(No. 20: Engraving 20)
G00 X268.2069 Y330.5501 Z20.0000
G00 Z0.5000
G01 Z0.0000 F1000
G01 Z-34.0000
G03 X268.6886 Y326.9941 I15.5842 J0.3007 F1400
G03 X271.1485 Y322.4621 I11.4772 J3.2960
G03 X274.0863 Y320.5933 I4.5235 J3.8673
G03 X278.1367 Y321.2850 I1.2245 J5.0345
G03 X281.9408 Y326.2868 I-5.1201 J7.8416
G03 X282.8367 Y331.5978 I-18.1073 J5.7857
G03 X282.5171 Y337.4799 I-27.2402 J1.4695
G03 X279.4475 Y343.8653 I-12.1711 J-1.9204
G02 X278.1068 Y347.2506 I5.8333 J4.2684
G02 X280.4765 Y345.3012 I-5.2853 J-8.8397
G02 X283.4925 Y340.2406 I-9.0900 J-8.8465
G02 X283.8838 Y336.8643 I-13.9809 J-3.3310
G02 X283.8608 Y328.5650 I-155.9871 J-3.7183
G02 X283.4034 Y325.4651 I-11.5525 J0.1210
G02 X281.3153 Y321.5944 I-13.7073 J4.8961
G02 X277.2009 Y318.7475 I-6.3154 J4.7303
G02 X271.7312 Y319.5208 I-1.7657 J7.2415
G02 X269.4183 Y321.7946 I3.4527 J5.8254
G02 X267.3447 Y325.8256 I20.1680 J12.9233
G02 X266.8218 Y328.8252 I9.4195 J3.1875
G02 Y337.1790 I129.4076 J4.1769
G02 X267.3447 Y340.1786 I9.9424 J-0.1879
G02 X269.9197 Y344.8978 I18.8073 J-7.2001
G02 X272.3516 Y346.8204 I4.9562 J-3.7696
G02 X272.3859 Y345.2188 I-5.7833 J-0.9252
G02 X271.7954 Y344.2944 I-1.4884 J0.3000
G03 X269.2363 Y340.8459 I4.4878 J-6.0043
G03 X268.2603 Y335.9170 I16.2260 J-5.7740
G03 X268.2062 Y330.5653 I51.1514 J-3.1932
G00 Z20.0000


(No. 21: Engraving 21)
G00 X307.0406 Y318.0789 Z20.0000
G00 Z0.5000
G01 Z0.0000 F1000
G01 Z-34.0000
G03 X306.6839 Y334.3005 I-1067.7073 J-15.3662 F1400
G03 X306.2977 Y340.0818 I-56.1937 J-0.8499
G03 X305.5365 Y342.6165 I-6.8027 J-0.6614
G03 X301.1176 Y344.9151 I-3.9556 J-2.2076
G03 X297.3265 Y343.5684 I0.8709 J-8.4613
G03 X294.5866 Y341.7172 I19.4528 J-31.7446
G03 X294.1822 Y340.8722 I0.6806 J-0.8450
G01 Y319.1416
G01 X292.2495
G01 X292.2496 Y333.0021
G01 Y346.8626
G02 X294.0362 Y346.8382 I0.6478 J-17.9671
G01 X294.1625 Y346.8243
G01 X294.1693 Y346.8122
G02 X294.1860 Y344.7234 I-37.9473 J-1.3476
G03 X295.9979 Y344.0106 I1.0813 J0.0894
G02 X298.1249 Y345.8960 I20.9730 J-21.5175
G02 X301.3547 Y347.3710 I4.2604 J-5.0556
G02 X303.8374 Y347.2076 I0.9278 J-4.8464
G02 X306.5804 Y345.1907 I-1.6645 J-5.1371
G02 X306.9764 Y344.2582 I-3.6411 J-2.0971
G03 X307.8415 Y343.1687 I1.6599 J0.4297
G03 X309.3704 Y343.3785 I0.5761 J1.4770
G03 X310.8611 Y344.6776 I-7.6296 J10.2600
G02 X313.9993 Y346.9212 I8.3512 J-8.3647
G02 X317.0919 Y347.4953 I2.4716 J-4.6974
G02 X319.6976 Y346.1023 I-0.7709 J-4.5754
G02 X321.5199 Y342.9168 I-4.4653 J-4.6683
G02 X322.0805 Y339.1039 I-21.6529 J-5.1313
G02 X322.3117 Y329.3376 I-148.3815 J-8.3984
G01 X322.3145 Y319.1416
G01 X321.0387
G03 X320.7600 Y335.0096 I-1297.7052 J-14.8517
G03 X320.4583 Y340.3220 I-53.6561 J-0.3829
G03 X319.9697 Y342.2972 I-6.6996 J-0.6093
G03 X315.8498 Y344.8818 I-4.1509 J-2.0406
G03 X311.8389 Y343.7551 I0.0470 J-7.8695
G03 X308.6459 Y341.5943 I22.1493 J-36.1694
G03 X308.2485 Y340.7550 I0.6876 J-0.8393
G01 Y319.1416
G01 X305.9559
G00 Z20.0000


(No. 22: Engraving 22)
G00 X342.5323 Y333.7941 Z20.0000
G00 Z0.5000
G01 Z0.0000 F1000
G01 Z-34.0000
G01 X336.7930 F1400
G01 Y335.1406
G03 X343.2023 Y335.1539 I2.5330 J325.6191
G03 X345.0960 Y335.2878 I0.1340 J11.5582
G03 X346.4221 Y336.0731 I-0.2081 J1.8638
G03 X346.6061 Y337.4045 I-1.6084 J0.9007
G02 X346.1449 Y340.1896 I12.3240 J3.4713
G03 X345.1714 Y342.2871 I-6.1928 J-1.5993
G03 X342.6097 Y344.8098 I-6.4328 J-3.9704
G03 X336.6997 Y344.8391 I-2.9828 J-5.6064
G03 X332.2800 Y339.3074 I3.9697 J-7.7032
G03 X331.7837 Y335.1674 I17.4046 J-4.1861
G03 X332.4467 Y327.5585 I33.0419 J-0.9543
G03 X333.2201 Y325.2789 I9.1296 J1.8266
G03 X340.2381 Y320.8663 I7.1527 J3.5890
G03 X345.6262 Y322.1292 I0.0961 J11.7160
G01 X346.3955 Y322.5310
G01 X347.5171 Y323.1579
G02 X347.4904 Y321.2251 I-24.8722 J-0.6222
G02 X347.3765 Y320.6114 I-1.6646 J-0.0085
G02 X346.9147 Y320.2441 I-0.7947 J0.5252
G02 X338.4707 Y318.9037 I-6.2787 J12.2871
G02 X332.6179 Y322.9582 I1.4764 J8.3829
G02 X330.7556 Y328.0880 I12.8636 J7.5730
G02 X330.8005 Y338.1041 I28.8592 J4.8785
G02 X332.5278 Y343.0000 I15.3704 J-2.6698
G02 X335.3139 Y346.1003 I7.9381 J-4.3317
G02 X341.2659 Y347.3411 I4.5667 J-7.0096
G02 X345.6818 Y344.4055 I-0.9679 J-6.2450
G02 X347.2063 Y340.8173 I-10.6908 J-6.6601
G02 X347.8824 Y336.8458 I-23.2811 J-6.0069
G01 X348.1661 Y333.7941
G01 X342.5323
G00 Z20.0000


(No. 23: Engraving 23)
G00 X286.0367 Y386.5428 Z20.0000
G00 Z0.5000
G01 Z0.0000 F1000
G01 Z-34.0000
G01 X272.3223 F1400
G01 Y387.8786
G01 X276.6924 Y388.0145
G01 X282.1138 Y388.1830
G03 X283.1632 Y389.3319 I-0.0337 J1.0845
G01 X283.0287 Y391.5909
G03 X282.2195 Y395.0875 I-10.0535 J-0.4847
G03 X277.9720 Y399.0508 I-6.4193 J-2.6220
G03 X272.3400 Y398.3283 I-1.9979 J-6.7382
G03 X268.4919 Y394.2373 I5.4923 J-9.0217
G03 X267.8363 Y391.9797 I6.0918 J-2.9930
G03 X267.5420 Y385.9641 I40.3941 J-4.9912
G03 X267.8119 Y381.4613 I30.0088 J-0.4608
G03 X270.3886 Y375.6548 I12.5167 J2.0795
G03 X276.5269 Y372.6631 I6.2994 J5.1320
G03 X280.3080 Y373.2275 I0.3119 J10.8586
G03 X284.2010 Y374.9870 I-4.1523 J14.3741
G01 X284.5305 Y375.2272
G01 X284.7644 Y375.4208
G02 X284.8047 Y372.2502 I-30.3405 J-1.9712
G01 X282.5802 Y371.2932
G02 X276.1816 Y370.1796 I-5.8453 J14.6471
G02 X272.5580 Y370.8728 I0.0176 J9.9103
G02 X267.8532 Y375.3841 I4.1503 J9.0374
G02 X266.0502 Y381.0819 I15.8323 J8.1441
G02 X266.6796 Y392.9590 I28.0042 J4.4714
G02 X268.4730 Y397.2060 I16.5838 J-4.5011
G02 X270.9216 Y399.9727 I7.8037 J-4.4394
G02 X273.3087 Y400.9513 I4.0222 J-6.4110
G02 X278.9352 Y401.0527 I3.0371 J-12.3668
G02 X280.2140 Y400.5433 I-0.6501 J-3.4918
G02 X282.7369 Y397.8196 I-6.5125 J-8.5627
G02 X284.2788 Y394.2439 I-8.4723 J-5.7736
G02 X284.6967 Y390.2883 I-26.8719 J-4.8391
G01 X284.9532 Y385.4009
G00 Z20.0000


(No. 24: Engraving 24)
G00 X226.4882 Y393.8424 Z20.0000
G00 Z0.5000
G01 Z0.0000 F1000
G01 Z-34.0000
G01 X226.3297 Y381.7449 F1400
G01 X226.1853 Y370.7182
G01 X224.8484
G01 Y385.7609
G01 Y400.7785
G02 X226.1696 Y400.7589 I0.5418 J-7.9900
G01 X226.1722 Y400.7471
G01 X226.1816 Y400.6362
G01 X226.1806 Y400.6472
G02 X226.1984 Y398.2737 I-47.4591 J-1.5436
G03 X227.9383 Y397.4972 I1.0816 J0.0860
G02 X231.4827 Y400.1746 I48.7349 J-60.8327
G02 X233.4203 Y401.1642 I3.7815 J-5.0121
G02 X236.2133 Y401.3479 I2.0024 J-9.1193
G02 X237.7510 Y400.9215 I0.0380 J-2.8490
G02 X239.4175 Y399.4022 I-5.7783 J-8.0115
G01 X241.6063 Y397.1013
G03 X243.1853 Y397.1085 I0.7861 J0.7478
G02 X245.4171 Y399.4107 I18.7439 J-15.9372
G02 X250.2278 Y401.3435 I5.1025 J-5.7468
G02 X252.7262 Y401.2487 I0.8700 J-10.0377
G02 X254.2484 Y400.3386 I-0.6536 J-2.8212
G02 X256.4458 Y396.4431 I-5.0106 J-5.3939
G02 X257.0201 Y392.2338 I-26.2754 J-5.7287
G02 X257.2582 Y381.6806 I-168.6399 J-9.0843
G01 Y370.7182
G01 X255.3255
G03 X255.2932 Y387.0072 I-965.3116 J6.2287
G03 X254.9909 Y393.0023 I-58.6357 J0.0489
G03 X254.3013 Y395.9826 I-10.8471 J-0.9398
G03 X251.4745 Y398.4047 I-3.7344 J-1.4978
G03 X247.4779 Y398.1479 I-1.6729 J-5.1921
G03 X242.9083 Y395.2999 I9.3178 J-20.0404
G03 X242.2172 Y393.8412 I1.1472 J-1.4366
G03 X241.9995 Y386.3454 I113.2879 J-7.0417
G03 X242.0561 Y370.7182 I1050.7788 J-4.0037
G01 X240.1543
G01 X239.9820 Y382.3022
G01 X239.7938 Y394.9550
G03 X239.4162 Y395.7617 I-1.0849 J-0.0161
G01 X237.6960 Y397.2403
G03 X234.8111 Y398.6149 I-3.6571 J-3.9605
G03 X231.7178 Y398.1014 I-0.6683 J-5.5474
G03 X228.9510 Y396.3387 I5.6503 J-11.9219
G01 X226.8906 Y394.6717
G00 Z20.0000


(No. 25: Engraving 25)
G00 X198.3678 Y386.6883 Z20.0000
G00 Z0.5000
G01 Z0.0000 F1000
G01 Z-34.0000
G03 X199.0818 Y379.3401 I26.7041 J-1.1139 F1400
G03 X200.5619 Y375.5663 I13.5005 J3.1179
G03 X202.1363 Y373.6354 I6.4946 J3.6881
G03 X205.3029 Y372.4390 I3.6388 J4.8421
G03 X208.2145 Y372.5825 I1.0233 J8.8435
G03 X210.6775 Y374.1338 I-1.4286 J4.9991
G03 X213.1845 Y378.4296 I-7.8393 J7.4543
G03 X214.2502 Y384.6005 I-22.2816 J7.0257
G03 X213.4797 Y392.1542 I-24.3143 J1.3360
G03 X212.1773 Y395.3499 I-12.6216 J-3.2806
G03 X210.6551 Y397.2756 I-8.7982 J-5.3904
G02 X209.6127 Y399.9259 I2.4732 J2.5028
G02 X209.6605 Y401.0072 I6.8515 J0.2391
G01 X209.8387 Y400.8752
G01 X209.8248 Y400.8854
G02 X214.1182 Y395.7696 I-13.0430 J-15.3057
G02 X215.3630 Y392.3788 I-12.6457 J-6.5665
G02 X215.9403 Y382.7940 I-28.8646 J-6.5481
G02 X214.2972 Y375.7743 I-24.5761 J2.0504
G02 X206.5968 Y369.9177 I-8.4581 J3.1303
G02 X200.2962 Y372.5018 I-0.5512 J7.6293
G02 X197.7779 Y376.9479 I10.0878 J8.6499
G02 X197.0958 Y392.2256 I26.2909 J8.8278
G02 X199.2263 Y397.4425 I17.4818 J-4.0959
G02 X201.6262 Y400.1444 I8.3572 J-5.0062
G02 X203.9113 Y401.1844 I3.2459 J-4.1013
G02 X203.8274 Y398.9666 I-9.9364 J-0.7346
G02 X203.3334 Y398.3936 I-0.7460 J0.1437
G03 X200.6891 Y396.0437 I2.3044 J-5.2558
G03 X199.1846 Y392.4626 I11.8447 J-7.0829
G03 X198.3696 Y386.7433 I24.6844 J-6.4351
G00 Z20.0000


(No. 26: Engraving 26)
G00 X176.5826 Y391.8177 Z20.0000
G00 Z0.5000
G01 Z0.0000 F1000
G01 Z-34.0000
G01 X168.6703 F1400
G03 X167.5853 Y390.7327 I0.0000 J-1.0850
G01 Y370.7182
G01 X165.6526
G01 Y411.3333
G01 X167.5853
G01 Y395.4215
G03 X168.6703 Y394.3365 I1.0850 J0.0000
G01 X184.4949
G03 X185.5799 Y395.4215 I0.0000 J1.0850
G01 Y411.3333
G01 X187.5126
G01 Y370.7182
G01 X185.5799
G01 Y390.7327
G03 X184.4949 Y391.8177 I-1.0850 J0.0000
G01 X176.5826
G00 Z20.0000


(No. 27: Engraving 27)
G00 X303.1563 Y417.7685 Z20.0000
G00 Z0.5000
G01 Z0.0000 F1000
G01 Z-34.0000
G03 X257.1176 Y430.9074 I-78.0410 J-186.2254 F1400
G03 X248.4143 Y432.1690 I-28.1391 J-163.4768
G03 X233.5208 Y433.1240 I-21.2116 J-214.1767
G03 X212.1145 Y433.1902 I-11.6877 J-318.6163
G03 X206.5733 Y432.8750 I3.5298 J-110.9394
G03 X134.8720 Y413.7568 I17.8101 J-210.8098
G03 X93.4486 Y387.8559 I84.9249 J-181.8952
G02 X84.6652 Y380.7493 I-913.3342 J1119.8476
G02 X82.8456 Y379.7371 I-3.4641 J4.0858
G02 X80.4033 Y379.5097 I-2.0645 J8.9429
G02 X78.1837 Y379.6754 I-0.3674 J10.0233
G02 X76.4019 Y380.6524 I1.1392 J4.1909
G02 X73.9584 Y383.5617 I5.1591 J6.8139
G02 X74.1758 Y389.5652 I5.8875 J2.7925
G02 X76.3228 Y392.1436 I14.0269 J-9.4972
G02 X82.5666 Y397.6938 I57.4229 J-58.3115
G02 X95.7947 Y407.7752 I176.2452 J-217.5370
G02 X153.2282 Y436.8733 I126.7697 J-178.9865
G02 X202.3030 Y447.6749 I75.7105 J-227.0953
G02 X216.6436 Y448.4502 I18.7895 J-214.5111
G02 X243.3143 Y448.0183 I8.2890 J-311.7740
G02 X249.4089 Y447.4709 I-6.4881 J-106.4400
G02 X286.3544 Y440.1172 I-29.1412 J-242.8948
G02 X331.2006 Y422.0665 I-59.4871 J-212.5280
G02 X363.5228 Y400.7519 I-103.9172 J-192.7473
G02 X371.5159 Y394.3003 I-139.2393 J-180.6861
G02 X375.2912 Y390.7919 I-32.0383 J-38.2607
G02 X377.2327 Y388.2865 I-9.3095 J-9.2194
G02 X377.6976 Y383.5635 I-5.0713 J-2.8836
G02 X375.2161 Y379.1006 I-11.7916 J3.6351
G02 X373.2905 Y377.8976 I-2.8798 J2.4670
G02 X367.5060 Y377.3758 I-4.1741 J13.9510
G02 X366.4262 Y377.6922 I0.3129 J3.0689
G02 X361.4405 Y381.6767 I51.3939 J69.4194
G03 X338.9012 Y398.8151 I-144.7869 J-167.0234
G03 X306.3523 Y416.3991 I-119.5704 J-182.4145
G01 X303.1725 Y417.7617
G00 Z20.0000


(No. 28: Engraving 28)
G00 X294.0797 Y310.4227 Z20.0000
G00 Z0.5000
G01 Z0.0000 F1000
G01 Z-34.0000
G02 X328.1670 Y310.1737 I2.0605 J-2051.4372 F1400
G02 X332.3458 Y310.0114 I-0.4328 J-65.0263
G02 X333.3114 Y309.7363 I-0.3949 J-3.2174
G02 X335.1980 Y307.8576 I-1.2684 J-3.1603
G02 X335.7317 Y305.9019 I-3.7006 J-2.0607
G02 X335.0957 Y304.3152 I-2.8659 J0.2281
G02 X333.1745 Y302.1155 I-17.0949 J12.9916
G01 X225.8135 Y301.9839
G01 X216.9979 Y301.9738
G01 X208.3640 Y301.9650
G01 X199.9404 Y301.9577
G01 X191.7558 Y301.9517
G01 X183.8388 Y301.9472
G01 X176.2180 Y301.9440
G01 X168.9221 Y301.9422
G01 X161.9798 Y301.9418
G01 X155.4197 Y301.9427
G01 X149.2705 Y301.9449
G01 X143.5608 Y301.9484
G01 X138.3193 Y301.9532
G02 X116.8066 Y302.0328 I-4.3454 J1731.1619
G02 X115.4123 Y302.8921 I0.9245 J3.0611
G02 X113.6024 Y305.6802 I4.5718 J4.9493
G02 X113.6984 Y307.2909 I2.2116 J0.6764
G02 X114.6490 Y308.9727 I5.2904 J-1.8807
G01 X115.7325 Y310.2323
G01 X222.9817 Y310.4039
G01 X234.0615 Y310.4202
G01 X244.4955 Y310.4326
G01 X254.2934 Y310.4410
G01 X263.4650 Y310.4455
G01 X272.0198 Y310.4459
G01 X279.9675 Y310.4423
G01 X287.3177 Y310.4346
G01 X294.0806 Y310.4227
G00 Z20.0000


(No. 29: Engraving 29)
G00 X296.8408 Y153.5569 Z20.0000
G00 Z0.5000
G01 Z0.0000 F1000
G01 Z-34.0000
G02 X326.8541 Y153.3699 I3.9443 J-1775.6623 F1400
G02 X332.6213 Y153.1428 I-0.3386 J-81.9511
G02 X333.4277 Y152.8264 I-0.4179 J-2.2509
G02 X335.1230 Y148.4152 I-2.0811 J-3.3312
G02 X334.4897 Y146.9018 I-6.5083 J1.8343
G02 X334.0045 Y146.3823 I-0.7906 J0.2521
G01 X333.4191 Y146.1835
G01 X332.3840 Y145.9789
G01 X330.8307 Y145.7920
G02 X322.2734 Y145.3797 I-11.4688 J149.0204
G02 X298.4240 Y145.1243 I-24.8593 J1207.8294
G01 X289.6188 Y145.0979
G01 X279.4879 Y145.0817
G01 X267.9367 Y145.0733
G01 X254.8705 Y145.0703
G01 X240.1948 Y145.0702
G01 X223.8150 Y145.0707
G01 X116.9754
G01 X115.6689 Y146.1946
G02 X114.3441 Y149.8259 I2.8465 J3.0958
G02 X115.4180 Y152.1720 I3.8412 J-0.3395
G01 X116.4046 Y153.1587
G01 X223.6360 Y153.4505
G01 X235.4053 Y153.4812
G01 X246.3836 Y153.5072
G01 X256.5923 Y153.5282
G01 X266.0528 Y153.5442
G01 X274.7866 Y153.5551
G02 X296.8419 Y153.5569 I11.8151 J-9861.3066
G00 Z20.0000


(No. 30: Engraving 30)
G00 X309.2888 Y34.7769 Z20.0000
G00 Z0.5000
G01 Z0.0000 F1000
G01 Z-34.0000
G03 X354.1073 Y62.2190 I-86.4549 J191.5182 F1400
G02 X359.6510 Y65.9412 I25.3224 J-31.7247
G02 X361.0282 Y66.3908 I1.8081 J-3.2042
G02 X366.2603 Y65.1143 I1.0475 J-7.0676
G02 X369.8687 Y57.6386 I-4.8278 J-6.9390
G02 X369.3408 Y54.8723 I-7.1761 J-0.0640
G02 X367.5194 Y52.2996 I-8.2458 J3.9069
G02 X363.4851 Y48.7804 I-32.2280 J32.8727
G02 X288.8645 Y10.1935 I-137.3592 J174.1842
G02 X251.6156 Y2.3963 I-66.5260 J224.9374
G02 X238.0364 Y1.4760 I-22.8735 J236.8467
G02 X212.0816 Y1.1919 I-17.0931 J375.9030
G02 X206.6811 Y1.4845 I2.1714 J90.0565
G02 X116.0672 Y29.1060 I20.4524 J229.5379
G02 X100.2562 Y38.7357 I104.3328 J189.0998
G02 X80.8843 Y53.3487 I147.5142 J215.6999
G02 X76.8673 Y56.9364 I43.9273 J53.2263
G01 X76.2904 Y57.5379
G02 X75.6832 Y58.5677 I1.2586 J1.4360
G02 X77.1940 Y66.4192 I8.5489 J2.4261
G02 X82.9260 Y68.8276 I5.0660 J-4.0318
G02 X86.6112 Y67.5476 I-1.3400 J-9.8028
G02 X89.9848 Y65.0001 I-9.4054 J-15.9633
G03 X96.3003 Y59.8283 I67.1486 J75.5542
G03 X111.0247 Y49.3442 I151.2399 J196.8272
G03 X182.7992 Y20.4377 I112.8683 J176.6900
G03 X203.8358 Y17.2073 I43.9141 J215.8636
G03 X214.4450 Y16.7019 I13.7863 J177.7796
G03 X242.1093 Y17.1825 I7.8071 J347.0050
G03 X247.6334 Y17.6752 I-5.5711 J93.6880
G03 X293.2034 Y28.3306 I-26.1443 J214.5842
G03 X309.2612 Y34.7645 I-69.0583 J195.6134
G00 Z20.0000


(No. 31: Engraving 31)
G00 X394.1644 Y77.9798 Z20.0000
G00 Z0.5000
G01 Z0.0000 F1000
G01 Z-34.0000
G02 X388.5664 Y72.0073 I-57.0396 J47.8533 F1400
G01 X387.7387 Y71.2724
G02 X386.2041 Y70.2210 I-4.0446 J4.2577
G02 X382.5365 Y69.5196 I-3.4782 J8.2477
G02 X378.9951 Y70.2577 I-0.1658 J8.0701
G02 X375.1990 Y74.1060 I4.2180 J7.9573
G02 X375.0256 Y80.4629 I7.0959 J3.3743
G02 X377.5125 Y84.1670 I16.7316 J-8.5463
G02 X380.4412 Y87.4223 I61.8763 J-52.7238
G03 X396.1665 Y107.7725 I-140.7453 J125.0100
G03 X411.2031 Y133.8363 I-181.1456 J121.8747
G01 X415.7743 Y143.2174
G03 X414.8084 Y144.7777 I-0.9754 J0.4753
G01 X380.9774 Y145.0707
G02 X357.6171 Y145.3454 I7.7364 J1651.0553
G02 X349.7563 Y145.6670 I2.1793 J149.5439
G02 X346.7502 Y146.0586 I1.0578 J19.8491
G02 X345.5343 Y146.5167 I0.4435 J3.0201
G02 X344.8897 Y147.3918 I1.3973 J1.7040
G02 X344.6291 Y150.7573 I4.1571 J2.0147
G02 X345.4941 Y152.3949 I4.1565 J-1.1481
G01 X346.4885 Y153.5510
G01 X381.9684 Y153.4776
G02 X416.3773 Y153.2250 I0.3821 J-2291.1010
G02 X418.2285 Y153.1477 I0.1116 J-19.5334
G03 X419.3873 Y153.6547 I0.1253 J1.2916
G03 X420.1129 Y155.0744 I-6.1273 J4.0269
G03 X423.1334 Y164.0414 I-110.3503 J42.1622
G03 X430.1117 Y194.9501 I-196.5740 J60.6230
G03 X431.9410 Y219.6416 I-198.8460 J27.1451
G03 X431.5040 Y241.4633 I-278.1241 J5.3461
G03 X427.6379 Y268.4649 I-174.5158 J-11.2101
G03 X419.9546 Y295.7301 I-230.7321 J-50.3045
G03 X417.5419 Y301.6596 I-72.2436 J-25.9402
G03 X416.6158 Y302.1767 I-0.9245 J-0.5679
G01 X381.5825 Y302.1260
G01 X347.0480 Y302.0759
G01 X346.0677 Y303.2152
G02 X345.1165 Y307.3386 I3.1598 J2.9003
G02 X346.4317 Y309.2759 I3.9518 J-1.2677
G01 X347.9156 Y310.5246
G01 X411.9796
G03 X413.0208 Y311.9148 I0.0000 J1.0850
G03 X411.6780 Y315.6575 I-19.8947 J-5.0258
G03 X407.8437 Y322.9634 I-92.4722 J-43.8714
G03 X391.2142 Y349.0834 I-285.8267 J-163.6209
G03 X386.1579 Y355.7363 I-103.2687 J-73.2389
G02 X382.6426 Y360.7459 I34.0077 J27.6009
G02 X381.2634 Y363.7709 I12.0460 J7.3195
G02 X381.5970 Y368.5673 I6.1527 J1.9818
G02 X382.9436 Y370.7842 I7.9991 J-3.3413
G02 X387.1571 Y373.2171 I6.0551 J-5.6215
G02 X391.9961 Y373.0031 I2.0744 J-7.9070
G02 X393.7344 Y371.8775 I-1.4651 J-4.1679
G02 X397.4357 Y367.7283 I-42.3749 J-41.5262
G02 X411.2491 Y349.1115 I-194.4597 J-158.7188
G01 X416.5146 Y340.8276
G01 X421.3889 Y332.3607
G01 X425.8746 Y323.7174
G01 X429.9695 Y314.9124
G01 X433.6712 Y305.9601
G01 X436.9775 Y296.8752
G01 X439.8860 Y287.6721
G01 X442.3944 Y278.3656
G01 X444.5005 Y268.9701
G01 X446.2019 Y259.5003
G01 X447.4963 Y249.9707
G01 X448.3815 Y240.3958
G01 X448.8551 Y230.7904
G01 X448.9149 Y221.1690
G01 X448.5586 Y211.5460
G01 X447.7838 Y201.9362
G01 X446.5885 Y192.3541
G01 X444.9701 Y182.8141
G01 X442.9266 Y173.3309
G01 X440.4534 Y163.9109
G02 X428.3414 Y131.0019 I-217.5714 J61.3927
G02 X408.5240 Y96.6014 I-204.9495 J95.1587
G02 X394.1549 Y77.9688 I-196.9466 J137.0246
G00 Z20.0000


(No. 32: Engraving 32)
G00 X15.9714 Y205.2753 Z20.0000
G00 Z0.5000
G01 Z0.0000 F1000
G01 Z-34.0000
G03 X21.2030 Y174.6190 I241.9707 J25.5180 F1400
G03 X25.6186 Y159.1613 I148.5462 J34.0743
G01 X27.2770 Y154.4671
G03 X28.2915 Y153.7436 I1.0230 J0.3614
G01 X65.5086 Y153.4505
G02 X90.9284 Y153.1784 I-9.2908 J-2055.0332
G02 X99.5581 Y152.8732 I-2.6346 J-196.6463
G02 X102.8801 Y152.5076 I-1.1638 J-25.8546
G01 X103.5103 Y152.3622
G02 X104.3093 Y151.9880 I-0.2366 J-1.5453
G02 X104.6752 Y151.2112 I-1.6074 J-1.2317
G02 X104.1781 Y146.7344 I-5.4825 J-1.6572
G02 X103.7365 Y146.1760 I-2.6516 J1.6429
G01 X102.6313 Y145.0707
G01 X67.8879
G03 X36.6124 Y144.8285 I-4.2493 J-1470.3372
G03 X33.0693 Y144.6927 I1.3942 J-82.6778
G03 X32.1491 Y144.4761 I-0.0645 J-1.7893
G03 X31.6415 Y143.2823 I0.5467 J-0.9372
G03 X32.2176 Y141.7325 I9.4649 J2.6366
G03 X37.8116 Y130.2997 I256.7627 J118.5460
G03 X43.2823 Y120.0744 I217.3328 J109.7010
G03 X60.0925 Y95.5824 I189.0483 J111.7390
G02 X67.0030 Y86.9114 I-204.0275 J-169.6937
G02 X68.9648 Y83.9315 I-18.3889 J-14.2416
G02 X69.7043 Y81.0792 I-4.6926 J-2.7387
G02 X61.3854 Y74.2411 I-6.9295 J-0.0492
G02 X58.7613 Y75.2992 I1.2961 J6.9972
G02 X56.0221 Y77.8792 I13.8019 J17.3978
G02 X48.5275 Y86.8739 I98.8933 J90.0193
G02 X38.4064 Y100.9683 I206.2070 J158.7566
G01 X32.9311 Y109.5936
G01 X27.8858 Y118.4293
G01 X23.2676 Y127.4669
G01 X19.0786 Y136.6891
G01 X15.3213 Y146.0784
G01 X11.9981 Y155.6175
G01 X9.1112 Y165.2891
G01 X6.6630 Y175.0756
G01 X4.6559 Y184.9598
G01 X3.0922 Y194.9242
G01 X1.9744 Y204.9514
G01 X1.3046 Y215.0240
G01 X1.0853 Y225.1245
G01 X1.3187 Y235.2356
G01 X2.0072 Y245.3399
G01 X3.1532 Y255.4200
G01 X4.7588 Y265.4585
G01 X6.8264 Y275.4379
G01 X9.3584 Y285.3411
G01 X12.3592 Y295.1577
G02 X26.0903 Y327.5588 I215.5382 J-72.2319
G02 X44.4866 Y357.4036 I200.8328 J-103.2009
G02 X49.7224 Y364.2258 I205.0333 J-151.9339
G03 X53.9050 Y369.8473 I-76.1036 J60.9916
G02 X54.3446 Y370.5700 I42.5294 J-25.3736
G02 X56.6625 Y372.3945 I4.7103 J-3.5992
G02 X62.8967 Y372.8609 I3.7470 J-8.1862
G02 X66.3794 Y369.8960 I-1.7790 J-5.6174
G02 X67.0929 Y364.0442 I-6.8128 J-3.8002
G02 X66.0915 Y362.1706 I-5.7795 J1.8847
G02 X61.0934 Y355.6587 I-123.2222 J89.4025
G03 X37.7551 Y319.7275 I159.2895 J-129.0076
G01 X33.9842 Y312.3991
G03 X34.9395 Y310.8177 I0.9648 J-0.4964
G01 X68.6389 Y310.5246
G01 X101.9139 Y310.2352
G01 X103.0995 Y309.1211
G02 X103.1496 Y303.2493 I-2.9042 J-2.9609
G01 X102.0452 Y302.1448
G01 X66.4856
G03 X39.1836 Y302.0605 I-6.3059 J-2377.9658
G03 X32.3450 Y301.8309 I0.0591 J-103.7340
G03 X30.1203 Y301.4389 I0.2445 J-7.8958
G03 X29.0443 Y300.4247 I0.5911 J-1.7049
G03 X24.9443 Y288.5955 I129.4568 J-51.4949
G03 X17.9406 Y259.6614 I255.1738 J-77.0810
G03 X16.0287 Y244.3225 I141.5711 J-25.4345
G03 X15.3736 Y214.0860 I281.4374 J-21.2229
G03 X15.9699 Y205.2906 I134.5852 J4.7060
G00 Z20.0000
G00 X0.0000 Y0.0000

M05
M30
