(Project wineglass-abstract)
(Created with Estlcam 12.072)
(Machining time about 00:02:26 hours)

(Required tools:)
(1/4 mill)

G21
G90
G94
M03 S24000
G00 Z5.0000

(No. 1 Pocketing linear: Pocket 1)
G00 X100.0368 Y96.6410
G00 Z0.5000
G01 Z0.0000 F300 S24000
G01 X97.8560 Z-0.7938
G01 X100.0368 Z-1.5875
G01 X66.5849 F2540
G03 X67.6187 Y94.2597 I32.5665 J12.7226
G01 X99.0031
G02 X97.7621 Y91.8785 I-30.6708 J14.4708
G01 X68.8596
G01 X68.8869 Y91.8295
G03 X70.3582 Y89.4972 I26.9644 J15.3803
G01 X96.2632
G02 X94.4320 Y87.1160 I-22.2062 J15.1821
G01 X72.1893
G03 X74.3636 Y84.8492 I24.0520 J20.8946
G01 X74.4843 Y84.7347
G01 X92.1322
G02 X89.3889 Y82.5729 I-10.5448 J10.5594
G01 X89.0996 Y82.4102
G01 X88.9903 Y82.3535
G01 X77.6001
G01 X77.4885 Y82.1431
G02 X74.5694 Y84.3259 I6.2537 J11.4064
G02 X67.8838 Y93.1804 I20.4253 J22.3734
G02 X65.6933 Y98.3828 I34.0403 J17.3952
G01 X83.3108 Y98.3864
G01 X100.9251
G02 X95.2475 Y87.7252 I-33.3998 J10.9445
G02 X90.3954 Y82.9490 I-22.9367 J18.4485
G02 X86.7644 Y81.2102 I-6.7933 J9.5256
G02 X81.6251 Y80.7546 I-3.4410 J9.5998
G02 X77.4987 Y82.1377 I3.5913 J17.5607
G01 X77.4885 Y82.1431
G01 X77.6001 Y82.3535
G00 Z5.0000
G00 X100.0368 Y96.6410
G00 Z-1.0875
G01 Z-1.5875 F300
G01 X98.0964 Z-2.2938
G01 X100.0368 Z-3.0000
G01 X66.5849 F2540
G03 X67.6187 Y94.2597 I32.5665 J12.7226
G01 X99.0031
G02 X97.7621 Y91.8785 I-30.6708 J14.4708
G01 X68.8596
G01 X68.8869 Y91.8295
G03 X70.3582 Y89.4972 I26.9644 J15.3803
G01 X96.2632
G02 X94.4320 Y87.1160 I-22.2062 J15.1821
G01 X72.1893
G03 X74.3636 Y84.8492 I24.0520 J20.8946
G01 X74.4843 Y84.7347
G01 X92.1322
G02 X89.3889 Y82.5729 I-10.5448 J10.5594
G01 X89.0996 Y82.4102
G01 X88.9903 Y82.3535
G01 X77.6001
G01 X77.4885 Y82.1431
G02 X74.5694 Y84.3259 I6.2537 J11.4064
G02 X67.8838 Y93.1804 I20.4253 J22.3734
G02 X65.6933 Y98.3828 I34.0403 J17.3952
G01 X83.3108 Y98.3864
G01 X100.9251
G02 X95.2475 Y87.7252 I-33.3998 J10.9445
G02 X90.3954 Y82.9490 I-22.9367 J18.4485
G02 X86.7644 Y81.2102 I-6.7933 J9.5256
G02 X81.6251 Y80.7546 I-3.4410 J9.5998
G02 X77.4987 Y82.1377 I3.5913 J17.5607
G01 X77.4885 Y82.1431
G01 X77.6001 Y82.3535
G00 Z5.0000

(No. 2 Hole machining: Hole 26)
G00 X124.5503 Y82.3535 Z5.0000
G00 Z0.5000
G01 Z0.0000 F300
G01 Y86.7151 Z-1.5875
G01 Y92.2304 F2540
G01 X139.8433
G01 Y74.8364
G01 X139.7837 Y74.6715
G01 X139.7370 Y74.6653
G01 X139.5295 Y74.6249
G01 X139.4878 Y74.6142
G01 X139.2625 Y74.5392
G01 X139.2249 Y74.5238
G01 X139.0002 Y74.4117
G01 X138.9658 Y74.3913
G01 X138.7602 Y74.2483
G01 X138.7282 Y74.2223
G01 X138.5567 Y74.0632
G01 X138.5264 Y74.0310
G01 X138.3934 Y73.8718
G03 X138.2380 Y73.6380 I1.8606 J-1.4047
G03 X137.7294 Y71.1541 I4.3625 J-2.1872
G03 X137.9464 Y68.6014 I17.9467 J0.2394
G02 X138.1247 Y64.9565 I-15.4744 J-2.5839
G03 X138.3224 Y62.1386 I9.0963 J-0.7778
G01 X138.3323 Y62.1030
G01 X138.3549 Y62.0221
G01 X138.3493 Y61.9671
G03 X137.8477 Y61.1238 I2.0333 J-1.7801
G01 X137.7217 Y61.0742
G02 X131.1103 Y61.0041 I-4.9739 J157.4097
G01 X124.5503
G01 Y82.3535
G01 Y86.2343 Z-3.0000 F300
G01 Y92.2304 F2540
G01 X139.8433
G01 Y74.8364
G01 X139.7837 Y74.6715
G01 X139.7370 Y74.6653
G01 X139.5295 Y74.6249
G01 X139.4878 Y74.6142
G01 X139.2625 Y74.5392
G01 X139.2249 Y74.5238
G01 X139.0002 Y74.4117
G01 X138.9658 Y74.3913
G01 X138.7602 Y74.2483
G01 X138.7282 Y74.2223
G01 X138.5567 Y74.0632
G01 X138.5264 Y74.0310
G01 X138.3934 Y73.8718
G03 X138.2380 Y73.6380 I1.8606 J-1.4047
G03 X137.7294 Y71.1541 I4.3625 J-2.1872
G03 X137.9464 Y68.6014 I17.9467 J0.2394
G02 X138.1247 Y64.9565 I-15.4744 J-2.5839
G03 X138.3224 Y62.1386 I9.0963 J-0.7778
G01 X138.3323 Y62.1030
G01 X138.3549 Y62.0221
G01 X138.3493 Y61.9671
G03 X137.8477 Y61.1238 I2.0333 J-1.7801
G01 X137.7217 Y61.0742
G02 X131.1103 Y61.0041 I-4.9739 J157.4097
G01 X124.5503
G01 Y82.3535
G01 Y86.2343
G00 Z5.0000

(No. 3 Hole machining: Hole 22)
G00 X130.0083 Y52.6382 Z5.0000
G00 Z0.5000
G01 Z0.0000 F300
G02 X132.0128 Y52.4102 Z-0.7419 I0.5526 J-4.0682
G02 X133.8908 Y51.0776 Z-1.5875 I-1.9019 J-4.6697
G02 X134.8740 Y49.3948 I-3.7799 J-3.3370 F2540
G02 X134.9042 Y46.5495 I-6.0454 J-1.4871
G02 X134.0773 Y45.1833 I-3.6826 J1.2956
G02 X131.9380 Y43.4985 I-4.7975 J3.8912
G02 X129.6633 Y43.4701 I-1.1856 J3.8473
G02 X126.8088 Y45.1081 I1.2959 J5.5645
G02 X126.3448 Y50.2464 I3.1754 J2.8769
G02 X130.0083 Y52.6382 I4.1841 J-2.4072
G02 X132.0128 Y52.4102 Z-2.3294 I0.5526 J-4.0682 F300
G02 X133.5559 Y51.4223 Z-3.0000 I-1.9019 J-4.6697
G02 X134.8740 Y49.3948 I-3.4450 J-3.6817 F2540
G02 X134.9042 Y46.5495 I-6.0454 J-1.4871
G02 X134.0773 Y45.1833 I-3.6826 J1.2956
G02 X131.9380 Y43.4985 I-4.7975 J3.8912
G02 X129.6633 Y43.4701 I-1.1856 J3.8473
G02 X126.8088 Y45.1081 I1.2959 J5.5645
G02 X126.3448 Y50.2464 I3.1754 J2.8769
G02 X130.0083 Y52.6382 I4.1841 J-2.4072
G02 X132.0128 Y52.4102 I0.5526 J-4.0682
G02 X133.5559 Y51.4223 I-1.9019 J-4.6697
G00 Z5.0000

(No. 4 Engraving machining: Engraving 2)
G00 X137.6732 Y38.2250 Z5.0000
G00 Z0.5000
G01 Z0.0000 F300
G02 X137.1015 Y37.2522 Z-0.4116 I-4.5598 J2.0257
G01 X137.0951 Y37.2440 Z-0.4153
G03 X136.2330 Y37.8243 Z-0.7938 I-6.1756 J-8.2437
G02 X137.0951 Y37.2440 Z-1.1722 I-5.3135 J-8.8240
G01 X137.1015 Y37.2522 Z-1.1759
G03 X137.6732 Y38.2250 Z-1.5875 I-3.9880 J2.9984
G02 X137.1015 Y37.2522 I-4.5598 J2.0257 F2540
G01 X137.0951 Y37.2440
G03 X133.7335 Y38.9087 I-6.1756 J-8.2437
G01 X134.0123 Y39.0397
G03 X137.6615 Y41.7069 I-4.0025 J9.3059
G01 X137.7400 Y41.7933
G01 X137.7537 Y41.7874
G02 X137.8466 Y41.6684 I-0.8537 J-0.7619
G01 X137.8367 Y41.6842
G01 X137.8428 Y41.6756
G01 X137.8576 Y41.6427
G01 X137.8794 Y41.5834
G02 X137.6478 Y38.1635 I-6.1256 J-1.3030
G03 X138.0126 Y40.0614 Z-2.2938 I-5.8940 J2.1170 F300
G02 X137.6478 Y38.1635 Z-3.0000 I-6.2588 J0.2190
G03 X137.8794 Y41.5834 I-5.8940 J2.1170 F2540
G01 X137.8576 Y41.6427
G01 X137.8428 Y41.6756
G01 X137.8367 Y41.6842
G01 X137.8466 Y41.6684
G03 X137.7537 Y41.7874 I-0.9466 J-0.6429
G01 X137.7400 Y41.7933
G01 X137.6615 Y41.7069
G02 X134.0123 Y39.0397 I-7.6516 J6.6387
G01 X133.7335 Y38.9087
G02 X137.0951 Y37.2440 I-2.8140 J-9.9085
G01 X137.1015 Y37.2522
G03 X137.6732 Y38.2250 I-3.9880 J2.9984
G00 Z5.0000

(No. 5 Hole machining: Hole 17)
G00 X141.5142 Y44.4674 Z5.0000
G00 Z0.5000
G01 Z0.0000 F300
G01 X141.4919 Y44.4950 Z-0.0129
G03 X140.6130 Y45.6106 Z-0.5302 I-9.2032 J-6.3464
G02 X140.1321 Y46.2831 Z-0.8322 I2.0464 J1.9719
G02 X140.0608 Y46.9869 Z-1.0914 I1.6712 J0.5248
G01 X140.0659 Y47.1553 Z-1.1528
G03 X140.0598 Y48.3492 Z-1.5875 I-11.7786 J0.5365
G03 X139.4976 Y51.3459 I-11.7725 J-0.6574 F2540
G02 X139.3465 Y51.8673 I7.1775 J2.3630
G01 X139.3435 Y51.8797
G02 X142.0447 Y52.7513 I3.8687 J-7.3687
G02 X143.2469 Y52.5911 I-0.2532 J-6.4946
G03 X142.9406 Y48.9454 I5.4710 J-2.2954
G03 X143.0805 Y48.2455 I41.2830 J7.8865
G02 X143.2191 Y47.3848 I-5.9125 J-1.3935
G01 X143.2185 Y47.3987
G01 X143.2198 Y47.3666
G01 X143.1962 Y47.3313
G03 X141.5344 Y44.5190 I7.2179 J-6.1621
G01 X141.5240 Y44.4923
G01 X141.5142 Y44.4674
G01 X141.4919 Y44.4950 Z-1.6004 F300
G03 X140.6130 Y45.6106 Z-2.1177 I-9.2032 J-6.3464
G02 X140.1321 Y46.2831 Z-2.4197 I2.0464 J1.9719
G02 X140.0608 Y46.9869 Z-2.6789 I1.6712 J0.5248
G01 X140.0659 Y47.1553 Z-2.7403
G03 X140.0768 Y47.8687 Z-3.0000 I-11.7786 J0.5365
G03 X139.4976 Y51.3459 I-11.7895 J-0.1769 F2540
G02 X139.3465 Y51.8673 I7.1775 J2.3630
G01 X139.3435 Y51.8797
G02 X142.0447 Y52.7513 I3.8687 J-7.3687
G02 X143.2469 Y52.5911 I-0.2532 J-6.4946
G03 X142.9406 Y48.9454 I5.4710 J-2.2954
G03 X143.0805 Y48.2455 I41.2830 J7.8865
G02 X143.2191 Y47.3848 I-5.9125 J-1.3935
G01 X143.2185 Y47.3987
G01 X143.2198 Y47.3666
G01 X143.1962 Y47.3313
G03 X141.5344 Y44.5190 I7.2179 J-6.1621
G01 X141.5240 Y44.4923
G01 X141.5142 Y44.4674
G01 X141.4919 Y44.4950
G03 X140.6130 Y45.6106 I-9.2032 J-6.3464
G02 X140.1321 Y46.2831 I2.0464 J1.9719
G02 X140.0608 Y46.9869 I1.6712 J0.5248
G01 X140.0659 Y47.1553
G03 X140.0768 Y47.8687 I-11.7786 J0.5365
G00 Z5.0000

(No. 6 Hole machining: Hole 14)
G00 X146.6238 Y43.4745 Z5.0000
G00 Z0.5000
G01 Z0.0000 F300
G02 X149.7842 Y44.8387 Z-1.3170 I2.7068 J-1.9277
G02 X150.5252 Y44.7832 Z-1.5875 I-0.4935 J-11.5533
G02 X151.5969 Y44.6170 I-1.2345 J-11.4978 F2540
G01 X151.5797 Y44.6213
G01 X151.6431 Y44.6056
G01 X151.6541 Y44.5837
G01 X151.7246 Y44.4568
G01 X151.7382 Y44.4344
G03 X152.8278 Y43.4791 I2.2023 J1.4129
G01 X152.8707 Y43.4598
G01 X152.8711 Y43.4348
G02 X152.7262 Y41.7786 I-4.6125 J-0.4310
G01 X152.7153 Y41.7491
G03 X151.7921 Y39.0783 I3.3160 J-2.6413
G02 X151.6139 Y38.8093 I-0.2705 J-0.0144
G02 X149.4117 Y38.3170 I-2.0384 J3.9471
G02 X147.8822 Y38.6276 I-0.1859 J3.0064
G02 X145.9968 Y40.7324 I1.7286 J3.4452
G02 X146.0261 Y42.1594 I2.5175 J0.6621
G02 X146.6238 Y43.4745 I3.5955 J-0.8407
G02 X149.7842 Y44.8387 Z-2.9045 I2.7068 J-1.9277 F300
G02 X150.0462 Y44.8246 Z-3.0000 I-0.4935 J-11.5533
G02 X151.5969 Y44.6170 I-0.7555 J-11.5391 F2540
G01 X151.5797 Y44.6213
G01 X151.6431 Y44.6056
G01 X151.6541 Y44.5837
G01 X151.7246 Y44.4568
G01 X151.7382 Y44.4344
G03 X152.8278 Y43.4791 I2.2023 J1.4129
G01 X152.8707 Y43.4598
G01 X152.8711 Y43.4348
G02 X152.7262 Y41.7786 I-4.6125 J-0.4310
G01 X152.7153 Y41.7491
G03 X151.7921 Y39.0783 I3.3160 J-2.6413
G02 X151.6139 Y38.8093 I-0.2705 J-0.0144
G02 X149.4117 Y38.3170 I-2.0384 J3.9471
G02 X147.8822 Y38.6276 I-0.1859 J3.0064
G02 X145.9968 Y40.7324 I1.7286 J3.4452
G02 X146.0261 Y42.1594 I2.5175 J0.6621
G02 X146.6238 Y43.4745 I3.5955 J-0.8407
G02 X149.7842 Y44.8387 I2.7068 J-1.9277
G02 X150.0462 Y44.8246 I-0.4935 J-11.5533
G00 Z5.0000

(No. 7 Hole machining: Hole 15)
G00 X157.5485 Y40.8659 Z5.0000
G00 Z0.5000
G01 Z0.0000 F300
G02 X158.9138 Y41.9250 Z-0.6467 I1.9095 J-1.0519
G02 X161.4682 Y41.8961 Z-1.5875 I1.2240 J-4.7100
G02 X163.0359 Y41.1243 I-1.3305 J-4.6810 F2540
G02 X163.9262 Y39.7491 I-1.3039 J-1.8199
G02 X163.6370 Y37.9353 I-5.0806 J-0.1198
G02 X162.7371 Y35.6321 I-11.4625 J3.1511
G02 X162.5398 Y35.4653 I-0.3241 J0.1834
G02 X158.8080 Y35.1561 I-2.3643 J5.8597
G01 X158.6551 Y35.2039
G01 X158.6654 Y35.1998
G01 X158.5781 Y35.2347
G01 X158.5704 Y35.2509
G03 X157.7629 Y36.3398 I-2.5542 J-1.0502
G01 X157.7486 Y36.3509
G01 X157.6282 Y36.4361
G01 X157.6151 Y36.4446
G01 X157.4700 Y36.5295
G01 X157.4583 Y36.5357
G01 X157.2938 Y36.6822
G02 X157.4581 Y40.6512 I7.5117 J1.6770
G01 X157.5485 Y40.8659
G02 X158.9138 Y41.9250 Z-2.2342 I1.9095 J-1.0519 F300
G02 X161.0000 Y42.0045 Z-3.0000 I1.2240 J-4.7100
G02 X163.0359 Y41.1243 I-0.8623 J-4.7894 F2540
G02 X163.9262 Y39.7491 I-1.3039 J-1.8199
G02 X163.6370 Y37.9353 I-5.0806 J-0.1198
G02 X162.7371 Y35.6321 I-11.4625 J3.1511
G02 X162.5398 Y35.4653 I-0.3241 J0.1834
G02 X158.8080 Y35.1561 I-2.3643 J5.8597
G01 X158.6551 Y35.2039
G01 X158.6654 Y35.1998
G01 X158.5781 Y35.2347
G01 X158.5704 Y35.2509
G03 X157.7629 Y36.3398 I-2.5542 J-1.0502
G01 X157.7486 Y36.3509
G01 X157.6282 Y36.4361
G01 X157.6151 Y36.4446
G01 X157.4700 Y36.5295
G01 X157.4583 Y36.5357
G01 X157.2938 Y36.6822
G02 X157.4581 Y40.6512 I7.5117 J1.6770
G01 X157.5485 Y40.8659
G02 X158.9138 Y41.9250 I1.9095 J-1.0519
G02 X161.0000 Y42.0045 I1.2240 J-4.7100
G00 Z5.0000

(No. 8 Hole machining: Hole 5)
G00 X164.0297 Y30.5964 Z5.0000
G00 Z0.5000
G01 Z0.0000 F300
G02 X164.1245 Y30.1184 Z-0.1781 I-1.5234 J-0.5507
G01 X164.1230 Y30.0901 Z-0.1884
G01 X164.1182 Y30.0766 Z-0.1936
G02 X163.7101 Y29.7882 Z-0.3761 I-1.2164 J1.2880
G01 X163.5305 Y29.6924 Z-0.4502
G03 X162.6591 Y29.2050 Z-0.8136 I6.1394 J-11.9982
G01 X162.6359 Y29.1906 Z-0.8236
G03 X162.0830 Y30.0807 Z-1.2052 I-7.3681 J-3.9597
G01 X162.0683 Y30.1010 Z-1.2144
G01 X162.0357 Y30.1463 Z-1.2347
G03 X162.9904 Y30.3126 Z-1.5875 I-1.3710 J10.6936
G03 X163.9884 Y30.5838 I-2.3257 J10.5273 F2540
G01 X164.0297 Y30.5964
G02 X164.1245 Y30.1184 Z-1.7656 I-1.5234 J-0.5507 F300
G01 X164.1230 Y30.0901 Z-1.7759
G01 X164.1182 Y30.0766 Z-1.7811
G02 X163.7101 Y29.7882 Z-1.9636 I-1.2164 J1.2880
G01 X163.5305 Y29.6924 Z-2.0377
G03 X162.6591 Y29.2050 Z-2.4011 I6.1394 J-11.9982
G01 X162.6359 Y29.1906 Z-2.4111
G03 X162.0830 Y30.0807 Z-2.7927 I-7.3681 J-3.9597
G01 X162.0683 Y30.1010 Z-2.8019
G01 X162.0357 Y30.1463 Z-2.8222
G03 X162.5188 Y30.2194 Z-3.0000 I-1.3710 J10.6936
G03 X163.9884 Y30.5838 I-1.8540 J10.6205 F2540
G01 X164.0297 Y30.5964
G02 X164.1245 Y30.1184 I-1.5234 J-0.5507
G01 X164.1230 Y30.0901
G01 X164.1182 Y30.0766
G02 X163.7101 Y29.7882 I-1.2164 J1.2880
G01 X163.5305 Y29.6924
G03 X162.6591 Y29.2050 I6.1394 J-11.9982
G01 X162.6359 Y29.1906
G03 X162.0830 Y30.0807 I-7.3681 J-3.9597
G01 X162.0683 Y30.1010
G01 X162.0357 Y30.1463
G03 X162.5188 Y30.2194 I-1.3710 J10.6936
G00 Z5.0000

(No. 9 Hole machining: Hole 8)
G00 X168.6936 Y32.3303 Z5.0000
G00 Z0.5000
G01 Z0.0000 F300
G03 X168.1232 Y33.6613 Z-0.5276 I-8.6362 J-2.9135
G02 X167.9049 Y34.1323 Z-0.7166 I5.6128 J2.8874
G01 X167.9114 Y34.1148 Z-0.7234
G01 X167.8906 Y34.1817 Z-0.7489
G02 X168.2900 Y34.7196 Z-0.9988 I0.8740 J-0.2317
G02 X169.8685 Y34.8918 Z-1.5875 I1.0381 J-2.1952
G02 X170.0107 Y34.8548 I-0.5403 J-2.3674 F2540
G02 X172.3464 Y31.8534 I-0.5736 J-2.8558
G02 X171.9672 Y30.2718 I-4.4477 J0.2299
G01 X171.9731 Y30.2846
G01 X171.9629 Y30.2624
G02 X171.5222 Y30.4067 I2.7456 J9.1324
G03 X169.0527 Y30.9104 I-3.4785 J-10.7476
G01 X169.0347 Y31.0115
G03 X168.6936 Y32.3303 I-8.2645 J-1.4339
G03 X168.1232 Y33.6613 Z-2.1151 I-8.6362 J-2.9135 F300
G02 X167.9049 Y34.1323 Z-2.3041 I5.6128 J2.8874
G01 X167.9114 Y34.1148 Z-2.3109
G01 X167.8906 Y34.1817 Z-2.3364
G02 X168.2900 Y34.7196 Z-2.5863 I0.8740 J-0.2317
G02 X169.3922 Y34.9519 Z-3.0000 I1.0381 J-2.1952
G02 X170.0107 Y34.8548 I-0.0641 J-2.4275 F2540
G02 X172.3464 Y31.8534 I-0.5736 J-2.8558
G02 X171.9672 Y30.2718 I-4.4477 J0.2299
G01 X171.9731 Y30.2846
G01 X171.9629 Y30.2624
G02 X171.5222 Y30.4067 I2.7456 J9.1324
G03 X169.0527 Y30.9104 I-3.4785 J-10.7476
G01 X169.0347 Y31.0115
G03 X168.6936 Y32.3303 I-8.2645 J-1.4339
G03 X168.1232 Y33.6613 I-8.6362 J-2.9135
G02 X167.9049 Y34.1323 I5.6128 J2.8874
G01 X167.9114 Y34.1148
G01 X167.8906 Y34.1817
G02 X168.2900 Y34.7196 I0.8740 J-0.2317
G02 X169.3922 Y34.9519 I1.0381 J-2.1952
G00 Z5.0000

(No. 10 Hole machining: Hole 21)
G00 X175.4282 Y39.5256 Z5.0000
G00 Z0.5000
G01 Z0.0000 F300
G02 X174.5252 Y42.1895 Z-1.0473 I2.9972 J2.5010
G02 X174.9225 Y43.6118 Z-1.5875 I4.2834 J-0.4298
G02 X175.7885 Y44.8274 I3.8861 J-1.8522 F2540
G02 X178.2415 Y46.4411 I4.3102 J-3.8808
G02 X181.3174 Y45.9018 I0.9920 J-3.3838
G02 X183.5265 Y42.7176 I-2.7092 J-4.2380
G02 X181.2457 Y38.1095 I-4.1386 J-0.8200
G02 X178.5714 Y37.5186 I-2.2650 J3.9040
G02 X175.9396 Y38.9381 I0.6995 J4.4463
G01 X175.6822 Y39.2161
G01 X175.4282 Y39.5256
G02 X174.5252 Y42.1895 Z-2.6348 I2.9972 J2.5010 F300
G02 X174.7403 Y43.1672 Z-3.0000 I4.2834 J-0.4298
G02 X175.7885 Y44.8274 I4.0683 J-1.4075 F2540
G02 X178.2415 Y46.4411 I4.3102 J-3.8808
G02 X181.3174 Y45.9018 I0.9920 J-3.3838
G02 X183.5265 Y42.7176 I-2.7092 J-4.2380
G02 X181.2457 Y38.1095 I-4.1386 J-0.8200
G02 X178.5714 Y37.5186 I-2.2650 J3.9040
G02 X175.9396 Y38.9381 I0.6995 J4.4463
G01 X175.6822 Y39.2161
G01 X175.4282 Y39.5256
G02 X174.5252 Y42.1895 I2.9972 J2.5010
G02 X174.7403 Y43.1672 I4.2834 J-0.4298
G00 Z5.0000

(No. 11 Hole machining: Hole 6)
G00 X168.8065 Y42.4988 Z5.0000
G00 Z0.5000
G01 Z0.0000 F300
G01 X168.8083 Y42.4822 Z-0.0061
G02 X168.5669 Y41.5864 Z-0.3468 I-2.0374 J0.0686
G01 X168.5753 Y41.6037 Z-0.3538
G01 X168.5346 Y41.5195 Z-0.3878
G03 X166.8166 Y44.3110 Z-1.5875 I-8.4249 J-3.2605
G03 X166.4679 Y44.6764 I-6.7069 J-6.0520 F2540
G01 X166.4545 Y44.6898
G01 X166.4458 Y44.6986
G01 X166.4617 Y44.6971
G02 X167.8072 Y44.1224 I-0.8718 J-3.9028
G02 X168.8065 Y42.4988 I-1.4733 J-2.0261
G01 X168.8083 Y42.4822 Z-1.5936 F300
G02 X168.5669 Y41.5864 Z-1.9343 I-2.0374 J0.0686
G01 X168.5753 Y41.6037 Z-1.9413
G01 X168.5346 Y41.5195 Z-1.9753
G03 X167.1291 Y43.9457 Z-3.0000 I-8.4249 J-3.2605
G03 X166.4679 Y44.6764 I-7.0193 J-5.6866 F2540
G01 X166.4545 Y44.6898
G01 X166.4458 Y44.6986
G01 X166.4617 Y44.6971
G02 X167.8072 Y44.1224 I-0.8718 J-3.9028
G02 X168.8065 Y42.4988 I-1.4733 J-2.0261
G01 X168.8083 Y42.4822
G02 X168.5669 Y41.5864 I-2.0374 J0.0686
G01 X168.5753 Y41.6037
G01 X168.5346 Y41.5195
G03 X167.1291 Y43.9457 I-8.4249 J-3.2605
G00 Z5.0000

(No. 12 Hole machining: Hole 23)
G00 X167.0007 Y49.3378 Z5.0000
G00 Z0.5000
G01 Z0.0000 F300
G01 X167.0050 Y49.3620 Z-0.0089
G02 X167.6922 Y51.3251 Z-0.7683 I7.4974 J-1.5225
G03 X168.4651 Y53.4315 Z-1.5875 I-7.2643 J3.8606
G03 X168.6516 Y55.3947 I-8.0372 J1.7542 F2540
G03 X168.3140 Y57.5662 I-10.7316 J-0.5566
G01 X168.3062 Y57.5955
G01 X168.2505 Y57.8037
G02 X170.8450 Y58.5146 I2.7108 J-4.8041
G02 X173.4025 Y57.7347 I-0.3252 J-5.6502
G02 X174.9533 Y56.0931 I-1.6437 J-3.1061
G02 X175.3773 Y52.0793 I-4.2183 J-2.4748
G02 X171.7946 Y48.9440 I-4.7232 J1.7827
G02 X170.1997 Y48.7876 I-1.1490 J3.5053
G02 X170.1145 Y48.8298 I0.0833 J0.2750
G03 X168.3594 Y49.3128 I-2.0320 J-3.9531
G03 X167.0654 Y49.3412 I-0.8410 J-8.8277
G01 X167.0485 Y49.3403
G01 X167.0007 Y49.3378
G01 X167.0050 Y49.3620 Z-1.5964 F300
G02 X167.6922 Y51.3251 Z-2.3558 I7.4974 J-1.5225
G03 X168.3489 Y52.9650 Z-3.0000 I-7.2643 J3.8606
G03 X168.6516 Y55.3947 I-7.9210 J2.2207 F2540
G03 X168.3140 Y57.5662 I-10.7316 J-0.5566
G01 X168.3062 Y57.5955
G01 X168.2505 Y57.8037
G02 X170.8450 Y58.5146 I2.7108 J-4.8041
G02 X173.4025 Y57.7347 I-0.3252 J-5.6502
G02 X174.9533 Y56.0931 I-1.6437 J-3.1061
G02 X175.3773 Y52.0793 I-4.2183 J-2.4748
G02 X171.7946 Y48.9440 I-4.7232 J1.7827
G02 X170.1997 Y48.7876 I-1.1490 J3.5053
G02 X170.1145 Y48.8298 I0.0833 J0.2750
G03 X168.3594 Y49.3128 I-2.0320 J-3.9531
G03 X167.0654 Y49.3412 I-0.8410 J-8.8277
G01 X167.0485 Y49.3403
G01 X167.0007 Y49.3378
G01 X167.0050 Y49.3620
G02 X167.6922 Y51.3251 I7.4974 J-1.5225
G03 X168.3489 Y52.9650 I-7.2643 J3.8606
G00 Z5.0000

(No. 13 Hole machining: Hole 10)
G00 X163.5598 Y54.2780 Z5.0000
G00 Z0.5000
G01 Z0.0000 F300
G02 X163.2896 Y53.4917 Z-0.3029 I-5.1644 J1.3350
G01 X163.2012 Y53.4353 Z-0.3411
G01 X163.1927 Y53.4294 Z-0.3448
G01 X163.1087 Y53.3858 Z-0.3793
G02 X162.5233 Y53.7408 Z-0.6285 I13.0429 J22.1690
G03 X160.1666 Y54.9054 Z-1.5875 I-6.0691 J-9.3149
G03 X157.7438 Y55.4685 I-3.7125 J-10.4795 F2540
G01 X157.5674 Y55.4912
G02 X160.0265 Y58.1023 I3.9145 J-1.2230
G02 X161.6139 Y57.9356 I0.5850 J-2.0706
G02 X163.6590 Y55.8282 I-1.5532 J-3.5534
G02 X163.6223 Y54.5230 I-2.3144 J-0.5879
G01 X163.5798 Y54.3511
G01 X163.5598 Y54.2780
G02 X163.2896 Y53.4917 Z-1.8904 I-5.1644 J1.3350 F300
G01 X163.2012 Y53.4353 Z-1.9286
G01 X163.1927 Y53.4294 Z-1.9323
G01 X163.1087 Y53.3858 Z-1.9668
G02 X162.5233 Y53.7408 Z-2.2160 I13.0429 J22.1690
G03 X160.6162 Y54.7351 Z-3.0000 I-6.0691 J-9.3149
G03 X157.7438 Y55.4685 I-4.1621 J-10.3092 F2540
G01 X157.5674 Y55.4912
G02 X160.0265 Y58.1023 I3.9145 J-1.2230
G02 X161.6139 Y57.9356 I0.5850 J-2.0706
G02 X163.6590 Y55.8282 I-1.5532 J-3.5534
G02 X163.6223 Y54.5230 I-2.3144 J-0.5879
G01 X163.5798 Y54.3511
G01 X163.5598 Y54.2780
G02 X163.2896 Y53.4917 I-5.1644 J1.3350
G01 X163.2012 Y53.4353
G01 X163.1927 Y53.4294
G01 X163.1087 Y53.3858
G02 X162.5233 Y53.7408 I13.0429 J22.1690
G03 X160.6162 Y54.7351 I-6.0691 J-9.3149
G00 Z5.0000

(No. 14 Hole machining: Hole 7)
G00 X158.6288 Y50.2033 Z5.0000
G00 Z0.5000
G01 Z0.0000 F300
G02 X161.1418 Y47.7381 Z-1.3070 I-2.1784 J-4.7342
G01 X161.1788 Y47.6350 Z-1.3469
G01 X161.1756 Y47.6467 Z-1.3513
G01 X161.1919 Y47.5871 Z-1.3738
G02 X160.6875 Y47.2974 Z-1.5875 I-0.8514 J0.8984
G02 X160.3310 Y47.2478 I-0.3470 J1.1881 F2540
G01 X160.1766 Y47.2431
G03 X157.9839 Y46.8206 I0.3822 J-7.8849
G01 X157.9608 Y46.8128
G01 X157.8553 Y46.7770
G03 X158.4121 Y49.9205 I-6.7714 J2.8206
G01 X158.4157 Y50.2362
G01 X158.4179 Y50.2940
G01 X158.6288 Y50.2033
G02 X161.1418 Y47.7381 Z-2.8945 I-2.1784 J-4.7342 F300
G01 X161.1788 Y47.6350 Z-2.9344
G01 X161.1756 Y47.6467 Z-2.9388
G01 X161.1919 Y47.5871 Z-2.9613
G02 X161.1117 Y47.5173 Z-3.0000 I-0.8514 J0.8984
G02 X160.3310 Y47.2478 I-0.7711 J0.9681 F2540
G01 X160.1766 Y47.2431
G03 X157.9839 Y46.8206 I0.3822 J-7.8849
G01 X157.9608 Y46.8128
G01 X157.8553 Y46.7770
G03 X158.4121 Y49.9205 I-6.7714 J2.8206
G01 X158.4157 Y50.2362
G01 X158.4179 Y50.2940
G01 X158.6288 Y50.2033
G02 X161.1418 Y47.7381 I-2.1784 J-4.7342
G01 X161.1788 Y47.6350
G01 X161.1756 Y47.6467
G01 X161.1919 Y47.5871
G02 X161.1117 Y47.5173 I-0.8514 J0.8984
G00 Z5.0000

(No. 15 Hole machining: Hole 9)
G00 X153.4675 Y49.5371 Z5.0000
G00 Z0.5000
G01 Z0.0000 F300
G01 X153.4490 Y49.4671 Z-0.0263
G01 X153.4017 Y49.3156 Z-0.0841
G01 X153.4074 Y49.3313 Z-0.0902
G01 X153.3626 Y49.2083 Z-0.1378
G01 X153.2915 Y49.2405 Z-0.1663
G03 X149.5204 Y50.0388 Z-1.5875 I-3.2831 J-6.2028
G03 X149.4593 Y50.0342 I0.4880 J-7.0011 F2540
G03 X148.4228 Y49.9665 I1.1362 J-25.3446
G02 X147.7376 Y49.9287 I-1.1731 J15.0475
G02 X148.1924 Y51.5921 I2.7191 J0.1505
G01 X148.2147 Y51.6156
G01 X148.2386 Y51.6229
G03 X149.2384 Y52.2560 I-0.7992 J2.3678
G01 X149.2501 Y52.2686
G01 X149.3452 Y52.3787
G01 X149.3545 Y52.3904
G01 X149.4508 Y52.5232
G01 X149.4578 Y52.5339
G01 X149.5516 Y52.6939
G01 X149.5565 Y52.7034
G01 X149.6582 Y52.8862
G02 X151.0261 Y53.0865 I1.0279 J-2.2488
G02 X152.4226 Y52.3050 I-0.3905 J-2.3363
G01 X152.4289 Y52.2860
G03 X153.5376 Y50.5192 I3.3593 J0.8769
G01 X153.5653 Y50.4975
G01 X153.5842 Y50.4594
G02 X153.4675 Y49.5371 I-3.2446 J-0.0580
G01 X153.4490 Y49.4671 Z-1.6138 F300
G01 X153.4017 Y49.3156 Z-1.6716
G01 X153.4074 Y49.3313 Z-1.6777
G01 X153.3626 Y49.2083 Z-1.7253
G01 X153.2915 Y49.2405 Z-1.7538
G03 X150.0008 Y50.0557 Z-3.0000 I-3.2831 J-6.2028
G03 X149.4593 Y50.0342 I0.0076 J-7.0181 F2540
G03 X148.4228 Y49.9665 I1.1362 J-25.3446
G02 X147.7376 Y49.9287 I-1.1731 J15.0475
G02 X148.1924 Y51.5921 I2.7191 J0.1505
G01 X148.2147 Y51.6156
G01 X148.2386 Y51.6229
G03 X149.2384 Y52.2560 I-0.7992 J2.3678
G01 X149.2501 Y52.2686
G01 X149.3452 Y52.3787
G01 X149.3545 Y52.3904
G01 X149.4508 Y52.5232
G01 X149.4578 Y52.5339
G01 X149.5516 Y52.6939
G01 X149.5565 Y52.7034
G01 X149.6582 Y52.8862
G02 X151.0261 Y53.0865 I1.0279 J-2.2488
G02 X152.4226 Y52.3050 I-0.3905 J-2.3363
G01 X152.4289 Y52.2860
G03 X153.5376 Y50.5192 I3.3593 J0.8769
G01 X153.5653 Y50.4975
G01 X153.5842 Y50.4594
G02 X153.4675 Y49.5371 I-3.2446 J-0.0580
G01 X153.4490 Y49.4671
G01 X153.4017 Y49.3156
G01 X153.4074 Y49.3313
G01 X153.3626 Y49.2083
G01 X153.2915 Y49.2405
G03 X150.0008 Y50.0557 I-3.2831 J-6.2028
G00 Z5.0000

(No. 16 Hole machining: Hole 12)
G00 X146.7481 Y33.0903 Z5.0000
G00 Z0.5000
G01 Z0.0000 F300
G02 X148.7566 Y31.8574 Z-0.8750 I-0.7120 J-3.4125
G03 X147.4632 Y30.3908 Z-1.5875 I8.4007 J-8.7121
G03 X145.9899 Y27.8102 I9.6941 J-7.2455 F2540
G03 X145.6835 Y26.6866 I5.2440 J-2.0334
G01 X145.6761 Y26.6243
G01 X145.6569 Y26.4634
G01 X145.6381 Y26.1487
G02 X145.5620 Y25.9123 I-0.5932 J0.0606
G01 X145.5711 Y25.9279
G01 X145.5627 Y25.9115
G02 X145.4925 Y25.9122 I-0.0331 J0.2099
G02 X143.1831 Y27.2294 I1.0317 J4.4916
G02 X142.6704 Y31.0888 I3.0200 J2.3649
G02 X146.7481 Y33.0903 I3.3785 J-1.7287
G02 X148.7566 Y31.8574 Z-2.4625 I-0.7120 J-3.4125 F300
G03 X147.7586 Y30.7701 Z-3.0000 I8.4007 J-8.7121
G03 X145.9899 Y27.8102 I9.3986 J-7.6248 F2540
G03 X145.6835 Y26.6866 I5.2440 J-2.0334
G01 X145.6761 Y26.6243
G01 X145.6569 Y26.4634
G01 X145.6381 Y26.1487
G02 X145.5620 Y25.9123 I-0.5932 J0.0606
G01 X145.5711 Y25.9279
G01 X145.5627 Y25.9115
G02 X145.4925 Y25.9122 I-0.0331 J0.2099
G02 X143.1831 Y27.2294 I1.0317 J4.4916
G02 X142.6704 Y31.0888 I3.0200 J2.3649
G02 X146.7481 Y33.0903 I3.3785 J-1.7287
G02 X148.7566 Y31.8574 I-0.7120 J-3.4125
G03 X147.7586 Y30.7701 I8.4007 J-8.7121
G00 Z5.0000

(No. 17 Hole machining: Hole 18)
G00 X151.5570 Y27.5417 Z5.0000
G00 Z0.5000
G01 Z0.0000 F300
G02 X152.0671 Y27.9768 Z-0.2450 I1.6410 J-1.4075
G03 X153.2949 Y28.8940 Z-0.8034 I-5.2036 J8.2463
G01 X153.3067 Y28.8959 Z-0.8077
G02 X155.3424 Y28.9193 Z-1.5494 I1.1793 J-14.0404
G02 X155.4470 Y28.9133 Z-1.5875 I-0.1260 J-3.1415
G02 X158.2195 Y26.7083 I-0.2306 J-3.1356 F2540
G02 X158.4188 Y24.7158 I-4.2975 J-1.4361
G01 X158.4147 Y24.6791
G01 X158.3696 Y24.6772
G03 X151.9515 Y22.4715 I-0.7678 J-8.2064
G02 X151.7353 Y22.2732 I-11.1187 J11.9063
G02 X151.0049 Y23.1176 I4.3050 J4.4625
G01 X151.0128 Y23.1054
G01 X150.9662 Y23.1764
G03 X150.3438 Y24.6889 I-2.8090 J-0.2715
G01 X150.3295 Y24.7055
G01 X150.2733 Y24.8371
G02 X151.5570 Y27.5417 I5.6915 J-1.0443
G02 X152.0671 Y27.9768 Z-1.8325 I1.6410 J-1.4075 F300
G03 X153.2949 Y28.8940 Z-2.3909 I-5.2036 J8.2463
G01 X153.3067 Y28.8959 Z-2.3952
G02 X154.9668 Y28.9371 Z-3.0000 I1.1793 J-14.0404
G02 X155.3424 Y28.9193 I-0.4808 J-14.0816 F2540
G02 X158.2195 Y26.7083 I-0.1260 J-3.1415
G02 X158.4188 Y24.7158 I-4.2975 J-1.4361
G01 X158.4147 Y24.6791
G01 X158.3696 Y24.6772
G03 X151.9515 Y22.4715 I-0.7678 J-8.2064
G02 X151.7353 Y22.2732 I-11.1187 J11.9063
G02 X151.0049 Y23.1176 I4.3050 J4.4625
G01 X151.0128 Y23.1054
G01 X150.9662 Y23.1764
G03 X150.3438 Y24.6889 I-2.8090 J-0.2715
G01 X150.3295 Y24.7055
G01 X150.2733 Y24.8371
G02 X151.5570 Y27.5417 I5.6915 J-1.0443
G02 X152.0671 Y27.9768 I1.6410 J-1.4075
G03 X153.2949 Y28.8940 I-5.2036 J8.2463
G01 X153.3067 Y28.8959
G02 X154.9668 Y28.9371 I1.1793 J-14.0404
G00 Z5.0000

(No. 18 Hole machining: Hole 13)
G00 X148.4880 Y18.9331 Z5.0000
G00 Z0.5000
G01 Z0.0000 F300
G01 X148.5160 Y18.9080 Z-0.0137
G02 X149.2253 Y18.1723 Z-0.3859 I-6.0684 J-6.5602
G01 X149.2169 Y18.1831 Z-0.3909
G01 X149.2527 Y18.1373 Z-0.4120
G02 X149.1734 Y17.7820 Z-0.5445 I-5.0548 J0.9425
G03 X148.9998 Y14.9315 Z-1.5875 I9.8433 J-2.0300
G03 X149.1595 Y13.7907 I10.0169 J0.8206 F2540
G03 X149.7102 Y11.8386 I9.7537 J1.6982
G02 X147.9582 Y11.9490 I-0.6552 J3.5598
G02 X144.9162 Y15.4321 I1.1956 J4.1141
G01 X144.9179 Y15.4195
G01 X144.9041 Y15.5262
G01 X144.9782 Y15.5652
G03 X148.3631 Y18.7205 I-3.8938 J7.5705
G01 X148.3837 Y18.7556
G01 X148.4880 Y18.9331
G01 X148.5160 Y18.9080 Z-1.6012 F300
G02 X149.2253 Y18.1723 Z-1.9734 I-6.0684 J-6.5602
G01 X149.2169 Y18.1831 Z-1.9784
G01 X149.2527 Y18.1373 Z-1.9995
G02 X149.1734 Y17.7820 Z-2.1320 I-5.0548 J0.9425
G03 X148.9720 Y15.4114 Z-3.0000 I9.8433 J-2.0300
G03 X149.1595 Y13.7907 I10.0446 J0.3406 F2540
G03 X149.7102 Y11.8386 I9.7537 J1.6982
G02 X147.9582 Y11.9490 I-0.6552 J3.5598
G02 X144.9162 Y15.4321 I1.1956 J4.1141
G01 X144.9179 Y15.4195
G01 X144.9041 Y15.5262
G01 X144.9782 Y15.5652
G03 X148.3631 Y18.7205 I-3.8938 J7.5705
G01 X148.3837 Y18.7556
G01 X148.4880 Y18.9331
G01 X148.5160 Y18.9080
G02 X149.2253 Y18.1723 I-6.0684 J-6.5602
G01 X149.2169 Y18.1831
G01 X149.2527 Y18.1373
G02 X149.1734 Y17.7820 I-5.0548 J0.9425
G03 X148.9720 Y15.4114 I9.8433 J-2.0300
G00 Z5.0000

(No. 19 Engraving machining: Engraving 1)
G00 X154.6386 Y8.7249 Z5.0000
G00 Z0.5000
G01 Z0.0000 F300
G01 Z-1.5875
G01 Z-3.0000
G00 Z5.0000

(No. 20 Hole machining: Hole 19)
G00 X155.9134 Y11.7215 Z5.0000
G00 Z0.5000
G01 Z0.0000 F300
G02 X154.5530 Y13.0879 Z-0.7261 I0.7329 J2.0901
G02 X153.9511 Y15.3606 Z-1.5875 I5.3228 J2.6259
G02 X153.9458 Y15.9646 I5.9248 J0.3532 F2540
G02 X155.2024 Y18.4856 I3.7344 J-0.2877
G02 X156.5524 Y19.5468 I3.6354 J-3.2357
G02 X158.5315 Y19.7807 I1.4335 J-3.6398
G02 X160.6566 Y18.3073 I-0.3804 J-2.8181
G02 X161.3763 Y16.3371 I-6.8927 J-3.6342
G02 X161.5655 Y15.2156 I-5.2744 J-1.4664
G02 X160.6934 Y13.4699 I-4.9751 J1.3948
G02 X159.1538 Y11.8712 I-4.9113 J3.1890
G02 X155.9134 Y11.7215 I-1.7881 J3.5605
G02 X154.5530 Y13.0879 Z-2.3136 I0.7329 J2.0901 F300
G02 X153.9991 Y14.8824 Z-3.0000 I5.3228 J2.6259
G02 X153.9458 Y15.9646 I5.8768 J0.8315 F2540
G02 X155.2024 Y18.4856 I3.7344 J-0.2877
G02 X156.5524 Y19.5468 I3.6354 J-3.2357
G02 X158.5315 Y19.7807 I1.4335 J-3.6398
G02 X160.6566 Y18.3073 I-0.3804 J-2.8181
G02 X161.3763 Y16.3371 I-6.8927 J-3.6342
G02 X161.5655 Y15.2156 I-5.2744 J-1.4664
G02 X160.6934 Y13.4699 I-4.9751 J1.3948
G02 X159.1538 Y11.8712 I-4.9113 J3.1890
G02 X155.9134 Y11.7215 I-1.7881 J3.5605
G02 X154.5530 Y13.0879 I0.7329 J2.0901
G02 X153.9991 Y14.8824 I5.3228 J2.6259
G00 Z5.0000

(No. 21 Hole machining: Hole 24)
G00 X163.2927 Y22.3057 Z5.0000
G00 Z0.5000
G01 Z0.0000 F300
G02 X164.5644 Y24.6288 Z-0.9760 I4.7903 J-1.1128
G02 X165.9866 Y25.5069 Z-1.5875 I3.1676 J-3.5395
G02 X167.3941 Y25.8271 I1.7454 J-4.4176 F2540
G02 X170.0608 Y25.8387 I1.3711 J-8.6613
G02 X171.8094 Y24.8918 I-0.5510 J-3.1055
G02 X173.8136 Y20.5861 I-4.4588 J-4.6947
G02 X170.9943 Y15.7242 I-5.1938 J-0.2366
G02 X166.4043 Y15.4286 I-2.6095 J4.7354
G01 X166.2986 Y15.4754
G01 X166.2026 Y15.5200
G02 X166.1937 Y15.9165 I6.2251 J0.3393
G01 X166.1917 Y15.9588
G03 X165.4654 Y18.9518 I-9.3776 J-0.6910
G03 X164.2254 Y21.3661 I-11.0544 J-4.1519
G01 X164.1912 Y21.4115
G03 X163.3073 Y22.2969 I-2.6813 J-1.7926
G01 X163.2927 Y22.3057
G02 X164.5644 Y24.6288 Z-2.5635 I4.7903 J-1.1128 F300
G02 X165.5491 Y25.3079 Z-3.0000 I3.1676 J-3.5395
G02 X167.3941 Y25.8271 I2.1829 J-4.2186 F2540
G02 X170.0608 Y25.8387 I1.3711 J-8.6613
G02 X171.8094 Y24.8918 I-0.5510 J-3.1055
G02 X173.8136 Y20.5861 I-4.4588 J-4.6947
G02 X170.9943 Y15.7242 I-5.1938 J-0.2366
G02 X166.4043 Y15.4286 I-2.6095 J4.7354
G01 X166.2986 Y15.4754
G01 X166.2026 Y15.5200
G02 X166.1937 Y15.9165 I6.2251 J0.3393
G01 X166.1917 Y15.9588
G03 X165.4654 Y18.9518 I-9.3776 J-0.6910
G03 X164.2254 Y21.3661 I-11.0544 J-4.1519
G01 X164.1912 Y21.4115
G03 X163.3073 Y22.2969 I-2.6813 J-1.7926
G01 X163.2927 Y22.3057
G02 X164.5644 Y24.6288 I4.7903 J-1.1128
G02 X165.5491 Y25.3079 I3.1676 J-3.5395
G00 Z5.0000

(No. 22 Hole machining: Hole 16)
G00 X143.9244 Y21.1811 Z5.0000
G00 Z0.5000
G01 Z0.0000 F300
G02 X143.5487 Y20.7469 Z-0.2095 I-2.0625 J1.4052
G02 X140.5808 Y19.3994 Z-1.4219 I-3.2700 J3.2600
G02 X140.1281 Y19.4422 Z-1.5875 I0.2502 J5.0560
G02 X137.8398 Y20.3715 I0.7029 J5.0131 F2540
G02 X136.3034 Y23.7923 I2.7940 J3.3103
G02 X137.7100 Y27.0395 I4.2416 J0.0909
G01 X137.7926 Y26.8503
G03 X143.9244 Y21.1811 I8.3463 J2.8766
G02 X143.5487 Y20.7469 Z-1.7970 I-2.0625 J1.4052 F300
G02 X140.6066 Y19.4011 Z-3.0000 I-3.2700 J3.2600
G02 X140.5808 Y19.3994 I-0.3279 J4.6057 F2540
G02 X137.8398 Y20.3715 I0.2502 J5.0560
G02 X136.3034 Y23.7923 I2.7940 J3.3103
G02 X137.7100 Y27.0395 I4.2416 J0.0909
G01 X137.7926 Y26.8503
G03 X143.9244 Y21.1811 I8.3463 J2.8766
G02 X143.5487 Y20.7469 I-2.0625 J1.4052
G02 X140.6066 Y19.4011 I-3.2700 J3.2600
G00 Z5.0000

(No. 23 Hole machining: Hole 20)
G00 X131.2468 Y25.2601 Z5.0000
G00 Z0.5000
G01 Z0.0000 F300
G01 X131.1819 Y25.1751 Z-0.0389
G02 X128.2188 Y26.5443 Z-1.2585 I0.1586 J4.2342
G02 X127.6175 Y27.2173 Z-1.5875 I3.1399 J3.4105
G02 X126.7532 Y29.4249 I3.7412 J2.7375 F2540
G02 X128.9480 Y33.3529 I4.1070 J0.2825
G02 X130.8488 Y33.9995 I3.0931 J-5.9760
G02 X132.3312 Y34.1377 I1.1766 J-4.6013
G02 X133.2003 Y33.7647 I-0.2322 J-1.7401
G02 X135.3219 Y31.6317 I-5.5489 J-7.6408
G01 X135.3099 Y31.6499
G01 X135.4249 Y31.4757
G01 X135.3011 Y31.3898
G01 X135.1147 Y31.2652
G01 X135.0827 Y31.2420
G03 X132.9198 Y28.9111 I5.3269 J-7.1119
G03 X131.3183 Y25.5740 I9.4018 J-6.5648
G01 X131.3054 Y25.5174
G01 X131.2468 Y25.2601
G01 X131.1819 Y25.1751 Z-1.6264 F300
G02 X128.2188 Y26.5443 Z-2.8460 I0.1586 J4.2342
G02 X127.9210 Y26.8446 Z-3.0000 I3.1399 J3.4105
G02 X126.7532 Y29.4249 I3.4377 J3.1101 F2540
G02 X128.9480 Y33.3529 I4.1070 J0.2825
G02 X130.8488 Y33.9995 I3.0931 J-5.9760
G02 X132.3312 Y34.1377 I1.1766 J-4.6013
G02 X133.2003 Y33.7647 I-0.2322 J-1.7401
G02 X135.3219 Y31.6317 I-5.5489 J-7.6408
G01 X135.3099 Y31.6499
G01 X135.4249 Y31.4757
G01 X135.3011 Y31.3898
G01 X135.1147 Y31.2652
G01 X135.0827 Y31.2420
G03 X132.9198 Y28.9111 I5.3269 J-7.1119
G03 X131.3183 Y25.5740 I9.4018 J-6.5648
G01 X131.3054 Y25.5174
G01 X131.2468 Y25.2601
G01 X131.1819 Y25.1751
G02 X128.2188 Y26.5443 I0.1586 J4.2342
G02 X127.9210 Y26.8446 I3.1399 J3.4105
G00 Z5.0000

(No. 24 Part machining: Part 1)
G00 X124.1850 Y23.4601 Z5.0000
G00 Z0.5000
G01 Z0.0000 F300
G03 X127.7177 Y20.9599 Z-1.5875 I7.4812 J6.8248
G03 X130.8035 Y20.1952 I3.9485 J9.3250 F2540
G01 X131.3024 Y20.1770
G02 X131.9559 Y20.1606 I0.0671 J-10.3170
G01 X132.0045 Y20.0456
G01 X132.0093 Y20.0342
G03 X133.4328 Y17.6131 I10.9438 J4.8056
G01 X133.7113 Y17.3010
G01 X133.8813 Y17.1339
G01 X133.9243 Y17.0916
G03 X136.9073 Y15.2514 I7.5414 J8.8868
G03 X139.9445 Y14.3912 I4.1527 J8.8704
G01 X139.9607 Y14.3158
G01 X139.9656 Y14.2929
G03 X140.5379 Y12.5089 I10.8309 J2.4909
G01 X140.8791 Y11.7895
G01 X141.1714 Y11.2730
G01 X141.2478 Y11.1496
G01 X141.5757 Y10.6639
G01 X141.6608 Y10.5479
G01 X142.0219 Y10.0940
G01 X142.1150 Y9.9858
G01 X142.5067 Y9.5647
G01 X142.6070 Y9.4648
G01 X143.0269 Y9.0775
G01 X143.1337 Y8.9863
G01 X143.5794 Y8.6338
G01 X143.6921 Y8.5514
G01 X144.1611 Y8.2348
G01 X144.2791 Y8.1614
G01 X144.7690 Y7.8817
G01 X144.8920 Y7.8175
G01 X145.4002 Y7.5758
G01 X145.5278 Y7.5208
G01 X146.0519 Y7.3181
G01 X146.1838 Y7.2728
G01 X146.7213 Y7.1102
G01 X146.8571 Y7.0746
G03 X148.9521 Y6.7944 I2.2503 J8.8526
G03 X151.8005 Y7.2090 I0.1535 J8.9388
G01 X152.3577 Y7.4056
G01 X152.3952 Y7.4189
G02 X153.0442 Y7.6559 I2.3688 J-5.4774
G01 X153.0955 Y7.6687
G02 X153.1477 Y7.6661 I0.0233 J-0.0577
G01 X153.1315 Y7.6702
G02 X153.7377 Y7.4016 I-1.6653 J-4.5763
G03 X155.1409 Y6.8022 I4.2176 J7.9315
G03 X162.2886 Y8.0320 I2.4092 J7.3840
G01 X162.7254 Y8.3751
G01 X162.8283 Y8.4621
G01 X163.2502 Y8.8458
G01 X163.2983 Y8.8897
G03 X164.6986 Y10.5637 I-7.8926 J8.0246
G01 X164.8034 Y10.7122
G01 X164.8275 Y10.7021
G01 X164.8620 Y10.6879
G01 X165.4279 Y10.4810
G01 X165.8466 Y10.3577
G01 X165.9081 Y10.3396
G03 X172.6607 Y11.0059 I2.3882 J10.3461
G03 X176.4353 Y13.8352 I-3.6947 J8.8616
G03 X178.8502 Y20.0783 I-9.4361 J7.2386
G03 X178.2798 Y23.6677 I-10.0966 J0.2356
G03 X176.4316 Y27.2029 I-10.4394 J-3.2068
G01 X176.1294 Y27.5338
G01 X176.1045 Y27.5578
G02 X176.4281 Y28.2077 I16.4858 J-7.8039
G03 X177.3223 Y32.6448 I-7.7732 J3.8751
G01 X177.4246 Y32.6207
G03 X180.8655 Y32.6721 I1.5940 J8.4804
G01 X181.0283 Y32.7086
G01 X181.6909 Y32.8897
G01 X181.8452 Y32.9393
G01 X182.4918 Y33.1800
G01 X182.6375 Y33.2416
G01 X183.2637 Y33.5390
G01 X183.4011 Y33.6116
G01 X184.0025 Y33.9629
G01 X184.1319 Y34.0460
G01 X184.7039 Y34.4484
G01 X184.8254 Y34.5417
G01 X185.3636 Y34.9923
G01 X185.4773 Y35.0959
G01 X185.9773 Y35.5919
G01 X186.0829 Y35.7060
G01 X186.5403 Y36.2445
G01 X186.6372 Y36.3694
G01 X187.0475 Y36.9476
G01 X187.1349 Y37.0833
G01 X187.4935 Y37.6983
G01 X187.5702 Y37.8448
G01 X187.8729 Y38.4939
G01 X187.9372 Y38.6509
G01 X188.1794 Y39.3312
G01 X188.2297 Y39.4975
G01 X188.4070 Y40.2063
G01 X188.4414 Y40.3803
G01 X188.5494 Y41.1149
G03 X188.3048 Y44.2162 I-8.5836 J0.8834
G01 X188.2659 Y44.3608
G01 X188.0805 Y44.9522
G01 X188.0319 Y45.0882
G01 X187.7999 Y45.6654
G01 X187.7428 Y45.7933
G01 X187.4669 Y46.3531
G01 X187.4020 Y46.4734
G01 X187.0851 Y47.0124
G01 X187.0128 Y47.1259
G01 X186.6578 Y47.6409
G01 X186.5782 Y47.7480
G01 X186.1877 Y48.2357
G01 X186.1006 Y48.3368
G01 X185.6777 Y48.7939
G01 X185.5826 Y48.8895
G01 X185.1300 Y49.3128
G01 X185.0262 Y49.4028
G01 X184.5468 Y49.7888
G01 X184.4337 Y49.8730
G01 X183.9302 Y50.2186
G01 X183.8067 Y50.2964
G03 X182.8218 Y50.8216 I-3.9962 J-6.3088
G03 X182.6862 Y55.4610 I-3.3626 J2.2234
G01 X182.5823 Y55.6132
G01 X182.6629 Y55.6490
G01 X182.7032 Y55.6668
G03 X185.3818 Y57.5706 I-3.0349 J7.1061
G03 X186.2738 Y60.9880 I-2.6816 J2.5251
G03 X185.6497 Y62.2698 I-3.8399 J-1.0767
G01 X185.6271 Y62.3031
G01 X185.5235 Y62.4440
G01 X185.5143 Y62.4649
G02 X185.7633 Y62.7695 I4.4139 J-3.3526
G03 X186.6303 Y66.0708 I-2.5652 J2.4382
G02 X186.5497 Y66.4573 I324.8041 J67.9147
G01 X186.5277 Y66.5631
G02 X186.4357 Y67.0067 I655.2059 J136.0507
G02 X186.3429 Y67.4562 I544.6665 J112.7256
G02 X186.1917 Y68.3413 I4.2107 J1.1746
G02 X186.3760 Y68.8914 I0.9781 J-0.0216
G03 X187.1794 Y71.0331 I-3.7061 J2.6118
G03 X185.2761 Y73.8961 I-2.7843 J0.2132
G03 X183.8231 Y74.1980 I-1.7897 J-4.9649
G01 X183.7582 Y74.2044
G03 X180.0821 Y73.7850 I-0.3073 J-13.6269
G03 X177.6298 Y72.8050 I1.7258 J-7.8763
G01 X177.4641 Y72.6850
G01 X177.2383 Y72.4867
G03 X177.1289 Y72.3747 I1.9213 J-1.9883
G02 X176.8724 Y72.2288 I-0.5141 J0.6051
G01 X176.7133 Y72.2218
G01 X176.6482 Y72.2190
G03 X174.7622 Y71.7573 I0.8180 J-7.4246
G01 X174.6761 Y71.7265
G01 X174.6793 Y71.7426
G01 X174.6870 Y71.7822
G03 X174.8241 Y73.9067 I-9.5197 J1.6808
G01 X174.8194 Y73.9690
G03 X173.1154 Y77.1570 I-4.7696 J-0.4999
G03 X171.9797 Y77.6480 I-1.5333 J-1.9878
G01 X171.9570 Y77.6509
G01 X171.9279 Y77.6678
G01 X171.9393 Y77.6611
G02 X171.2594 Y78.2935 I1.6249 J2.4285
G01 X171.2113 Y78.4693
G01 X171.2051 Y78.4962
G01 X171.1662 Y78.6379
G01 X171.1575 Y78.6652
G01 X171.1108 Y78.7952
G01 X171.0996 Y78.8229
G03 X169.6298 Y80.2362 I-2.4020 J-1.0270
G01 X169.6148 Y80.2419
G02 X168.9757 Y80.7542 I4.1657 J5.8509
G02 X167.4358 Y82.2474 I15.8892 J17.9269
G03 X164.9496 Y84.4732 I-12.1033 J-11.0180
G01 X164.7946 Y84.5707
G01 X164.5636 Y84.6946
G01 X164.5077 Y84.7209
G01 X164.3271 Y84.7938
G01 X164.2837 Y84.8086
G01 X164.1542 Y84.8623
G03 X161.5853 Y86.3491 I-2.5225 J-1.3955
G01 X161.3233 Y86.3149
G01 X161.2676 Y86.3032
G01 X160.9724 Y86.2124
G01 X160.9237 Y86.1924
G01 X160.6112 Y86.0236
G01 X160.5699 Y85.9953
G01 X160.2768 Y85.7394
G01 X160.2431 Y85.7023
G01 X160.0136 Y85.3793
G01 X159.9879 Y85.3322
G01 X159.8844 Y85.1082
G02 X159.7561 Y85.0444 I-0.8782 J1.6050
G03 X158.0729 Y83.2486 I1.3531 J-2.9550
G01 X158.0593 Y83.2075
G01 X158.0092 Y83.1591
G03 X155.5927 Y81.3303 I1.0276 J-3.8688
G02 X155.1681 Y81.0014 I-0.7270 J0.4999
G03 X154.0005 Y80.5412 I0.5042 J-2.9910
G03 X153.0652 Y79.3328 I1.4574 J-2.0942
G03 X152.7141 Y77.7999 I7.0102 J-2.4122
G01 X152.4862 Y77.8312
G01 X150.7047 Y78.0762
G03 X148.9149 Y76.2932 I-0.2163 J-1.5727
G01 X149.1497 Y74.5361
G03 X149.4936 Y72.7514 I13.7185 J1.7177
G01 X149.1345 Y72.9442
G01 X149.1072 Y72.9588
G03 X145.4174 Y74.3226 I-6.4560 J-11.7939
G01 X144.8981 Y74.3861
G01 X144.8309 Y74.3895
G01 X144.8277 Y74.4025
G01 X144.8130 Y94.2722
G01 X144.8107 Y96.0355
G01 X144.8064 Y97.7786
G01 X144.8002 Y99.4949
G01 X144.7922 Y101.1780
G01 X144.7825 Y102.8215
G01 X144.7712 Y104.4192
G01 X144.7583 Y105.9648
G03 X144.5103 Y118.2123 I-324.4956 J-0.4450
G03 X142.1148 Y125.5106 I-17.8280 J-1.8093
G03 X134.3831 Y133.7234 I-22.0276 J-12.9914
G03 X131.0079 Y135.6987 I-16.0308 J-23.5207
G02 X128.0659 Y137.2732 I31.2383 J61.9058
G02 X127.8669 Y143.4178 I86.5922 J5.8795
G02 X127.8166 Y151.6431 I921.5412 J9.7490
G01 X127.8125 Y153.7636
G01 X127.8101 Y156.0556
G01 X127.8093 Y158.5250
G01 Y179.7279
G01 X128.5844 Y180.4589
G03 X130.2007 Y182.8364 I-3.6023 J4.1872
G03 X129.5062 Y186.1238 I-3.5455 J0.9680
G03 X128.4061 Y187.3185 I-6.6229 J-4.9942
G02 X127.9577 Y187.7880 I2.1762 J2.5273
G02 X127.8920 Y187.9519 I0.3135 J0.2207
G02 X127.8109 Y189.4723 I9.2468 J1.2561
G01 X127.8096 Y189.8620
G01 X127.8093 Y190.2986
G01 Y193.4005
G03 X126.2218 Y194.9880 I-1.5875 J0.0000
G01 X112.4613
G03 X110.8738 Y193.4005 I0.0000 J-1.5875
G01 Y190.2986
G02 X110.8087 Y188.0464 I-18.0207 J-0.6058
G02 X110.7640 Y187.8569 I-0.8312 J0.0960
G02 X110.6889 Y187.7401 I-0.3746 J0.1585
G02 X110.0978 Y187.1489 I-6.0474 J5.4547
G03 X108.4825 Y184.7723 I3.6025 J-4.1858
G03 X109.1771 Y181.4849 I3.5455 J-0.9680
G03 X110.0988 Y180.4589 I6.2031 J4.6457
G01 X110.8738 Y179.7279
G01 Y157.9816
G01 X110.8733 Y155.1859
G01 X110.8714 Y152.6264
G01 X110.8679 Y150.2929
G01 X110.8626 Y148.1750
G02 X110.7275 Y137.7906 I-308.4801 J-1.1789
G02 X110.6255 Y136.2863 I-20.6440 J0.6443
G01 X110.6012 Y136.1361
G02 X108.4699 Y135.0325 I-15.4020 J27.1356
G03 X104.6860 Y132.9475 I16.1898 J-33.8587
G01 X104.6769 Y132.9701
G03 X103.8047 Y134.7591 I-11.9408 J-4.7141
G01 X103.2871 Y135.5823
G03 X101.9432 Y136.3247 I-1.3439 J-0.8451
G01 X83.3466
G01 X81.1236 Y136.3240
G01 X79.0756 Y136.3219
G01 X77.1958 Y136.3181
G03 X66.6624 Y136.1774 I-1.6389 J-271.7429
G03 X64.2832 Y135.9281 I0.0978 J-12.4093
G03 X63.4073 Y135.5271 I0.5288 J-2.3123
G01 X63.3481 Y135.4796
G03 X62.7068 Y134.6355 I2.1258 J-2.2805
G01 X62.6790 Y134.5876
G03 X61.1682 Y130.7534 I23.9786 J-11.6632
G03 X58.4228 Y112.6727 I49.7430 J-16.8018
G03 X61.7935 Y94.6830 I54.0712 J0.8205
G03 X66.7429 Y85.5049 I34.6759 J12.7761
G01 X68.0272 Y83.9210
G01 X69.2526 Y82.6079
G01 X69.2809 Y82.5776
G03 X72.5173 Y79.5486 I34.4667 J33.5826
G03 X76.6665 Y77.0268 I11.9938 J15.0600
G03 X78.4074 Y76.2246 I20.8839 J43.0285
G02 X79.3916 Y75.6844 I-1.2466 J-3.4376
G02 X79.8023 Y75.0542 I-0.9945 J-1.0970
G02 X80.1989 Y73.0103 I-9.0003 J-2.8068
G02 X80.4381 Y66.9445 I-71.0549 J-5.8404
G02 X80.4576 Y59.2340 I-795.9756 J-5.8656
G01 X80.4535 Y55.9431
G01 X80.4506 Y52.2533
G01 X80.4495 Y48.9502
G01 X80.4469 Y45.9715
G02 X80.3360 Y33.8816 I-395.4816 J-2.4178
G02 X80.0946 Y30.0380 I-43.2062 J0.7845
G02 X79.7097 Y28.3160 I-6.8510 J0.6274
G02 X79.0929 Y27.2147 I-5.5683 J2.3950
G02 X78.7162 Y26.8570 I-1.3987 J1.0956
G02 X74.7915 Y24.7403 I-10.3139 J14.4266
G02 X70.9472 Y23.7645 I-5.2856 J12.7631
G02 X67.1994 Y23.4186 I-5.7067 J41.3522
G03 X64.3070 Y23.1556 I0.6916 J-23.6449
G03 X63.3652 Y22.8081 I0.5107 J-2.8343
G01 X63.2946 Y22.7637
G01 X63.0484 Y22.5757
G01 X62.9959 Y22.5274
G01 X62.7654 Y22.2666
G01 X62.7275 Y22.2134
G01 X62.5592 Y21.9189
G01 X62.5327 Y21.8595
G01 X62.4388 Y21.5895
G03 X62.3539 Y21.0076 I2.5279 J-0.6660
G01 X62.3517 Y20.9648
G01 X62.3500 Y20.8052
G01 Y19.9456
G03 X63.9375 Y18.3581 I1.5875 J0.0000
G01 X103.0463
G03 X104.6338 Y19.9456 I0.0000 J1.5875
G01 Y20.8053
G03 X104.5443 Y21.5910 I-2.7562 J0.0841
G01 X104.4502 Y21.8606
G01 X104.4237 Y21.9201
G01 X104.2555 Y22.2140
G01 X104.2174 Y22.2672
G01 X103.9878 Y22.5271
G01 X103.9351 Y22.5756
G03 X102.7314 Y23.1438 I-1.6867 J-2.0141
G01 X102.6793 Y23.1563
G03 X99.2492 Y23.4574 I-4.4585 J-31.1011
G02 X93.5013 Y24.2155 I1.9759 J37.1492
G02 X88.1423 Y26.6702 I5.0191 J18.0350
G02 X87.5292 Y27.2139 I1.1921 J1.9616
G02 X86.6127 Y29.4534 I3.8674 J2.8900
G02 X86.2856 Y33.8816 I36.7580 J4.9415
G02 X86.1710 Y52.2528 I753.6108 J13.8877
G01 X86.1708 Y55.1045
G01 X86.1719 Y57.7034
G01 X86.1745 Y60.0619
G01 X86.1791 Y62.1922
G02 X86.3215 Y72.4784 I267.7967 J1.4364
G02 X86.5219 Y74.5220 I11.9688 J-0.1423
G02 X87.3470 Y75.6532 I1.7130 J-0.3829
G02 X89.8422 Y76.9720 I11.6608 J-19.0438
G03 X93.0376 Y78.6590 I-13.0004 J28.4927
G01 X93.2858 Y78.8680
G01 X93.2969 Y78.8791
G01 X93.3793 Y78.9682
G01 X93.4003 Y78.9871
G02 X93.7836 Y79.3207 I8.2324 J-9.0744
G01 X93.8559 Y79.3822
G01 X93.8671 Y57.5550
G01 Y57.5448
G01 X93.8693 Y54.7858
G01 X93.8731 Y52.2123
G01 X93.8787 Y49.8193
G01 X93.8859 Y47.6013
G01 X93.8951 Y45.5531
G03 X94.0785 Y33.8549 I324.5931 J-0.7611
G03 X94.2475 Y31.7700 I20.3212 J0.5973
G01 X94.3753 Y31.2488
G03 X94.6566 Y30.6824 I2.5767 J0.9269
G01 X94.6703 Y30.6595
G03 X97.2372 Y27.6823 I9.7219 J5.7867
G03 X99.9269 Y26.3769 I6.0864 J9.1177
G03 X103.9809 Y25.7447 I4.5682 J15.9797
G03 X113.0844 Y25.6058 I7.2747 J178.2835
G01 X122.7019 Y25.6011
G03 X124.1850 Y23.4601 I8.1023 J4.0285
G03 X127.2796 Y21.1578 Z-3.0000 I7.4812 J6.8248 F300
G03 X130.8035 Y20.1952 I4.3866 J9.1271 F2540
G01 X131.3024 Y20.1770
G02 X131.9559 Y20.1606 I0.0671 J-10.3170
G01 X132.0045 Y20.0456
G01 X132.0093 Y20.0342
G03 X133.4328 Y17.6131 I10.9438 J4.8056
G01 X133.7113 Y17.3010
G01 X133.8813 Y17.1339
G01 X133.9243 Y17.0916
G03 X136.9073 Y15.2514 I7.5414 J8.8868
G03 X139.9445 Y14.3912 I4.1527 J8.8704
G01 X139.9607 Y14.3158
G01 X139.9656 Y14.2929
G03 X140.5379 Y12.5089 I10.8309 J2.4909
G01 X140.8791 Y11.7895
G01 X141.1714 Y11.2730
G01 X141.2478 Y11.1496
G01 X141.5757 Y10.6639
G01 X141.6608 Y10.5479
G01 X142.0219 Y10.0940
G01 X142.1150 Y9.9858
G01 X142.5067 Y9.5647
G01 X142.6070 Y9.4648
G01 X143.0269 Y9.0775
G01 X143.1337 Y8.9863
G01 X143.5794 Y8.6338
G01 X143.6921 Y8.5514
G01 X144.1611 Y8.2348
G01 X144.2791 Y8.1614
G01 X144.7690 Y7.8817
G01 X144.8920 Y7.8175
G01 X145.4002 Y7.5758
G01 X145.5278 Y7.5208
G01 X146.0519 Y7.3181
G01 X146.1838 Y7.2728
G01 X146.7213 Y7.1102
G01 X146.8571 Y7.0746
G03 X148.9521 Y6.7944 I2.2503 J8.8526
G03 X151.8005 Y7.2090 I0.1535 J8.9388
G01 X152.3577 Y7.4056
G01 X152.3952 Y7.4189
G02 X153.0442 Y7.6559 I2.3688 J-5.4774
G01 X153.0955 Y7.6687
G02 X153.1477 Y7.6661 I0.0233 J-0.0577
G01 X153.1315 Y7.6702
G02 X153.7377 Y7.4016 I-1.6653 J-4.5763
G03 X155.1409 Y6.8022 I4.2176 J7.9315
G03 X162.2886 Y8.0320 I2.4092 J7.3840
G01 X162.7254 Y8.3751
G01 X162.8283 Y8.4621
G01 X163.2502 Y8.8458
G01 X163.2983 Y8.8897
G03 X164.6986 Y10.5637 I-7.8926 J8.0246
G01 X164.8034 Y10.7122
G01 X164.8275 Y10.7021
G01 X164.8620 Y10.6879
G01 X165.4279 Y10.4810
G01 X165.8466 Y10.3577
G01 X165.9081 Y10.3396
G03 X172.6607 Y11.0059 I2.3882 J10.3461
G03 X176.4353 Y13.8352 I-3.6947 J8.8616
G03 X178.8502 Y20.0783 I-9.4361 J7.2386
G03 X178.2798 Y23.6677 I-10.0966 J0.2356
G03 X176.4316 Y27.2029 I-10.4394 J-3.2068
G01 X176.1294 Y27.5338
G01 X176.1045 Y27.5578
G02 X176.4281 Y28.2077 I16.4858 J-7.8039
G03 X177.3223 Y32.6448 I-7.7732 J3.8751
G01 X177.4246 Y32.6207
G03 X180.8655 Y32.6721 I1.5940 J8.4804
G01 X181.0283 Y32.7086
G01 X181.6909 Y32.8897
G01 X181.8452 Y32.9393
G01 X182.4918 Y33.1800
G01 X182.6375 Y33.2416
G01 X183.2637 Y33.5390
G01 X183.4011 Y33.6116
G01 X184.0025 Y33.9629
G01 X184.1319 Y34.0460
G01 X184.7039 Y34.4484
G01 X184.8254 Y34.5417
G01 X185.3636 Y34.9923
G01 X185.4773 Y35.0959
G01 X185.9773 Y35.5919
G01 X186.0829 Y35.7060
G01 X186.5403 Y36.2445
G01 X186.6372 Y36.3694
G01 X187.0475 Y36.9476
G01 X187.1349 Y37.0833
G01 X187.4935 Y37.6983
G01 X187.5702 Y37.8448
G01 X187.8729 Y38.4939
G01 X187.9372 Y38.6509
G01 X188.1794 Y39.3312
G01 X188.2297 Y39.4975
G01 X188.4070 Y40.2063
G01 X188.4414 Y40.3803
G01 X188.5494 Y41.1149
G03 X188.3048 Y44.2162 I-8.5836 J0.8834
G01 X188.2659 Y44.3608
G01 X188.0805 Y44.9522
G01 X188.0319 Y45.0882
G01 X187.7999 Y45.6654
G01 X187.7428 Y45.7933
G01 X187.4669 Y46.3531
G01 X187.4020 Y46.4734
G01 X187.0851 Y47.0124
G01 X187.0128 Y47.1259
G01 X186.6578 Y47.6409
G01 X186.5782 Y47.7480
G01 X186.1877 Y48.2357
G01 X186.1006 Y48.3368
G01 X185.6777 Y48.7939
G01 X185.5826 Y48.8895
G01 X185.1300 Y49.3128
G01 X185.0262 Y49.4028
G01 X184.5468 Y49.7888
G01 X184.4337 Y49.8730
G01 X183.9302 Y50.2186
G01 X183.8067 Y50.2964
G03 X182.8218 Y50.8216 I-3.9962 J-6.3088
G03 X182.6862 Y55.4610 I-3.3626 J2.2234
G01 X182.5823 Y55.6132
G01 X182.6629 Y55.6490
G01 X182.7032 Y55.6668
G03 X185.3818 Y57.5706 I-3.0349 J7.1061
G03 X186.2738 Y60.9880 I-2.6816 J2.5251
G03 X185.6497 Y62.2698 I-3.8399 J-1.0767
G01 X185.6271 Y62.3031
G01 X185.5235 Y62.4440
G01 X185.5143 Y62.4649
G02 X185.7633 Y62.7695 I4.4139 J-3.3526
G03 X186.6303 Y66.0708 I-2.5652 J2.4382
G02 X186.5497 Y66.4573 I324.8041 J67.9147
G01 X186.5277 Y66.5631
G02 X186.4357 Y67.0067 I655.2059 J136.0507
G02 X186.3429 Y67.4562 I544.6665 J112.7256
G02 X186.1917 Y68.3413 I4.2107 J1.1746
G02 X186.3760 Y68.8914 I0.9781 J-0.0216
G03 X187.1794 Y71.0331 I-3.7061 J2.6118
G03 X185.2761 Y73.8961 I-2.7843 J0.2132
G03 X183.8231 Y74.1980 I-1.7897 J-4.9649
G01 X183.7582 Y74.2044
G03 X180.0821 Y73.7850 I-0.3073 J-13.6269
G03 X177.6298 Y72.8050 I1.7258 J-7.8763
G01 X177.4641 Y72.6850
G01 X177.2383 Y72.4867
G03 X177.1289 Y72.3747 I1.9213 J-1.9883
G02 X176.8724 Y72.2288 I-0.5141 J0.6051
G01 X176.7133 Y72.2218
G01 X176.6482 Y72.2190
G03 X174.7622 Y71.7573 I0.8180 J-7.4246
G01 X174.6761 Y71.7265
G01 X174.6793 Y71.7426
G01 X174.6870 Y71.7822
G03 X174.8241 Y73.9067 I-9.5197 J1.6808
G01 X174.8194 Y73.9690
G03 X173.1154 Y77.1570 I-4.7696 J-0.4999
G03 X171.9797 Y77.6480 I-1.5333 J-1.9878
G01 X171.9570 Y77.6509
G01 X171.9279 Y77.6678
G01 X171.9393 Y77.6611
G02 X171.2594 Y78.2935 I1.6249 J2.4285
G01 X171.2113 Y78.4693
G01 X171.2051 Y78.4962
G01 X171.1662 Y78.6379
G01 X171.1575 Y78.6652
G01 X171.1108 Y78.7952
G01 X171.0996 Y78.8229
G03 X169.6298 Y80.2362 I-2.4020 J-1.0270
G01 X169.6148 Y80.2419
G02 X168.9757 Y80.7542 I4.1657 J5.8509
G02 X167.4358 Y82.2474 I15.8892 J17.9269
G03 X164.9496 Y84.4732 I-12.1033 J-11.0180
G01 X164.7946 Y84.5707
G01 X164.5636 Y84.6946
G01 X164.5077 Y84.7209
G01 X164.3271 Y84.7938
G01 X164.2837 Y84.8086
G01 X164.1542 Y84.8623
G03 X161.5853 Y86.3491 I-2.5225 J-1.3955
G01 X161.3233 Y86.3149
G01 X161.2676 Y86.3032
G01 X160.9724 Y86.2124
G01 X160.9237 Y86.1924
G01 X160.6112 Y86.0236
G01 X160.5699 Y85.9953
G01 X160.2768 Y85.7394
G01 X160.2431 Y85.7023
G01 X160.0136 Y85.3793
G01 X159.9879 Y85.3322
G01 X159.8844 Y85.1082
G02 X159.7561 Y85.0444 I-0.8782 J1.6050
G03 X158.0729 Y83.2486 I1.3531 J-2.9550
G01 X158.0593 Y83.2075
G01 X158.0092 Y83.1591
G03 X155.5927 Y81.3303 I1.0276 J-3.8688
G02 X155.1681 Y81.0014 I-0.7270 J0.4999
G03 X154.0005 Y80.5412 I0.5042 J-2.9910
G03 X153.0652 Y79.3328 I1.4574 J-2.0942
G03 X152.7141 Y77.7999 I7.0102 J-2.4122
G01 X152.4862 Y77.8312
G01 X150.7047 Y78.0762
G03 X148.9149 Y76.2932 I-0.2163 J-1.5727
G01 X149.1497 Y74.5361
G03 X149.4936 Y72.7514 I13.7185 J1.7177
G01 X149.1345 Y72.9442
G01 X149.1072 Y72.9588
G03 X145.4174 Y74.3226 I-6.4560 J-11.7939
G01 X144.8981 Y74.3861
G01 X144.8309 Y74.3895
G01 X144.8277 Y74.4025
G01 X144.8130 Y94.2722
G01 X144.8107 Y96.0355
G01 X144.8064 Y97.7786
G01 X144.8002 Y99.4949
G01 X144.7922 Y101.1780
G01 X144.7825 Y102.8215
G01 X144.7712 Y104.4192
G01 X144.7583 Y105.9648
G03 X144.5103 Y118.2123 I-324.4956 J-0.4450
G03 X142.1148 Y125.5106 I-17.8280 J-1.8093
G03 X134.3831 Y133.7234 I-22.0276 J-12.9914
G03 X131.0079 Y135.6987 I-16.0308 J-23.5207
G02 X128.0659 Y137.2732 I31.2383 J61.9058
G02 X127.8669 Y143.4178 I86.5922 J5.8795
G02 X127.8166 Y151.6431 I921.5412 J9.7490
G01 X127.8125 Y153.7636
G01 X127.8101 Y156.0556
G01 X127.8093 Y158.5250
G01 Y179.7279
G01 X128.5844 Y180.4589
G03 X130.2007 Y182.8364 I-3.6023 J4.1872
G03 X129.5062 Y186.1238 I-3.5455 J0.9680
G03 X128.4061 Y187.3185 I-6.6229 J-4.9942
G02 X127.9577 Y187.7880 I2.1762 J2.5273
G02 X127.8920 Y187.9519 I0.3135 J0.2207
G02 X127.8109 Y189.4723 I9.2468 J1.2561
G01 X127.8096 Y189.8620
G01 X127.8093 Y190.2986
G01 Y193.4005
G03 X126.2218 Y194.9880 I-1.5875 J0.0000
G01 X112.4613
G03 X110.8738 Y193.4005 I0.0000 J-1.5875
G01 Y190.2986
G02 X110.8087 Y188.0464 I-18.0207 J-0.6058
G02 X110.7640 Y187.8569 I-0.8312 J0.0960
G02 X110.6889 Y187.7401 I-0.3746 J0.1585
G02 X110.0978 Y187.1489 I-6.0474 J5.4547
G03 X108.4825 Y184.7723 I3.6025 J-4.1858
G03 X109.1771 Y181.4849 I3.5455 J-0.9680
G03 X110.0988 Y180.4589 I6.2031 J4.6457
G01 X110.8738 Y179.7279
G01 Y157.9816
G01 X110.8733 Y155.1859
G01 X110.8714 Y152.6264
G01 X110.8679 Y150.2929
G01 X110.8626 Y148.1750
G02 X110.7275 Y137.7906 I-308.4801 J-1.1789
G02 X110.6255 Y136.2863 I-20.6440 J0.6443
G01 X110.6012 Y136.1361
G02 X108.4699 Y135.0325 I-15.4020 J27.1356
G03 X104.6860 Y132.9475 I16.1898 J-33.8587
G01 X104.6769 Y132.9701
G03 X103.8047 Y134.7591 I-11.9408 J-4.7141
G01 X103.2871 Y135.5823
G03 X101.9432 Y136.3247 I-1.3439 J-0.8451
G01 X83.3466
G01 X81.1236 Y136.3240
G01 X79.0756 Y136.3219
G01 X77.1958 Y136.3181
G03 X66.6624 Y136.1774 I-1.6389 J-271.7429
G03 X64.2832 Y135.9281 I0.0978 J-12.4093
G03 X63.4073 Y135.5271 I0.5288 J-2.3123
G01 X63.3481 Y135.4796
G03 X62.7068 Y134.6355 I2.1258 J-2.2805
G01 X62.6790 Y134.5876
G03 X61.1682 Y130.7534 I23.9786 J-11.6632
G03 X58.4228 Y112.6727 I49.7430 J-16.8018
G03 X61.7935 Y94.6830 I54.0712 J0.8205
G03 X66.7429 Y85.5049 I34.6759 J12.7761
G01 X68.0272 Y83.9210
G01 X69.2526 Y82.6079
G01 X69.2809 Y82.5776
G03 X72.5173 Y79.5486 I34.4667 J33.5826
G03 X76.6665 Y77.0268 I11.9938 J15.0600
G03 X78.4074 Y76.2246 I20.8839 J43.0285
G02 X79.3916 Y75.6844 I-1.2466 J-3.4376
G02 X79.8023 Y75.0542 I-0.9945 J-1.0970
G02 X80.1989 Y73.0103 I-9.0003 J-2.8068
G02 X80.4381 Y66.9445 I-71.0549 J-5.8404
G02 X80.4576 Y59.2340 I-795.9756 J-5.8656
G01 X80.4535 Y55.9431
G01 X80.4506 Y52.2533
G01 X80.4495 Y48.9502
G01 X80.4469 Y45.9715
G02 X80.3360 Y33.8816 I-395.4816 J-2.4178
G02 X80.0946 Y30.0380 I-43.2062 J0.7845
G02 X79.7097 Y28.3160 I-6.8510 J0.6274
G02 X79.0929 Y27.2147 I-5.5683 J2.3950
G02 X78.7162 Y26.8570 I-1.3987 J1.0956
G02 X74.7915 Y24.7403 I-10.3139 J14.4266
G02 X70.9472 Y23.7645 I-5.2856 J12.7631
G02 X67.1994 Y23.4186 I-5.7067 J41.3522
G03 X64.3070 Y23.1556 I0.6916 J-23.6449
G03 X63.3652 Y22.8081 I0.5107 J-2.8343
G01 X63.2946 Y22.7637
G01 X63.0484 Y22.5757
G01 X62.9959 Y22.5274
G01 X62.7654 Y22.2666
G01 X62.7275 Y22.2134
G01 X62.5592 Y21.9189
G01 X62.5327 Y21.8595
G01 X62.4388 Y21.5895
G03 X62.3539 Y21.0076 I2.5279 J-0.6660
G01 X62.3517 Y20.9648
G01 X62.3500 Y20.8052
G01 Y19.9456
G03 X63.9375 Y18.3581 I1.5875 J0.0000
G01 X103.0463
G03 X104.6338 Y19.9456 I0.0000 J1.5875
G01 Y20.8053
G03 X104.5443 Y21.5910 I-2.7562 J0.0841
G01 X104.4502 Y21.8606
G01 X104.4237 Y21.9201
G01 X104.2555 Y22.2140
G01 X104.2174 Y22.2672
G01 X103.9878 Y22.5271
G01 X103.9351 Y22.5756
G03 X102.7314 Y23.1438 I-1.6867 J-2.0141
G01 X102.6793 Y23.1563
G03 X99.2492 Y23.4574 I-4.4585 J-31.1011
G02 X93.5013 Y24.2155 I1.9759 J37.1492
G02 X88.1423 Y26.6702 I5.0191 J18.0350
G02 X87.5292 Y27.2139 I1.1921 J1.9616
G02 X86.6127 Y29.4534 I3.8674 J2.8900
G02 X86.2856 Y33.8816 I36.7580 J4.9415
G02 X86.1710 Y52.2528 I753.6108 J13.8877
G01 X86.1708 Y55.1045
G01 X86.1719 Y57.7034
G01 X86.1745 Y60.0619
G01 X86.1791 Y62.1922
G02 X86.3215 Y72.4784 I267.7967 J1.4364
G02 X86.5219 Y74.5220 I11.9688 J-0.1423
G02 X87.3470 Y75.6532 I1.7130 J-0.3829
G02 X89.8422 Y76.9720 I11.6608 J-19.0438
G03 X93.0376 Y78.6590 I-13.0004 J28.4927
G01 X93.2858 Y78.8680
G01 X93.2969 Y78.8791
G01 X93.3793 Y78.9682
G01 X93.4003 Y78.9871
G02 X93.7836 Y79.3207 I8.2324 J-9.0744
G01 X93.8559 Y79.3822
G01 X93.8671 Y57.5550
G01 Y57.5448
G01 X93.8693 Y54.7858
G01 X93.8731 Y52.2123
G01 X93.8787 Y49.8193
G01 X93.8859 Y47.6013
G01 X93.8951 Y45.5531
G03 X94.0785 Y33.8549 I324.5931 J-0.7611
G03 X94.2475 Y31.7700 I20.3212 J0.5973
G01 X94.3753 Y31.2488
G03 X94.6566 Y30.6824 I2.5767 J0.9269
G01 X94.6703 Y30.6595
G03 X97.2372 Y27.6823 I9.7219 J5.7867
G03 X99.9269 Y26.3769 I6.0864 J9.1177
G03 X103.9809 Y25.7447 I4.5682 J15.9797
G03 X113.0844 Y25.6058 I7.2747 J178.2835
G01 X122.7019 Y25.6011
G03 X124.1850 Y23.4601 I8.1023 J4.0285
G03 X127.2796 Y21.1578 I7.4812 J6.8248
G00 Z5.0000
G00 X0.0000 Y0.0000


M05
M30
